; generated by SuperSlicer 2.5.59 on 2023-05-11 at 03:18:32 UTC


;
;

;
;
; 

; external perimeters extrusion width = 0.40mm
; perimeters extrusion width = 0.46mm
; infill extrusion width = 0.64mm
; solid infill extrusion width = 0.56mm
; top infill extrusion width = 0.40mm
; support material extrusion width = 0.46mm
; first layer extrusion width = 0.50mm

; object:{"name":"LSI_HBA_Controller_Fan_Shroud-screw_holes","id":"LSI_HBA_Controller_Fan_Shroud-screw_holes.stl id:0 copy 0","object_center":[152.500000,150.000000,0.000000],"boundingbox_center":[152.500000,150.000000,21.250000],"boundingbox_size":[58.500000,61.000000,42.500000]}
EXCLUDE_OBJECT_DEFINE NAME=LSI_HBA_Controller_Fan_Shroud_screw_holes_stl_id_0_copy_0 CENTER=152.500000,150.000000 POLYGON=[[123.250000,119.500000],[153.500000,119.500000],[181.748000,121.500000],[181.750000,145.002000],[181.750000,173.500000],[165.750000,180.500000],[145.750000,180.500000],[129.750000,173.500000],[123.250000,126.000000],[123.250000,119.500000]]
; plater:{"center":[152.500000,150.000000,0.000000],"boundingbox_center":[152.500000,150.000000,21.250000],"boundingbox_size":[58.500000,61.000000,42.500000]}

M73 P0 R58
;TYPE:Custom
START_PRINT T_BED=70 T_EXTRUDER=235
M107
G21 ; set units to millimeters
G90 ; use absolute coordinates
M82 ; use absolute distances for extrusion
G92 E0
; Filament gcode
PRESSURE_ADVANCE_SELECT FILAMENT=PETG
;_TOOLCHANGE 0
M104 S235 ; set temperature
M109 S235 ; set temperature and wait for it to be reached
M190 S70 ; set bed temperature and wait for it to be reached
M107
;LAYER_CHANGE
;Z:0.2
;HEIGHT:0.2
G1 Z0.2 F9000
G1 E-1 F3000
M204 S1000
G1 X121.129 Y116.621 F9000
G1 E0 F1800
;TYPE:Skirt
;WIDTH:0.52
G1 X120.029 Y117.934 E0.06589
G1 X119.634 Y119.6 E0.13179
G1 X119.669 Y126.463 E0.39587
G1 X126.169 Y173.904 E2.23844
G1 X126.871 Y175.621 E2.30981
G1 X128.184 Y176.721 E2.3757
G1 X129.85 Y177.116 E2.44159
G1 X181.65 Y177.116 E4.43482
G1 X183.871 Y176.379 E4.52487
G1 X184.971 Y175.066 E4.59076
G1 X185.366 Y173.4 E4.65665
G1 X185.364 Y121.6 E6.64988
G1 X184.776 Y119.595 E6.73027
G1 X183.545 Y118.405 E6.79616
G1 X181.91 Y117.894 E6.86206
G1 X153.662 Y115.894 E7.95174
G1 X123.35 Y115.884 E9.11814
G1 X121.129 Y116.621 E9.20818
G1 X121.507 Y116.971 F9000
G1 F1800
G1 X120.505 Y118.052 E9.26488
G1 X120.111 Y119.6 E9.32634
G1 X120.141 Y126.398 E9.58793
G1 X126.641 Y173.84 E11.43049
G1 X127.131 Y175.159 E11.48464
G1 X128.302 Y176.245 E11.5461
G1 X129.85 Y176.639 E11.60756
G1 X181.65 Y176.639 E13.60078
G1 X183.409 Y176.119 E13.67136
G1 X184.495 Y174.948 E13.73282
G1 X184.889 Y173.4 E13.79427
G1 X184.887 Y121.6 E15.7875
M73 P0 R58
G1 X184.485 Y120.037 E15.84958
G1 X183.393 Y118.872 E15.91104
G1 X181.877 Y118.37 E15.97249
G1 X153.629 Y116.37 E17.06218
G1 X123.35 Y116.361 E18.22728
G1 X121.591 Y116.881 E18.29785
G1 X121.507 Y116.971 E18.30261
G92 E0
G1 E-1 F3000
; printing object LSI_HBA_Controller_Fan_Shroud-screw_holes.stl id:0 copy 0
EXCLUDE_OBJECT_START NAME=LSI_HBA_Controller_Fan_Shroud_screw_holes_stl_id_0_copy_0
G1 X173.826 Y166.357 F9000
G1 E0 F1800
;TYPE:Internal perimeter
;WIDTH:0.5
G1 X174.607 Y165.576 E0.04073
G1 X175.109 Y164.592 E0.08145
G1 X175.283 Y163.5 E0.12222
G1 X175.109 Y162.408 E0.16299
G1 X174.607 Y161.424 E0.20372
G1 X173.823 Y160.639 E0.24461
G1 X173.06 Y160.258 E0.27606
G1 X177.014 Y156.308 E0.48211
G1 X177.014 Y138.692 E1.13155
G1 X173.06 Y134.742 E1.3376
G1 X173.823 Y134.361 E1.36905
G1 X174.607 Y133.576 E1.40994
G1 X175.109 Y132.592 E1.45067
G1 X175.283 Y131.5 E1.49144
G1 X175.109 Y130.408 E1.53221
G1 X174.607 Y129.424 E1.57293
G1 X173.826 Y128.643 E1.61366
G1 X172.842 Y128.141 E1.65438
G1 X171.75 Y127.967 E1.69515
G1 X170.658 Y128.141 E1.73593
G1 X169.674 Y128.643 E1.77665
G1 X168.889 Y129.427 E1.81755
G1 X168.508 Y130.19 E1.84899
G1 X164.558 Y126.236 E2.05505
G1 X146.942 Y126.236 E2.70448
G1 X142.992 Y130.19 E2.91053
G1 X142.611 Y129.427 E2.94198
G1 X141.826 Y128.643 E2.98287
G1 X140.842 Y128.141 E3.0236
G1 X139.75 Y127.967 E3.06437
G1 X138.658 Y128.141 E3.10514
G1 X137.674 Y128.643 E3.14587
G1 X136.893 Y129.424 E3.18659
G1 X136.391 Y130.408 E3.22731
G1 X136.217 Y131.5 E3.26809
G1 X136.391 Y132.592 E3.30886
G1 X136.893 Y133.576 E3.34958
G1 X137.677 Y134.361 E3.39048
G1 X138.44 Y134.742 E3.42193
G1 X134.486 Y138.692 E3.62798
G1 X134.486 Y156.308 E4.27741
G1 X138.44 Y160.258 E4.48347
M73 P1 R57
G1 X137.677 Y160.639 E4.51491
G1 X136.893 Y161.424 E4.55581
G1 X136.391 Y162.408 E4.59653
G1 X136.217 Y163.5 E4.63731
G1 X136.391 Y164.592 E4.67808
G1 X136.893 Y165.576 E4.7188
G1 X137.674 Y166.357 E4.75953
G1 X138.658 Y166.859 E4.80025
G1 X139.75 Y167.033 E4.84102
G1 X140.842 Y166.859 E4.88179
G1 X141.826 Y166.357 E4.92252
G1 X142.611 Y165.573 E4.96341
G1 X142.992 Y164.81 E4.99486
G1 X146.942 Y168.764 E5.20091
G1 X164.558 Y168.764 E5.85035
G1 X168.508 Y164.81 E6.0564
G1 X168.889 Y165.573 E6.08784
G1 X169.674 Y166.357 E6.12874
G1 X170.658 Y166.859 E6.16947
G1 X171.75 Y167.033 E6.21024
G1 X172.842 Y166.859 E6.25101
G1 X173.826 Y166.357 E6.29173
G1 X173.554 Y165.983 F9000
G1 F1800
G1 X174.233 Y165.304 E6.32712
G1 X174.669 Y164.449 E6.36251
G1 X174.82 Y163.5 E6.39794
G1 X174.669 Y162.551 E6.43336
G1 X174.233 Y161.696 E6.46876
G1 X173.552 Y161.015 E6.50425
G1 X172.669 Y160.574 E6.54065
G1 X172.118 Y160.529 E6.56104
G1 X172.52 Y160.151 E6.58139
G1 X176.557 Y156.119 E6.79174
G1 X176.557 Y138.881 E7.42721
G1 X172.52 Y134.849 E7.63756
G1 X172.118 Y134.471 E7.6579
G1 X172.669 Y134.426 E7.67829
G1 X173.552 Y133.985 E7.71467
G1 X174.233 Y133.304 E7.75017
G1 X174.669 Y132.449 E7.78556
G1 X174.82 Y131.5 E7.82099
G1 X174.669 Y130.551 E7.85641
G1 X174.233 Y129.696 E7.8918
G1 X173.554 Y129.017 E7.92719
G1 X172.699 Y128.581 E7.96259
G1 X171.75 Y128.43 E7.99801
G1 X170.801 Y128.581 E8.03344
G1 X169.946 Y129.017 E8.06883
G1 X169.265 Y129.698 E8.10432
G1 X168.824 Y130.581 E8.14072
G1 X168.779 Y131.132 E8.16111
G1 X168.401 Y130.73 E8.18146
G1 X164.369 Y126.693 E8.39181
G1 X147.131 Y126.693 E9.02728
G1 X143.099 Y130.73 E9.23763
G1 X142.733 Y131.12 E9.25734
G1 X142.671 Y130.571 E9.2777
G1 X142.235 Y129.698 E9.31368
G1 X141.554 Y129.017 E9.34917
G1 X140.699 Y128.581 E9.38457
G1 X139.75 Y128.43 E9.41999
G1 X138.801 Y128.581 E9.45541
G1 X137.946 Y129.017 E9.49081
G1 X137.267 Y129.696 E9.5262
G1 X136.831 Y130.551 E9.56159
G1 X136.68 Y131.5 E9.59701
G1 X136.831 Y132.449 E9.63244
G1 X137.267 Y133.304 E9.66783
G1 X137.948 Y133.985 E9.70333
G1 X138.831 Y134.426 E9.73971
G1 X139.382 Y134.471 E9.7601
G1 X138.98 Y134.849 E9.78044
G1 X134.943 Y138.881 E9.9908
G1 X134.943 Y156.119 E10.62626
G1 X138.98 Y160.151 E10.83661
G1 X139.37 Y160.517 E10.85632
G1 X138.821 Y160.579 E10.87668
G1 X137.948 Y161.015 E10.91266
G1 X137.267 Y161.696 E10.94815
G1 X136.831 Y162.551 E10.98355
G1 X136.68 Y163.5 E11.01897
G1 X136.831 Y164.449 E11.0544
G1 X137.267 Y165.304 E11.08979
G1 X137.946 Y165.983 E11.12518
G1 X138.801 Y166.419 E11.16057
G1 X139.75 Y166.57 E11.196
G1 X140.699 Y166.419 E11.23142
G1 X141.554 Y165.983 E11.26682
G1 X142.235 Y165.302 E11.30231
G1 X142.676 Y164.419 E11.3387
G1 X142.721 Y163.868 E11.35909
G1 X143.099 Y164.27 E11.37944
G1 X147.131 Y168.307 E11.5898
G1 X164.369 Y168.307 E12.22526
G1 X168.401 Y164.27 E12.43562
G1 X168.767 Y163.88 E12.45533
G1 X168.829 Y164.429 E12.47568
G1 X169.265 Y165.302 E12.51166
G1 X169.946 Y165.983 E12.54715
G1 X170.801 Y166.419 E12.58255
G1 X171.75 Y166.57 E12.61797
G1 X172.699 Y166.419 E12.6534
G1 X173.554 Y165.983 E12.68879
G92 E0
G1 E-1 F3000
G1 X169.512 Y132.599 F9000
G1 E0 F1800
;TYPE:Thin wall
;WIDTH:0.187189
G1 X169.465 Y132.534 E0.00096
;WIDTH:0.020799
G1 X169.512 Y132.599 E0.00107
;WIDTH:0.04199
G1 X169.548 Y132.648 E0.00125
;WIDTH:0.046382
G1 X169.696 Y132.852 E0.00211
;WIDTH:0.041316
G1 X169.786 Y132.967 E0.00254
G1 X170.283 Y133.464 E0.00464
G1 X170.398 Y133.554 E0.00508
;WIDTH:0.046382
G1 X170.602 Y133.702 E0.00594
;WIDTH:0.040893
G1 X170.651 Y133.738 E0.00611
;WIDTH:0.019702
G1 X170.716 Y133.785 E0.00621
;WIDTH:0.197015
G1 X170.756 Y133.814
;TYPE:External perimeter
;WIDTH:0.5
G1 X170.779 Y133.783 E0.00765
G1 X170.976 Y133.883 E0.01578
G1 X171.349 Y133.942 E0.02973
G1 X171.727 Y134.045 E0.04415
G1 X172.544 Y133.978 E0.07439
G1 X173.281 Y133.609 E0.10478
G1 X173.859 Y133.032 E0.13486
G1 X174.229 Y132.306 E0.16493
G1 X174.357 Y131.5 E0.19501
G1 X174.229 Y130.694 E0.22509
G1 X173.859 Y129.968 E0.25515
G1 X173.282 Y129.391 E0.2852
G1 X172.556 Y129.021 E0.31527
G1 X171.75 Y128.893 E0.34534
G1 X170.944 Y129.021 E0.37542
G1 X170.218 Y129.391 E0.40549
G1 X169.641 Y129.969 E0.43557
G1 X169.272 Y130.706 E0.46597
G1 X169.206 Y131.523 E0.4962
G1 X169.308 Y131.9 E0.51061
G1 X169.367 Y132.274 E0.52456
G1 X169.467 Y132.471 E0.53269
G1 X169.404 Y132.517 E0.53557
G1 X169.042 Y132.155 E0.55444
G1 X168.414 Y131.411 E0.59035
G1 X168.073 Y131.048 E0.60871
G1 X164.179 Y127.15 E0.81182
G1 X147.321 Y127.15 E1.43332
G1 X143.427 Y131.048 E1.63643
G1 X143.086 Y131.411 E1.65479
G1 X142.458 Y132.155 E1.6907
G1 X142.096 Y132.517 E1.70957
G1 X142.064 Y132.494 E1.71101
;TYPE:Thin wall
;WIDTH:0.020799
G1 X142.035 Y132.534
;WIDTH:0.187194
G1 X141.988 Y132.599 E1.71197
;WIDTH:0.377914
G1 X141.952 Y132.648 E1.7136
;WIDTH:0.41744
G1 X141.804 Y132.852 E1.72134
;WIDTH:0.371843
G1 X141.714 Y132.967 E1.72523
G1 X141.465 Y133.216 E1.73469
G1 X141.216 Y133.464 E1.74416
G1 X141.102 Y133.554 E1.74805
;WIDTH:0.417441
G1 X140.898 Y133.702 E1.75578
;WIDTH:0.368039
G1 X140.849 Y133.738 E1.75737
;WIDTH:0.177319
G1 X140.784 Y133.785 E1.75827
;WIDTH:0.019702
G1 X140.849 Y133.738 E1.75837
;WIDTH:0.040893
G1 X140.898 Y133.702 E1.75855
;WIDTH:0.046382
G1 X141.102 Y133.554 E1.75941
;WIDTH:0.041316
G1 X141.216 Y133.464 E1.75984
G1 X141.465 Y133.216 E1.76089
G1 X141.714 Y132.967 E1.76194
G1 X141.804 Y132.852 E1.76237
;WIDTH:0.046382
G1 X141.952 Y132.648 E1.76323
;WIDTH:0.04199
G1 X141.988 Y132.599 E1.76342
;WIDTH:0.020799
G1 X142.035 Y132.534 E1.76352
;WIDTH:0.207993
G1 X142.064 Y132.494
;TYPE:External perimeter
;WIDTH:0.5
G1 X142.033 Y132.471 E1.76496
G1 X142.133 Y132.274 E1.7731
G1 X142.192 Y131.9 E1.78705
G1 X142.293 Y131.527 E1.80131
G1 X142.273 Y131.12 E1.81635
G1 X142.226 Y130.703 E1.83183
G1 X141.859 Y129.969 E1.86208
G1 X141.282 Y129.391 E1.89216
G1 X140.556 Y129.021 E1.92223
G1 X139.75 Y128.893 E1.95231
G1 X138.944 Y129.021 E1.98238
G1 X138.218 Y129.391 E2.01245
G1 X137.641 Y129.968 E2.0425
G1 X137.271 Y130.694 E2.07256
G1 X137.143 Y131.5 E2.10264
G1 X137.271 Y132.306 E2.13272
G1 X137.641 Y133.032 E2.16279
G1 X138.219 Y133.609 E2.19287
G1 X138.956 Y133.978 E2.22326
G1 X139.773 Y134.045 E2.2535
G1 X140.151 Y133.942 E2.26792
G1 X140.524 Y133.883 E2.28187
G1 X140.721 Y133.783 E2.29
G1 X140.767 Y133.846 E2.29288
G1 X140.405 Y134.208 E2.31174
G1 X139.661 Y134.836 E2.34766
G1 X139.298 Y135.177 E2.36601
G1 X135.4 Y139.071 E2.56913
G1 X135.4 Y155.929 E3.19062
G1 X139.298 Y159.823 E3.39373
G1 X139.661 Y160.164 E3.41209
G1 X140.405 Y160.792 E3.448
G1 X140.767 Y161.154 E3.46687
G1 X140.721 Y161.217 E3.46975
G1 X140.524 Y161.117 E3.47789
G1 X140.15 Y161.058 E3.49184
G1 X139.777 Y160.957 E3.50609
G1 X139.37 Y160.977 E3.52114
G1 X138.953 Y161.024 E3.53661
G1 X138.219 Y161.391 E3.56686
G1 X137.641 Y161.968 E3.59695
G1 X137.271 Y162.694 E3.62702
G1 X137.143 Y163.5 E3.6571
G1 X137.271 Y164.306 E3.68717
G1 X137.641 Y165.032 E3.71724
G1 X138.218 Y165.609 E3.74729
G1 X138.944 Y165.979 E3.77735
G1 X139.75 Y166.107 E3.80743
G1 X140.556 Y165.979 E3.83751
G1 X141.282 Y165.609 E3.86757
G1 X141.859 Y165.031 E3.89766
G1 X142.228 Y164.294 E3.92806
G1 X142.294 Y163.477 E3.95829
G1 X142.192 Y163.1 E3.97269
G1 X142.133 Y162.726 E3.98664
G1 X142.033 Y162.529 E3.99478
G1 X142.064 Y162.506 E3.99622
;TYPE:Thin wall
;WIDTH:0.019702
G1 X142.035 Y162.466
;WIDTH:0.177317
G1 X141.988 Y162.401 E3.99712
;WIDTH:0.368037
G1 X141.952 Y162.352 E3.99871
;WIDTH:0.41744
G1 X141.804 Y162.148 E4.00644
;WIDTH:0.371843
G1 X141.714 Y162.033 E4.01033
G1 X141.216 Y161.536 E4.02926
G1 X141.102 Y161.446 E4.03315
;WIDTH:0.41744
G1 X140.898 Y161.298 E4.04089
;WIDTH:0.377912
G1 X140.849 Y161.262 E4.04252
;WIDTH:0.187192
G1 X140.784 Y161.215 E4.04348
;WIDTH:0.020799
G1 X140.849 Y161.262 E4.04359
;WIDTH:0.04199
G1 X140.898 Y161.298 E4.04377
;WIDTH:0.046382
G1 X141.102 Y161.446 E4.04463
;WIDTH:0.041316
G1 X141.216 Y161.536 E4.04506
G1 X141.714 Y162.033 E4.04717
G1 X141.804 Y162.148 E4.0476
;WIDTH:0.046382
G1 X141.952 Y162.352 E4.04846
;WIDTH:0.040893
G1 X141.988 Y162.401 E4.04864
;WIDTH:0.019702
G1 X142.035 Y162.466 E4.04874
;WIDTH:0.197019
G1 X142.064 Y162.506
;TYPE:External perimeter
;WIDTH:0.5
G1 X142.096 Y162.483 E4.05018
G1 X142.458 Y162.845 E4.06904
G1 X143.086 Y163.589 E4.10496
G1 X143.427 Y163.952 E4.12331
G1 X147.321 Y167.85 E4.32643
G1 X164.179 Y167.85 E4.94792
G1 X168.073 Y163.952 E5.15103
G1 X168.414 Y163.589 E5.16939
G1 X169.042 Y162.845 E5.2053
G1 X169.404 Y162.483 E5.22417
G1 X169.467 Y162.529 E5.22705
G1 X169.367 Y162.726 E5.23519
G1 X169.308 Y163.1 E5.24914
G1 X169.207 Y163.473 E5.26339
G1 X169.227 Y163.88 E5.27844
G1 X169.274 Y164.297 E5.29391
G1 X169.641 Y165.031 E5.32416
G1 X170.218 Y165.609 E5.35425
G1 X170.944 Y165.979 E5.38432
G1 X171.75 Y166.107 E5.41439
G1 X172.556 Y165.979 E5.44447
G1 X173.282 Y165.609 E5.47454
G1 X173.859 Y165.032 E5.50459
G1 X174.229 Y164.306 E5.53465
G1 X174.357 Y163.5 E5.56473
G1 X174.229 Y162.694 E5.59481
G1 X173.859 Y161.968 E5.62487
G1 X173.281 Y161.391 E5.65496
G1 X172.544 Y161.022 E5.68536
G1 X171.727 Y160.956 E5.71559
G1 X171.35 Y161.058 E5.72999
G1 X170.976 Y161.117 E5.74394
G1 X170.779 Y161.217 E5.75208
G1 X170.756 Y161.186 E5.75352
;TYPE:Thin wall
;WIDTH:0.020799
G1 X170.716 Y161.215
;WIDTH:0.187191
G1 X170.651 Y161.262 E5.75448
;WIDTH:0.377911
G1 X170.602 Y161.298 E5.75612
;WIDTH:0.41744
G1 X170.398 Y161.446 E5.76385
;WIDTH:0.371843
G1 X170.283 Y161.536 E5.76774
G1 X169.786 Y162.033 E5.78667
G1 X169.696 Y162.148 E5.79056
;WIDTH:0.417442
G1 X169.548 Y162.352 E5.7983
;WIDTH:0.368039
G1 X169.512 Y162.401 E5.79989
;WIDTH:0.177318
G1 X169.465 Y162.466 E5.80078
;WIDTH:0.019702
G1 X169.512 Y162.401 E5.80088
;WIDTH:0.040893
G1 X169.548 Y162.352 E5.80106
;WIDTH:0.046382
G1 X169.696 Y162.148 E5.80192
;WIDTH:0.041316
G1 X169.786 Y162.033 E5.80235
G1 X170.034 Y161.785 E5.8034
G1 X170.283 Y161.536 E5.80445
G1 X170.398 Y161.446 E5.80489
;WIDTH:0.046382
G1 X170.602 Y161.298 E5.80575
;WIDTH:0.04199
G1 X170.651 Y161.262 E5.80593
;WIDTH:0.020799
G1 X170.716 Y161.215 E5.80604
;WIDTH:0.20799
G1 X170.756 Y161.186
;TYPE:External perimeter
;WIDTH:0.5
G1 X170.733 Y161.154 E5.80747
G1 X171.095 Y160.792 E5.82634
G1 X171.839 Y160.164 E5.86226
G1 X172.202 Y159.823 E5.88061
G1 X176.1 Y155.929 E6.08372
G1 X176.1 Y139.071 E6.70522
G1 X172.202 Y135.177 E6.90833
G1 X171.839 Y134.836 E6.92669
G1 X171.095 Y134.208 E6.9626
G1 X170.733 Y133.846 E6.98147
G1 X170.756 Y133.814 E6.98291
;TYPE:Thin wall
;WIDTH:0.019702
G1 X170.716 Y133.785
;WIDTH:0.177314
G1 X170.651 Y133.738 E6.98381
;WIDTH:0.368034
G1 X170.602 Y133.702 E6.98539
;WIDTH:0.417441
G1 X170.398 Y133.554 E6.99313
;WIDTH:0.371845
G1 X170.283 Y133.464 E6.99702
G1 X169.786 Y132.967 E7.01595
G1 X169.696 Y132.852 E7.01984
;WIDTH:0.417442
G1 X169.548 Y132.648 E7.02758
;WIDTH:0.37791
G1 X169.512 Y132.599 E7.02921
G92 E0
G1 E-1 F3000
G1 X127.986 Y121.85 F9000
G1 E0 F1800
;TYPE:Internal perimeter
;WIDTH:0.5
G1 X127.986 Y122.764 E0.0337
G1 X148.767 Y122.764 E0.79983
G1 X148.767 Y120.764 E0.87356
G1 X152.236 Y120.764 E1.00144
G1 X152.236 Y122.764 E1.07517
G1 X180.484 Y122.764 E2.11657
G1 X180.486 Y172.236 E3.9404
G1 X131.014 Y172.236 E5.76422
G1 X131.014 Y131.976 E7.24844
G1 X124.514 Y125.476 E7.58732
G1 X124.514 Y120.764 E7.76104
G1 X127.986 Y120.764 E7.88903
G1 X127.986 Y121.85 E7.92906
G1 X128.443 Y121.85 F9000
G1 F1800
G1 X128.443 Y122.307 E7.94591
G1 X148.31 Y122.307 E8.67834
G1 X148.31 Y120.307 E8.75207
G1 X152.693 Y120.307 E8.91365
G1 X152.693 Y122.307 E8.98738
G1 X180.941 Y122.307 E10.02878
G1 X180.943 Y172.693 E11.88631
M73 P1 R57
G1 X130.557 Y172.693 E13.74384
G1 X130.557 Y132.166 E15.23792
G1 X124.057 Y125.666 E15.57681
