; HEADER_BLOCK_START
; generated by OrcaSlicer 1.6.2 on 2023-05-23 at 20:32:39
; total layer number: 77
; HEADER_BLOCK_END

; THUMBNAIL_BLOCK_START
; THUMBNAIL_BLOCK_END

; external perimeters extrusion width = 0.40mm
; perimeters extrusion width = 0.45mm
; infill extrusion width = 0.45mm
; solid infill extrusion width = 0.40mm
; top infill extrusion width = 0.40mm
; first layer extrusion width = 0.50mm

; external perimeters extrusion width = 0.40mm
; perimeters extrusion width = 0.45mm
; infill extrusion width = 0.45mm
; solid infill extrusion width = 0.40mm
; top infill extrusion width = 0.40mm
; first layer extrusion width = 0.50mm

; EXECUTABLE_BLOCK_START
EXCLUDE_OBJECT_DEFINE NAME=(Unsaved).stl_id_0_copy_0 CENTER=144.784,149.098 POLYGON=[[134.781,148.577],[134.781,148.551],[134.786,148.375],[134.791,148.295],[134.808,148.165],[134.828,148.041],[134.889,147.791],[134.917,147.701],[134.949,147.605],[134.972,147.549],[135.025,147.419],[135.08,147.317],[138.438,141.501],[138.452,141.479],[138.536,141.355],[138.552,141.335],[138.586,141.295],[138.662,141.211],[138.686,141.187],[138.742,141.135],[138.832,141.065],[139.24,140.777],[139.294,140.743],[139.65,140.519],[140.07,140.281],[140.078,140.277],[140.386,140.121],[140.518,140.055],[140.622,140.005],[140.726,139.957],[140.938,139.871],[141.1,139.829],[141.15,139.819],[141.26,139.805],[141.368,139.797],[141.42,139.797],[148.206,139.8],[148.214,139.8],[148.322,139.808],[148.374,139.814],[148.432,139.822],[148.484,139.832],[148.52,139.84],[148.644,139.876],[148.742,139.914],[148.766,139.924],[148.92,139.99],[149.064,140.058],[149.436,140.244],[149.454,140.254],[149.792,140.44],[149.82,140.456],[150.18,140.676],[150.652,140.986],[150.696,141.016],[150.72,141.034],[150.802,141.1],[150.862,141.154],[150.89,141.18],[150.988,141.286],[151.008,141.31],[151.084,141.414],[151.112,141.458],[151.134,141.492],[154.524,147.362],[154.554,147.416],[154.6,147.51],[154.644,147.616],[154.66,147.666],[154.702,147.826],[154.722,147.956],[154.735,148.058],[154.746,148.168],[154.756,148.282],[154.779,148.692],[154.787,149.1],[154.788,149.134],[154.778,149.556],[154.746,150.12],[154.743,150.142],[154.735,150.216],[154.727,150.274],[154.721,150.308],[154.711,150.362],[154.696,150.426],[154.681,150.474],[154.657,150.548],[154.647,150.574],[154.638,150.6],[154.625,150.628],[154.569,150.75],[154.562,150.766],[151.155,156.662],[151.067,156.804],[150.971,156.928],[150.945,156.956],[150.859,157.044],[150.801,157.088],[150.757,157.122],[150.637,157.21],[150.419,157.362],[150.345,157.412],[150.221,157.494],[149.975,157.648],[149.653,157.834],[149.531,157.902],[149.359,157.992],[149.299,158.022],[149.059,158.14],[148.955,158.19],[148.849,158.24],[148.637,158.322],[148.477,158.366],[148.425,158.376],[148.315,158.392],[148.207,158.398],[148.155,158.398],[141.425,158.395],[141.341,158.395],[141.267,158.391],[141.163,158.377],[141.107,158.369],[141.067,158.361],[140.987,158.341],[140.881,158.303],[140.697,158.221],[140.459,158.111],[140.211,157.989],[139.981,157.867],[139.765,157.745],[139.537,157.609],[139.315,157.467],[139.093,157.317],[138.825,157.125],[138.749,157.065],[138.689,157.011],[138.677,156.999],[138.539,156.859],[138.461,156.737],[138.417,156.667],[135.053,150.833],[135.023,150.779],[134.975,150.685],[134.933,150.579],[134.915,150.529],[134.873,150.369],[134.857,150.265],[134.841,150.139],[134.829,150.029],[134.821,149.915],[134.801,149.625],[134.791,149.343],[134.787,149.067],[134.781,148.577]]
EXCLUDE_OBJECT_DEFINE NAME=(Unsaved).stl_id_1_copy_0 CENTER=165.215,160.902 POLYGON=[[155.212,160.382],[155.213,160.356],[155.217,160.18],[155.223,160.1],[155.239,159.97],[155.259,159.846],[155.32,159.596],[155.348,159.506],[155.38,159.41],[155.403,159.354],[155.456,159.224],[155.511,159.122],[158.869,153.306],[158.883,153.284],[158.967,153.16],[158.983,153.14],[159.017,153.1],[159.093,153.016],[159.117,152.992],[159.173,152.94],[159.263,152.87],[159.671,152.582],[159.725,152.548],[160.081,152.324],[160.501,152.086],[160.509,152.082],[160.817,151.926],[160.949,151.86],[161.053,151.81],[161.157,151.762],[161.369,151.676],[161.531,151.634],[161.581,151.624],[161.691,151.61],[161.799,151.602],[161.851,151.602],[168.637,151.605],[168.645,151.605],[168.753,151.613],[168.805,151.619],[168.863,151.627],[168.915,151.637],[168.951,151.645],[169.075,151.681],[169.173,151.719],[169.197,151.729],[169.351,151.795],[169.495,151.863],[169.867,152.049],[169.885,152.059],[170.223,152.245],[170.251,152.261],[170.611,152.481],[171.083,152.791],[171.127,152.821],[171.151,152.839],[171.233,152.905],[171.293,152.959],[171.321,152.985],[171.419,153.091],[171.439,153.115],[171.515,153.219],[171.543,153.263],[171.565,153.297],[174.955,159.167],[174.985,159.221],[175.031,159.315],[175.075,159.421],[175.091,159.471],[175.133,159.631],[175.153,159.761],[175.166,159.863],[175.177,159.973],[175.187,160.087],[175.21,160.497],[175.218,160.905],[175.219,160.939],[175.209,161.361],[175.177,161.925],[175.174,161.947],[175.166,162.021],[175.158,162.079],[175.152,162.113],[175.142,162.167],[175.127,162.231],[175.112,162.279],[175.088,162.353],[175.078,162.379],[175.069,162.405],[175.056,162.433],[175,162.555],[174.993,162.571],[171.586,168.467],[171.498,168.609],[171.402,168.733],[171.376,168.761],[171.29,168.849],[171.232,168.893],[171.188,168.927],[171.068,169.015],[170.85,169.167],[170.776,169.217],[170.652,169.299],[170.406,169.453],[170.084,169.639],[169.962,169.707],[169.79,169.797],[169.73,169.827],[169.49,169.945],[169.386,169.995],[169.28,170.045],[169.068,170.127],[168.908,170.171],[168.856,170.181],[168.746,170.197],[168.638,170.203],[168.586,170.203],[161.856,170.2],[161.772,170.2],[161.698,170.196],[161.594,170.182],[161.538,170.174],[161.498,170.166],[161.418,170.146],[161.312,170.108],[161.128,170.026],[160.89,169.916],[160.642,169.794],[160.412,169.672],[160.196,169.55],[159.968,169.414],[159.746,169.272],[159.524,169.122],[159.256,168.93],[159.18,168.87],[159.12,168.816],[159.108,168.804],[158.97,168.664],[158.892,168.542],[158.848,168.472],[155.484,162.638],[155.454,162.584],[155.406,162.49],[155.364,162.384],[155.346,162.334],[155.304,162.174],[155.288,162.07],[155.272,161.944],[155.26,161.834],[155.252,161.72],[155.232,161.43],[155.222,161.148],[155.218,160.872],[155.212,160.382]]
M73 P0 R45
;TYPE:Custom
START_PRINT T_BED=100 T_EXTRUDER=250
G90
G21
M83 ; use relative distances for extrusion
; Filament gcode
PRESSURE_ADVANCE_SELECT FILAMENT=ABS
M106 S0
;LAYER_CHANGE
;Z:0.2
;HEIGHT:0.2
M204 S500
G1 E-.8 F3000
G1 Z.4 F9000
G1 X137.754 Y140.83
G1 Z.2
G1 E.8 F1800
;TYPE:Skirt
;WIDTH:0.5
G1 X138.888 Y139.987 E.04975
G1 X140.471 Y139.138 E.06321
G1 X141.818 Y138.657 E.05035
G1 X143.561 Y138.311 E.06254
G1 X145.051 Y138.245 E.0525
G1 X146.283 Y138.346 E.04348
G1 X147.605 Y138.615 E.04747
G1 X148.807 Y139.013 E.04458
G1 X150.036 Y139.595 E.04784
G1 X170.862 Y151.629 E.84653
G1 X172.128 Y152.531 E.05468
G1 X173.353 Y153.714 E.05995
G1 X173.88 Y154.358 E.0293
G1 X174.61 Y155.46 E.04651
G1 X175.448 Y157.269 E.07017
G1 X175.944 Y159.228 E.07113
G1 X176.055 Y160.253 E.03627
G1 X176.055 Y161.558 E.04592
G1 X175.739 Y163.58 E.07203
G1 X175.07 Y165.465 E.0704
G1 X174.545 Y166.457 E.03949
G1 X173.982 Y167.308 E.0359
G1 X173.257 Y168.199 E.04044
G1 X172.411 Y169.033 E.04181
G1 X171.237 Y169.935 E.05212
G1 X169.961 Y170.666 E.05176
G1 X168.507 Y171.248 E.05513
G1 X167.178 Y171.579 E.0482
G1 X165.727 Y171.746 E.0514
G1 X164.41 Y171.728 E.04635
G1 X163.149 Y171.557 E.0448
G1 X161.536 Y171.114 E.05886
G1 X159.733 Y170.271 E.07005
G1 X139.302 Y158.466 E.83044
G1 X138.042 Y157.602 E.05379
G1 X136.696 Y156.334 E.06507
G1 X135.726 Y155.073 E.05599
G1 X134.939 Y153.665 E.05677
G1 X134.329 Y152.006 E.0622
G1 X134.041 Y150.631 E.04943
G1 X133.932 Y148.993 E.05779
G1 X134.041 Y147.566 E.05038
G1 X134.378 Y146.022 E.0556
G1 X134.939 Y144.529 E.05615
G1 X135.694 Y143.172 E.05463
G1 X136.654 Y141.909 E.05585
G1 X137.711 Y140.872 E.05209
; printing object (Unsaved).stl id:0 copy 0
EXCLUDE_OBJECT_START NAME=(Unsaved).stl_id_0_copy_0
G1 E-.8 F3000
G1 Z.6 F9000
G1 X137.679 Y147.804 Z.2
G1 E.8 F1800
;TYPE:Inner wall
;WIDTH:0.499999
G1 X137.704 Y147.636 E.00599
G1 X137.841 Y147.086 E.01992
G1 X138.106 Y146.325 E.02835
G1 X138.451 Y145.608 E.02801
G1 X138.861 Y144.953 E.02718
G1 X139.239 Y144.458 E.02193
G1 X139.819 Y143.841 E.02982
G1 X140.468 Y143.297 E.02977
G1 X141.185 Y142.827 E.03019
G1 X141.956 Y142.443 E.0303
G1 X142.765 Y142.154 E.03026
G1 X143.597 Y141.964 E.03001
G1 X144.588 Y141.868 E.03505
G1 X145.349 Y141.887 E.02678
G1 X146.132 Y141.991 E.02778
G1 X146.672 Y142.115 E.01951
G1 X147.434 Y142.365 E.02824
G1 X147.942 Y142.59 E.01955
G1 X148.642 Y142.977 E.02815
G1 X149.185 Y143.357 E.02332
G1 X149.703 Y143.79 E.02376
G1 X150.085 Y144.184 E.01929
G1 X150.523 Y144.687 E.02348
G1 X150.912 Y145.256 E.02425
G1 X151.233 Y145.833 E.02326
G1 X151.491 Y146.399 E.02188
G1 X151.719 Y147.062 E.02469
G1 X151.867 Y147.646 E.02121
G1 X151.975 Y148.363 E.02549
G1 X152.013 Y148.911 E.01933
G1 X152.021 Y149.221 E.01092
G1 X151.959 Y150.037 E.0288
G1 X151.767 Y150.988 E.03416
G1 X151.625 Y151.419 E.01595
G1 X151.336 Y152.15 E.02769
G1 X151.077 Y152.656 E.01999
G1 X150.654 Y153.308 E.02735
G1 X150.166 Y153.922 E.0276
G1 X149.7 Y154.4 E.0235
G1 X149.195 Y154.834 E.02344
G1 X148.5 Y155.305 E.02956
G1 X147.939 Y155.599 E.02228
G1 X147.336 Y155.868 E.02323
G1 X146.39 Y156.15 E.03474
G1 X145.579 Y156.287 E.02896
G1 X144.891 Y156.329 E.02427
G1 X144.31 Y156.316 E.02046
G1 X143.437 Y156.203 E.03097
G1 X142.924 Y156.085 E.01851
G1 X142.195 Y155.85 E.02695
G1 X141.655 Y155.609 E.0208
G1 X141.14 Y155.344 E.02039
G1 X140.311 Y154.778 E.03532
G1 X139.756 Y154.295 E.0259
G1 X139.25 Y153.749 E.02621
G1 X138.859 Y153.24 E.02259
G1 X138.55 Y152.745 E.02054
G1 X138.249 Y152.194 E.02209
G1 X137.904 Y151.316 E.03318
G1 X137.755 Y150.748 E.02068
G1 X137.626 Y150.114 E.02276
G1 X137.558 Y149.325 E.02788
G1 X137.587 Y148.421 E.03186
G1 X137.67 Y147.863 E.01983
G1 X137.227 Y147.736 F9000
G1 F1800
G1 X137.255 Y147.547 E.00675
G1 X137.402 Y146.955 E.02144
G1 X137.683 Y146.151 E.03
G1 X138.05 Y145.387 E.0298
G1 X138.484 Y144.693 E.02883
G1 X138.89 Y144.162 E.02351
G1 X139.505 Y143.508 E.03159
G1 X140.195 Y142.93 E.03168
G1 X140.957 Y142.43 E.03208
G1 X141.776 Y142.022 E.03221
G1 X142.637 Y141.714 E.03219
G1 X143.524 Y141.512 E.03199
G1 X144.572 Y141.41 E.03706
G1 X145.385 Y141.431 E.02863
G1 X146.213 Y141.541 E.02939
G1 X146.795 Y141.674 E.021
G1 X147.598 Y141.938 E.02977
G1 X148.146 Y142.18 E.02107
G1 X148.885 Y142.589 E.02972
G1 X149.463 Y142.994 E.02485
G1 X150.014 Y143.455 E.02528
G1 X150.591 Y144.049 E.02914
G1 X151.008 Y144.579 E.02373
G1 X151.3 Y145.015 E.01846
G1 X151.639 Y145.624 E.02453
G1 X151.915 Y146.228 E.02338
G1 X152.157 Y146.93 E.02613
G1 X152.315 Y147.554 E.02265
G1 X152.43 Y148.311 E.02695
G1 X152.47 Y148.899 E.02075
G1 X152.478 Y149.232 E.01172
G1 X152.413 Y150.099 E.0306
G1 X152.21 Y151.106 E.03613
G1 X152.059 Y151.562 E.01692
G1 X151.751 Y152.341 E.02946
G1 X151.474 Y152.882 E.0214
G1 X151.027 Y153.572 E.02894
G1 X150.508 Y154.225 E.02934
G1 X150.016 Y154.73 E.02484
G1 X149.468 Y155.2 E.0254
G1 X148.735 Y155.698 E.03119
G1 X148.151 Y156.004 E.0232
G1 X147.489 Y156.299 E.0255
G1 X146.494 Y156.596 E.03655
G1 X145.631 Y156.742 E.0308
G1 X144.899 Y156.787 E.0258
G1 X144.275 Y156.772 E.02198
G1 X143.356 Y156.653 E.0326
G1 X142.803 Y156.527 E.01999
G1 X142.031 Y156.278 E.02852
G1 X141.469 Y156.027 E.02167
G1 X140.901 Y155.735 E.02248
G1 X140.032 Y155.141 E.03706
G1 X139.438 Y154.624 E.0277
G1 X138.9 Y154.044 E.02782
G1 X138.483 Y153.501 E.02411
G1 X138.162 Y152.987 E.02131
G1 X137.832 Y152.382 E.02427
G1 X137.469 Y151.459 E.03491
G1 X137.313 Y150.864 E.02162
G1 X137.173 Y150.173 E.02482
G1 X137.1 Y149.338 E.02952
G1 X137.131 Y148.379 E.03375
G1 X137.218 Y147.796 E.02076
G1 X136.775 Y147.669 F9000
;TYPE:Outer wall
G1 F1800
G1 X136.806 Y147.458 E.00752
G1 X136.963 Y146.825 E.02295
G1 X137.26 Y145.976 E.03165
G1 X137.649 Y145.166 E.0316
G1 X138.108 Y144.432 E.03048
G1 X138.541 Y143.866 E.02508
G1 X139.19 Y143.175 E.03336
G1 X139.922 Y142.562 E.03359
G1 X140.729 Y142.033 E.03397
G1 X141.597 Y141.6 E.03412
G1 X142.509 Y141.274 E.03411
G1 X143.451 Y141.06 E.03397
G1 X144.555 Y140.952 E.03907
G1 X145.421 Y140.975 E.03048
G1 X146.294 Y141.09 E.03099
G1 X146.917 Y141.233 E.02249
G1 X147.762 Y141.511 E.03131
G1 X148.35 Y141.77 E.0226
G1 X149.127 Y142.201 E.03129
G1 X149.741 Y142.631 E.02638
G1 X150.326 Y143.119 E.02681
G1 X150.932 Y143.744 E.03065
G1 X151.38 Y144.314 E.0255
G1 X151.688 Y144.774 E.01949
G1 X152.045 Y145.415 E.02581
G1 X152.339 Y146.058 E.02489
G1 X152.594 Y146.798 E.02757
G1 X152.762 Y147.462 E.0241
G1 X152.884 Y148.26 E.0284
G1 X152.927 Y148.888 E.02217
G1 X152.936 Y149.244 E.01252
G1 X152.867 Y150.162 E.0324
G1 X152.653 Y151.223 E.03809
G1 X152.359 Y152.112 E.03296
G1 X152.032 Y152.826 E.02763
G1 X151.69 Y153.427 E.02433
G1 X151.154 Y154.185 E.03269
G1 X150.639 Y154.766 E.02731
G1 X150.153 Y155.231 E.02368
G1 X149.742 Y155.567 E.01868
G1 X148.97 Y156.091 E.03282
G1 X148.139 Y156.526 E.03301
G1 X147.642 Y156.731 E.0189
G1 X146.598 Y157.042 E.03836
G1 X145.683 Y157.196 E.03264
G1 X144.908 Y157.244 E.02733
G1 X144.24 Y157.228 E.02351
G1 X143.276 Y157.104 E.03422
G1 X142.681 Y156.968 E.02146
G1 X141.868 Y156.705 E.03009
G1 X141.283 Y156.444 E.02253
G1 X140.662 Y156.125 E.02458
G1 X139.752 Y155.503 E.0388
G1 X139.119 Y154.953 E.02951
G1 X138.551 Y154.339 E.02943
G1 X138.107 Y153.762 E.02563
G1 X137.647 Y153.025 E.03056
G1 X137.415 Y152.57 E.018
G1 X137.034 Y151.601 E.03664
G1 X136.805 Y150.732 E.03161
G1 X136.719 Y150.232 E.01787
G1 X136.642 Y149.35 E.03116
G1 X136.675 Y148.338 E.03564
G1 X136.766 Y147.728 E.02169
G1 X136.814 Y147.652
G1 E-.8 F3000
G1 Z.6 F9000
G1 X150.854 Y145.44 Z.2
G1 E.8 F1800
;TYPE:Bottom surface
;WIDTH:0.501451
G1 X149.458 Y144.044 E.06972
G1 X148.971 Y143.637 E.0224
G1 X148.455 Y143.276 E.02222
G1 X147.786 Y142.905 E.02703
G1 X147.579 Y142.814 E.00798
G1 X151.077 Y146.312 E.17466
G1 X151.27 Y146.791 E.01825
G1 X151.426 Y147.309 E.01909
G1 X146.569 Y142.452 E.24251
G1 X146.069 Y142.338 E.01811
G1 X145.766 Y142.297 E.0108
G1 X151.595 Y148.126 E.29103
G1 X151.659 Y148.839 E.02528
G1 X145.051 Y142.232 E.32992
G1 X144.601 Y142.22 E.01591
G1 X144.41 Y142.239 E.00677
G1 X151.648 Y149.477 E.36141
G1 X151.594 Y150.071 E.02104
G1 X143.819 Y142.296 E.38816
G1 X143.653 Y142.313 E.00589
G1 X143.274 Y142.399 E.01375
G1 X151.485 Y150.61 E.40998
G1 X151.427 Y150.898 E.01037
G1 X151.351 Y151.125 E.00846
G1 X142.757 Y142.531 E.42913
G1 X142.279 Y142.701 E.01791
G1 X151.19 Y151.613 E.44495
G1 X150.99 Y152.061 E.01733
G1 X141.829 Y142.9 E.45741
G1 X141.396 Y143.115 E.01707
G1 X150.768 Y152.487 E.46794
G1 X150.52 Y152.888 E.01663
G1 X141.001 Y143.369 E.4753
G1 X140.616 Y143.632 E.01647
G1 X150.252 Y153.268 E.4811
G1 X149.959 Y153.624 E.01627
G1 X140.263 Y143.928 E.48412
G1 X140.062 Y144.097 E.00929
G1 X139.927 Y144.24 E.00693
G1 X149.649 Y153.962 E.48539
G1 X149.317 Y154.279 E.01619
G1 X139.613 Y144.575 E.48452
G1 X139.321 Y144.931 E.01627
G1 X148.958 Y154.569 E.4812
G1 X148.572 Y154.831 E.01648
G1 X139.052 Y145.311 E.47533
G1 X138.803 Y145.71 E.01661
G1 X148.172 Y155.079 E.46781
G1 X147.746 Y155.302 E.01696
G1 X138.585 Y146.141 E.45741
G1 X138.386 Y146.59 E.01735
G1 X147.299 Y155.503 E.44499
G1 X146.806 Y155.659 E.01824
G1 X138.219 Y147.071 E.42879
G1 X138.08 Y147.581 E.01866
G1 X146.307 Y155.807 E.41074
G1 X145.752 Y155.901 E.01987
G1 X137.986 Y148.135 E.38776
G1 X137.938 Y148.452 E.01133
G1 X137.929 Y148.727 E.00971
G1 X145.162 Y155.96 E.36113
G1 X144.884 Y155.977 E.00984
G1 X144.522 Y155.969 E.01277
G1 X137.914 Y149.36 E.32995
G1 X137.976 Y150.071 E.02518
G1 X143.8 Y155.895 E.2908
G1 X143.499 Y155.856 E.01073
G1 X142.996 Y155.739 E.01824
G1 X138.159 Y150.902 E.24147
G1 X138.239 Y151.207 E.01111
G1 X138.514 Y151.906 E.0265
G1 X141.975 Y155.367 E.17282
G1 X141.648 Y155.221 E.01266
G1 X141.324 Y155.044 E.01302
G1 X140.527 Y154.499 E.03409
