; HEADER_BLOCK_START
; generated by OrcaSlicer 1.6.6 on 2023-08-27 at 08:11:12
; total layer number: 200
; HEADER_BLOCK_END

; THUMBNAIL_BLOCK_START
; THUMBNAIL_BLOCK_END

; external perimeters extrusion width = 0.40mm
; perimeters extrusion width = 0.45mm
; infill extrusion width = 0.45mm
; solid infill extrusion width = 0.40mm
; top infill extrusion width = 0.40mm
; support material extrusion width = 0.40mm
; first layer extrusion width = 0.50mm

; external perimeters extrusion width = 0.40mm
; perimeters extrusion width = 0.45mm
; infill extrusion width = 0.45mm
; solid infill extrusion width = 0.40mm
; top infill extrusion width = 0.40mm
; support material extrusion width = 0.40mm
; first layer extrusion width = 0.50mm

; EXECUTABLE_BLOCK_START
EXCLUDE_OBJECT_DEFINE NAME=(Unsaved).stl_id_0_copy_0 CENTER=155,175 POLYGON=[[98.5,160],[211.5,160],[211.5,190],[98.5,190],[98.5,160]]
EXCLUDE_OBJECT_DEFINE NAME=(Unsaved).stl_id_1_copy_0 CENTER=155,135 POLYGON=[[98.5,120],[211.5,120],[211.5,150],[98.5,150],[98.5,120]]
M73 P0 R200
;TYPE:Custom
START_PRINT T_BED=60 T_EXTRUDER=220
G90
G21
M83 ; use relative distances for extrusion
; filament start gcode
PRESSURE_ADVANCE_SELECT FILAMENT=PLA
M106 S0
;LAYER_CHANGE
;Z:0.2
;HEIGHT:0.2
;BEFORE_LAYER_CHANGE
;0.2
G92 E0

SET_VELOCITY_LIMIT ACCEL=1500 ACCEL_TO_DECEL=750
G1 E-.8 F3000
G1 Z.4 F9000
G1 X97.052 Y117.471
G1 Z.4
G1 Z.2
G1 E.8 F1800
;TYPE:Skirt
;WIDTH:0.5
G1 F3000
G1 X98.5 Y117.086 E.0558
G1 X211.5 Y117.086 E4.20882
G1 X212.962 Y117.479 E.05638
G1 X214.029 Y118.552 E.05638
G1 X214.414 Y120 E.0558
G1 X214.414 Y190 E2.60723
G1 X214.021 Y191.462 E.05638
G1 X212.948 Y192.529 E.05638
G1 X211.5 Y192.914 E.0558
G1 X98.5 Y192.914 E4.20882
G1 X97.038 Y192.521 E.05638
G1 X95.971 Y191.448 E.05638
G1 X95.586 Y190 E.0558
G1 X95.586 Y120 E2.60723
G1 X95.979 Y118.538 E.05638
G1 X97.024 Y117.499 E.05489
G1 X97.351 Y117.878 F9000
G1 F3000
G1 X97.485 Y117.762 E.00661
G1 X98.5 Y117.543 E.03866
G1 X211.5 Y117.543 E4.20882
G1 X212.831 Y117.935 E.05169
G1 X213.738 Y118.985 E.05169
G1 X213.957 Y120 E.03866
G1 X213.957 Y190 E2.60723
G1 X213.565 Y191.331 E.05169
G1 X212.515 Y192.238 E.05169
G1 X211.5 Y192.457 E.03866
G1 X98.5 Y192.457 E4.20882
G1 X97.169 Y192.065 E.05169
G1 X96.262 Y191.015 E.05169
G1 X96.043 Y190 E.03866
G1 X96.043 Y120 E2.60723
G1 X96.435 Y118.669 E.05169
G1 X97.321 Y117.904 E.04359
; printing object (Unsaved).stl id:0 copy 0
G1 E-.8
EXCLUDE_OBJECT_START NAME=(Unsaved).stl_id_0_copy_0
G1 Z.6 F9000
G1 X98.75 Y189.75 Z.6
G1 Z.2
G1 E.8 F1800
;TYPE:Outer wall
;WIDTH:0.499999
G1 F3000
G1 X98.75 Y160.25 E1.09876
G1 X211.25 Y160.25 E4.19019
G1 X211.25 Y175 E.54938
G1 X211.25 Y189.75 E.54938
G1 X98.79 Y189.75 E4.1887
G1 X99.207 Y189.293 F9000
;TYPE:Inner wall
G1 F3000
G1 X99.207 Y160.707 E1.06471
G1 X210.793 Y160.707 E4.15614
G1 X210.793 Y175 E.53236
G1 X210.793 Y189.293 E.53236
G1 X99.247 Y189.293 E4.15465
G1 X99.664 Y188.836 F9000
G1 F3000
G1 X99.664 Y161.164 E1.03066
G1 X210.336 Y161.164 E4.12209
G1 X210.336 Y175 E.51533
G1 X210.336 Y188.836 E.51533
G1 X99.704 Y188.836 E4.1206
G1 E-.8
G1 Z.6 F9000
G1 X210.19 Y162.236 Z.6
G1 Z.2
G1 E.8 F1800
;TYPE:Bottom surface
;WIDTH:0.500546
G1 F3000
G1 X209.47 Y161.516 E.03794
G1 X208.823 Y161.516 E.02413
G1 X209.984 Y162.677 E.06122
G1 X209.984 Y163.324 E.02413
G1 X208.176 Y161.516 E.09536
G1 X207.529 Y161.516 E.02413
G1 X209.984 Y163.971 E.12949
G1 X209.984 Y164.619 E.02413
G1 X206.881 Y161.516 E.16362
G1 X206.234 Y161.516 E.02413
G1 X209.984 Y165.266 E.19775
G1 X209.984 Y165.913 E.02413
G1 X205.587 Y161.516 E.23188
G1 X204.94 Y161.516 E.02413
G1 X209.984 Y166.56 E.26601
G1 X209.984 Y167.207 E.02413
G1 X204.293 Y161.516 E.30014
G1 X203.646 Y161.516 E.02413
G1 X209.984 Y167.854 E.33427
G1 X209.984 Y168.502 E.02413
G1 X202.998 Y161.516 E.3684
G1 X202.351 Y161.516 E.02413
G1 X209.984 Y169.149 E.40253
G1 X209.984 Y169.796 E.02413
G1 X201.704 Y161.516 E.43666
G1 X201.057 Y161.516 E.02413
G1 X209.984 Y170.443 E.47079
G1 X209.984 Y171.09 E.02413
G1 X200.41 Y161.516 E.50492
G1 X199.762 Y161.516 E.02413
G1 X209.984 Y171.738 E.53905
G1 X209.984 Y172.385 E.02413
G1 X199.115 Y161.516 E.57318
G1 X198.468 Y161.516 E.02413
G1 X209.984 Y173.032 E.60731
G1 X209.984 Y173.679 E.02413
G1 X197.821 Y161.516 E.64144
G1 X197.174 Y161.516 E.02413
G1 X209.984 Y174.326 E.67557
G1 X209.984 Y174.973 E.02413
G1 X196.527 Y161.516 E.7097
G1 X195.879 Y161.516 E.02413
G1 X209.984 Y175.621 E.74383
G1 X209.984 Y176.268 E.02413
G1 X195.232 Y161.516 E.77796
G1 X194.585 Y161.516 E.02413
G1 X209.984 Y176.915 E.81209
G1 X209.984 Y177.562 E.02413
G1 X193.938 Y161.516 E.84622
G1 X193.291 Y161.516 E.02413
G1 X209.984 Y178.209 E.88035
G1 X209.984 Y178.857 E.02413
G1 X192.643 Y161.516 E.91448
G1 X191.996 Y161.516 E.02413
G1 X209.984 Y179.504 E.94862
G1 X209.984 Y180.151 E.02413
G1 X191.349 Y161.516 E.98275
G1 X190.702 Y161.516 E.02413
G1 X209.984 Y180.798 E1.01688
G1 X209.984 Y181.445 E.02413
G1 X190.055 Y161.516 E1.05101
G1 X189.408 Y161.516 E.02413
G1 X209.984 Y182.092 E1.08514
M73 P0 R199
G1 X209.984 Y182.74 E.02413
G1 X188.76 Y161.516 E1.11927
G1 X188.113 Y161.516 E.02413
G1 X209.984 Y183.387 E1.1534
G1 X209.984 Y184.034 E.02413
G1 X187.466 Y161.516 E1.18753
G1 X186.819 Y161.516 E.02413
G1 X209.984 Y184.681 E1.22166
G1 X209.984 Y185.328 E.02413
G1 X186.172 Y161.516 E1.25579
G1 X185.524 Y161.516 E.02413
G1 X209.984 Y185.976 E1.28992
G1 X209.984 Y186.623 E.02413
G1 X184.877 Y161.516 E1.32405
G1 X184.23 Y161.516 E.02413
G1 X209.984 Y187.27 E1.35818
G1 X209.984 Y187.917 E.02413
G1 X183.583 Y161.516 E1.39231
G1 X182.936 Y161.516 E.02413
G1 X209.904 Y188.484 E1.4222
G1 X209.256 Y188.484 E.02413
G1 X182.289 Y161.516 E1.4222
G1 X181.641 Y161.516 E.02413
G1 X208.609 Y188.484 E1.4222
G1 X207.962 Y188.484 E.02413
G1 X180.994 Y161.516 E1.4222
G1 X180.347 Y161.516 E.02413
G1 X207.315 Y188.484 E1.4222
G1 X206.668 Y188.484 E.02413
G1 X179.7 Y161.516 E1.4222
G1 X179.053 Y161.516 E.02413
G1 X206.02 Y188.484 E1.4222
G1 X205.373 Y188.484 E.02413
G1 X178.405 Y161.516 E1.4222
G1 X177.758 Y161.516 E.02413
G1 X204.726 Y188.484 E1.4222
G1 X204.079 Y188.484 E.02413
G1 X177.111 Y161.516 E1.4222
G1 X176.464 Y161.516 E.02413
G1 X203.432 Y188.484 E1.4222
G1 X202.785 Y188.484 E.02413
G1 X175.817 Y161.516 E1.4222
G1 X175.17 Y161.516 E.02413
G1 X202.137 Y188.484 E1.4222
G1 X201.49 Y188.484 E.02413
G1 X174.522 Y161.516 E1.4222
G1 X173.875 Y161.516 E.02413
G1 X200.843 Y188.484 E1.4222
G1 X200.196 Y188.484 E.02413
G1 X173.228 Y161.516 E1.4222
G1 X172.581 Y161.516 E.02413
G1 X199.549 Y188.484 E1.4222
G1 X198.901 Y188.484 E.02413
G1 X171.934 Y161.516 E1.4222
G1 X171.286 Y161.516 E.02413
G1 X198.254 Y188.484 E1.4222
G1 X197.607 Y188.484 E.02413
G1 X170.639 Y161.516 E1.4222
G1 X169.992 Y161.516 E.02413
G1 X196.96 Y188.484 E1.4222
G1 X196.313 Y188.484 E.02413
G1 X169.345 Y161.516 E1.4222
G1 X168.698 Y161.516 E.02413
G1 X195.666 Y188.484 E1.4222
G1 X195.018 Y188.484 E.02413
G1 X168.051 Y161.516 E1.4222
G1 X167.403 Y161.516 E.02413
G1 X194.371 Y188.484 E1.4222
G1 X193.724 Y188.484 E.02413
G1 X166.756 Y161.516 E1.4222
G1 X166.109 Y161.516 E.02413
G1 X193.077 Y188.484 E1.4222
G1 X192.43 Y188.484 E.02413
G1 X165.462 Y161.516 E1.4222
G1 X164.815 Y161.516 E.02413
G1 X191.782 Y188.484 E1.4222
G1 X191.135 Y188.484 E.02413
G1 X164.167 Y161.516 E1.4222
G1 X163.52 Y161.516 E.02413
G1 X190.488 Y188.484 E1.4222
G1 X189.841 Y188.484 E.02413
G1 X162.873 Y161.516 E1.4222
G1 X162.226 Y161.516 E.02413
G1 X189.194 Y188.484 E1.4222
G1 X188.547 Y188.484 E.02413
G1 X161.579 Y161.516 E1.4222
G1 X160.932 Y161.516 E.02413
G1 X187.899 Y188.484 E1.4222
G1 X187.252 Y188.484 E.02413
G1 X160.284 Y161.516 E1.4222
G1 X159.637 Y161.516 E.02413
G1 X186.605 Y188.484 E1.4222
G1 X185.958 Y188.484 E.02413
G1 X158.99 Y161.516 E1.4222
G1 X158.343 Y161.516 E.02413
G1 X185.311 Y188.484 E1.4222
G1 X184.663 Y188.484 E.02413
G1 X157.696 Y161.516 E1.4222
G1 X157.048 Y161.516 E.02413
G1 X184.016 Y188.484 E1.4222
G1 X183.369 Y188.484 E.02413
G1 X156.401 Y161.516 E1.4222
G1 X155.754 Y161.516 E.02413
G1 X182.722 Y188.484 E1.4222
G1 X182.075 Y188.484 E.02413
G1 X155.107 Y161.516 E1.4222
G1 X154.46 Y161.516 E.02413
G1 X181.428 Y188.484 E1.4222
G1 X180.78 Y188.484 E.02413
G1 X153.813 Y161.516 E1.4222
G1 X153.165 Y161.516 E.02413
G1 X180.133 Y188.484 E1.4222
G1 X179.486 Y188.484 E.02413
G1 X152.518 Y161.516 E1.4222
G1 X151.871 Y161.516 E.02413
G1 X178.839 Y188.484 E1.4222
G1 X178.192 Y188.484 E.02413
G1 X151.224 Y161.516 E1.4222
G1 X150.577 Y161.516 E.02413
G1 X177.544 Y188.484 E1.4222
G1 X176.897 Y188.484 E.02413
G1 X149.929 Y161.516 E1.4222
G1 X149.282 Y161.516 E.02413
G1 X176.25 Y188.484 E1.4222
G1 X175.603 Y188.484 E.02413
G1 X148.635 Y161.516 E1.4222
G1 X147.988 Y161.516 E.02413
G1 X174.956 Y188.484 E1.4222
G1 X174.309 Y188.484 E.02413
G1 X147.341 Y161.516 E1.4222
G1 X146.694 Y161.516 E.02413
G1 X173.661 Y188.484 E1.4222
G1 X173.014 Y188.484 E.02413
G1 X146.046 Y161.516 E1.4222
G1 X145.399 Y161.516 E.02413
G1 X172.367 Y188.484 E1.4222
G1 X171.72 Y188.484 E.02413
G1 X144.752 Y161.516 E1.4222
G1 X144.105 Y161.516 E.02413
G1 X171.073 Y188.484 E1.4222
G1 X170.425 Y188.484 E.02413
G1 X143.458 Y161.516 E1.4222
G1 X142.811 Y161.516 E.02413
G1 X169.778 Y188.484 E1.4222
G1 X169.131 Y188.484 E.02413
G1 X142.163 Y161.516 E1.4222
G1 X141.516 Y161.516 E.02413
G1 X168.484 Y188.484 E1.4222
M73 P0 R198
G1 X167.837 Y188.484 E.02413
G1 X140.869 Y161.516 E1.4222
G1 X140.222 Y161.516 E.02413
G1 X167.19 Y188.484 E1.4222
G1 X166.542 Y188.484 E.02413
G1 X139.575 Y161.516 E1.4222
G1 X138.927 Y161.516 E.02413
G1 X165.895 Y188.484 E1.4222
G1 X165.248 Y188.484 E.02413
G1 X138.28 Y161.516 E1.4222
G1 X137.633 Y161.516 E.02413
G1 X164.601 Y188.484 E1.4222
G1 X163.954 Y188.484 E.02413
G1 X136.986 Y161.516 E1.4222
G1 X136.339 Y161.516 E.02413
G1 X163.307 Y188.484 E1.4222
G1 X162.659 Y188.484 E.02413
G1 X135.692 Y161.516 E1.4222
G1 X135.044 Y161.516 E.02413
G1 X162.012 Y188.484 E1.4222
G1 X161.365 Y188.484 E.02413
G1 X134.397 Y161.516 E1.4222
G1 X133.75 Y161.516 E.02413
G1 X160.718 Y188.484 E1.4222
G1 X160.071 Y188.484 E.02413
G1 X133.103 Y161.516 E1.4222
G1 X132.456 Y161.516 E.02413
G1 X159.423 Y188.484 E1.4222
G1 X158.776 Y188.484 E.02413
G1 X131.808 Y161.516 E1.4222
G1 X131.161 Y161.516 E.02413
G1 X158.129 Y188.484 E1.4222
G1 X157.482 Y188.484 E.02413
G1 X130.514 Y161.516 E1.4222
M73 P1 R198
G1 X129.867 Y161.516 E.02413
G1 X156.835 Y188.484 E1.4222
G1 X156.188 Y188.484 E.02413
G1 X129.22 Y161.516 E1.4222
G1 X128.573 Y161.516 E.02413
G1 X155.54 Y188.484 E1.4222
G1 X154.893 Y188.484 E.02413
G1 X127.925 Y161.516 E1.4222
G1 X127.278 Y161.516 E.02413
G1 X154.246 Y188.484 E1.4222
G1 X153.599 Y188.484 E.02413
G1 X126.631 Y161.516 E1.4222
G1 X125.984 Y161.516 E.02413
G1 X152.952 Y188.484 E1.4222
G1 X152.304 Y188.484 E.02413
G1 X125.337 Y161.516 E1.4222
G1 X124.689 Y161.516 E.02413
G1 X151.657 Y188.484 E1.4222
G1 X151.01 Y188.484 E.02413
G1 X124.042 Y161.516 E1.4222
G1 X123.395 Y161.516 E.02413
G1 X150.363 Y188.484 E1.4222
G1 X149.716 Y188.484 E.02413
G1 X122.748 Y161.516 E1.4222
G1 X122.101 Y161.516 E.02413
G1 X149.069 Y188.484 E1.4222
G1 X148.421 Y188.484 E.02413
G1 X121.454 Y161.516 E1.4222
G1 X120.806 Y161.516 E.02413
G1 X147.774 Y188.484 E1.4222
G1 X147.127 Y188.484 E.02413
G1 X120.159 Y161.516 E1.4222
G1 X119.512 Y161.516 E.02413
G1 X146.48 Y188.484 E1.4222
G1 X145.833 Y188.484 E.02413
G1 X118.865 Y161.516 E1.4222
G1 X118.218 Y161.516 E.02413
G1 X145.185 Y188.484 E1.4222
G1 X144.538 Y188.484 E.02413
G1 X117.57 Y161.516 E1.4222
G1 X116.923 Y161.516 E.02413
G1 X143.891 Y188.484 E1.4222
G1 X143.244 Y188.484 E.02413
G1 X116.276 Y161.516 E1.4222
G1 X115.629 Y161.516 E.02413
G1 X142.597 Y188.484 E1.4222
G1 X141.95 Y188.484 E.02413
G1 X114.982 Y161.516 E1.4222
G1 X114.335 Y161.516 E.02413
G1 X141.302 Y188.484 E1.4222
G1 X140.655 Y188.484 E.02413
G1 X113.687 Y161.516 E1.4222
G1 X113.04 Y161.516 E.02413
G1 X140.008 Y188.484 E1.4222
G1 X139.361 Y188.484 E.02413
G1 X112.393 Y161.516 E1.4222
G1 X111.746 Y161.516 E.02413
G1 X138.714 Y188.484 E1.4222
G1 X138.066 Y188.484 E.02413
G1 X111.099 Y161.516 E1.4222
G1 X110.451 Y161.516 E.02413
G1 X137.419 Y188.484 E1.4222
G1 X136.772 Y188.484 E.02413
G1 X109.804 Y161.516 E1.4222
G1 X109.157 Y161.516 E.02413
G1 X136.125 Y188.484 E1.4222
G1 X135.478 Y188.484 E.02413
G1 X108.51 Y161.516 E1.4222
G1 X107.863 Y161.516 E.02413
G1 X134.831 Y188.484 E1.4222
G1 X134.183 Y188.484 E.02413
G1 X107.216 Y161.516 E1.4222
G1 X106.568 Y161.516 E.02413
G1 X133.536 Y188.484 E1.4222
G1 X132.889 Y188.484 E.02413
G1 X105.921 Y161.516 E1.4222
G1 X105.274 Y161.516 E.02413
G1 X132.242 Y188.484 E1.4222
G1 X131.595 Y188.484 E.02413
G1 X104.627 Y161.516 E1.4222
G1 X103.98 Y161.516 E.02413
G1 X130.947 Y188.484 E1.4222
G1 X130.3 Y188.484 E.02413
G1 X103.332 Y161.516 E1.4222
G1 X102.685 Y161.516 E.02413
G1 X129.653 Y188.484 E1.4222
G1 X129.006 Y188.484 E.02413
G1 X102.038 Y161.516 E1.4222
G1 X101.391 Y161.516 E.02413
G1 X128.359 Y188.484 E1.4222
G1 X127.712 Y188.484 E.02413
G1 X100.744 Y161.516 E1.4222
G1 X100.097 Y161.516 E.02413
G1 X127.064 Y188.484 E1.4222
G1 X126.417 Y188.484 E.02413
G1 X100.016 Y162.083 E1.39232
G1 X100.016 Y162.73 E.02413
G1 X125.77 Y188.484 E1.35819
G1 X125.123 Y188.484 E.02413
G1 X100.016 Y163.377 E1.32405
G1 X100.016 Y164.024 E.02413
G1 X124.476 Y188.484 E1.28992
G1 X123.828 Y188.484 E.02413
G1 X100.016 Y164.672 E1.25579
G1 X100.016 Y165.319 E.02413
G1 X123.181 Y188.484 E1.22166
G1 X122.534 Y188.484 E.02413
G1 X100.016 Y165.966 E1.18753
G1 X100.016 Y166.613 E.02413
G1 X121.887 Y188.484 E1.1534
G1 X121.24 Y188.484 E.02413
G1 X100.016 Y167.26 E1.11927
G1 X100.016 Y167.907 E.02413
G1 X120.593 Y188.484 E1.08514
G1 X119.945 Y188.484 E.02413
G1 X100.016 Y168.555 E1.05101
M73 P1 R197
G1 X100.016 Y169.202 E.02413
G1 X119.298 Y188.484 E1.01688
G1 X118.651 Y188.484 E.02413
G1 X100.016 Y169.849 E.98275
G1 X100.016 Y170.496 E.02413
G1 X118.004 Y188.484 E.94862
G1 X117.357 Y188.484 E.02413
G1 X100.016 Y171.143 E.91449
G1 X100.016 Y171.791 E.02413
G1 X116.709 Y188.484 E.88036
G1 X116.062 Y188.484 E.02413
G1 X100.016 Y172.438 E.84623
G1 X100.016 Y173.085 E.02413
G1 X115.415 Y188.484 E.8121
G1 X114.768 Y188.484 E.02413
G1 X100.016 Y173.732 E.77797
G1 X100.016 Y174.379 E.02413
G1 X114.121 Y188.484 E.74384
G1 X113.474 Y188.484 E.02413
G1 X100.016 Y175.026 E.70971
G1 X100.016 Y175.674 E.02413
G1 X112.826 Y188.484 E.67558
G1 X112.179 Y188.484 E.02413
G1 X100.016 Y176.321 E.64145
G1 X100.016 Y176.968 E.02413
G1 X111.532 Y188.484 E.60732
G1 X110.885 Y188.484 E.02413
G1 X100.016 Y177.615 E.57319
G1 X100.016 Y178.262 E.02413
G1 X110.238 Y188.484 E.53906
G1 X109.59 Y188.484 E.02413
G1 X100.016 Y178.91 E.50493
G1 X100.016 Y179.557 E.02413
G1 X108.943 Y188.484 E.47079
G1 X108.296 Y188.484 E.02413
G1 X100.016 Y180.204 E.43666
G1 X100.016 Y180.851 E.02413
G1 X107.649 Y188.484 E.40253
G1 X107.002 Y188.484 E.02413
G1 X100.016 Y181.498 E.3684
G1 X100.016 Y182.145 E.02413
G1 X106.355 Y188.484 E.33427
G1 X105.707 Y188.484 E.02413
G1 X100.016 Y182.793 E.30014
G1 X100.016 Y183.44 E.02413
G1 X105.06 Y188.484 E.26601
G1 X104.413 Y188.484 E.02413
G1 X100.016 Y184.087 E.23188
G1 X100.016 Y184.734 E.02413
G1 X103.766 Y188.484 E.19775
G1 X103.119 Y188.484 E.02413
G1 X100.016 Y185.381 E.16362
G1 X100.016 Y186.028 E.02413
G1 X102.472 Y188.484 E.12949
G1 X101.824 Y188.484 E.02413
G1 X100.016 Y186.676 E.09536
G1 X100.016 Y187.323 E.02413
G1 X101.177 Y188.484 E.06123
G1 X100.53 Y188.484 E.02413
G1 X99.81 Y187.764 E.03795
; stop printing object (Unsaved).stl id:0 copy 0
; printing object (Unsaved).stl id:1 copy 0
G1 E-.8
EXCLUDE_OBJECT_END NAME=(Unsaved).stl_id_0_copy_0
EXCLUDE_OBJECT_START NAME=(Unsaved).stl_id_1_copy_0
G1 Z.6 F9000
G1 X98.75 Y149.75 Z.6
G1 Z.2
G1 E.8 F1800
;TYPE:Outer wall
;WIDTH:0.499999
G1 F3000
G1 X98.75 Y120.25 E1.09876
G1 X211.25 Y120.25 E4.19019
G1 X211.25 Y135 E.54938
G1 X211.25 Y149.75 E.54938
G1 X98.79 Y149.75 E4.1887
G1 X99.207 Y149.293 F9000
;TYPE:Inner wall
G1 F3000
G1 X99.207 Y120.707 E1.06471
G1 X210.793 Y120.707 E4.15614
G1 X210.793 Y135 E.53236
