; HEADER_BLOCK_START
; generated by OrcaSlicer 1.6.6 on 2023-08-26 at 22:34:28
; total layer number: 200
; HEADER_BLOCK_END

; THUMBNAIL_BLOCK_START
; THUMBNAIL_BLOCK_END

; external perimeters extrusion width = 0.40mm
; perimeters extrusion width = 0.45mm
; infill extrusion width = 0.45mm
; solid infill extrusion width = 0.40mm
; top infill extrusion width = 0.40mm
; support material extrusion width = 0.40mm
; first layer extrusion width = 0.50mm

; EXECUTABLE_BLOCK_START
EXCLUDE_OBJECT_DEFINE NAME=(Unsaved).stl_id_0_copy_0 CENTER=155,155 POLYGON=[[98.5,140],[211.5,140],[211.5,170],[98.5,170],[98.5,140]]
M73 P0 R99
;TYPE:Custom
START_PRINT T_BED=60 T_EXTRUDER=220
G90
G21
M83 ; use relative distances for extrusion
; filament start gcode
PRESSURE_ADVANCE_SELECT FILAMENT=PLA
M106 S0
;LAYER_CHANGE
;Z:0.2
;HEIGHT:0.2
;BEFORE_LAYER_CHANGE
;0.2
G92 E0

SET_VELOCITY_LIMIT ACCEL=1500 ACCEL_TO_DECEL=750
G1 E-.8 F3000
G1 Z.4 F9000
G1 X97.052 Y137.471
G1 Z.4
G1 Z.2
G1 E.8 F1800
;TYPE:Skirt
;WIDTH:0.5
G1 F3000
G1 X98.5 Y137.086 E.0558
G1 X211.5 Y137.086 E4.20882
G1 X212.962 Y137.479 E.05638
G1 X214.029 Y138.552 E.05638
G1 X214.414 Y140 E.0558
G1 X214.414 Y170 E1.11739
G1 X214.021 Y171.462 E.05638
G1 X212.948 Y172.529 E.05638
G1 X211.5 Y172.914 E.0558
G1 X98.5 Y172.914 E4.20882
G1 X97.038 Y172.521 E.05638
G1 X95.971 Y171.448 E.05638
G1 X95.586 Y170 E.0558
G1 X95.586 Y140 E1.11739
G1 X95.979 Y138.538 E.05638
G1 X97.024 Y137.499 E.05489
G1 X97.351 Y137.878 F9000
G1 F3000
G1 X97.485 Y137.762 E.00661
G1 X98.5 Y137.543 E.03866
G1 X211.5 Y137.543 E4.20882
G1 X212.831 Y137.935 E.05169
G1 X213.738 Y138.985 E.05169
G1 X213.957 Y140 E.03866
G1 X213.957 Y170 E1.11739
G1 X213.565 Y171.331 E.05169
G1 X212.515 Y172.238 E.05169
G1 X211.5 Y172.457 E.03866
G1 X98.5 Y172.457 E4.20882
G1 X97.169 Y172.065 E.05169
G1 X96.262 Y171.015 E.05169
G1 X96.043 Y170 E.03866
G1 X96.043 Y140 E1.11739
G1 X96.435 Y138.669 E.05169
G1 X97.321 Y137.904 E.04359
; printing object (Unsaved).stl id:0 copy 0
G1 E-.8
EXCLUDE_OBJECT_START NAME=(Unsaved).stl_id_0_copy_0
G1 Z.6 F9000
G1 X98.75 Y169.75 Z.6
G1 Z.2
G1 E.8 F1800
;TYPE:Outer wall
;WIDTH:0.499999
G1 F3000
G1 X98.75 Y140.25 E1.09876
G1 X211.25 Y140.25 E4.19019
G1 X211.25 Y155 E.54938
G1 X211.25 Y169.75 E.54938
G1 X98.79 Y169.75 E4.1887
G1 X99.207 Y169.293 F9000
;TYPE:Inner wall
G1 F3000
G1 X99.207 Y140.707 E1.06471
G1 X210.793 Y140.707 E4.15614
G1 X210.793 Y155 E.53236
G1 X210.793 Y169.293 E.53236
G1 X99.247 Y169.293 E4.15465
G1 X99.664 Y168.836 F9000
G1 F3000
G1 X99.664 Y141.164 E1.03066
G1 X210.336 Y141.164 E4.12209
G1 X210.336 Y155 E.51533
G1 X210.336 Y168.836 E.51533
G1 X99.704 Y168.836 E4.1206
G1 E-.8
G1 Z.6 F9000
G1 X210.19 Y142.236 Z.6
G1 Z.2
G1 E.8 F1800
;TYPE:Bottom surface
;WIDTH:0.500546
G1 F3000
G1 X209.47 Y141.516 E.03794
G1 X208.823 Y141.516 E.02413
G1 X209.984 Y142.677 E.06122
G1 X209.984 Y143.324 E.02413
G1 X208.176 Y141.516 E.09536
G1 X207.529 Y141.516 E.02413
G1 X209.984 Y143.971 E.12949
G1 X209.984 Y144.619 E.02413
G1 X206.881 Y141.516 E.16362
G1 X206.234 Y141.516 E.02413
G1 X209.984 Y145.266 E.19775
G1 X209.984 Y145.913 E.02413
G1 X205.587 Y141.516 E.23188
G1 X204.94 Y141.516 E.02413
G1 X209.984 Y146.56 E.26601
G1 X209.984 Y147.207 E.02413
G1 X204.293 Y141.516 E.30014
G1 X203.646 Y141.516 E.02413
G1 X209.984 Y147.854 E.33427
G1 X209.984 Y148.502 E.02413
G1 X202.998 Y141.516 E.3684
G1 X202.351 Y141.516 E.02413
G1 X209.984 Y149.149 E.40253
G1 X209.984 Y149.796 E.02413
G1 X201.704 Y141.516 E.43666
G1 X201.057 Y141.516 E.02413
G1 X209.984 Y150.443 E.47079
G1 X209.984 Y151.09 E.02413
G1 X200.41 Y141.516 E.50492
G1 X199.762 Y141.516 E.02413
G1 X209.984 Y151.738 E.53905
G1 X209.984 Y152.385 E.02413
G1 X199.115 Y141.516 E.57318
G1 X198.468 Y141.516 E.02413
G1 X209.984 Y153.032 E.60731
G1 X209.984 Y153.679 E.02413
G1 X197.821 Y141.516 E.64144
G1 X197.174 Y141.516 E.02413
G1 X209.984 Y154.326 E.67557
G1 X209.984 Y154.973 E.02413
G1 X196.527 Y141.516 E.7097
G1 X195.879 Y141.516 E.02413
G1 X209.984 Y155.621 E.74383
G1 X209.984 Y156.268 E.02413
G1 X195.232 Y141.516 E.77796
G1 X194.585 Y141.516 E.02413
G1 X209.984 Y156.915 E.81209
G1 X209.984 Y157.562 E.02413
G1 X193.938 Y141.516 E.84622
G1 X193.291 Y141.516 E.02413
G1 X209.984 Y158.209 E.88035
G1 X209.984 Y158.857 E.02413
G1 X192.643 Y141.516 E.91448
M73 P0 R98
G1 X191.996 Y141.516 E.02413
G1 X209.984 Y159.504 E.94862
G1 X209.984 Y160.151 E.02413
G1 X191.349 Y141.516 E.98275
G1 X190.702 Y141.516 E.02413
G1 X209.984 Y160.798 E1.01688
G1 X209.984 Y161.445 E.02413
G1 X190.055 Y141.516 E1.05101
G1 X189.408 Y141.516 E.02413
G1 X209.984 Y162.092 E1.08514
G1 X209.984 Y162.74 E.02413
G1 X188.76 Y141.516 E1.11927
G1 X188.113 Y141.516 E.02413
G1 X209.984 Y163.387 E1.1534
G1 X209.984 Y164.034 E.02413
G1 X187.466 Y141.516 E1.18753
G1 X186.819 Y141.516 E.02413
G1 X209.984 Y164.681 E1.22166
G1 X209.984 Y165.328 E.02413
G1 X186.172 Y141.516 E1.25579
G1 X185.524 Y141.516 E.02413
G1 X209.984 Y165.976 E1.28992
G1 X209.984 Y166.623 E.02413
G1 X184.877 Y141.516 E1.32405
G1 X184.23 Y141.516 E.02413
G1 X209.984 Y167.27 E1.35818
G1 X209.984 Y167.917 E.02413
G1 X183.583 Y141.516 E1.39231
G1 X182.936 Y141.516 E.02413
G1 X209.904 Y168.484 E1.4222
G1 X209.256 Y168.484 E.02413
G1 X182.289 Y141.516 E1.4222
G1 X181.641 Y141.516 E.02413
G1 X208.609 Y168.484 E1.4222
G1 X207.962 Y168.484 E.02413
G1 X180.994 Y141.516 E1.4222
G1 X180.347 Y141.516 E.02413
G1 X207.315 Y168.484 E1.4222
G1 X206.668 Y168.484 E.02413
G1 X179.7 Y141.516 E1.4222
G1 X179.053 Y141.516 E.02413
G1 X206.02 Y168.484 E1.4222
G1 X205.373 Y168.484 E.02413
G1 X178.405 Y141.516 E1.4222
G1 X177.758 Y141.516 E.02413
G1 X204.726 Y168.484 E1.4222
G1 X204.079 Y168.484 E.02413
G1 X177.111 Y141.516 E1.4222
G1 X176.464 Y141.516 E.02413
G1 X203.432 Y168.484 E1.4222
M73 P1 R98
G1 X202.785 Y168.484 E.02413
G1 X175.817 Y141.516 E1.4222
G1 X175.17 Y141.516 E.02413
G1 X202.137 Y168.484 E1.4222
G1 X201.49 Y168.484 E.02413
G1 X174.522 Y141.516 E1.4222
G1 X173.875 Y141.516 E.02413
G1 X200.843 Y168.484 E1.4222
G1 X200.196 Y168.484 E.02413
G1 X173.228 Y141.516 E1.4222
G1 X172.581 Y141.516 E.02413
G1 X199.549 Y168.484 E1.4222
G1 X198.901 Y168.484 E.02413
G1 X171.934 Y141.516 E1.4222
G1 X171.286 Y141.516 E.02413
G1 X198.254 Y168.484 E1.4222
G1 X197.607 Y168.484 E.02413
G1 X170.639 Y141.516 E1.4222
G1 X169.992 Y141.516 E.02413
G1 X196.96 Y168.484 E1.4222
G1 X196.313 Y168.484 E.02413
G1 X169.345 Y141.516 E1.4222
G1 X168.698 Y141.516 E.02413
G1 X195.666 Y168.484 E1.4222
G1 X195.018 Y168.484 E.02413
G1 X168.051 Y141.516 E1.4222
G1 X167.403 Y141.516 E.02413
G1 X194.371 Y168.484 E1.4222
G1 X193.724 Y168.484 E.02413
G1 X166.756 Y141.516 E1.4222
G1 X166.109 Y141.516 E.02413
G1 X193.077 Y168.484 E1.4222
G1 X192.43 Y168.484 E.02413
G1 X165.462 Y141.516 E1.4222
G1 X164.815 Y141.516 E.02413
G1 X191.782 Y168.484 E1.4222
G1 X191.135 Y168.484 E.02413
G1 X164.167 Y141.516 E1.4222
G1 X163.52 Y141.516 E.02413
G1 X190.488 Y168.484 E1.4222
G1 X189.841 Y168.484 E.02413
G1 X162.873 Y141.516 E1.4222
G1 X162.226 Y141.516 E.02413
G1 X189.194 Y168.484 E1.4222
G1 X188.547 Y168.484 E.02413
G1 X161.579 Y141.516 E1.4222
G1 X160.932 Y141.516 E.02413
G1 X187.899 Y168.484 E1.4222
G1 X187.252 Y168.484 E.02413
G1 X160.284 Y141.516 E1.4222
G1 X159.637 Y141.516 E.02413
G1 X186.605 Y168.484 E1.4222
G1 X185.958 Y168.484 E.02413
G1 X158.99 Y141.516 E1.4222
G1 X158.343 Y141.516 E.02413
G1 X185.311 Y168.484 E1.4222
G1 X184.663 Y168.484 E.02413
G1 X157.696 Y141.516 E1.4222
G1 X157.048 Y141.516 E.02413
G1 X184.016 Y168.484 E1.4222
G1 X183.369 Y168.484 E.02413
G1 X156.401 Y141.516 E1.4222
G1 X155.754 Y141.516 E.02413
G1 X182.722 Y168.484 E1.4222
G1 X182.075 Y168.484 E.02413
G1 X155.107 Y141.516 E1.4222
G1 X154.46 Y141.516 E.02413
G1 X181.428 Y168.484 E1.4222
G1 X180.78 Y168.484 E.02413
G1 X153.813 Y141.516 E1.4222
G1 X153.165 Y141.516 E.02413
G1 X180.133 Y168.484 E1.4222
G1 X179.486 Y168.484 E.02413
G1 X152.518 Y141.516 E1.4222
G1 X151.871 Y141.516 E.02413
G1 X178.839 Y168.484 E1.4222
G1 X178.192 Y168.484 E.02413
G1 X151.224 Y141.516 E1.4222
G1 X150.577 Y141.516 E.02413
G1 X177.544 Y168.484 E1.4222
G1 X176.897 Y168.484 E.02413
G1 X149.929 Y141.516 E1.4222
G1 X149.282 Y141.516 E.02413
G1 X176.25 Y168.484 E1.4222
G1 X175.603 Y168.484 E.02413
G1 X148.635 Y141.516 E1.4222
G1 X147.988 Y141.516 E.02413
G1 X174.956 Y168.484 E1.4222
G1 X174.309 Y168.484 E.02413
G1 X147.341 Y141.516 E1.4222
G1 X146.694 Y141.516 E.02413
G1 X173.661 Y168.484 E1.4222
G1 X173.014 Y168.484 E.02413
G1 X146.046 Y141.516 E1.4222
G1 X145.399 Y141.516 E.02413
G1 X172.367 Y168.484 E1.4222
G1 X171.72 Y168.484 E.02413
G1 X144.752 Y141.516 E1.4222
G1 X144.105 Y141.516 E.02413
G1 X171.073 Y168.484 E1.4222
G1 X170.425 Y168.484 E.02413
G1 X143.458 Y141.516 E1.4222
M73 P1 R97
G1 X142.811 Y141.516 E.02413
G1 X169.778 Y168.484 E1.4222
G1 X169.131 Y168.484 E.02413
G1 X142.163 Y141.516 E1.4222
G1 X141.516 Y141.516 E.02413
G1 X168.484 Y168.484 E1.4222
G1 X167.837 Y168.484 E.02413
G1 X140.869 Y141.516 E1.4222
G1 X140.222 Y141.516 E.02413
G1 X167.19 Y168.484 E1.4222
G1 X166.542 Y168.484 E.02413
G1 X139.575 Y141.516 E1.4222
G1 X138.927 Y141.516 E.02413
G1 X165.895 Y168.484 E1.4222
G1 X165.248 Y168.484 E.02413
G1 X138.28 Y141.516 E1.4222
G1 X137.633 Y141.516 E.02413
G1 X164.601 Y168.484 E1.4222
G1 X163.954 Y168.484 E.02413
G1 X136.986 Y141.516 E1.4222
G1 X136.339 Y141.516 E.02413
G1 X163.307 Y168.484 E1.4222
G1 X162.659 Y168.484 E.02413
G1 X135.692 Y141.516 E1.4222
G1 X135.044 Y141.516 E.02413
G1 X162.012 Y168.484 E1.4222
G1 X161.365 Y168.484 E.02413
G1 X134.397 Y141.516 E1.4222
G1 X133.75 Y141.516 E.02413
G1 X160.718 Y168.484 E1.4222
G1 X160.071 Y168.484 E.02413
G1 X133.103 Y141.516 E1.4222
G1 X132.456 Y141.516 E.02413
G1 X159.423 Y168.484 E1.4222
G1 X158.776 Y168.484 E.02413
G1 X131.808 Y141.516 E1.4222
G1 X131.161 Y141.516 E.02413
G1 X158.129 Y168.484 E1.4222
G1 X157.482 Y168.484 E.02413
G1 X130.514 Y141.516 E1.4222
G1 X129.867 Y141.516 E.02413
G1 X156.835 Y168.484 E1.4222
G1 X156.188 Y168.484 E.02413
G1 X129.22 Y141.516 E1.4222
G1 X128.573 Y141.516 E.02413
G1 X155.54 Y168.484 E1.4222
M73 P2 R97
G1 X154.893 Y168.484 E.02413
G1 X127.925 Y141.516 E1.4222
G1 X127.278 Y141.516 E.02413
G1 X154.246 Y168.484 E1.4222
G1 X153.599 Y168.484 E.02413
G1 X126.631 Y141.516 E1.4222
G1 X125.984 Y141.516 E.02413
G1 X152.952 Y168.484 E1.4222
G1 X152.304 Y168.484 E.02413
G1 X125.337 Y141.516 E1.4222
G1 X124.689 Y141.516 E.02413
G1 X151.657 Y168.484 E1.4222
G1 X151.01 Y168.484 E.02413
G1 X124.042 Y141.516 E1.4222
G1 X123.395 Y141.516 E.02413
G1 X150.363 Y168.484 E1.4222
G1 X149.716 Y168.484 E.02413
G1 X122.748 Y141.516 E1.4222
G1 X122.101 Y141.516 E.02413
G1 X149.069 Y168.484 E1.4222
G1 X148.421 Y168.484 E.02413
G1 X121.454 Y141.516 E1.4222
G1 X120.806 Y141.516 E.02413
G1 X147.774 Y168.484 E1.4222
G1 X147.127 Y168.484 E.02413
G1 X120.159 Y141.516 E1.4222
G1 X119.512 Y141.516 E.02413
G1 X146.48 Y168.484 E1.4222
G1 X145.833 Y168.484 E.02413
G1 X118.865 Y141.516 E1.4222
G1 X118.218 Y141.516 E.02413
G1 X145.185 Y168.484 E1.4222
G1 X144.538 Y168.484 E.02413
G1 X117.57 Y141.516 E1.4222
G1 X116.923 Y141.516 E.02413
G1 X143.891 Y168.484 E1.4222
G1 X143.244 Y168.484 E.02413
G1 X116.276 Y141.516 E1.4222
G1 X115.629 Y141.516 E.02413
G1 X142.597 Y168.484 E1.4222
G1 X141.95 Y168.484 E.02413
G1 X114.982 Y141.516 E1.4222
G1 X114.335 Y141.516 E.02413
G1 X141.302 Y168.484 E1.4222
G1 X140.655 Y168.484 E.02413
G1 X113.687 Y141.516 E1.4222
G1 X113.04 Y141.516 E.02413
G1 X140.008 Y168.484 E1.4222
G1 X139.361 Y168.484 E.02413
G1 X112.393 Y141.516 E1.4222
G1 X111.746 Y141.516 E.02413
G1 X138.714 Y168.484 E1.4222
G1 X138.066 Y168.484 E.02413
G1 X111.099 Y141.516 E1.4222
G1 X110.451 Y141.516 E.02413
G1 X137.419 Y168.484 E1.4222
G1 X136.772 Y168.484 E.02413
G1 X109.804 Y141.516 E1.4222
G1 X109.157 Y141.516 E.02413
G1 X136.125 Y168.484 E1.4222
G1 X135.478 Y168.484 E.02413
G1 X108.51 Y141.516 E1.4222
G1 X107.863 Y141.516 E.02413
G1 X134.831 Y168.484 E1.4222
G1 X134.183 Y168.484 E.02413
G1 X107.216 Y141.516 E1.4222
G1 X106.568 Y141.516 E.02413
G1 X133.536 Y168.484 E1.4222
G1 X132.889 Y168.484 E.02413
G1 X105.921 Y141.516 E1.4222
G1 X105.274 Y141.516 E.02413
G1 X132.242 Y168.484 E1.4222
G1 X131.595 Y168.484 E.02413
G1 X104.627 Y141.516 E1.4222
G1 X103.98 Y141.516 E.02413
G1 X130.947 Y168.484 E1.4222
G1 X130.3 Y168.484 E.02413
G1 X103.332 Y141.516 E1.4222
G1 X102.685 Y141.516 E.02413
G1 X129.653 Y168.484 E1.4222
G1 X129.006 Y168.484 E.02413
G1 X102.038 Y141.516 E1.4222
G1 X101.391 Y141.516 E.02413
G1 X128.359 Y168.484 E1.4222
G1 X127.712 Y168.484 E.02413
G1 X100.744 Y141.516 E1.4222
G1 X100.097 Y141.516 E.02413
G1 X127.064 Y168.484 E1.4222
G1 X126.417 Y168.484 E.02413
G1 X100.016 Y142.083 E1.39232
G1 X100.016 Y142.73 E.02413
G1 X125.77 Y168.484 E1.35819
G1 X125.123 Y168.484 E.02413
G1 X100.016 Y143.377 E1.32405
G1 X100.016 Y144.024 E.02413
G1 X124.476 Y168.484 E1.28992
G1 X123.828 Y168.484 E.02413
G1 X100.016 Y144.672 E1.25579
G1 X100.016 Y145.319 E.02413
G1 X123.181 Y168.484 E1.22166
G1 X122.534 Y168.484 E.02413
G1 X100.016 Y145.966 E1.18753
G1 X100.016 Y146.613 E.02413
G1 X121.887 Y168.484 E1.1534
M73 P2 R96
G1 X121.24 Y168.484 E.02413
G1 X100.016 Y147.26 E1.11927
G1 X100.016 Y147.907 E.02413
G1 X120.593 Y168.484 E1.08514
G1 X119.945 Y168.484 E.02413
G1 X100.016 Y148.555 E1.05101
G1 X100.016 Y149.202 E.02413
G1 X119.298 Y168.484 E1.01688
G1 X118.651 Y168.484 E.02413
G1 X100.016 Y149.849 E.98275
G1 X100.016 Y150.496 E.02413
G1 X118.004 Y168.484 E.94862
G1 X117.357 Y168.484 E.02413
G1 X100.016 Y151.143 E.91449
G1 X100.016 Y151.791 E.02413
G1 X116.709 Y168.484 E.88036
G1 X116.062 Y168.484 E.02413
G1 X100.016 Y152.438 E.84623
G1 X100.016 Y153.085 E.02413
G1 X115.415 Y168.484 E.8121
G1 X114.768 Y168.484 E.02413
G1 X100.016 Y153.732 E.77797
G1 X100.016 Y154.379 E.02413
G1 X114.121 Y168.484 E.74384
G1 X113.474 Y168.484 E.02413
G1 X100.016 Y155.026 E.70971
G1 X100.016 Y155.674 E.02413
G1 X112.826 Y168.484 E.67558
G1 X112.179 Y168.484 E.02413
G1 X100.016 Y156.321 E.64145
G1 X100.016 Y156.968 E.02413
G1 X111.532 Y168.484 E.60732
G1 X110.885 Y168.484 E.02413
G1 X100.016 Y157.615 E.57319
G1 X100.016 Y158.262 E.02413
G1 X110.238 Y168.484 E.53906
G1 X109.59 Y168.484 E.02413
G1 X100.016 Y158.91 E.50493
G1 X100.016 Y159.557 E.02413
G1 X108.943 Y168.484 E.47079
G1 X108.296 Y168.484 E.02413
G1 X100.016 Y160.204 E.43666
G1 X100.016 Y160.851 E.02413
G1 X107.649 Y168.484 E.40253
G1 X107.002 Y168.484 E.02413
G1 X100.016 Y161.498 E.3684
G1 X100.016 Y162.145 E.02413
G1 X106.355 Y168.484 E.33427
G1 X105.707 Y168.484 E.02413
G1 X100.016 Y162.793 E.30014
G1 X100.016 Y163.44 E.02413
G1 X105.06 Y168.484 E.26601
G1 X104.413 Y168.484 E.02413
G1 X100.016 Y164.087 E.23188
G1 X100.016 Y164.734 E.02413
G1 X103.766 Y168.484 E.19775
G1 X103.119 Y168.484 E.02413
G1 X100.016 Y165.381 E.16362
G1 X100.016 Y166.028 E.02413
G1 X102.472 Y168.484 E.12949
G1 X101.824 Y168.484 E.02413
G1 X100.016 Y166.676 E.09536
G1 X100.016 Y167.323 E.02413
G1 X101.177 Y168.484 E.06123
G1 X100.53 Y168.484 E.02413
G1 X99.81 Y167.764 E.03795
; stop printing object (Unsaved).stl id:0 copy 0
M106 S255
;LAYER_CHANGE
;Z:0.4
;HEIGHT:0.2
;BEFORE_LAYER_CHANGE
;0.4
G92 E0

EXCLUDE_OBJECT_END NAME=(Unsaved).stl_id_0_copy_0
SET_VELOCITY_LIMIT ACCEL=4000 ACCEL_TO_DECEL=2000
; printing object (Unsaved).stl id:0 copy 0
SET_VELOCITY_LIMIT ACCEL=3000 ACCEL_TO_DECEL=1500
G1 E-.8 F3000
EXCLUDE_OBJECT_START NAME=(Unsaved).stl_id_0_copy_0
G1 Z.6 F9000
G1 X98.7 Y169.8 Z.6
G1 Z.4
G1 E.8 F1800
SET_VELOCITY_LIMIT ACCEL=2000 ACCEL_TO_DECEL=1000
;TYPE:Outer wall
;WIDTH:0.399999
G1 F4200
G1 X98.7 Y140.2 E.86128
G1 X211.3 Y140.2 E3.27637
G1 X211.3 Y155 E.43064
G1 X211.3 Y169.8 E.43064
G1 X98.74 Y169.8 E3.27521
SET_VELOCITY_LIMIT ACCEL=3000 ACCEL_TO_DECEL=1500
G1 X99.082 Y169.418 F9000
;TYPE:Inner wall
;WIDTH:0.449999
G1 F4800
G1 X99.082 Y140.582 E.95654
G1 X210.918 Y140.582 E3.70979
M73 P3 R96
G1 X210.918 Y155 E.47827
G1 X210.918 Y169.418 E.47827
G1 X99.122 Y169.418 E3.70847
G1 X99.489 Y169.011 F9000
G1 F4800
G1 X99.489 Y140.989 E.92953
