; generated by SuperSlicer 2.5.59 on 2023-06-15 at 20:13:15 UTC


;
;

;
;
; 

; external perimeters extrusion width = 0.40mm
; perimeters extrusion width = 0.46mm
; infill extrusion width = 0.64mm
; solid infill extrusion width = 0.56mm
; top infill extrusion width = 0.40mm
; support material extrusion width = 0.46mm
; first layer extrusion width = 0.50mm

; object:{"name":"(Unsaved)","id":"(Unsaved).stl id:0 copy 0","object_center":[152.500000,150.000000,0.000000],"boundingbox_center":[152.500000,150.000000,1.500001],"boundingbox_size":[122.000000,48.000000,3.000003]}
EXCLUDE_OBJECT_DEFINE NAME=_Unsaved_stl_id_0_copy_0 CENTER=152.500000,150.000000 POLYGON=[[91.500000,139.000000],[91.568144,138.482368],[91.767944,138.000000],[92.085784,137.585792],[92.500000,137.267952],[92.982360,137.068144],[93.500000,137.000000],[206.500000,126.000000],[211.500000,126.000000],[213.431856,138.482368],[213.500000,139.000000],[213.500000,172.000000],[213.431856,172.517632],[213.232064,173.000000],[212.914208,173.414208],[212.500000,173.732064],[212.017632,173.931856],[211.500000,174.000000],[93.500000,174.000000],[92.982360,173.931856],[92.500000,173.732064],[92.085784,173.414208],[91.767944,173.000000],[91.568144,172.517632],[91.500000,172.000000],[91.500000,139.000000]]
; plater:{"center":[152.500000,150.000000,0.000000],"boundingbox_center":[152.500000,150.000000,1.500001],"boundingbox_size":[122.000000,48.000000,3.000003]}

M73 P0 R31
;TYPE:Custom
START_PRINT T_BED=60 T_EXTRUDER=210
M107
G21 ; set units to millimeters
G90 ; use absolute coordinates
M82 ; use absolute distances for extrusion
G92 E0
; Filament gcode

    PRESSURE_ADVANCE_SELECT FILAMENT=PLA
;_TOOLCHANGE 0
M104 S210 ; set temperature
M109 S210 ; set temperature and wait for it to be reached
M190 S60 ; set bed temperature and wait for it to be reached
M107
;LAYER_CHANGE
;Z:0.2
;HEIGHT:0.2
G1 Z0.2 F9000
M73 P0 R31
G1 E-0.8 F3000
M204 S1000
G1 X89.895 Y134.709 F9000
G1 E0 F1800
;TYPE:Skirt
;WIDTH:0.52
G1 X88.908 Y135.788 E0.05687
G1 X88.233 Y137.087 E0.11375
G1 X87.916 Y138.522 E0.17088
G1 X87.884 Y171.993 E1.47213
G1 X87.982 Y172.976 E1.51053
G1 X88.423 Y174.371 E1.5674
G1 X89.209 Y175.605 E1.62428
G1 X90.289 Y176.593 E1.68115
G1 X91.587 Y177.267 E1.73802
G1 X92.523 Y177.518 E1.77573
G1 X93.507 Y177.616 E1.81414
G1 X211.493 Y177.616 E6.40099
G1 X212.477 Y177.518 E6.43939
G1 X213.871 Y177.077 E6.49627
G1 X215.105 Y176.291 E6.55314
G1 X216.092 Y175.212 E6.61001
G1 X216.767 Y173.913 E6.66689
G1 X217.084 Y172.478 E6.72402
G1 X217.116 Y139.007 E8.02527
G1 X215.092 Y125.514 E8.55566
G1 X214.534 Y124.052 E8.61651
G1 X213.293 Y122.871 E8.68309
G1 X211.655 Y122.372 E8.74966
G1 X210.735 Y122.313 E8.7855
G1 X207.5 Y122.306 E8.91128
G1 X206.219 Y122.382 E8.96115
G1 X93.146 Y133.402 E13.37781
G1 X92.523 Y133.482 E13.40221
G1 X91.129 Y133.923 E13.45909
G1 X89.895 Y134.709 E13.51596
G1 X90.186 Y135.088 F9000
G1 F1800
G1 X89.286 Y136.079 E13.568
G1 X88.674 Y137.269 E13.62003
G1 X88.455 Y138.086 E13.6529
G1 X88.361 Y139.007 E13.68888
G1 X88.361 Y171.993 E14.97128
G1 X88.455 Y172.914 E15.00726
G1 X88.863 Y174.189 E15.05929
G1 X89.588 Y175.314 E15.11133
G1 X90.579 Y176.214 E15.16337
G1 X91.769 Y176.826 E15.2154
G1 X92.586 Y177.045 E15.24827
G1 X93.507 Y177.139 E15.28425
G1 X211.493 Y177.139 E19.8711
M73 P1 R31
G1 X212.414 Y177.045 E19.90708
G1 X213.689 Y176.637 E19.95912
G1 X214.814 Y175.912 E20.01116
G1 X215.714 Y174.921 E20.06319
G1 X216.326 Y173.731 E20.11523
G1 X216.611 Y172.416 E20.16752
G1 X216.639 Y139.007 E21.46635
G1 X214.621 Y125.587 E21.99392
G1 X214.245 Y124.497 E22.03875
G1 X213.145 Y123.339 E22.10084
G1 X211.625 Y122.848 E22.16293
G1 X210.705 Y122.789 E22.19877
G1 X207.5 Y122.783 E22.32337
G1 X206.266 Y122.857 E22.37144
G1 X93.192 Y133.877 E26.7881
G1 X92.586 Y133.955 E26.81188
G1 X91.311 Y134.363 E26.86392
G1 X90.186 Y135.088 E26.91596
G92 E0
G1 E-0.8 F3000
; printing object (Unsaved).stl id:0 copy 0
EXCLUDE_OBJECT_START NAME=_Unsaved_stl_id_0_copy_0
G1 X165.907 Y160.446 F9000
M73 P1 R31
G1 E0 F1800
;TYPE:Internal perimeter
;WIDTH:0.5
G1 X165.937 Y160.407 E0.00183
G1 X166.218 Y159.728 E0.02919
G1 X166.307 Y159.053 E0.05456
G1 X166.307 Y151.947 E0.31923
G1 X166.218 Y151.272 E0.3446
G1 X165.937 Y150.593 E0.37196
G1 X165.49 Y150.01 E0.39932
G1 X164.907 Y149.563 E0.42669
G1 X164.228 Y149.282 E0.45405
G1 X163.553 Y149.193 E0.47942
G1 X141.447 Y149.193 E1.30278
G1 X140.772 Y149.282 E1.32815
G1 X140.093 Y149.563 E1.35551
G1 X139.51 Y150.01 E1.38288
G1 X139.063 Y150.593 E1.41024
G1 X138.782 Y151.272 E1.4376
G1 X138.693 Y151.947 E1.46297
G1 X138.693 Y159.053 E1.72764
G1 X138.782 Y159.728 E1.75301
G1 X139.063 Y160.407 E1.78037
G1 X139.51 Y160.99 E1.80773
G1 X140.093 Y161.437 E1.8351
G1 X140.772 Y161.718 E1.86246
G1 X141.447 Y161.807 E1.88783
G1 X163.553 Y161.807 E2.71119
G1 X164.228 Y161.718 E2.73656
G1 X164.907 Y161.437 E2.76392
G1 X165.49 Y160.99 E2.79129
G1 X165.907 Y160.446 E2.81682
G1 X165.538 Y160.177 F9000
;TYPE:External perimeter
G1 F1800
G1 X165.773 Y159.609 E2.8397
G1 X165.85 Y159.023 E2.86172
G1 X165.85 Y151.977 E3.12415
G1 X165.773 Y151.391 E3.14617
G1 X165.538 Y150.823 E3.16904
G1 X165.164 Y150.336 E3.19192
G1 X164.677 Y149.962 E3.2148
G1 X164.109 Y149.727 E3.23768
G1 X163.523 Y149.65 E3.2597
G1 X141.477 Y149.65 E4.08082
G1 X140.891 Y149.727 E4.10284
G1 X140.323 Y149.962 E4.12572
G1 X139.836 Y150.336 E4.1486
G1 X139.462 Y150.823 E4.17148
G1 X139.227 Y151.391 E4.19436
G1 X139.15 Y151.977 E4.21637
G1 X139.15 Y159.023 E4.47881
G1 X139.227 Y159.609 E4.50082
G1 X139.462 Y160.177 E4.5237
G1 X139.836 Y160.664 E4.54658
G1 X140.323 Y161.038 E4.56946
G1 X140.891 Y161.273 E4.59234
G1 X141.477 Y161.35 E4.61436
G1 X163.523 Y161.35 E5.43548
G1 X164.109 Y161.273 E5.4575
G1 X164.677 Y161.038 E5.48038
G1 X165.164 Y160.664 E5.50326
G1 X165.538 Y160.177 E5.52613
;WIPE_START
M204 S3000
G1 X165.937 Y160.159 F9000
;WIPE_END
G92 E0
G1 E-0.8 F3000
M204 S1000
G1 X207.621 Y138.206 F9000
G1 E0 F1800
;TYPE:Internal perimeter
G1 X207.927 Y138.237 E0.01146
G1 X209 Y138.264 E0.05145
G1 X210.073 Y138.237 E0.09144
G1 X211.131 Y138.13 E0.13105
G1 X211.468 Y138.239 E0.14423
G1 X211.649 Y138.271 E0.15106
G1 X211.848 Y138.36 E0.15919
G1 X212.012 Y138.486 E0.16689
G1 X212.128 Y138.637 E0.174
G1 X212.2 Y138.812 E0.18105
G1 X212.236 Y139.083 E0.19121
G1 X212.236 Y153.667 E0.73442
G1 X212.2 Y153.938 E0.74458
G1 X212.128 Y154.112 E0.75163
G1 X212.013 Y154.263 E0.75868
G1 X211.862 Y154.378 E0.76572
G1 X211.688 Y154.45 E0.77277
G1 X211.417 Y154.486 E0.78293
G1 X210.417 Y154.486 E0.82018
G1 X209.717 Y154.578 E0.84648
G1 X208.987 Y154.88 E0.87589
G1 X208.361 Y155.361 E0.90531
G1 X207.88 Y155.987 E0.93472
G1 X207.578 Y156.717 E0.96413
G1 X207.475 Y157.5 E0.99355
G1 X207.578 Y158.283 E1.02296
G1 X207.88 Y159.013 E1.05237
G1 X208.361 Y159.639 E1.08179
G1 X208.987 Y160.12 E1.1112
G1 X209.717 Y160.422 E1.14061
G1 X210.417 Y160.514 E1.16691
G1 X211.417 Y160.514 E1.20416
G1 X211.688 Y160.55 E1.21432
G1 X211.862 Y160.622 E1.22137
G1 X212.013 Y160.737 E1.22842
G1 X212.128 Y160.888 E1.23547
G1 X212.2 Y161.062 E1.24252
G1 X212.236 Y161.333 E1.25268
G1 X212.236 Y171.917 E1.6469
G1 X212.2 Y172.188 E1.65706
G1 X212.128 Y172.362 E1.66411
G1 X212.013 Y172.513 E1.67116
G1 X211.862 Y172.628 E1.67821
G1 X211.688 Y172.7 E1.68526
G1 X211.417 Y172.736 E1.69542
G1 X208.583 Y172.736 E1.80099
G1 X208.312 Y172.7 E1.81115
G1 X208.138 Y172.628 E1.8182
G1 X207.987 Y172.513 E1.82525
G1 X207.872 Y172.362 E1.83229
G1 X207.8 Y172.188 E1.83934
G1 X207.764 Y171.917 E1.8495
G1 X207.764 Y170.917 E1.88675
G1 X207.663 Y170.152 E1.91548
G1 X207.336 Y169.362 E1.94733
G1 X206.816 Y168.684 E1.97917
G1 X206.138 Y168.164 E2.01101
G1 X205.348 Y167.837 E2.04286
G1 X204.583 Y167.736 E2.07159
G1 X201.417 Y167.736 E2.1895
G1 X200.652 Y167.837 E2.21823
G1 X199.862 Y168.164 E2.25008
G1 X199.184 Y168.684 E2.28192
G1 X198.664 Y169.362 E2.31376
G1 X198.337 Y170.152 E2.34561
G1 X198.236 Y170.917 E2.37434
G1 X198.236 Y171.917 E2.41159
G1 X198.2 Y172.188 E2.42175
G1 X198.128 Y172.362 E2.4288
G1 X198.013 Y172.513 E2.43585
G1 X197.862 Y172.628 E2.44289
G1 X197.688 Y172.7 E2.44994
G1 X197.417 Y172.736 E2.4601
G1 X157.083 Y172.736 E3.9624
G1 X156.812 Y172.7 E3.97256
G1 X156.638 Y172.628 E3.97961
G1 X156.487 Y172.513 E3.98666
G1 X156.372 Y172.362 E3.99371
G1 X156.3 Y172.188 E4.00076
G1 X156.264 Y171.917 E4.01092
G1 X156.264 Y168.417 E4.14128
G1 X156.163 Y167.652 E4.17001
G1 X155.836 Y166.862 E4.20186
G1 X155.316 Y166.184 E4.2337
G1 X154.638 Y165.664 E4.26555
G1 X153.848 Y165.337 E4.29739
G1 X153.083 Y165.236 E4.32612
G1 X151.917 Y165.236 E4.36954
G1 X151.152 Y165.337 E4.39827
G1 X150.362 Y165.664 E4.43012
G1 X149.684 Y166.184 E4.46196
G1 X149.164 Y166.862 E4.4938
G1 X148.837 Y167.652 E4.52565
G1 X148.736 Y168.417 E4.55438
G1 X148.736 Y171.917 E4.68474
G1 X148.7 Y172.188 E4.6949
G1 X148.628 Y172.362 E4.70195
G1 X148.513 Y172.513 E4.709
G1 X148.362 Y172.628 E4.71605
G1 X148.188 Y172.7 E4.7231
G1 X147.917 Y172.736 E4.73326
G1 X93.583 Y172.736 E6.75701
G1 X93.312 Y172.7 E6.76717
G1 X93.138 Y172.628 E6.77422
G1 X92.987 Y172.513 E6.78126
G1 X92.872 Y172.362 E6.78831
G1 X92.8 Y172.188 E6.79536
G1 X92.764 Y171.917 E6.80552
G1 X92.764 Y161.333 E7.19975
M73 P2 R31
G1 X92.8 Y161.062 E7.20991
G1 X92.872 Y160.888 E7.21696
G1 X92.987 Y160.737 E7.22401
G1 X93.138 Y160.622 E7.23105
G1 X93.312 Y160.55 E7.2381
G1 X93.583 Y160.514 E7.24826
G1 X94.583 Y160.514 E7.28551
G1 X95.283 Y160.422 E7.31181
G1 X96.013 Y160.12 E7.34123
G1 X96.639 Y159.639 E7.37064
G1 X97.12 Y159.013 E7.40005
G1 X97.422 Y158.283 E7.42946
G1 X97.525 Y157.5 E7.45888
G1 X97.422 Y156.717 E7.48829
G1 X97.12 Y155.987 E7.51771
G1 X96.639 Y155.361 E7.54712
G1 X96.013 Y154.88 E7.57653
G1 X95.283 Y154.578 E7.60594
G1 X94.583 Y154.486 E7.63225
G1 X93.583 Y154.486 E7.66949
G1 X93.312 Y154.45 E7.67965
G1 X93.138 Y154.378 E7.6867
G1 X92.987 Y154.263 E7.69375
G1 X92.872 Y154.112 E7.7008
G1 X92.8 Y153.938 E7.70785
G1 X92.764 Y153.667 E7.71801
G1 X92.764 Y139.083 E8.26122
G1 X92.8 Y138.812 E8.27138
G1 X92.872 Y138.638 E8.27843
G1 X92.987 Y138.487 E8.28548
G1 X93.138 Y138.372 E8.29253
G1 X93.312 Y138.3 E8.29957
G1 X93.583 Y138.264 E8.30973
G1 X149.236 Y138.272 E10.3826
G1 X149.236 Y139.57 E10.43096
G1 X148.589 Y139.302 E10.45704
G1 X148 Y139.225 E10.47916
G1 X147.411 Y139.302 E10.50128
G1 X146.862 Y139.53 E10.52341
G1 X146.391 Y139.891 E10.54553
G1 X146.03 Y140.362 E10.56765
G1 X145.802 Y140.911 E10.58977
G1 X145.736 Y141.417 E10.60878
G1 X145.736 Y143.583 E10.68944
G1 X145.802 Y144.089 E10.70845
G1 X146.03 Y144.638 E10.73057
G1 X146.391 Y145.109 E10.75269
G1 X146.862 Y145.47 E10.77481
G1 X147.411 Y145.698 E10.79693
G1 X148 Y145.775 E10.81905
G1 X148.589 Y145.698 E10.84118
G1 X149.217 Y145.437 E10.86649
G1 X149.337 Y146.348 E10.90068
G1 X149.664 Y147.138 E10.93252
G1 X150.184 Y147.816 E10.96437
G1 X150.862 Y148.336 E10.99621
G1 X151.117 Y148.442 E11.00645
G1 X151.058 Y148.736 E11.01763
G1 X141.417 Y148.736 E11.37672
G1 X140.652 Y148.837 E11.40545
G1 X139.862 Y149.164 E11.43729
G1 X139.184 Y149.684 E11.46914
G1 X138.664 Y150.362 E11.50098
G1 X138.337 Y151.152 E11.53282
G1 X138.236 Y151.917 E11.56156
G1 X138.236 Y159.083 E11.82845
G1 X138.337 Y159.848 E11.85718
G1 X138.664 Y160.638 E11.88903
G1 X139.184 Y161.316 E11.92087
G1 X139.862 Y161.836 E11.95272
G1 X140.652 Y162.163 E11.98456
G1 X141.417 Y162.264 E12.01329
G1 X163.583 Y162.264 E12.83888
G1 X164.348 Y162.163 E12.86761
G1 X165.138 Y161.836 E12.89945
G1 X165.816 Y161.316 E12.9313
G1 X166.336 Y160.638 E12.96314
G1 X166.663 Y159.848 E12.99499
G1 X166.764 Y159.083 E13.02372
G1 X166.764 Y151.917 E13.29061
G1 X166.663 Y151.152 E13.31935
G1 X166.336 Y150.362 E13.35119
G1 X165.816 Y149.684 E13.38303
G1 X165.138 Y149.164 E13.41488
G1 X164.348 Y148.837 E13.44672
G1 X163.583 Y148.736 E13.47545
G1 X153.942 Y148.736 E13.83454
G1 X153.883 Y148.442 E13.84571
G1 X154.138 Y148.336 E13.85596
G1 X154.816 Y147.816 E13.8878
G1 X155.336 Y147.138 E13.91964
G1 X155.663 Y146.348 E13.95149
G1 X155.783 Y145.437 E13.98568
G1 X156.411 Y145.698 E14.011
G1 X157 Y145.775 E14.03312
G1 X157.589 Y145.698 E14.05524
G1 X158.138 Y145.47 E14.07736
G1 X158.609 Y145.109 E14.09948
G1 X158.97 Y144.638 E14.1216
G1 X159.198 Y144.089 E14.14372
G1 X159.264 Y143.583 E14.16273
G1 X159.264 Y141.417 E14.24339
G1 X159.198 Y140.911 E14.2624
G1 X158.97 Y140.362 E14.28452
G1 X158.609 Y139.891 E14.30664
G1 X158.138 Y139.53 E14.32876
G1 X157.589 Y139.302 E14.35088
G1 X157 Y139.225 E14.37301
G1 X156.411 Y139.302 E14.39513
G1 X155.764 Y139.57 E14.42121
G1 X155.764 Y138.272 E14.46957
G1 X205.03 Y138.264 E16.30453
G1 X206.079 Y138.237 E16.34362
G1 X206.998 Y138.143 E16.37804
G1 X207.621 Y138.206 E16.40133
G1 X207.198 Y137.704 F9000
G1 F1800
G1 X207.956 Y137.78 E16.42968
G1 X209 Y137.807 E16.46859
G1 X210.044 Y137.78 E16.50751
G1 X211.181 Y137.666 E16.55006
G1 X211.579 Y137.794 E16.56562
G1 X211.783 Y137.83 E16.57337
G1 X212.084 Y137.965 E16.58564
G1 X212.338 Y138.161 E16.59758
G1 X212.527 Y138.407 E16.60914
G1 X212.646 Y138.693 E16.62068
G1 X212.693 Y139.053 E16.6342
G1 X212.693 Y153.697 E17.17964
G1 X212.646 Y154.057 E17.19315
G1 X212.527 Y154.343 E17.20469
G1 X212.339 Y154.589 E17.21622
G1 X212.093 Y154.777 E17.22775
G1 X211.807 Y154.896 E17.23928
G1 X211.447 Y154.943 E17.2528
G1 X210.447 Y154.943 E17.29004
G1 X209.836 Y155.023 E17.31299
G1 X209.218 Y155.279 E17.33792
G1 X208.687 Y155.687 E17.36285
G1 X208.279 Y156.218 E17.38778
G1 X208.023 Y156.836 E17.41271
G1 X207.936 Y157.5 E17.43764
G1 X208.023 Y158.164 E17.46257
G1 X208.279 Y158.782 E17.4875
G1 X208.687 Y159.313 E17.51243
G1 X209.218 Y159.721 E17.53736
G1 X209.836 Y159.977 E17.56229
G1 X210.447 Y160.057 E17.58524
G1 X211.447 Y160.057 E17.62248
G1 X211.807 Y160.104 E17.636
G1 X212.093 Y160.223 E17.64753
G1 X212.339 Y160.411 E17.65907
G1 X212.527 Y160.657 E17.6706
G1 X212.646 Y160.943 E17.68213
G1 X212.693 Y161.303 E17.69565
G1 X212.693 Y171.947 E18.0921
G1 X212.646 Y172.307 E18.10562
G1 X212.527 Y172.593 E18.11715
G1 X212.339 Y172.839 E18.12868
G1 X212.093 Y173.027 E18.14022
G1 X211.807 Y173.146 E18.15175
G1 X211.447 Y173.193 E18.16527
G1 X208.553 Y173.193 E18.27306
G1 X208.193 Y173.146 E18.28658
G1 X207.907 Y173.027 E18.29811
G1 X207.661 Y172.839 E18.30965
G1 X207.473 Y172.593 E18.32118
G1 X207.354 Y172.307 E18.33271
G1 X207.307 Y171.947 E18.34623
G1 X207.307 Y170.947 E18.38347
G1 X207.218 Y170.272 E18.40885
G1 X206.937 Y169.593 E18.43621
G1 X206.49 Y169.01 E18.46357
G1 X205.907 Y168.563 E18.49093
G1 X205.228 Y168.282 E18.51829
G1 X204.553 Y168.193 E18.54367
G1 X201.447 Y168.193 E18.65935
G1 X200.772 Y168.282 E18.68472
G1 X200.093 Y168.563 E18.71208
G1 X199.51 Y169.01 E18.73944
G1 X199.063 Y169.593 E18.7668
G1 X198.782 Y170.272 E18.79417
G1 X198.693 Y170.947 E18.81954
G1 X198.693 Y171.947 E18.85679
G1 X198.646 Y172.307 E18.87031
G1 X198.527 Y172.593 E18.88184
G1 X198.339 Y172.839 E18.89337
G1 X198.093 Y173.027 E18.9049
G1 X197.807 Y173.146 E18.91643
G1 X197.447 Y173.193 E18.92995
G1 X157.053 Y173.193 E20.43448
G1 X156.693 Y173.146 E20.448
G1 X156.407 Y173.027 E20.45953
G1 X156.161 Y172.839 E20.47106
G1 X155.973 Y172.593 E20.48259
G1 X155.854 Y172.307 E20.49412
G1 X155.807 Y171.947 E20.50764
G1 X155.807 Y168.447 E20.638
G1 X155.718 Y167.772 E20.66338
G1 X155.437 Y167.093 E20.69074
G1 X154.99 Y166.51 E20.7181
G1 X154.407 Y166.063 E20.74546
G1 X153.728 Y165.782 E20.77282
G1 X153.053 Y165.693 E20.7982
G1 X151.947 Y165.693 E20.83939
G1 X151.272 Y165.782 E20.86476
G1 X150.593 Y166.063 E20.89212
G1 X150.01 Y166.51 E20.91948
G1 X149.563 Y167.093 E20.94684
G1 X149.282 Y167.772 E20.97421
G1 X149.193 Y168.447 E20.99958
G1 X149.193 Y171.947 E21.12994
G1 X149.146 Y172.307 E21.14346
G1 X149.027 Y172.593 E21.15499
G1 X148.839 Y172.839 E21.16652
G1 X148.593 Y173.027 E21.17805
G1 X148.307 Y173.146 E21.18959
G1 X147.947 Y173.193 E21.2031
G1 X93.553 Y173.193 E23.22908
G1 X93.193 Y173.146 E23.2426
G1 X92.907 Y173.027 E23.25413
G1 X92.661 Y172.839 E23.26566
G1 X92.473 Y172.593 E23.27719
G1 X92.354 Y172.307 E23.28873
G1 X92.307 Y171.947 E23.30224
G1 X92.307 Y161.303 E23.6987
