; generated by SuperSlicer 2.5.59 on 2023-06-15 at 21:11:32 UTC


;
;

;
;
; 

; external perimeters extrusion width = 0.40mm
; perimeters extrusion width = 0.46mm
; infill extrusion width = 0.64mm
; solid infill extrusion width = 0.56mm
; top infill extrusion width = 0.40mm
; support material extrusion width = 0.46mm
; first layer extrusion width = 0.50mm

; object:{"name":"(Unsaved)","id":"(Unsaved).stl id:0 copy 0","object_center":[152.500000,150.000000,0.000000],"boundingbox_center":[152.500000,150.000000,1.500001],"boundingbox_size":[122.000000,51.000008,3.000003]}
EXCLUDE_OBJECT_DEFINE NAME=_Unsaved_stl_id_0_copy_0 CENTER=152.500000,150.000000 POLYGON=[[91.500000,140.500000],[91.568144,139.982368],[97.500000,124.500000],[211.500000,124.500000],[213.500000,140.500000],[213.500000,173.500000],[213.431856,174.017632],[213.232064,174.500000],[212.914208,174.914208],[212.500000,175.232064],[212.017632,175.431856],[211.500000,175.500000],[93.500000,175.500000],[92.982360,175.431856],[92.500000,175.232064],[92.085784,174.914208],[91.767944,174.500000],[91.568144,174.017632],[91.500000,173.500000],[91.500000,140.500000]]
; plater:{"center":[152.500000,150.000000,0.000000],"boundingbox_center":[152.500000,150.000000,1.500001],"boundingbox_size":[122.000000,51.000008,3.000003]}

M73 P0 R36
;TYPE:Custom
START_PRINT T_BED=100 T_EXTRUDER=245
M107
G21 ; set units to millimeters
G90 ; use absolute coordinates
M82 ; use absolute distances for extrusion
G92 E0
; Filament gcode

    PRESSURE_ADVANCE_SELECT FILAMENT=ABS
;_TOOLCHANGE 0
M104 S245 ; set temperature
M109 S245 ; set temperature and wait for it to be reached
M190 S100 ; set bed temperature and wait for it to be reached
M107
;LAYER_CHANGE
;Z:0.2
;HEIGHT:0.2
G1 Z0.2 F9000
G1 E-0.5 F3000
M204 S1000
G1 X95.1 Y121.851 F9000
G1 E0 F1800
;TYPE:Skirt
;WIDTH:0.52
G1 X94.133 Y123.265 E0.0629
G1 X88.198 Y138.673 E0.66944
M73 P0 R36
G1 X87.982 Y139.524 E0.70168
G1 X87.884 Y140.507 E0.73797
G1 X87.884 Y173.493 E1.9497
G1 X87.982 Y174.476 E1.98599
G1 X88.423 Y175.871 E2.03973
G1 X89.209 Y177.105 E2.09347
G1 X90.289 Y178.093 E2.14721
G1 X91.587 Y178.767 E2.20095
G1 X92.523 Y179.018 E2.23658
G1 X93.507 Y179.116 E2.27287
G1 X211.493 Y179.116 E6.60698
G1 X212.477 Y179.018 E6.64326
G1 X213.871 Y178.577 E6.697
G1 X215.105 Y177.791 E6.75074
G1 X216.092 Y176.712 E6.80448
G1 X216.767 Y175.413 E6.85822
G1 X217.084 Y173.978 E6.9122
G1 X217.116 Y140.507 E8.14175
G1 X215.087 Y124.136 E8.74769
G1 X214.379 Y122.379 E8.81729
G1 X213.066 Y121.279 E8.88019
G1 X211.4 Y120.884 E8.94309
G1 X97.6 Y120.884 E13.1234
G1 X96.598 Y121.022 E13.16055
G1 X95.1 Y121.851 E13.22346
G1 X95.5 Y122.135 F9000
G1 F1800
G1 X94.578 Y123.436 E13.28203
G1 X88.643 Y138.845 E13.88857
G1 X88.389 Y140.084 E13.93505
G1 X88.361 Y173.493 E15.16231
G1 X88.455 Y174.414 E15.19631
G1 X88.863 Y175.689 E15.24548
G1 X89.588 Y176.814 E15.29465
G1 X90.579 Y177.714 E15.34381
G1 X91.769 Y178.326 E15.39298
G1 X92.586 Y178.545 E15.42404
G1 X93.507 Y178.639 E15.45804
G1 X211.493 Y178.639 E19.79214
G1 X212.414 Y178.545 E19.82614
G1 X213.689 Y178.137 E19.87531
G1 X214.814 Y177.412 E19.92448
G1 X215.714 Y176.421 E19.97365
G1 X216.326 Y175.231 E20.02282
G1 X216.611 Y173.916 E20.07223
G1 X216.639 Y140.507 E21.29949
G1 X214.613 Y124.196 E21.90324
G1 X214.119 Y122.841 E21.95622
G1 X212.948 Y121.755 E22.01489
G1 X211.4 Y121.361 E22.07356
G1 X97.6 Y121.361 E26.25387
M73 P1 R35
G1 X95.5 Y122.135 E26.33607
G92 E0
G1 E-0.5 F3000
; printing object (Unsaved).stl id:0 copy 0
EXCLUDE_OBJECT_START NAME=_Unsaved_stl_id_0_copy_0
G1 X164.274 Y163.199 F9000
G1 E0 F1800
;TYPE:Internal perimeter
;WIDTH:0.5
G1 X164.907 Y162.937 E0.02413
G1 X165.49 Y162.49 E0.04998
G1 X165.937 Y161.907 E0.07583
G1 X166.218 Y161.228 E0.10169
G1 X166.307 Y160.553 E0.12566
G1 X166.307 Y153.447 E0.37575
G1 X166.218 Y152.772 E0.39972
G1 X165.937 Y152.093 E0.42557
G1 X165.49 Y151.51 E0.45143
G1 X164.907 Y151.063 E0.47728
G1 X164.228 Y150.782 E0.50314
G1 X163.553 Y150.693 E0.52711
G1 X141.447 Y150.693 E1.3051
G1 X140.772 Y150.782 E1.32908
G1 X140.093 Y151.063 E1.35493
G1 X139.51 Y151.51 E1.38078
G1 X139.063 Y152.093 E1.40664
G1 X138.782 Y152.772 E1.43249
G1 X138.693 Y153.447 E1.45647
G1 X138.693 Y160.553 E1.70655
G1 X138.782 Y161.228 E1.73052
G1 X139.063 Y161.907 E1.75638
G1 X139.51 Y162.49 E1.78223
G1 X140.093 Y162.937 E1.80809
G1 X140.772 Y163.218 E1.83394
G1 X141.447 Y163.307 E1.85792
G1 X163.553 Y163.307 E2.63591
G1 X164.228 Y163.218 E2.65988
G1 X164.274 Y163.199 E2.66161
G1 X164.109 Y162.773 F9000
;TYPE:External perimeter
G1 F1800
G1 X164.677 Y162.538 E2.68323
G1 X165.164 Y162.164 E2.70484
G1 X165.538 Y161.677 E2.72646
G1 X165.773 Y161.109 E2.74808
G1 X165.85 Y160.523 E2.76888
G1 X165.85 Y153.477 E3.01686
G1 X165.773 Y152.891 E3.03766
G1 X165.538 Y152.323 E3.05928
G1 X165.164 Y151.836 E3.0809
G1 X164.677 Y151.462 E3.10252
G1 X164.109 Y151.227 E3.12413
G1 X163.523 Y151.15 E3.14494
G1 X141.477 Y151.15 E3.92082
G1 X140.891 Y151.227 E3.94162
G1 X140.323 Y151.462 E3.96324
G1 X139.836 Y151.836 E3.98486
G1 X139.462 Y152.323 E4.00648
G1 X139.227 Y152.891 E4.02809
G1 X139.15 Y153.477 E4.0489
G1 X139.15 Y160.523 E4.29687
G1 X139.227 Y161.109 E4.31767
G1 X139.462 Y161.677 E4.33929
G1 X139.836 Y162.164 E4.36091
G1 X140.323 Y162.538 E4.38253
G1 X140.891 Y162.773 E4.40415
G1 X141.477 Y162.85 E4.42495
G1 X163.523 Y162.85 E5.20083
G1 X164.109 Y162.773 E5.22163
;WIPE_START
M204 S3000
G1 X164.404 Y163.043 F9000
;WIPE_END
G92 E0
G1 E-0.5 F3000
M204 S1000
G1 X142.307 Y139.307 F9000
G1 E0 F1800
;TYPE:Internal perimeter
G1 X142.307 Y125.693 E0.47913
G1 X136.693 Y125.693 E0.67672
G1 X136.693 Y139.307 E1.15585
G1 X142.307 Y139.307 E1.35344
G1 X141.85 Y138.85 F9000
;TYPE:External perimeter
G1 F1800
G1 X141.85 Y126.15 E1.8004
G1 X137.15 Y126.15 E1.96581
G1 X137.15 Y138.85 E2.41277
G1 X141.85 Y138.85 E2.57818
;WIPE_START
M204 S3000
G1 X142.25 Y138.85 F9000
;WIPE_END
G92 E0
G1 E-0.5 F3000
M204 S1000
G1 X174.693 Y139.307 F9000
G1 E0 F1800
;TYPE:Internal perimeter
G1 X180.307 Y139.307 E0.19758
G1 X180.307 Y125.693 E0.67672
G1 X174.693 Y125.693 E0.8743
G1 X174.693 Y139.307 E1.35344
G1 X175.15 Y138.85 F9000
;TYPE:External perimeter
G1 F1800
G1 X179.85 Y138.85 E1.51885
M73 P2 R35
G1 X179.85 Y126.15 E1.96581
G1 X175.15 Y126.15 E2.13122
G1 X175.15 Y138.85 E2.57818
;WIPE_START
M204 S3000
G1 X175.15 Y139.25 F9000
;WIPE_END
G92 E0
G1 E-0.5 F3000
M204 S1000
G1 X204.693 Y139.307 F9000
G1 E0 F1800
;TYPE:Internal perimeter
G1 X210.307 Y139.307 E0.19758
G1 X210.307 Y125.693 E0.67672
G1 X204.693 Y125.693 E0.8743
G1 X204.693 Y139.307 E1.35344
G1 X205.15 Y138.85 F9000
;TYPE:External perimeter
G1 F1800
G1 X209.85 Y138.85 E1.51885
G1 X209.85 Y126.15 E1.96581
G1 X205.15 Y126.15 E2.13122
G1 X205.15 Y138.85 E2.57818
;WIPE_START
M204 S3000
G1 X205.15 Y139.25 F9000
;WIPE_END
M204 S1000
G1 X204.764 Y139.764
;TYPE:Internal perimeter
G1 F1800
G1 X210.764 Y139.764 E2.78935
G1 X210.764 Y139.678 E2.79237
G1 X211.688 Y139.8 E2.82515
G1 X211.862 Y139.872 E2.83181
G1 X212.013 Y139.987 E2.83847
G1 X212.128 Y140.138 E2.84513
G1 X212.2 Y140.312 E2.85179
G1 X212.236 Y140.583 E2.8614
G1 X212.236 Y155.167 E3.37467
G1 X212.2 Y155.438 E3.38427
G1 X212.128 Y155.612 E3.39094
G1 X212.013 Y155.763 E3.3976
G1 X211.862 Y155.878 E3.40426
G1 X211.688 Y155.95 E3.41092
G1 X211.417 Y155.986 E3.42052
G1 X210.417 Y155.986 E3.45571
G1 X209.717 Y156.078 E3.48056
G1 X208.987 Y156.38 E3.50835
G1 X208.361 Y156.861 E3.53615
G1 X207.88 Y157.487 E3.56394
G1 X207.578 Y158.217 E3.59173
G1 X207.475 Y159 E3.61953
G1 X207.578 Y159.783 E3.64732
G1 X207.88 Y160.513 E3.67511
G1 X208.361 Y161.139 E3.7029
G1 X208.987 Y161.62 E3.7307
G1 X209.717 Y161.922 E3.75849
G1 X210.417 Y162.014 E3.78334
G1 X211.417 Y162.014 E3.81853
G1 X211.688 Y162.05 E3.82813
G1 X211.862 Y162.122 E3.83479
G1 X212.013 Y162.237 E3.84146
G1 X212.128 Y162.388 E3.84812
G1 X212.2 Y162.562 E3.85478
G1 X212.236 Y162.833 E3.86438
G1 X212.236 Y173.417 E4.23688
G1 X212.2 Y173.688 E4.24648
G1 X212.128 Y173.862 E4.25314
G1 X212.013 Y174.013 E4.2598
G1 X211.862 Y174.128 E4.26646
G1 X211.688 Y174.2 E4.27312
G1 X211.417 Y174.236 E4.28272
G1 X208.583 Y174.236 E4.38247
G1 X208.312 Y174.2 E4.39207
G1 X208.138 Y174.128 E4.39874
G1 X207.987 Y174.013 E4.4054
G1 X207.872 Y173.862 E4.41206
G1 X207.8 Y173.688 E4.41872
G1 X207.764 Y173.417 E4.42832
G1 X207.764 Y172.417 E4.46351
G1 X207.663 Y171.652 E4.49066
G1 X207.336 Y170.862 E4.52075
G1 X206.816 Y170.184 E4.55084
G1 X206.138 Y169.664 E4.58093
G1 X205.348 Y169.337 E4.61102
G1 X204.583 Y169.236 E4.63817
G1 X201.417 Y169.236 E4.74958
G1 X200.652 Y169.337 E4.77673
G1 X199.862 Y169.664 E4.80682
G1 X199.184 Y170.184 E4.83691
G1 X198.664 Y170.862 E4.867
G1 X198.337 Y171.652 E4.89709
G1 X198.236 Y172.417 E4.92423
G1 X198.236 Y173.417 E4.95943
G1 X198.2 Y173.688 E4.96903
G1 X198.128 Y173.862 E4.97569
G1 X198.013 Y174.013 E4.98235
G1 X197.862 Y174.128 E4.98901
G1 X197.688 Y174.2 E4.99567
G1 X197.417 Y174.236 E5.00527
G1 X157.083 Y174.236 E6.42479
G1 X156.812 Y174.2 E6.43439
G1 X156.638 Y174.128 E6.44105
G1 X156.487 Y174.013 E6.44771
G1 X156.372 Y173.862 E6.45437
G1 X156.3 Y173.688 E6.46103
G1 X156.264 Y173.417 E6.47064
G1 X156.264 Y169.917 E6.59381
G1 X156.163 Y169.152 E6.62096
G1 X155.836 Y168.362 E6.65105
G1 X155.316 Y167.684 E6.68114
G1 X154.638 Y167.164 E6.71123
G1 X153.848 Y166.837 E6.74132
G1 X153.083 Y166.736 E6.76847
G1 X151.917 Y166.736 E6.8095
G1 X151.152 Y166.837 E6.83664
G1 X150.362 Y167.164 E6.86673
G1 X149.684 Y167.684 E6.89682
G1 X149.164 Y168.362 E6.92691
G1 X148.837 Y169.152 E6.957
G1 X148.736 Y169.917 E6.98415
G1 X148.736 Y173.417 E7.10733
G1 X148.7 Y173.688 E7.11693
G1 X148.628 Y173.862 E7.12359
G1 X148.513 Y174.013 E7.13025
G1 X148.362 Y174.128 E7.13691
G1 X148.188 Y174.2 E7.14357
G1 X147.917 Y174.236 E7.15317
G1 X93.583 Y174.236 E9.06541
M73 P2 R35
G1 X93.312 Y174.2 E9.07501
G1 X93.138 Y174.128 E9.08167
G1 X92.987 Y174.013 E9.08833
G1 X92.872 Y173.862 E9.09499
G1 X92.8 Y173.688 E9.10165
G1 X92.764 Y173.417 E9.11125
G1 X92.764 Y162.833 E9.48375
G1 X92.8 Y162.562 E9.49335
G1 X92.872 Y162.388 E9.50001
G1 X92.987 Y162.237 E9.50667
G1 X93.138 Y162.122 E9.51333
G1 X93.312 Y162.05 E9.51999
G1 X93.583 Y162.014 E9.5296
G1 X94.583 Y162.014 E9.56479
G1 X95.283 Y161.922 E9.58964
G1 X96.013 Y161.62 E9.61743
G1 X96.639 Y161.139 E9.64523
G1 X97.12 Y160.513 E9.67302
G1 X97.422 Y159.783 E9.70081
G1 X97.525 Y159 E9.7286
G1 X97.422 Y158.217 E9.7564
G1 X97.12 Y157.487 E9.78419
G1 X96.639 Y156.861 E9.81198
G1 X96.013 Y156.38 E9.83977
G1 X95.283 Y156.078 E9.86757
G1 X94.583 Y155.986 E9.89242
G1 X93.583 Y155.986 E9.92761
G1 X93.312 Y155.95 E9.93721
G1 X93.138 Y155.878 E9.94387
G1 X92.987 Y155.763 E9.95053
G1 X92.872 Y155.612 E9.95719
G1 X92.8 Y155.438 E9.96385
G1 X92.764 Y155.167 E9.97346
G1 X92.764 Y140.583 E10.48673
G1 X92.8 Y140.312 E10.49634
G1 X92.872 Y140.138 E10.50299
G1 X92.987 Y139.987 E10.50966
G1 X93.138 Y139.872 E10.51632
G1 X93.312 Y139.8 E10.52298
G1 X93.583 Y139.764 E10.53258
G1 X149.236 Y139.764 E12.49122
G1 X149.236 Y141.07 E12.53719
G1 X148.589 Y140.802 E12.56184
G1 X148 Y140.725 E12.58274
G1 X147.411 Y140.802 E12.60365
G1 X146.862 Y141.03 E12.62455
G1 X146.391 Y141.391 E12.64545
G1 X146.03 Y141.862 E12.66635
G1 X145.802 Y142.411 E12.68725
G1 X145.736 Y142.917 E12.70521
G1 X145.736 Y145.083 E12.78143
G1 X145.802 Y145.589 E12.79939
G1 X146.03 Y146.138 E12.8203
G1 X146.391 Y146.609 E12.8412
G1 X146.862 Y146.97 E12.8621
G1 X147.411 Y147.198 E12.883
G1 X148 Y147.275 E12.90391
G1 X148.589 Y147.198 E12.92481
G1 X149.217 Y146.937 E12.94873
G1 X149.337 Y147.848 E12.98103
G1 X149.664 Y148.638 E13.01112
G1 X150.184 Y149.316 E13.04121
G1 X150.862 Y149.836 E13.0713
G1 X151.117 Y149.942 E13.08098
G1 X151.058 Y150.236 E13.09154
G1 X141.417 Y150.236 E13.43084
G1 X140.652 Y150.337 E13.45799
G1 X139.862 Y150.664 E13.48808
G1 X139.184 Y151.184 E13.51817
G1 X138.664 Y151.862 E13.54826
G1 X138.337 Y152.652 E13.57835
G1 X138.236 Y153.417 E13.60549
G1 X138.236 Y160.583 E13.85768
G1 X138.337 Y161.348 E13.88483
G1 X138.664 Y162.138 E13.91492
G1 X139.184 Y162.816 E13.94501
G1 X139.862 Y163.336 E13.9751
G1 X140.652 Y163.663 E14.00519
G1 X141.417 Y163.764 E14.03234
G1 X163.583 Y163.764 E14.81243
G1 X164.348 Y163.663 E14.83958
G1 X165.138 Y163.336 E14.86967
G1 X165.816 Y162.816 E14.89976
G1 X166.336 Y162.138 E14.92985
G1 X166.663 Y161.348 E14.95994
G1 X166.764 Y160.583 E14.98709
G1 X166.764 Y153.417 E15.23928
G1 X166.663 Y152.652 E15.26643
G1 X166.336 Y151.862 E15.29652
G1 X165.816 Y151.184 E15.3266
G1 X165.138 Y150.664 E15.35669
G1 X164.348 Y150.337 E15.38678
G1 X163.583 Y150.236 E15.41393
G1 X153.942 Y150.236 E15.75323
G1 X153.883 Y149.942 E15.76379
G1 X154.138 Y149.836 E15.77347
G1 X154.816 Y149.316 E15.80356
G1 X155.336 Y148.638 E15.83365
G1 X155.663 Y147.848 E15.86374
G1 X155.783 Y146.937 E15.89605
G1 X156.411 Y147.198 E15.91996
G1 X157 Y147.275 E15.94087
G1 X157.589 Y147.198 E15.96177
G1 X158.138 Y146.97 E15.98267
G1 X158.609 Y146.609 E16.00357
G1 X158.97 Y146.138 E16.02447
G1 X159.198 Y145.589 E16.04538
G1 X159.264 Y145.083 E16.06334
G1 X159.264 Y142.917 E16.13956
G1 X159.198 Y142.411 E16.15752
G1 X158.97 Y141.862 E16.17842
G1 X158.609 Y141.391 E16.19932
G1 X158.138 Y141.03 E16.22022
G1 X157.589 Y140.802 E16.24113
G1 X157 Y140.725 E16.26203
G1 X156.411 Y140.802 E16.28293
G1 X155.764 Y141.07 E16.30758
G1 X155.764 Y139.764 E16.35355
G1 X204.764 Y139.764 E18.07805
G92 E0
G1 E-0.5 F3000
G1 X104.307 Y139.307 F9000
G1 E0 F1800
G1 X104.307 Y125.693 E0.47913
G1 X98.693 Y125.693 E0.67672
G1 X98.693 Y139.307 E1.15585
G1 X104.307 Y139.307 E1.35344
G1 X103.85 Y138.85 F9000
;TYPE:External perimeter
G1 F1800
G1 X103.85 Y126.15 E1.8004
G1 X99.15 Y126.15 E1.96581
G1 X99.15 Y138.85 E2.41277
G1 X103.85 Y138.85 E2.57818
;WIPE_START
M204 S3000
G1 X104.25 Y138.85 F9000
;WIPE_END
M204 S1000
G1 X104.693 Y139.307
;TYPE:Internal perimeter
G1 F1800
G1 X136.307 Y139.307 E3.69081
G1 X136.307 Y125.307 E4.18352
G1 X142.693 Y125.307 E4.40826
G1 X142.693 Y139.307 E4.90098
G1 X149.693 Y139.307 E5.14734
G1 X149.693 Y141.844 E5.23663
G1 X149.445 Y141.928 E5.24585
G1 X149.283 Y141.717 E5.25522
G1 X148.907 Y141.429 E5.27189
G1 X148.47 Y141.248 E5.28855
G1 X148 Y141.186 E5.30522
G1 X147.53 Y141.248 E5.32189
G1 X147.093 Y141.429 E5.33855
G1 X146.717 Y141.717 E5.35522
G1 X146.429 Y142.093 E5.37189
G1 X146.248 Y142.53 E5.38855
G1 X146.193 Y142.947 E5.40334
G1 X146.193 Y145.053 E5.47745
G1 X146.248 Y145.47 E5.49224
G1 X146.429 Y145.907 E5.50891
G1 X146.717 Y146.283 E5.52557
G1 X147.093 Y146.571 E5.54224
G1 X147.53 Y146.752 E5.55891
G1 X148 Y146.814 E5.57557
G1 X148.47 Y146.752 E5.59224
G1 X148.907 Y146.571 E5.60891
G1 X149.283 Y146.283 E5.62557
G1 X149.445 Y146.072 E5.63494
G1 X149.693 Y146.156 E5.64416
G1 X149.693 Y147.053 E5.67574
G1 X149.782 Y147.728 E5.69971
G1 X150.063 Y148.407 E5.72557
G1 X150.51 Y148.99 E5.75142
G1 X151.093 Y149.437 E5.77728
G1 X151.772 Y149.718 E5.80313
G1 X152.5 Y149.814 E5.82898
G1 X153.228 Y149.718 E5.85484
G1 X153.907 Y149.437 E5.88069
G1 X154.49 Y148.99 E5.90654
G1 X154.937 Y148.407 E5.9324
G1 X155.218 Y147.728 E5.95825
G1 X155.307 Y147.053 E5.98223
G1 X155.307 Y146.156 E6.0138
G1 X155.555 Y146.071 E6.02303
G1 X155.717 Y146.283 E6.0324
G1 X156.093 Y146.571 E6.04906
G1 X156.53 Y146.752 E6.06573
G1 X157 Y146.814 E6.0824
G1 X157.47 Y146.752 E6.09906
G1 X157.907 Y146.571 E6.11573
G1 X158.283 Y146.283 E6.13239
G1 X158.571 Y145.907 E6.14906
G1 X158.752 Y145.47 E6.16573
G1 X158.807 Y145.053 E6.18052
G1 X158.807 Y142.947 E6.25463
G1 X158.752 Y142.53 E6.26942
G1 X158.571 Y142.093 E6.28608
G1 X158.283 Y141.717 E6.30275
G1 X157.907 Y141.429 E6.31941
G1 X157.47 Y141.248 E6.33608
G1 X157 Y141.186 E6.35275
G1 X156.53 Y141.248 E6.36941
G1 X156.093 Y141.429 E6.38608
G1 X155.717 Y141.717 E6.40275
G1 X155.555 Y141.929 E6.41212
G1 X155.307 Y141.844 E6.42134
G1 X155.307 Y139.307 E6.51063
G1 X174.307 Y139.307 E7.17932
G1 X174.307 Y125.307 E7.67203
G1 X180.693 Y125.307 E7.89677
G1 X180.693 Y139.307 E8.38949
G1 X204.307 Y139.307 E9.22056
G1 X204.307 Y125.307 E9.71327
G1 X210.693 Y125.307 E9.93802
