; generated by SuperSlicer 2.5.59 on 2023-03-18 at 22:58:34 UTC


;
;

;
;
; 

; external perimeters extrusion width = 0.40mm
; perimeters extrusion width = 0.46mm
; infill extrusion width = 0.64mm
; solid infill extrusion width = 0.56mm
; top infill extrusion width = 0.40mm
; support material extrusion width = 0.46mm
; first layer extrusion width = 0.50mm

; object:{"name":"08-12_Big_Ol_Stackable_Tea_Caddy_v2","id":"08-12_Big_Ol_Stackable_Tea_Caddy_v2.stl id:0 copy 0","object_center":[152.500000,150.000000,0.000000],"boundingbox_center":[152.500000,150.000000,42.750000],"boundingbox_size":[74.000000,240.000000,85.500000]}
EXCLUDE_OBJECT_DEFINE NAME=08_12_Big_Ol_Stackable_Tea_Caddy_v2_stl_id_0_copy_0 CENTER=152.500000,150.000000 POLYGON=[[115.500000,30.000000],[189.500000,30.000000],[189.500000,270.000000],[115.500000,270.000000],[115.500000,30.000000]]
; plater:{"center":[152.500000,150.000000,0.000000],"boundingbox_center":[152.500000,150.000000,42.750000],"boundingbox_size":[74.000000,240.000000,85.500000]}

M73 P0 R300
;TYPE:Custom
START_PRINT T_BED=60 T_EXTRUDER=200
M107
G21 ; set units to millimeters
G90 ; use absolute coordinates
M82 ; use absolute distances for extrusion
G92 E0
; Filament gcode

    PRESSURE_ADVANCE_SELECT FILAMENT=PLA
;_TOOLCHANGE 0
M104 S200 ; set temperature
M109 S200 ; set temperature and wait for it to be reached
M190 S60 ; set bed temperature and wait for it to be reached
M107
;LAYER_CHANGE
;Z:0.2
;HEIGHT:0.2
G1 Z0.2 F9000
G1 E-0.8 F3000
M204 S1000
G1 X108.713 Y25.039 F9000
G1 E0 F1800
;TYPE:Skirt
;WIDTH:0.52
G1 X108.713 Y274.961 E9.71598
G1 X109.45 Y277.182 E9.80695
G1 X110.763 Y278.282 E9.87352
G1 X112.429 Y278.677 E9.9401
G1 X192.571 Y278.677 E13.05569
G1 X194.792 Y277.94 E13.14666
G1 X195.892 Y276.628 E13.21323
G1 X196.287 Y274.961 E13.27981
G1 X196.287 Y25.039 E22.99579
M73 P0 R299
G1 X195.55 Y22.818 E23.08676
G1 X194.237 Y21.718 E23.15333
G1 X192.571 Y21.323 E23.2199
G1 X112.429 Y21.323 E26.3355
G1 X110.208 Y22.06 E26.42647
G1 X109.108 Y23.372 E26.49304
G1 X108.713 Y25.039 E26.55961
G1 X109.19 Y25.039 F9000
G1 F1800
G1 X109.19 Y274.961 E36.27559
G1 X109.71 Y276.72 E36.3469
G1 X110.881 Y277.806 E36.40899
G1 X112.429 Y278.2 E36.47108
G1 X192.571 Y278.2 E39.58667
G1 X194.33 Y277.68 E39.65797
G1 X195.416 Y276.509 E39.72006
G1 X195.809 Y274.961 E39.78215
G1 X195.809 Y25.039 E49.49813
G1 X195.29 Y23.28 E49.56943
G1 X194.119 Y22.194 E49.63152
G1 X192.571 Y21.8 E49.69361
G1 X112.429 Y21.8 E52.80921
G1 X110.67 Y22.319 E52.88051
G1 X109.584 Y23.491 E52.9426
G1 X109.19 Y25.039 E53.00469
G92 E0
G1 E-0.8 F3000
; printing object 08-12_Big_Ol_Stackable_Tea_Caddy_v2.stl id:0 copy 0
EXCLUDE_OBJECT_START NAME=08_12_Big_Ol_Stackable_Tea_Caddy_v2_stl_id_0_copy_0
G1 X190.479 Y255.94 F9000
G1 E0 F1800
;TYPE:Support material
;WIDTH:0.5
G1 X192.571 Y255.94 E0.07793
G1 X192.571 Y274.961 E0.78639
G1 X176.946 Y274.961 E1.36836
G1 X176.946 Y270.979 E1.51671
G1 X181.847 Y270.979 E1.69925
G1 X182.479 Y270.347 E1.73253
G1 X182.479 Y268.729 E1.7928
G1 X186.632 Y268.72 E1.94751
G1 X186.983 Y268.658 E1.96078
G1 X187.341 Y268.512 E1.97517
G1 X187.46 Y268.436 E1.98044
G1 X187.762 Y268.182 E1.99514
G1 X187.884 Y268.038 E2.00217
G1 X188.091 Y267.679 E2.01759
G1 X188.155 Y267.502 E2.02462
G1 X188.229 Y267.038 E2.0421
G1 X188.229 Y260.979 E2.2678
G1 X189.847 Y260.979 E2.32808
G1 X190.479 Y260.347 E2.36136
G1 X190.479 Y255.94 E2.52547
G1 X192.114 Y274.847 F9000
G1 F1800
G1 X192.114 Y256.251 E3.21809
G1 X191.606 Y256.251 E3.23701
G1 X191.606 Y274.65 E3.92231
G1 X191.098 Y274.65 E3.94123
G1 X191.098 Y256.251 E4.62653
G1 X190.789 Y256.251 E4.63801
G1 X190.789 Y260.475 E4.79535
G1 X190.59 Y260.675 E4.80586
G1 X190.59 Y274.65 E5.32639
G1 X190.082 Y274.65 E5.34531
G1 X190.082 Y261.183 E5.84693
G1 X189.975 Y261.289 E5.85254
G1 X189.574 Y261.289 E5.86749
G1 X189.574 Y274.65 E6.36513
G1 X189.066 Y274.65 E6.38405
G1 X189.066 Y261.289 E6.8817
G1 X188.558 Y261.289 E6.90062
G1 X188.558 Y274.65 E7.39827
G1 X188.051 Y274.65 E7.41718
G1 X188.051 Y268.322 E7.65288
G1 X187.983 Y268.403 E7.6568
G1 X187.543 Y268.752 E7.67772
G1 X187.543 Y274.65 E7.89742
G1 X187.035 Y274.65 E7.91634
G1 X187.035 Y268.965 E8.1281
G1 X186.527 Y269.039 E8.14722
G1 X186.527 Y274.65 E8.35621
G1 X186.019 Y274.65 E8.37512
G1 X186.019 Y269.039 E8.58411
G1 X185.511 Y269.039 E8.60303
G1 X185.511 Y274.65 E8.81202
G1 X185.003 Y274.65 E8.83094
G1 X185.003 Y269.039 E9.03993
G1 X184.496 Y269.039 E9.05884
G1 X184.496 Y274.65 E9.26784
G1 X183.988 Y274.65 E9.28675
G1 X183.988 Y269.039 E9.49574
G1 X183.48 Y269.039 E9.51466
G1 X183.48 Y274.65 E9.72365
G1 X182.972 Y274.65 E9.74257
G1 X182.972 Y269.039 E9.95156
G1 X182.789 Y269.039 E9.95836
G1 X182.789 Y270.475 E10.01185
G1 X182.464 Y270.801 E10.02898
G1 X182.464 Y274.65 E10.17237
G1 X181.956 Y274.65 E10.19128
G1 X181.956 Y271.289 E10.31647
G1 X181.448 Y271.289 E10.33539
G1 X181.448 Y274.65 E10.46057
G1 X180.94 Y274.65 E10.47949
G1 X180.94 Y271.289 E10.60468
G1 X180.433 Y271.289 E10.62359
G1 X180.433 Y274.65 E10.74878
G1 X179.925 Y274.65 E10.7677
G1 X179.925 Y271.289 E10.89288
G1 X179.417 Y271.289 E10.9118
G1 X179.417 Y274.65 E11.03699
G1 X178.909 Y274.65 E11.0559
G1 X178.909 Y271.289 E11.18109
G1 X178.401 Y271.289 E11.20001
G1 X178.401 Y274.65 E11.32519
G1 X177.893 Y274.65 E11.34411
G1 X177.893 Y271.289 E11.4693
G1 X177.385 Y271.289 E11.48821
G1 X177.385 Y274.847 E11.62072
G92 E0
G1 E-0.8 F3000
G1 X128.054 Y274.847 F9000
G1 E0 F1800
G1 X128.054 Y274.961 E0.00426
G1 X112.429 Y274.961 E0.58624
G1 X112.429 Y255.94 E1.29469
G1 X114.521 Y255.94 E1.37262
G1 X114.521 Y260.347 E1.53674
G1 X115.153 Y260.979 E1.57002
G1 X116.771 Y260.979 E1.63029
G1 X116.771 Y267.038 E1.856
G1 X116.845 Y267.502 E1.87348
G1 X116.909 Y267.679 E1.88051
G1 X117.116 Y268.038 E1.89593
G1 X117.238 Y268.182 E1.90296
G1 X117.54 Y268.436 E1.91766
G1 X117.659 Y268.512 E1.92292
G1 X118.017 Y268.658 E1.93732
G1 X118.368 Y268.72 E1.95059
G1 X122.521 Y268.729 E2.1053
G1 X122.521 Y270.347 E2.16557
G1 X123.153 Y270.979 E2.19885
G1 X128.054 Y270.979 E2.38139
G1 X128.054 Y274.847 E2.52547
G1 X127.615 Y274.847 F9000
G1 F1800
G1 X127.615 Y271.289 E2.65798
G1 X127.107 Y271.289 E2.6769
G1 X127.107 Y274.65 E2.80209
G1 X126.599 Y274.65 E2.821
G1 X126.599 Y271.289 E2.94619
G1 X126.091 Y271.289 E2.9651
G1 X126.091 Y274.65 E3.09029
G1 X125.583 Y274.65 E3.10921
G1 X125.583 Y271.289 E3.23439
G1 X125.075 Y271.289 E3.25331
G1 X125.075 Y274.65 E3.3785
G1 X124.567 Y274.65 E3.39741
G1 X124.567 Y271.289 E3.5226
G1 X124.059 Y271.289 E3.54152
G1 X124.059 Y274.65 E3.6667
G1 X123.552 Y274.65 E3.68562
G1 X123.552 Y271.289 E3.81081
G1 X123.044 Y271.289 E3.82972
G1 X123.044 Y274.65 E3.95491
G1 X122.536 Y274.65 E3.97383
G1 X122.536 Y270.801 E4.11721
G1 X122.211 Y270.475 E4.13434
G1 X122.211 Y269.039 E4.18783
G1 X122.028 Y269.039 E4.19464
G1 X122.028 Y274.65 E4.40363
G1 X121.52 Y274.65 E4.42254
G1 X121.52 Y269.039 E4.63153
G1 X121.012 Y269.039 E4.65045
G1 X121.012 Y274.65 E4.85944
G1 X120.504 Y274.65 E4.87836
G1 X120.504 Y269.039 E5.08735
G1 X119.997 Y269.039 E5.10626
G1 X119.997 Y274.65 E5.31526
G1 X119.489 Y274.65 E5.33417
G1 X119.489 Y269.039 E5.54316
G1 X118.981 Y269.039 E5.56208
G1 X118.981 Y274.65 E5.77107
G1 X118.473 Y274.65 E5.78999
G1 X118.473 Y269.039 E5.99898
G1 X117.965 Y268.965 E6.0181
G1 X117.965 Y274.65 E6.22986
G1 X117.457 Y274.65 E6.24877
G1 X117.457 Y268.752 E6.46847
G1 X117.017 Y268.403 E6.48939
G1 X116.949 Y268.322 E6.49332
G1 X116.949 Y274.65 E6.72901
G1 X116.442 Y274.65 E6.74793
G1 X116.442 Y261.289 E7.24558
G1 X115.934 Y261.289 E7.26449
G1 X115.934 Y274.65 E7.76214
G1 X115.426 Y274.65 E7.78106
G1 X115.426 Y261.289 E8.27871
G1 X115.025 Y261.289 E8.29365
G1 X114.918 Y261.183 E8.29927
G1 X114.918 Y274.65 E8.80089
G1 X114.41 Y274.65 E8.81981
G1 X114.41 Y260.675 E9.34034
G1 X114.211 Y260.475 E9.35084
G1 X114.211 Y256.251 E9.50818
G1 X113.902 Y256.251 E9.51967
G1 X113.902 Y274.65 E10.20497
G1 X113.394 Y274.65 E10.22389
G1 X113.394 Y256.251 E10.90919
G1 X112.886 Y256.251 E10.9281
G1 X112.886 Y274.847 E11.62072
G92 E0
G1 E-0.8 F3000
G1 X112.886 Y44.059 F9000
G1 E0 F1800
G1 X112.429 Y44.059 E0.01704
G1 X112.429 Y25.039 E0.72549
G1 X128.054 Y25.039 E1.30747
G1 X128.054 Y29.021 E1.45582
G1 X123.153 Y29.021 E1.63836
G1 X122.521 Y29.653 E1.67164
G1 X122.521 Y31.271 E1.73191
G1 X118.368 Y31.28 E1.88662
G1 X118.017 Y31.342 E1.89989
G1 X117.659 Y31.488 E1.91428
G1 X117.54 Y31.564 E1.91955
G1 X117.238 Y31.818 E1.93425
G1 X117.116 Y31.962 E1.94128
G1 X116.909 Y32.321 E1.9567
G1 X116.845 Y32.498 E1.96373
G1 X116.771 Y32.962 E1.98121
G1 X116.771 Y39.021 E2.20691
G1 X115.153 Y39.021 E2.26719
G1 X114.521 Y39.653 E2.30047
G1 X114.521 Y44.059 E2.46458
G1 X112.886 Y44.059 E2.52547
G92 E0
G1 E-0.8 F3000
G1 X127.615 Y28.907 F9000
G1 E0 F1800
G1 X127.615 Y25.349 E0.13252
G1 X127.107 Y25.349 E0.15143
G1 X127.107 Y28.711 E0.27663
G1 X126.599 Y28.711 E0.29554
G1 X126.599 Y25.349 E0.42074
G1 X126.091 Y25.349 E0.43965
G1 X126.091 Y28.711 E0.56485
G1 X125.583 Y28.711 E0.58377
G1 X125.583 Y25.349 E0.70896
G1 X125.075 Y25.349 E0.72788
G1 X125.075 Y28.711 E0.85307
G1 X124.567 Y28.711 E0.87199
G1 X124.567 Y25.349 E0.99718
G1 X124.06 Y25.349 E1.0161
G1 X124.06 Y28.711 E1.1413
G1 X123.552 Y28.711 E1.16021
G1 X123.552 Y25.349 E1.28541
G1 X123.044 Y25.349 E1.30432
G1 X123.044 Y28.711 E1.42952
G1 X123.025 Y28.711 E1.43024
G1 X122.536 Y29.199 E1.45597
G1 X122.536 Y25.349 E1.59937
G1 X122.028 Y25.349 E1.61828
G1 X122.028 Y30.961 E1.82728
G1 X121.52 Y30.961 E1.8462
G1 X121.52 Y25.349 E2.0552
G1 X121.012 Y25.349 E2.07411
G1 X121.012 Y30.961 E2.28311
G1 X120.504 Y30.961 E2.30203
G1 X120.504 Y25.349 E2.51103
G1 X119.997 Y25.349 E2.52994
G1 X119.997 Y30.961 E2.73894
G1 X119.489 Y30.961 E2.75786
G1 X119.489 Y25.349 E2.96686
G1 X118.981 Y25.349 E2.98577
M73 P0 R298
G1 X118.981 Y30.961 E3.19477
G1 X118.473 Y30.961 E3.21369
G1 X118.473 Y25.349 E3.42269
G1 X117.965 Y25.349 E3.44161
G1 X117.965 Y31.035 E3.65338
G1 X117.769 Y31.094 E3.661
G1 X117.457 Y31.248 E3.67396
G1 X117.457 Y25.349 E3.89366
G1 X116.949 Y25.349 E3.91258
G1 X116.949 Y31.678 E4.14829
G1 X116.861 Y31.783 E4.15342
G1 X116.627 Y32.189 E4.17086
G1 X116.544 Y32.417 E4.17992
G1 X116.461 Y32.948 E4.19993
G1 X116.461 Y38.711 E4.41456
G1 X116.442 Y38.711 E4.41527
G1 X116.442 Y25.349 E4.91293
G1 X115.934 Y25.349 E4.93185
G1 X115.934 Y38.711 E5.4295
G1 X115.426 Y38.711 E5.44842
G1 X115.426 Y25.349 E5.94608
G1 X114.918 Y25.349 E5.96499
G1 X114.918 Y38.817 E6.46662
G1 X114.41 Y39.325 E6.49337
G1 X114.41 Y25.349 E7.01392
G1 X113.902 Y25.349 E7.03283
G1 X113.902 Y43.749 E7.71813
G1 X113.394 Y43.749 E7.73705
G1 X113.394 Y25.349 E8.42235
G1 X112.886 Y25.349 E8.44126
G1 X112.886 Y43.945 E9.13388
G92 E0
G1 E-0.8 F3000
G1 X176.946 Y29.021 F9000
G1 E0 F1800
G1 X176.946 Y25.039 E0.14835
G1 X192.571 Y25.039 E0.73033
G1 X192.571 Y44.059 E1.43878
G1 X190.479 Y44.059 E1.51671
G1 X190.479 Y39.653 E1.68082
G1 X189.847 Y39.021 E1.7141
G1 X188.229 Y39.021 E1.77437
G1 X188.229 Y32.962 E2.00008
G1 X188.158 Y32.517 E2.01685
G1 X188.116 Y32.382 E2.02211
G1 X187.936 Y32.04 E2.03651
G1 X187.682 Y31.738 E2.05121
G1 X187.538 Y31.616 E2.05824
G1 X187.179 Y31.409 E2.07365
G1 X187.002 Y31.345 E2.08068
G1 X186.632 Y31.28 E2.09467
G1 X182.479 Y31.271 E2.24938
G1 X182.479 Y29.653 E2.30965
G1 X181.847 Y29.021 E2.34293
G1 X176.946 Y29.021 E2.52547
G92 E0
G1 E-0.8 F3000
G1 X192.114 Y43.945 F9000
G1 E0 F1800
G1 X192.114 Y25.349 E0.69262
G1 X191.606 Y25.349 E0.71154
G1 X191.606 Y43.749 E1.39684
G1 X191.098 Y43.749 E1.41575
G1 X191.098 Y25.349 E2.10105
G1 X190.59 Y25.349 E2.11997
G1 X190.59 Y39.325 E2.64051
G1 X190.082 Y38.817 E2.66726
G1 X190.082 Y25.349 E3.16889
G1 X189.574 Y25.349 E3.18781
G1 X189.574 Y38.711 E3.68546
G1 X189.066 Y38.711 E3.70438
G1 X189.066 Y25.349 E4.20204
G1 X188.558 Y25.349 E4.22095
G1 X188.558 Y38.711 E4.71861
G1 X188.539 Y38.711 E4.71932
G1 X188.539 Y32.948 E4.93396
G1 X188.461 Y32.443 E4.953
G1 X188.406 Y32.269 E4.95978
G1 X188.285 Y32.01 E4.97045
G1 X188.187 Y31.856 E4.97724
G1 X188.051 Y31.693 E4.98516
G1 X188.051 Y25.349 E5.22143
G1 X187.543 Y25.349 E5.24035
G1 X187.543 Y31.26 E5.46051
G1 X187.311 Y31.127 E5.47047
G1 X187.035 Y31.035 E5.48131
G1 X187.035 Y25.349 E5.69309
G1 X186.527 Y25.349 E5.712
G1 X186.527 Y30.961 E5.921
G1 X186.019 Y30.961 E5.93992
G1 X186.019 Y25.349 E6.14892
G1 X185.511 Y25.349 E6.16783
G1 X185.511 Y30.961 E6.37683
G1 X185.003 Y30.961 E6.39575
G1 X185.003 Y25.349 E6.60475
G1 X184.496 Y25.349 E6.62366
G1 X184.496 Y30.961 E6.83266
G1 X183.988 Y30.961 E6.85158
G1 X183.988 Y25.349 E7.06058
G1 X183.48 Y25.349 E7.07949
G1 X183.48 Y30.961 E7.28849
G1 X182.972 Y30.961 E7.30741
G1 X182.972 Y25.349 E7.51641
G1 X182.464 Y25.349 E7.53532
G1 X182.464 Y29.199 E7.67872
G1 X181.975 Y28.711 E7.70446
G1 X181.956 Y28.711 E7.70517
G1 X181.956 Y25.349 E7.83037
G1 X181.448 Y25.349 E7.84928
G1 X181.448 Y28.711 E7.97448
G1 X180.941 Y28.711 E7.9934
G1 X180.941 Y25.349 E8.11859
G1 X180.433 Y25.349 E8.13751
G1 X180.433 Y28.711 E8.2627
G1 X179.925 Y28.711 E8.28162
G1 X179.925 Y25.349 E8.40681
G1 X179.417 Y25.349 E8.42573
G1 X179.417 Y28.711 E8.55093
G1 X178.909 Y28.711 E8.56984
G1 X178.909 Y25.349 E8.69504
G1 X178.401 Y25.349 E8.71395
G1 X178.401 Y28.711 E8.83915
G1 X177.893 Y28.711 E8.85806
G1 X177.893 Y25.349 E8.98326
G1 X177.385 Y25.349 E9.00218
G1 X177.385 Y28.907 E9.13469
G92 E0
G1 E-0.8 F3000
G1 X145.2 Y46.628 F9000
G1 E0 F1800
;TYPE:Internal perimeter
G1 X144.585 Y47.198 E0.03124
G1 X143.968 Y47.836 E0.06431
G1 X143.368 Y48.525 E0.09831
G1 X142.785 Y49.263 E0.13335
G1 X142.218 Y50.05 E0.16949
G1 X141.666 Y50.887 E0.20682
G1 X141.129 Y51.772 E0.24539
G1 X140.606 Y52.707 E0.28528
G1 X140.098 Y53.691 E0.32653
G1 X139.603 Y54.724 E0.36919
G1 X139.121 Y55.806 E0.41332
G1 X138.653 Y56.938 E0.45894
G1 X138.197 Y58.119 E0.50609
G1 X137.753 Y59.35 E0.55482
G1 X137.322 Y60.63 E0.60514
G1 X136.903 Y61.96 E0.65709
G1 X136.495 Y63.346 E0.71088
G1 X135.718 Y66.251 E0.82289
G1 X134.986 Y69.362 E0.94193
G1 X134.3 Y72.675 E1.06793
G1 X133.659 Y76.189 E1.20099
G1 X133.062 Y79.906 E1.3412
G1 X132.511 Y83.825 E1.48862
G1 X132.003 Y87.947 E1.64332
G1 X131.538 Y92.273 E1.80534
G1 X131.118 Y96.802 E1.97476
G1 X130.74 Y101.534 E2.15158
G1 X130.405 Y106.47 E2.33587
G1 X130.112 Y111.611 E2.52763
G1 X129.862 Y116.955 E2.7269
G1 X129.655 Y122.503 E2.93371
G1 X129.489 Y128.256 E3.14806
G1 X129.365 Y134.213 E3.36999
G1 X129.282 Y140.374 E3.59949
G1 X129.241 Y146.74 E3.83659
G1 X129.241 Y153.26 E4.07943
G1 X129.282 Y159.626 E4.31654
G1 X129.365 Y165.787 E4.54604
G1 X129.489 Y171.744 E4.76797
G1 X129.655 Y177.497 E4.98232
G1 X129.862 Y183.045 E5.18913
G1 X130.112 Y188.389 E5.3884
G1 X130.405 Y193.53 E5.58016
G1 X130.74 Y198.466 E5.76444
G1 X131.118 Y203.198 E5.94127
G1 X131.538 Y207.727 E6.11069
G1 X132.003 Y212.053 E6.27271
G1 X132.511 Y216.175 E6.42741
G1 X133.062 Y220.094 E6.57482
G1 X133.659 Y223.811 E6.71503
G1 X134.3 Y227.325 E6.84809
G1 X134.986 Y230.638 E6.9741
G1 X135.718 Y233.749 E7.09314
G1 X136.495 Y236.654 E7.20515
G1 X136.903 Y238.04 E7.25894
G1 X137.322 Y239.37 E7.31089
G1 X137.753 Y240.65 E7.36121
G1 X138.197 Y241.881 E7.40994
G1 X138.653 Y243.062 E7.45709
G1 X139.121 Y244.194 E7.50271
G1 X139.603 Y245.276 E7.54684
G1 X140.098 Y246.309 E7.5895
G1 X140.606 Y247.293 E7.63075
G1 X141.129 Y248.228 E7.67064
G1 X141.666 Y249.113 E7.70921
G1 X142.218 Y249.95 E7.74654
G1 X142.785 Y250.737 E7.78268
G1 X143.368 Y251.475 E7.81772
G1 X143.968 Y252.164 E7.85172
G1 X144.585 Y252.802 E7.88478
G1 X145.219 Y253.39 E7.91699
G1 X145.872 Y253.926 E7.94845
G1 X146.543 Y254.409 E7.97926
G1 X147.232 Y254.84 E8.00951
G1 X147.939 Y255.215 E8.03933
G1 X148.663 Y255.535 E8.06882
G1 X149.404 Y255.797 E8.09809
G1 X150.159 Y256.002 E8.12724
G1 X150.928 Y256.148 E8.15639
G1 X151.709 Y256.236 E8.18565
G1 X152.5 Y256.265 E8.21514
G1 X153.291 Y256.236 E8.24462
G1 X154.072 Y256.148 E8.27388
G1 X154.841 Y256.002 E8.30303
G1 X155.596 Y255.797 E8.33218
G1 X156.337 Y255.535 E8.36145
G1 X157.061 Y255.215 E8.39094
G1 X157.768 Y254.84 E8.42076
G1 X158.457 Y254.409 E8.45102
G1 X159.128 Y253.926 E8.48182
