; HEADER_BLOCK_START
; generated by OrcaSlicer 1.6.3 on 2023-06-27 at 20:12:40
; total layer number: 50
; HEADER_BLOCK_END

; THUMBNAIL_BLOCK_START
; THUMBNAIL_BLOCK_END

; external perimeters extrusion width = 0.40mm
; perimeters extrusion width = 0.45mm
; infill extrusion width = 0.45mm
; solid infill extrusion width = 0.40mm
; top infill extrusion width = 0.40mm
; first layer extrusion width = 0.50mm

; external perimeters extrusion width = 0.40mm
; perimeters extrusion width = 0.45mm
; infill extrusion width = 0.45mm
; solid infill extrusion width = 0.40mm
; top infill extrusion width = 0.40mm
; first layer extrusion width = 0.50mm

; external perimeters extrusion width = 0.40mm
; perimeters extrusion width = 0.45mm
; infill extrusion width = 0.45mm
; solid infill extrusion width = 0.40mm
; top infill extrusion width = 0.40mm
; first layer extrusion width = 0.50mm

; EXECUTABLE_BLOCK_START
EXCLUDE_OBJECT_DEFINE NAME=110_mm_Bag_Clip.stl_id_0_copy_0 CENTER=155,178.573 POLYGON=[[93,163.496],[212,163.496],[212.49,163.52],[212.975,163.592],[213.451,163.711],[213.913,163.876],[214.357,164.086],[214.778,164.338],[215.172,164.631],[215.536,164.96],[215.536,164.96],[215.865,165.324],[216.157,165.718],[216.41,166.139],[216.619,166.582],[216.785,167.044],[216.904,167.52],[216.976,168.006],[217,168.496],[216.976,168.986],[216.904,169.471],[216.785,169.947],[216.619,170.409],[216.41,170.853],[216.157,171.274],[215.865,171.668],[215.536,172.031],[215.172,172.361],[214.778,172.653],[214.357,172.905],[213.913,173.115],[213.451,173.28],[212.975,173.4],[212.868,173.42],[98.138,193.65],[93,177.496],[93,163.496]]
EXCLUDE_OBJECT_DEFINE NAME=bag-clip-short.stl_id_1_copy_0 CENTER=152.916,150.996 POLYGON=[[105.629,150.887],[105.631,143.692],[192.541,143.498],[194.007,143.61],[195.422,144.006],[196.734,144.67],[197.891,145.578],[198.848,146.694],[199.569,147.975],[200.026,149.373],[200.202,150.832],[200.09,152.298],[199.694,153.714],[199.03,155.026],[198.122,156.182],[197.006,157.14],[195.725,157.861],[194.327,158.318],[192.868,158.494],[105.629,155.887],[105.629,150.887]]
EXCLUDE_OBJECT_DEFINE NAME=65_mm_Bag_Clip.stl_id_2_copy_0 CENTER=151.954,127.395 POLYGON=[[112.454,116.225],[186.454,116.225],[186.944,116.249],[187.43,116.321],[187.906,116.44],[188.368,116.606],[188.811,116.815],[189.232,117.068],[189.626,117.36],[189.99,117.689],[190.319,118.053],[190.611,118.447],[190.864,118.868],[191.074,119.312],[191.239,119.774],[191.358,120.25],[191.43,120.735],[191.454,121.225],[191.43,121.715],[191.358,122.2],[191.239,122.676],[191.074,123.138],[190.864,123.582],[190.611,124.003],[190.319,124.397],[189.99,124.761],[189.626,125.09],[189.232,125.382],[188.811,125.635],[188.368,125.844],[187.906,126.01],[187.43,126.129],[187.322,126.149],[116.909,138.565],[112.454,130.225],[112.454,116.225]]
M73 P0 R162
;TYPE:Custom
START_PRINT T_BED=60 T_EXTRUDER=220
G90
G21
M83 ; use relative distances for extrusion
; filament start gcode
PRESSURE_ADVANCE_SELECT FILAMENT=PLA
M106 S0
;LAYER_CHANGE
;Z:0.2
;HEIGHT:0.2
M204 S500
G1 E-.8 F3000
G1 Z.4 F9000
G1 X111.051 Y114.208
G1 Z.2
G1 E.8 F1800
;TYPE:Skirt
;WIDTH:0.5
G1 F900
G1 X112.454 Y113.768 E.05478
G1 X186.487 Y113.77 E2.75744
G1 X187.305 Y113.819 E.03052
G1 X188.503 Y114.057 E.04549
G1 X190.074 Y114.708 E.06336
G1 X191.09 Y115.386 E.04549
G1 X191.64 Y115.869 E.02725
G1 X192.719 Y117.184 E.06336
G1 X218.631 Y165.088 E2.02855
G1 X219.168 Y166.447 E.05443
G1 X219.406 Y167.645 E.04549
G1 X219.454 Y168.616 E.03622
G1 X219.287 Y170.068 E.05443
G1 X218.933 Y171.237 E.04549
G1 X218.517 Y172.116 E.03622
G1 X217.839 Y173.131 E.04549
G1 X216.822 Y174.181 E.05443
G1 X215.408 Y175.127 E.06337
G1 X214.279 Y175.594 E.04549
G1 X213.403 Y175.819 E.03371
G1 X98.565 Y196.07 E4.34327
G1 X97.186 Y195.915 E.05169
G1 X96.11 Y195.038 E.05169
G1 X95.797 Y194.395 E.02665
G1 X90.659 Y178.241 E.63138
G1 X90.543 Y177.496 E.02807
G1 X90.543 Y163.496 E.52145
G1 X90.728 Y162.561 E.0355
G1 X110.182 Y115.29 E1.90393
G1 X111.013 Y114.255 E.04945
; printing object 110_mm_Bag_Clip.stl id:0 copy 0
EXCLUDE_OBJECT_START NAME=110_mm_Bag_Clip.stl_id_0_copy_0
G1 E-.8 F3000
G1 Z.6 F9000
G1 X205.888 Y169.827 Z.2
G1 E.8 F1800
;TYPE:Outer wall
G1 F900
G1 X206.67 Y174.259 E.16761
G1 X98.341 Y193.36 E4.09709
M73 P0 R161
G1 X97.56 Y188.929 E.16761
G1 X205.829 Y169.838 E4.09484
G1 X205.862 Y169.903
G1 X205.518 Y170.357 F9000
;TYPE:Inner wall
G1 F900
G1 X206.14 Y173.888 E.13356
G1 X98.712 Y192.831 E4.06304
G1 X98.089 Y189.299 E.13356
G1 X205.459 Y170.367 E4.0608
G1 X205.147 Y170.886 F9000
G1 F900
G1 X205.611 Y173.517 E.09951
G1 X99.082 Y192.301 E4.02899
G1 X98.619 Y189.67 E.09951
G1 X205.088 Y170.897 E4.02675
G1 X205.227 Y172.181 F9000
;TYPE:Bottom surface
;WIDTH:0.501072
G1 F1200
G1 X204.418 Y171.372 E.04271
G1 X203.867 Y171.469 E.02088
G1 X205.112 Y172.714 E.06572
G1 X205.203 Y173.232 E.01963
G1 X205.015 Y173.265 E.00714
G1 X203.316 Y171.566 E.08969
G1 X202.765 Y171.664 E.02088
G1 X204.464 Y173.362 E.08969
G1 X203.913 Y173.459 E.02088
G1 X202.215 Y171.761 E.08969
G1 X201.664 Y171.858 E.02088
G1 X203.362 Y173.556 E.08969
G1 X202.812 Y173.654 E.02088
G1 X201.113 Y171.955 E.08969
G1 X200.562 Y172.052 E.02088
G1 X202.261 Y173.751 E.08969
G1 X201.71 Y173.848 E.02088
G1 X200.011 Y172.149 E.08969
G1 X199.461 Y172.246 E.02088
G1 X201.159 Y173.945 E.08969
G1 X200.608 Y174.042 E.02088
G1 X198.91 Y172.343 E.08969
G1 X198.359 Y172.441 E.02088
G1 X200.058 Y174.139 E.08969
G1 X199.507 Y174.236 E.02088
G1 X197.808 Y172.538 E.08969
G1 X197.257 Y172.635 E.02088
G1 X198.956 Y174.333 E.08969
G1 X198.405 Y174.431 E.02088
G1 X196.707 Y172.732 E.08969
G1 X196.156 Y172.829 E.02088
G1 X197.854 Y174.528 E.08969
G1 X197.304 Y174.625 E.02088
G1 X195.605 Y172.926 E.08969
G1 X195.054 Y173.023 E.02088
G1 X196.753 Y174.722 E.08969
G1 X196.202 Y174.819 E.02088
G1 X194.503 Y173.12 E.08969
G1 X193.952 Y173.218 E.02088
G1 X195.651 Y174.916 E.08969
G1 X195.1 Y175.013 E.02088
G1 X193.402 Y173.315 E.08969
G1 X192.851 Y173.412 E.02088
G1 X194.55 Y175.11 E.08969
G1 X193.999 Y175.208 E.02088
G1 X192.3 Y173.509 E.08969
G1 X191.749 Y173.606 E.02088
G1 X193.448 Y175.305 E.08969
G1 X192.897 Y175.402 E.02088
G1 X191.198 Y173.703 E.08969
G1 X190.648 Y173.8 E.02088
G1 X192.346 Y175.499 E.08969
G1 X191.796 Y175.596 E.02088
G1 X190.097 Y173.897 E.08969
G1 X189.546 Y173.994 E.02088
G1 X191.245 Y175.693 E.08969
G1 X190.694 Y175.79 E.02088
G1 X188.995 Y174.092 E.08969
G1 X188.444 Y174.189 E.02088
G1 X190.143 Y175.887 E.08969
G1 X189.592 Y175.985 E.02088
G1 X187.894 Y174.286 E.08969
G1 X187.343 Y174.383 E.02088
G1 X189.042 Y176.082 E.08969
G1 X188.491 Y176.179 E.02088
G1 X186.792 Y174.48 E.08969
G1 X186.241 Y174.577 E.02088
G1 X187.94 Y176.276 E.08969
G1 X187.389 Y176.373 E.02088
G1 X185.69 Y174.674 E.08969
G1 X185.14 Y174.771 E.02088
G1 X186.838 Y176.47 E.08969
G1 X186.287 Y176.567 E.02088
G1 X184.589 Y174.869 E.08969
G1 X184.038 Y174.966 E.02088
G1 X185.737 Y176.664 E.08969
G1 X185.186 Y176.761 E.02088
G1 X183.487 Y175.063 E.08969
G1 X182.936 Y175.16 E.02088
G1 X184.635 Y176.859 E.08969
G1 X184.084 Y176.956 E.02088
G1 X182.386 Y175.257 E.08969
G1 X181.835 Y175.354 E.02088
G1 X183.533 Y177.053 E.08969
G1 X182.983 Y177.15 E.02088
G1 X181.284 Y175.451 E.08969
G1 X180.733 Y175.548 E.02088
G1 X182.432 Y177.247 E.08969
G1 X181.881 Y177.344 E.02088
G1 X180.182 Y175.646 E.08969
G1 X179.632 Y175.743 E.02088
G1 X181.33 Y177.441 E.08969
G1 X180.779 Y177.538 E.02088
G1 X179.081 Y175.84 E.08969
G1 X178.53 Y175.937 E.02088
G1 X180.229 Y177.636 E.08969
G1 X179.678 Y177.733 E.02088
G1 X177.979 Y176.034 E.08969
G1 X177.428 Y176.131 E.02088
G1 X179.127 Y177.83 E.08969
G1 X178.576 Y177.927 E.02088
G1 X176.878 Y176.228 E.08969
G1 X176.327 Y176.325 E.02088
G1 X178.025 Y178.024 E.08969
G1 X177.475 Y178.121 E.02088
G1 X175.776 Y176.423 E.08969
G1 X175.225 Y176.52 E.02088
G1 X176.924 Y178.218 E.08969
G1 X176.373 Y178.315 E.02088
G1 X174.674 Y176.617 E.08969
G1 X174.124 Y176.714 E.02088
G1 X175.822 Y178.413 E.08969
G1 X175.271 Y178.51 E.02088
G1 X173.573 Y176.811 E.08969
G1 X173.022 Y176.908 E.02088
G1 X174.721 Y178.607 E.08969
G1 X174.17 Y178.704 E.02088
G1 X172.471 Y177.005 E.08969
G1 X171.92 Y177.102 E.02088
G1 X173.619 Y178.801 E.08969
G1 X173.068 Y178.898 E.02088
G1 X171.37 Y177.199 E.08969
G1 X170.819 Y177.297 E.02088
G1 X172.517 Y178.995 E.08969
G1 X171.967 Y179.092 E.02088
G1 X170.268 Y177.394 E.08969
G1 X169.717 Y177.491 E.02088
G1 X171.416 Y179.19 E.08969
G1 X170.865 Y179.287 E.02088
G1 X169.166 Y177.588 E.08969
G1 X168.616 Y177.685 E.02088
G1 X170.314 Y179.384 E.08969
G1 X169.763 Y179.481 E.02088
G1 X168.065 Y177.782 E.08969
G1 X167.514 Y177.879 E.02088
G1 X169.213 Y179.578 E.08969
G1 X168.662 Y179.675 E.02088
G1 X166.963 Y177.976 E.08969
G1 X166.412 Y178.074 E.02088
G1 X168.111 Y179.772 E.08969
G1 X167.56 Y179.869 E.02088
G1 X165.862 Y178.171 E.08969
G1 X165.311 Y178.268 E.02088
G1 X167.009 Y179.966 E.08969
G1 X166.459 Y180.064 E.02088
G1 X164.76 Y178.365 E.08969
G1 X164.209 Y178.462 E.02088
G1 X165.908 Y180.161 E.08969
G1 X165.357 Y180.258 E.02088
G1 X163.658 Y178.559 E.08969
G1 X163.108 Y178.656 E.02088
G1 X164.806 Y180.355 E.08969
G1 X164.255 Y180.452 E.02088
G1 X162.557 Y178.753 E.08969
G1 X162.006 Y178.851 E.02088
G1 X163.705 Y180.549 E.08969
G1 X163.154 Y180.646 E.02088
G1 X161.455 Y178.948 E.08969
G1 X160.904 Y179.045 E.02088
G1 X162.603 Y180.743 E.08969
G1 X162.052 Y180.841 E.02088
G1 X160.353 Y179.142 E.08969
G1 X159.803 Y179.239 E.02088
G1 X161.501 Y180.938 E.08969
G1 X160.951 Y181.035 E.02088
G1 X159.252 Y179.336 E.08969
G1 X158.701 Y179.433 E.02088
G1 X160.4 Y181.132 E.08969
G1 X159.849 Y181.229 E.02088
G1 X158.15 Y179.53 E.08969
G1 X157.599 Y179.628 E.02088
G1 X159.298 Y181.326 E.08969
G1 X158.747 Y181.423 E.02088
G1 X157.049 Y179.725 E.08969
G1 X156.498 Y179.822 E.02088
G1 X158.197 Y181.52 E.08969
G1 X157.646 Y181.618 E.02088
G1 X155.947 Y179.919 E.08969
G1 X155.396 Y180.016 E.02088
G1 X157.095 Y181.715 E.08969
G1 X156.544 Y181.812 E.02088
G1 X154.845 Y180.113 E.08969
G1 X154.295 Y180.21 E.02088
G1 X155.993 Y181.909 E.08969
G1 X155.443 Y182.006 E.02088
G1 X153.744 Y180.307 E.08969
G1 X153.193 Y180.405 E.02088
G1 X154.892 Y182.103 E.08969
G1 X154.341 Y182.2 E.02088
G1 X152.642 Y180.502 E.08969
G1 X152.091 Y180.599 E.02088
G1 X153.79 Y182.297 E.08969
G1 X153.239 Y182.395 E.02088
G1 X151.541 Y180.696 E.08969
G1 X150.99 Y180.793 E.02088
G1 X152.689 Y182.492 E.08969
G1 X152.138 Y182.589 E.02088
G1 X150.439 Y180.89 E.08969
G1 X149.888 Y180.987 E.02088
G1 X151.587 Y182.686 E.08969
G1 X151.036 Y182.783 E.02088
G1 X149.337 Y181.084 E.08969
G1 X148.787 Y181.181 E.02088
G1 X150.485 Y182.88 E.08969
G1 X149.934 Y182.977 E.02088
G1 X148.236 Y181.279 E.08969
G1 X147.685 Y181.376 E.02088
G1 X149.384 Y183.074 E.08969
G1 X148.833 Y183.172 E.02088
G1 X147.134 Y181.473 E.08969
G1 X146.583 Y181.57 E.02088
G1 X148.282 Y183.269 E.08969
G1 X147.731 Y183.366 E.02088
G1 X146.033 Y181.667 E.08969
G1 X145.482 Y181.764 E.02088
G1 X147.18 Y183.463 E.08969
G1 X146.63 Y183.56 E.02088
G1 X144.931 Y181.861 E.08969
G1 X144.38 Y181.958 E.02088
G1 X146.079 Y183.657 E.08969
G1 X145.528 Y183.754 E.02088
G1 X143.829 Y182.056 E.08969
G1 X143.279 Y182.153 E.02088
G1 X144.977 Y183.851 E.08969
G1 X144.426 Y183.948 E.02088
G1 X142.728 Y182.25 E.08969
G1 X142.177 Y182.347 E.02088
G1 X143.876 Y184.046 E.08969
G1 X143.325 Y184.143 E.02088
G1 X141.626 Y182.444 E.08969
G1 X141.075 Y182.541 E.02088
G1 X142.774 Y184.24 E.08969
G1 X142.223 Y184.337 E.02088
G1 X140.525 Y182.638 E.08969
G1 X139.974 Y182.735 E.02088
G1 X141.672 Y184.434 E.08969
G1 X141.122 Y184.531 E.02088
G1 X139.423 Y182.833 E.08969
G1 X138.872 Y182.93 E.02088
G1 X140.571 Y184.628 E.08969
G1 X140.02 Y184.725 E.02088
G1 X138.321 Y183.027 E.08969
M73 P0 R160
G1 X137.771 Y183.124 E.02088
G1 X139.469 Y184.823 E.08969
G1 X138.918 Y184.92 E.02088
G1 X137.22 Y183.221 E.08969
G1 X136.669 Y183.318 E.02088
G1 X138.368 Y185.017 E.08969
G1 X137.817 Y185.114 E.02088
G1 X136.118 Y183.415 E.08969
G1 X135.567 Y183.512 E.02088
G1 X137.266 Y185.211 E.08969
G1 X136.715 Y185.308 E.02088
G1 X135.017 Y183.61 E.08969
G1 X134.466 Y183.707 E.02088
G1 X136.164 Y185.405 E.08969
G1 X135.614 Y185.502 E.02088
G1 X133.915 Y183.804 E.08969
G1 X133.364 Y183.901 E.02088
G1 X135.063 Y185.6 E.08969
G1 X134.512 Y185.697 E.02088
G1 X132.813 Y183.998 E.08969
G1 X132.263 Y184.095 E.02088
G1 X133.961 Y185.794 E.08969
G1 X133.41 Y185.891 E.02088
G1 X131.712 Y184.192 E.08969
G1 X131.161 Y184.289 E.02088
G1 X132.86 Y185.988 E.08969
G1 X132.309 Y186.085 E.02088
G1 X130.61 Y184.386 E.08969
G1 X130.059 Y184.484 E.02088
G1 X131.758 Y186.182 E.08969
G1 X131.207 Y186.279 E.02088
G1 X129.509 Y184.581 E.08969
G1 X128.958 Y184.678 E.02088
G1 X130.656 Y186.377 E.08969
G1 X130.106 Y186.474 E.02088
G1 X128.407 Y184.775 E.08969
G1 X127.856 Y184.872 E.02088
G1 X129.555 Y186.571 E.08969
G1 X129.004 Y186.668 E.02088
G1 X127.305 Y184.969 E.08969
G1 X126.754 Y185.066 E.02088
G1 X128.453 Y186.765 E.08969
G1 X127.902 Y186.862 E.02088
G1 X126.204 Y185.163 E.08969
G1 X125.653 Y185.261 E.02088
G1 X127.352 Y186.959 E.08969
G1 X126.801 Y187.056 E.02088
G1 X125.102 Y185.358 E.08969
G1 X124.551 Y185.455 E.02088
G1 X126.25 Y187.153 E.08969
G1 X125.699 Y187.251 E.02088
G1 X124 Y185.552 E.08969
G1 X123.45 Y185.649 E.02088
G1 X125.148 Y187.348 E.08969
M73 P1 R160
G1 X124.598 Y187.445 E.02088
G1 X122.899 Y185.746 E.08969
G1 X122.348 Y185.843 E.02088
G1 X124.047 Y187.542 E.08969
G1 X123.496 Y187.639 E.02088
G1 X121.797 Y185.94 E.08969
G1 X121.246 Y186.038 E.02088
G1 X122.945 Y187.736 E.08969
G1 X122.394 Y187.833 E.02088
G1 X120.696 Y186.135 E.08969
G1 X120.145 Y186.232 E.02088
G1 X121.844 Y187.93 E.08969
G1 X121.293 Y188.028 E.02088
G1 X119.594 Y186.329 E.08969
G1 X119.043 Y186.426 E.02088
G1 X120.742 Y188.125 E.08969
G1 X120.191 Y188.222 E.02088
G1 X118.492 Y186.523 E.08969
G1 X117.942 Y186.62 E.02088
G1 X119.64 Y188.319 E.08969
G1 X119.09 Y188.416 E.02088
G1 X117.391 Y186.717 E.08969
G1 X116.84 Y186.815 E.02088
G1 X118.539 Y188.513 E.08969
G1 X117.988 Y188.61 E.02088
G1 X116.289 Y186.912 E.08969
G1 X115.738 Y187.009 E.02088
G1 X117.437 Y188.707 E.08969
G1 X116.886 Y188.805 E.02088
G1 X115.188 Y187.106 E.08969
G1 X114.637 Y187.203 E.02088
G1 X116.335 Y188.902 E.08969
G1 X115.785 Y188.999 E.02088
G1 X114.086 Y187.3 E.08969
G1 X113.535 Y187.397 E.02088
G1 X115.234 Y189.096 E.08969
G1 X114.683 Y189.193 E.02088
G1 X112.984 Y187.494 E.08969
G1 X112.434 Y187.591 E.02088
G1 X114.132 Y189.29 E.08969
G1 X113.581 Y189.387 E.02088
G1 X111.883 Y187.689 E.08969
G1 X111.332 Y187.786 E.02088
G1 X113.031 Y189.484 E.08969
G1 X112.48 Y189.582 E.02088
G1 X110.781 Y187.883 E.08969
G1 X110.23 Y187.98 E.02088
G1 X111.929 Y189.679 E.08969
G1 X111.378 Y189.776 E.02088
G1 X109.68 Y188.077 E.08969
G1 X109.129 Y188.174 E.02088
G1 X110.827 Y189.873 E.08969
G1 X110.277 Y189.97 E.02088
G1 X108.578 Y188.271 E.08969
G1 X108.027 Y188.368 E.02088
G1 X109.726 Y190.067 E.08969
G1 X109.175 Y190.164 E.02088
G1 X107.476 Y188.466 E.08969
G1 X106.926 Y188.563 E.02088
G1 X108.624 Y190.261 E.08969
G1 X108.073 Y190.359 E.02088
G1 X106.375 Y188.66 E.08969
G1 X105.824 Y188.757 E.02088
G1 X107.523 Y190.456 E.08969
G1 X106.972 Y190.553 E.02088
G1 X105.273 Y188.854 E.08969
G1 X104.722 Y188.951 E.02088
G1 X106.421 Y190.65 E.08969
G1 X105.87 Y190.747 E.02088
G1 X104.172 Y189.048 E.08969
G1 X103.621 Y189.145 E.02088
G1 X105.319 Y190.844 E.08969
G1 X104.769 Y190.941 E.02088
G1 X103.07 Y189.243 E.08969
G1 X102.519 Y189.34 E.02088
G1 X104.218 Y191.038 E.08969
G1 X103.667 Y191.135 E.02088
G1 X101.968 Y189.437 E.08969
G1 X101.418 Y189.534 E.02088
G1 X103.116 Y191.233 E.08969
G1 X102.565 Y191.33 E.02088
G1 X100.867 Y189.631 E.08969
G1 X100.316 Y189.728 E.02088
G1 X102.015 Y191.427 E.08969
G1 X101.464 Y191.524 E.02088
G1 X99.765 Y189.825 E.08969
G1 X99.214 Y189.922 E.02088
G1 X100.913 Y191.621 E.08969
G1 X100.362 Y191.718 E.02088
G1 X99.118 Y190.474 E.06571
G1 X99.256 Y191.26 E.02982
G1 X99.989 Y191.993 E.03869
G1 E-.8 F3000
G1 Z.6 F9000
G1 X209.774 Y168.767 Z.2
G1 E.8 F1800
;TYPE:Outer wall
