; generated by SuperSlicer 2.5.59 on 2023-06-01 at 05:19:12 UTC


;
;

;
;
; 

; external perimeters extrusion width = 0.40mm
; perimeters extrusion width = 0.46mm
; infill extrusion width = 0.64mm
; solid infill extrusion width = 0.56mm
; top infill extrusion width = 0.40mm
; support material extrusion width = 0.46mm
; first layer extrusion width = 0.50mm

; object:{"name":"2x1","id":"2x1.stl id:0 copy 0","object_center":[152.500000,150.000000,0.000000],"boundingbox_center":[152.500000,150.000000,7.300000],"boundingbox_size":[68.199997,23.200001,14.600000]}
EXCLUDE_OBJECT_DEFINE NAME=2x1_stl_id_0_copy_0 CENTER=152.500000,150.000000 POLYGON=[[118.400000,141.600000],[118.400480,141.544160],[118.401944,141.488320],[118.404392,141.432528],[118.407792,141.376784],[118.412176,141.321104],[118.417528,141.265504],[118.423848,141.210016],[118.431136,141.154656],[118.439392,141.099408],[118.448616,141.044320],[118.458792,140.989408],[118.469928,140.934672],[118.482016,140.880160],[118.495056,140.825856],[118.509032,140.771776],[118.523968,140.717952],[118.539824,140.664416],[118.556616,140.611152],[118.574344,140.558176],[118.592984,140.505536],[118.612544,140.453216],[118.633008,140.401264],[118.654392,140.349648],[118.676648,140.298448],[118.699816,140.247616],[118.723864,140.197200],[118.748776,140.147232],[118.774568,140.097680],[118.801216,140.048608],[118.828720,140.000000],[118.857064,139.951872],[118.886248,139.904272],[118.916264,139.857152],[118.947080,139.810576],[118.978712,139.764560],[119.011144,139.719088],[119.044368,139.674192],[119.078368,139.629888],[119.113128,139.586176],[119.148656,139.543072],[119.184928,139.500608],[119.221936,139.458784],[119.259664,139.417600],[119.298112,139.377088],[119.337256,139.337264],[119.377088,139.298112],[119.417600,139.259680],[119.458784,139.221936],[119.500608,139.184944],[119.543072,139.148656],[119.586176,139.113136],[119.629880,139.078368],[119.674192,139.044368],[119.719088,139.011136],[119.764560,138.978720],[119.810576,138.947088],[119.857152,138.916256],[119.904256,138.886240],[119.951872,138.857072],[120.000000,138.828720],[120.048616,138.801232],[120.097688,138.774560],[120.147232,138.748784],[120.197216,138.723856],[120.247616,138.699808],[120.298448,138.676656],[120.349656,138.654384],[120.401264,138.633008],[120.453224,138.612544],[120.505536,138.592992],[120.558184,138.574336],[120.611144,138.556624],[120.664416,138.539824],[120.717960,138.523952],[120.771776,138.509040],[120.825848,138.495056],[120.880160,138.482016],[120.934688,138.469920],[120.989408,138.458784],[121.044328,138.448608],[121.099408,138.439392],[121.154648,138.431136],[121.210024,138.423856],[121.265512,138.417520],[121.321104,138.412176],[121.376776,138.407792],[121.432528,138.404384],[121.488320,138.401952],[121.544152,138.400480],[121.600000,138.400000],[183.400000,138.400000],[183.455840,138.400480],[183.511680,138.401952],[183.567472,138.404384],[183.623216,138.407792],[183.678896,138.412176],[183.734496,138.417520],[183.789984,138.423856],[183.845360,138.431136],[183.900592,138.439392],[183.955680,138.448608],[184.010592,138.458784],[184.065328,138.469920],[184.119840,138.482016],[184.174144,138.495056],[184.228224,138.509040],[184.282048,138.523952],[184.335584,138.539824],[184.388848,138.556624],[184.441824,138.574336],[184.494464,138.592992],[184.546784,138.612544],[184.598736,138.633008],[184.650352,138.654384],[184.701552,138.676656],[184.752384,138.699808],[184.802800,138.723856],[184.852768,138.748784],[184.902320,138.774560],[184.951392,138.801232],[185.000000,138.828720],[185.048128,138.857072],[185.095728,138.886240],[185.142848,138.916256],[185.189424,138.947088],[185.235440,138.978720],[185.280912,139.011136],[185.325808,139.044368],[185.370112,139.078368],[185.413824,139.113136],[185.456928,139.148656],[185.499392,139.184944],[185.541216,139.221936],[185.582400,139.259680],[185.622912,139.298112],[185.662752,139.337264],[185.701888,139.377088],[185.740320,139.417600],[185.778064,139.458784],[185.815056,139.500608],[185.851344,139.543072],[185.886864,139.586176],[185.921632,139.629888],[185.955632,139.674192],[185.988864,139.719088],[186.021280,139.764560],[186.052912,139.810576],[186.083744,139.857152],[186.113760,139.904272],[186.142944,139.951872],[186.171280,140.000000],[186.198784,140.048608],[186.225440,140.097680],[186.251216,140.147232],[186.276144,140.197200],[186.300192,140.247616],[186.323344,140.298448],[186.345616,140.349648],[186.366992,140.401264],[186.387456,140.453216],[186.407008,140.505536],[186.425664,140.558176],[186.443392,140.611152],[186.460176,140.664416],[186.476048,140.717952],[186.490960,140.771776],[186.504944,140.825856],[186.517968,140.880160],[186.530080,140.934672],[186.541200,140.989408],[186.551392,141.044320],[186.560608,141.099408],[186.568864,141.154656],[186.576144,141.210016],[186.582480,141.265504],[186.587824,141.321104],[186.592208,141.376784],[186.595616,141.432528],[186.598048,141.488320],[186.599520,141.544160],[186.600000,141.600000],[186.600000,158.400000],[186.599520,158.455840],[186.598048,158.511680],[186.595616,158.567472],[186.592208,158.623216],[186.587824,158.678896],[186.582480,158.734496],[186.576144,158.789984],[186.568864,158.845360],[186.560608,158.900592],[186.551392,158.955680],[186.541200,159.010592],[186.530080,159.065328],[186.517968,159.119840],[186.504944,159.174144],[186.490960,159.228224],[186.476048,159.282048],[186.460176,159.335584],[186.443392,159.388848],[186.425664,159.441824],[186.407008,159.494464],[186.387456,159.546784],[186.366992,159.598736],[186.345616,159.650352],[186.323344,159.701552],[186.300192,159.752384],[186.276144,159.802800],[186.251216,159.852768],[186.225440,159.902320],[186.198784,159.951392],[186.171280,160.000000],[186.142944,160.048128],[186.113760,160.095728],[186.083744,160.142848],[186.052912,160.189424],[186.021280,160.235440],[185.988864,160.280912],[185.955632,160.325808],[185.921632,160.370112],[185.886864,160.413824],[185.851344,160.456928],[185.815056,160.499392],[185.778064,160.541216],[185.740320,160.582400],[185.701888,160.622912],[185.662752,160.662736],[185.622912,160.701888],[185.582400,160.740320],[185.541216,160.778064],[185.499392,160.815056],[185.456928,160.851344],[185.413824,160.886864],[185.370112,160.921632],[185.325808,160.955632],[185.280912,160.988864],[185.235440,161.021280],[185.189424,161.052912],[185.142848,161.083744],[185.095728,161.113760],[185.048128,161.142928],[185.000000,161.171280],[184.951392,161.198784],[184.902320,161.225440],[184.852768,161.251216],[184.802800,161.276144],[184.752384,161.300192],[184.701552,161.323344],[184.650352,161.345616],[184.598736,161.366992],[184.546784,161.387456],[184.494464,161.407008],[184.441824,161.425664],[184.388848,161.443376],[184.335584,161.460176],[184.282048,161.476048],[184.228224,161.490960],[184.174144,161.504944],[184.119840,161.517984],[184.065328,161.530080],[184.010592,161.541216],[183.955680,161.551392],[183.900592,161.560608],[183.845360,161.568864],[183.789984,161.576144],[183.734496,161.582480],[183.678896,161.587824],[183.623216,161.592208],[183.567472,161.595616],[183.511680,161.598048],[183.455840,161.599520],[183.400000,161.600000],[121.600000,161.600000],[121.544152,161.599520],[121.488320,161.598048],[121.432528,161.595616],[121.376776,161.592208],[121.321104,161.587824],[121.265512,161.582480],[121.210024,161.576144],[121.154648,161.568864],[121.099408,161.560608],[121.044328,161.551392],[120.989408,161.541216],[120.934688,161.530080],[120.880160,161.517984],[120.825848,161.504944],[120.771776,161.490960],[120.717960,161.476048],[120.664416,161.460176],[120.611144,161.443376],[120.558184,161.425664],[120.505536,161.407008],[120.453224,161.387456],[120.401264,161.366992],[120.349656,161.345616],[120.298448,161.323344],[120.247616,161.300192],[120.197216,161.276144],[120.147232,161.251216],[120.097688,161.225440],[120.048616,161.198784],[120.000000,161.171280],[119.951872,161.142928],[119.904256,161.113760],[119.857152,161.083744],[119.810576,161.052912],[119.764560,161.021280],[119.719088,160.988864],[119.674192,160.955632],[119.629880,160.921632],[119.586176,160.886864],[119.543072,160.851344],[119.500608,160.815056],[119.458784,160.778064],[119.417600,160.740320],[119.377088,160.701888],[119.337256,160.662736],[119.298112,160.622912],[119.259664,160.582400],[119.221936,160.541216],[119.184928,160.499392],[119.148656,160.456928],[119.113128,160.413824],[119.078368,160.370112],[119.044368,160.325808],[119.011144,160.280912],[118.978712,160.235440],[118.947080,160.189424],[118.916264,160.142848],[118.886248,160.095728],[118.857064,160.048128],[118.828720,160.000000],[118.801216,159.951392],[118.774568,159.902320],[118.748776,159.852768],[118.723864,159.802800],[118.699816,159.752384],[118.676648,159.701552],[118.654392,159.650352],[118.633008,159.598736],[118.612544,159.546784],[118.592984,159.494464],[118.574344,159.441824],[118.556616,159.388848],[118.539824,159.335584],[118.523968,159.282048],[118.509032,159.228224],[118.495056,159.174144],[118.482016,159.119840],[118.469928,159.065328],[118.458792,159.010592],[118.448616,158.955680],[118.439392,158.900592],[118.431136,158.845360],[118.423848,158.789984],[118.417528,158.734496],[118.412176,158.678896],[118.407792,158.623216],[118.404392,158.567472],[118.401944,158.511680],[118.400480,158.455840],[118.400000,158.400000],[118.400000,141.600000]]
; plater:{"center":[152.500000,150.000000,0.000000],"boundingbox_center":[152.500000,150.000000,7.300000],"boundingbox_size":[68.199997,23.200001,14.600000]}

M73 P0 R24
;TYPE:Custom
START_PRINT T_BED=60 T_EXTRUDER=200
M107
G21 ; set units to millimeters
G90 ; use absolute coordinates
M82 ; use absolute distances for extrusion
G92 E0
; Filament gcode

    PRESSURE_ADVANCE_SELECT FILAMENT=PLA
;_TOOLCHANGE 0
M109 S200 ; set temperature and wait for it to be reached
M190 S60 ; set bed temperature and wait for it to be reached
M107
;LAYER_CHANGE
;Z:0.2
;HEIGHT:0.2
G1 Z0.2 F9000
M73 P0 R24
G1 E-0.8 F3000
M204 S1000
G1 X117.937 Y137.144 F9000
G1 E0 F1800
;TYPE:Skirt
;WIDTH:0.52
G1 X116.958 Y138.175 E0.05528
G1 X116.512 Y138.883 E0.08779
G1 X116.15 Y139.712 E0.12299
G1 X115.874 Y140.908 E0.17069
G1 X115.828 Y158.395 E0.85052
G1 X115.949 Y159.558 E0.89597
G1 X116.295 Y160.663 E0.941
G1 X116.714 Y161.465 E0.97618
G1 X117.254 Y162.192 E1.01137
G1 X118.366 Y163.176 E1.06911
G1 X119.153 Y163.623 E1.10429
G1 X120 Y163.942 E1.13948
G1 X121.567 Y164.172 E1.20105
G1 X183.396 Y164.172 E3.60471
G1 X184.558 Y164.051 E3.65012
G1 X185.363 Y163.824 E3.68263
G1 X186.16 Y163.466 E3.7166
G1 X186.837 Y163.033 E3.74787
G1 X187.694 Y162.251 E3.79292
G1 X188.488 Y161.117 E3.84675
G1 X188.929 Y160.046 E3.89179
G1 X189.164 Y158.581 E3.94947
G1 X189.171 Y141.533 E4.61224
G1 X189.087 Y140.653 E4.64661
G1 X188.927 Y139.959 E4.6743
G1 X188.318 Y138.591 E4.7325
G1 X187.654 Y137.708 E4.77546
G1 X186.833 Y136.968 E4.81843
G1 X185.886 Y136.398 E4.8614
G1 X185.226 Y136.131 E4.88909
G1 X184.18 Y135.886 E4.93082
G1 X183.432 Y135.828 E4.95999
G1 X167.978 Y135.828 E5.56078
G1 X121.604 Y135.828 E7.36363
G1 X120.442 Y135.949 E7.40904
G1 X119.336 Y136.295 E7.45408
G1 X118.592 Y136.677 E7.48661
G1 X117.937 Y137.144 E7.51788
G1 X118.231 Y137.52 F9000
G1 F1800
G1 X117.349 Y138.449 E7.56767
G1 X116.939 Y139.096 E7.59744
G1 X116.605 Y139.856 E7.62973
G1 X116.346 Y140.978 E7.67451
G1 X116.305 Y158.395 E8.35161
M73 P1 R23
G1 X116.414 Y159.451 E8.39286
G1 X116.739 Y160.488 E8.43514
G1 X117.125 Y161.223 E8.46741
G1 X117.622 Y161.888 E8.49969
G1 X118.622 Y162.774 E8.55162
G1 X119.343 Y163.186 E8.5839
G1 X120.12 Y163.48 E8.61618
G1 X121.567 Y163.695 E8.67307
G1 X183.396 Y163.695 E11.07673
G1 X184.451 Y163.586 E11.11794
G1 X185.188 Y163.38 E11.1477
G1 X185.921 Y163.053 E11.17892
G1 X186.544 Y162.657 E11.2076
G1 X187.347 Y161.923 E11.24991
G1 X188.061 Y160.904 E11.29825
G1 X188.475 Y159.899 E11.34054
G1 X188.687 Y158.581 E11.39243
G1 X188.694 Y141.533 E12.0552
G1 X188.614 Y140.715 E12.08714
G1 X188.35 Y139.736 E12.12656
G1 X188.097 Y139.169 E12.15069
G1 X187.547 Y138.317 E12.19011
G1 X186.844 Y137.586 E12.22952
G1 X186.015 Y137.003 E12.26893
G1 X185.09 Y136.588 E12.30835
G1 X183.771 Y136.323 E12.36066
G1 X167.978 Y136.305 E12.97461
G1 X121.604 Y136.305 E14.77746
G1 X120.549 Y136.414 E14.81868
G1 X119.511 Y136.739 E14.86097
G1 X118.831 Y137.091 E14.89075
G1 X118.231 Y137.52 E14.91943
G92 E0
G1 E-0.8 F3000
; printing object 2x1.stl id:0 copy 0
EXCLUDE_OBJECT_START NAME=2x1_stl_id_0_copy_0
G1 X184.264 Y141.401 F9000
G1 E0 F1800
;TYPE:Internal perimeter
;WIDTH:0.5
G1 X184.291 Y141.607 E0.00777
G1 X184.284 Y158.483 E0.63631
G1 X184.261 Y158.62 E0.64151
G1 X184.159 Y158.863 E0.6513
G1 X184.094 Y158.955 E0.65551
G1 X183.897 Y159.137 E0.6655
G1 X183.655 Y159.252 E0.6755
G1 X183.35 Y159.292 E0.68693
G1 X121.623 Y159.292 E2.98604
G1 X121.311 Y159.24 E2.99783
G1 X121.065 Y159.11 E3.00819
G1 X120.872 Y158.91 E3.01854
G1 X120.748 Y158.655 E3.0291
G1 X120.708 Y158.351 E3.04053
G1 X120.713 Y141.544 E3.66652
G1 X120.734 Y141.4 E3.67193
G1 X120.841 Y141.137 E3.68249
G1 X121.009 Y140.936 E3.69228
G1 X121.205 Y140.803 E3.70108
G1 X121.455 Y140.723 E3.71087
G1 X121.65 Y140.708 E3.71813
G1 X122.597 Y140.708 E3.75343
G1 X183.371 Y140.708 E6.01703
G1 X183.564 Y140.728 E6.02424
G1 X183.732 Y140.778 E6.03077
G1 X183.883 Y140.856 E6.0371
G1 X184.016 Y140.962 E6.04343
G1 X184.126 Y141.091 E6.04976
G1 X184.21 Y141.239 E6.05609
G1 X184.264 Y141.401 E6.06242
G1 X184.711 Y141.297 F9000
G1 F1800
G1 X184.748 Y141.577 E6.07295
G1 X184.741 Y158.521 E6.70402
G1 X184.706 Y158.729 E6.7119
G1 X184.651 Y158.901 E6.71864
G1 X184.553 Y159.097 E6.72678
G1 X184.449 Y159.245 E6.73352
G1 X184.299 Y159.404 E6.74165
G1 X184.154 Y159.517 E6.74852
G1 X183.994 Y159.609 E6.75539
G1 X183.791 Y159.689 E6.76353
G1 X183.614 Y159.73 E6.77027
G1 X183.368 Y159.75 E6.77946
G1 X121.601 Y159.749 E9.08005
M73 P2 R23
G1 X121.366 Y159.727 E9.08884
G1 X121.161 Y159.674 E9.09672
G1 X120.968 Y159.589 E9.10459
G1 X120.789 Y159.476 E9.11247
G1 X120.631 Y159.336 E9.12034
G1 X120.497 Y159.173 E9.12821
G1 X120.389 Y158.991 E9.13608
G1 X120.311 Y158.791 E9.14409
G1 X120.27 Y158.614 E9.15083
G1 X120.25 Y158.368 E9.16001
G1 X120.256 Y141.51 E9.78794
G1 X120.287 Y141.297 E9.79595
G1 X120.351 Y141.095 E9.80382
G1 X120.447 Y140.903 E9.81182
G1 X120.551 Y140.755 E9.81856
G1 X120.701 Y140.596 E9.8267
G1 X120.846 Y140.483 E9.83357
G1 X121.006 Y140.391 E9.84044
G1 X121.209 Y140.311 E9.84858
G1 X121.386 Y140.27 E9.85532
G1 X121.632 Y140.25 E9.8645
G1 X122.597 Y140.25 E9.90047
G1 X183.395 Y140.251 E12.16497
G1 X183.653 Y140.278 E12.17463
G1 X183.904 Y140.352 E12.18437
G1 X184.133 Y140.471 E12.19398
G1 X184.335 Y140.632 E12.20359
G1 X184.502 Y140.828 E12.2132
G1 X184.629 Y141.053 E12.22281
G1 X184.711 Y141.297 E12.23242
G1 X185.159 Y141.194 F9000
;TYPE:External perimeter
G1 F1800
G1 X185.205 Y141.548 E12.2457
G1 X185.198 Y158.559 E12.8793
G1 X185.152 Y158.838 E12.88986
G1 X185.075 Y159.075 E12.89913
G1 X184.947 Y159.331 E12.90979
G1 X184.804 Y159.535 E12.91906
G1 X184.607 Y159.743 E12.92973
G1 X184.41 Y159.897 E12.93906
G1 X184.193 Y160.022 E12.94838
G1 X183.926 Y160.127 E12.95905
G1 X183.684 Y160.183 E12.96832
G1 X183.386 Y160.207 E12.97944
G1 X121.579 Y160.206 E15.28152
M73 P2 R23
G1 X121.287 Y160.178 E15.29247
G1 X121.012 Y160.107 E15.30303
G1 X120.752 Y159.994 E15.31358
G1 X120.513 Y159.842 E15.32413
G1 X120.301 Y159.654 E15.33468
G1 X120.121 Y159.436 E15.34524
G1 X119.977 Y159.192 E15.35579
G1 X119.873 Y158.926 E15.3664
G1 X119.817 Y158.684 E15.37567
G1 X119.793 Y158.386 E15.38679
G1 X119.799 Y141.476 E16.01665
G1 X119.841 Y141.194 E16.02726
G1 X119.926 Y140.924 E16.03781
G1 X120.053 Y140.669 E16.04842
G1 X120.196 Y140.465 E16.05769
G1 X120.393 Y140.257 E16.06836
G1 X120.59 Y140.103 E16.07768
G1 X120.807 Y139.978 E16.08701
G1 X121.074 Y139.873 E16.09768
G1 X121.316 Y139.817 E16.10695
G1 X121.614 Y139.793 E16.11807
G1 X122.597 Y139.793 E16.15471
G1 X183.419 Y139.794 E18.42009
