; HEADER_BLOCK_START
; generated by OrcaSlicer 1.6.2 on 2023-05-17 at 21:28:46
; total layer number: 55
; HEADER_BLOCK_END

; THUMBNAIL_BLOCK_START
; THUMBNAIL_BLOCK_END

; external perimeters extrusion width = 0.40mm
; perimeters extrusion width = 0.45mm
; infill extrusion width = 0.45mm
; solid infill extrusion width = 0.40mm
; top infill extrusion width = 0.40mm
; first layer extrusion width = 0.50mm

; EXECUTABLE_BLOCK_START
EXCLUDE_OBJECT_DEFINE NAME=3DWB_WALLET.stl_id_0_copy_0 CENTER=165,153.337 POLYGON=[[133.55,152.201],[133.551,152.158],[134.75,106.087],[134.754,106],[134.765,105.913],[134.784,105.828],[134.81,105.745],[134.844,105.664],[134.884,105.587],[134.931,105.513],[134.984,105.444],[135.043,105.38],[135.107,105.321],[135.176,105.268],[135.25,105.221],[135.327,105.181],[135.408,105.147],[135.491,105.121],[135.576,105.102],[135.663,105.091],[135.75,105.087],[194.25,105.087],[194.337,105.091],[194.424,105.102],[194.509,105.121],[194.592,105.147],[194.673,105.181],[194.75,105.221],[194.824,105.268],[194.893,105.321],[194.957,105.38],[195.016,105.444],[195.069,105.513],[195.116,105.587],[195.156,105.664],[195.19,105.745],[195.216,105.828],[195.235,105.913],[195.246,106],[195.25,106.087],[196.449,152.158],[196.45,152.201],[196.45,194.973],[196.449,195.016],[196.438,195.129],[196.426,195.189],[196.401,195.282],[196.374,195.355],[196.341,195.427],[196.293,195.51],[196.259,195.561],[196.187,195.648],[196.157,195.68],[195.543,196.294],[195.511,196.324],[195.424,196.396],[195.373,196.43],[195.29,196.478],[195.218,196.511],[195.145,196.538],[195.052,196.563],[194.992,196.575],[159.492,201.575],[159.379,201.586],[159.336,201.587],[140.164,201.587],[140.121,201.586],[140.008,201.575],[139.948,201.563],[139.855,201.538],[139.782,201.511],[139.71,201.478],[139.627,201.43],[139.576,201.396],[139.489,201.324],[139.457,201.294],[134.457,196.294],[133.843,195.68],[133.813,195.648],[133.741,195.561],[133.707,195.51],[133.659,195.427],[133.626,195.355],[133.599,195.282],[133.574,195.189],[133.562,195.129],[133.551,195.016],[133.55,194.973],[133.55,152.201]]
M73 P0 R101
;TYPE:Custom
START_PRINT T_BED=70 T_EXTRUDER=240
G90
G21
M83 ; use relative distances for extrusion
; filament start gcode
PRESSURE_ADVANCE_SELECT FILAMENT=PETG
M106 S0
;LAYER_CHANGE
;Z:0.2
;HEIGHT:0.2
M204 S500
G1 E-1 F3000
G1 Z.4 F9000
G1 X133.4 Y103.835
G1 Z.2
G1 E1 F1800
;TYPE:Skirt
;WIDTH:0.5
G1 F900
G1 X133.941 Y103.381 E.02549
G1 X134.84 Y102.962 E.03585
G1 X135.75 Y102.83 E.03318
G1 X194.464 Y102.839 E2.11993
G1 X195.16 Y102.962 E.02549
G1 X195.688 Y103.167 E.02049
G1 X196.6 Y103.835 E.04081
G1 X197.229 Y104.775 E.04081
G1 X197.411 Y105.312 E.02049
G1 X197.506 Y106.023 E.0259
G1 X198.707 Y152.201 E1.66787
G1 X198.707 Y194.973 E1.54431
G1 X198.6 Y195.794 E.02989
G1 X198.258 Y196.62 E.03229
G1 X197.884 Y197.134 E.02296
G1 X196.902 Y198.103 E.0498
G1 X196.139 Y198.57 E.03229
G1 X195.304 Y198.81 E.0314
G1 X159.804 Y203.81 E1.29441
G1 X140.164 Y203.844 E.7091
G1 X139.343 Y203.737 E.02989
G1 X138.517 Y203.395 E.03229
G1 X137.861 Y202.89 E.02989
G1 X132.116 Y197.134 E.29363
G1 X131.567 Y196.276 E.03677
G1 X131.3 Y195.166 E.04124
G1 X131.294 Y152.137 E1.55358
G1 X132.494 Y106.023 E1.66556
M73 P0 R100
G1 X132.589 Y105.312 E.0259
G1 X132.83 Y104.649 E.0255
G1 X133.365 Y103.885 E.03368
; printing object 3DWB_WALLET.stl id:0 copy 0
EXCLUDE_OBJECT_START NAME=3DWB_WALLET.stl_id_0_copy_0
G1 E-1 F3000
G1 Z.6 F9000
G1 X193.255 Y107.89 Z.2
G1 E1 F1800
;TYPE:Inner wall
;WIDTH:0.499999
G1 F900
G1 X193.132 Y107.752 E.0067
G1 X192.755 Y107.448 E.01748
G1 X192.65 Y107.224 E.00894
G1 X192.618 Y106.655 E.02059
G1 X192.815 Y106.461 E.00998
G1 X193.886 Y106.463 E.03866
G1 X193.886 Y108.024 E.05636
G1 X193.909 Y108.354 E.01197
;WIDTH:0.453649
G1 X193.932 Y108.685 E.01076
;WIDTH:0.407299
G1 X193.932 Y121.845 E.37879
;WIDTH:0.408306
G1 X193.932 Y121.917 E.00207
;WIDTH:0.439259
G1 X193.916 Y122.495 E.01813
;WIDTH:0.469629
G1 X193.901 Y122.856 E.01217
;WIDTH:0.499999
G1 X193.886 Y123.217 E.01303
G1 X193.886 Y150.174 E.9733
G1 X193.9 Y150.353 E.00648
G1 X194.021 Y150.958 E.02228
G1 X194.244 Y151.41 E.01819
G1 X194.437 Y151.682 E.01205
G1 X195.086 Y152.358 E.03385
G1 X195.086 Y154.822 E.08895
G1 X194.461 Y155.467 E.03241
G1 X194.111 Y155.997 E.02293
G1 X193.949 Y156.483 E.01853
G1 X193.886 Y157 E.0188
G1 X193.886 Y158.174 E.04236
G1 X193.9 Y158.353 E.00648
G1 X194.012 Y158.935 E.02142
G1 X194.244 Y159.41 E.01909
G1 X194.437 Y159.682 E.01205
G1 X195.086 Y160.358 E.03382
G1 X195.086 Y162.822 E.08895
G1 X194.221 Y163.687 E.04418
G1 X194.118 Y163.805 E.00564
G1 X193.949 Y164.12 E.01292
G1 X193.886 Y164.495 E.01373
G1 X193.908 Y166.401 E.06882
G1 X194.021 Y166.958 E.02051
G1 X194.244 Y167.41 E.01821
G1 X194.437 Y167.682 E.01205
G1 X195.086 Y168.358 E.03382
G1 X195.086 Y170.822 E.08895
G1 X194.461 Y171.467 E.03241
G1 X194.111 Y171.997 E.02293
G1 X193.944 Y172.499 E.01912
G1 X193.886 Y172.998 E.01814
G1 X193.886 Y174.174 E.04244
G1 X193.9 Y174.353 E.00648
G1 X194.021 Y174.958 E.02229
G1 X194.244 Y175.41 E.01821
G1 X194.437 Y175.682 E.01205
G1 X195.086 Y176.358 E.03382
G1 X195.086 Y178.822 E.08895
G1 X194.461 Y179.467 E.03241
G1 X194.111 Y179.997 E.02293
G1 X193.944 Y180.498 E.01907
G1 X193.886 Y181 E.01827
G1 X193.886 Y182.174 E.04236
G1 X193.9 Y182.353 E.00648
G1 X194.021 Y182.958 E.02229
G1 X194.244 Y183.41 E.01821
G1 X194.437 Y183.682 E.01205
G1 X195.086 Y184.358 E.03382
G1 X195.086 Y186.822 E.08895
G1 X194.461 Y187.467 E.03241
G1 X194.131 Y187.953 E.02123
G1 X193.953 Y188.47 E.01973
G1 X193.886 Y189 E.01931
G1 X193.886 Y190.174 E.04236
G1 X193.9 Y190.353 E.00648
G1 X193.998 Y190.894 E.01986
G1 X194.244 Y191.41 E.02065
G1 X194.437 Y191.682 E.01205
G1 X195.077 Y192.349 E.03336
G1 X195.085 Y194.809 E.0888
G1 X194.671 Y195.223 E.02115
G1 X165.831 Y195.223 E1.0413
G1 X164.984 Y195.237 E.03057
G1 X164.403 Y195.349 E.02138
G1 X163.927 Y195.581 E.0191
G1 X163.493 Y195.915 E.01979
G1 X162.534 Y196.874 E.04899
G1 X162.524 Y196.7 E.00631
G1 X162.415 Y196.357 E.01298
G1 X162.144 Y195.906 E.01899
G1 X161.748 Y195.54 E.01945
G1 X161.488 Y195.394 E.01077
G1 X161.001 Y195.259 E.01828
G1 X160.715 Y195.223 E.01038
G1 X138.784 Y195.223 E.79186
G1 X138.698 Y195.226 E.00311
G1 X138.149 Y195.35 E.02032
G1 X137.768 Y195.528 E.01517
G1 X137.389 Y195.874 E.01854
G1 X137.086 Y196.356 E.02056
G1 X136.96 Y196.86 E.01874
G1 X134.915 Y194.809 E.10459
G1 X134.923 Y192.349 E.08882
G1 X135.646 Y191.584 E.038
G1 X135.93 Y191.069 E.02123
G1 X136.04 Y190.729 E.01291
G1 X136.114 Y190.174 E.02024
G1 X136.114 Y189 E.04236
G1 X136.1 Y188.821 E.00648
G1 X135.979 Y188.216 E.02229
G1 X135.756 Y187.764 E.01821
G1 X135.563 Y187.492 E.01205
G1 X134.923 Y186.825 E.03336
G1 X134.915 Y184.362 E.08894
G1 X135.539 Y183.707 E.03266
G1 X135.889 Y183.177 E.02292
G1 X136.048 Y182.703 E.01807
G1 X136.114 Y182.174 E.01926
G1 X136.114 Y181 E.04236
G1 X136.1 Y180.821 E.00648
G1 X135.979 Y180.216 E.02229
G1 X135.756 Y179.764 E.01821
G1 X135.563 Y179.492 E.01205
G1 X134.914 Y178.816 E.03382
G1 X134.914 Y176.352 E.08895
G1 X135.539 Y175.707 E.03241
G1 X135.889 Y175.177 E.02293
G1 X136.056 Y174.677 E.01906
G1 X136.114 Y174.174 E.01828
G1 X136.114 Y173.587 E.02118
G1 X136.1 Y172.821 E.02765
G1 X135.979 Y172.216 E.02229
G1 X135.756 Y171.764 E.01821
G1 X135.563 Y171.492 E.01205
G1 X134.914 Y170.816 E.03382
G1 X134.914 Y168.352 E.08895
G1 X135.539 Y167.707 E.03241
G1 X135.889 Y167.177 E.02293
G1 X136.056 Y166.676 E.01907
G1 X136.114 Y166.174 E.01827
G1 X136.114 Y165 E.04236
G1 X136.1 Y164.821 E.00648
G1 X135.983 Y164.225 E.02196
G1 X135.756 Y163.764 E.01854
G1 X135.563 Y163.492 E.01205
G1 X134.924 Y162.826 E.03331
G1 X134.924 Y160.348 E.08947
G1 X135.625 Y159.612 E.03671
G1 X135.93 Y159.069 E.02247
G1 X136.04 Y158.729 E.01291
G1 X136.114 Y158.174 E.02024
G1 X136.108 Y156.881 E.04666
G1 X136.017 Y156.332 E.0201
G1 X135.756 Y155.764 E.02254
G1 X135.558 Y155.487 E.01233
G1 X134.914 Y154.825 E.03333
G1 X134.914 Y152.362 E.08891
G1 X135.539 Y151.707 E.03268
G1 X135.878 Y151.202 E.02195
G1 X136.043 Y150.717 E.01852
G1 X136.114 Y150.174 E.01979
G1 X136.114 Y106.452 E1.5786
G1 X137.19 Y106.456 E.03884
G1 X140.376 Y109.642 E.16269
G1 X140.386 Y148.588 E1.40617
G1 X140.519 Y149.492 E.033
G1 X140.715 Y150.026 E.02053
G1 X141.054 Y150.596 E.02397
G1 X141.446 Y151.015 E.02071
G1 X141.78 Y151.305 E.01598
G1 X142.292 Y151.611 E.02151
G1 X142.574 Y151.731 E.01109
G1 X143.148 Y151.89 E.0215
G1 X143.749 Y151.951 E.02182
G1 X163.624 Y151.945 E.7176
G1 X164.4 Y151.853 E.02822
G1 X165.067 Y151.657 E.02508
G1 X165.717 Y151.344 E.02606
G1 X166.07 Y151.099 E.01552
G1 X166.593 Y150.673 E.02434
G1 X192.336 Y124.93 E1.3145
G1 X193.007 Y124.054 E.03985
G1 X193.405 Y123.163 E.03523
G1 X193.473 Y122.779 E.01405
;WIDTH:0.463587
G1 X193.541 Y122.396 E.01293
;WIDTH:0.427174
G1 X193.568 Y121.845 E.01675
;WIDTH:0.407299
G1 X193.568 Y108.685 E.37879
;WIDTH:0.453649
G1 X193.519 Y108.408 E.00913
;WIDTH:0.499999
G1 X193.471 Y108.131 E.01015
G1 X193.295 Y107.935 E.00949
G1 X192.929 Y108.194 F9000
G1 F900
G1 X192.868 Y108.125 E.00335
G1 X192.489 Y107.857 E.01677
G1 X192.286 Y107.583 E.01231
G1 X192.164 Y107.155 E.01606
G1 X192.159 Y106.465 E.02492
G1 X192.56 Y106.072 E.02025
G1 X192.678 Y106.004 E.00493
G1 X194.291 Y106.016 E.05824
G1 X194.343 Y106.148 E.00512
G1 X194.343 Y150.174 E1.58959
G1 X194.411 Y150.658 E.01765
G1 X194.477 Y150.862 E.00774
G1 X194.767 Y151.365 E.02098
G1 X195.503 Y152.133 E.03842
G1 X195.543 Y152.257 E.00468
G1 X195.543 Y154.902 E.09549
G1 X195.458 Y155.097 E.00768
G1 X194.901 Y155.653 E.02843
G1 X194.562 Y156.114 E.02063
G1 X194.391 Y156.598 E.01856
G1 X194.343 Y157 E.01462
G1 X194.343 Y158.174 E.04236
G1 X194.411 Y158.658 E.01765
G1 X194.477 Y158.862 E.00774
G1 X194.767 Y159.366 E.021
G1 X195.503 Y160.133 E.03839
G1 X195.543 Y160.257 E.00469
G1 X195.543 Y162.902 E.09549
G1 X195.458 Y163.097 E.00768
G1 X194.544 Y164.01 E.04667
G1 X194.408 Y164.203 E.0085
G1 X194.343 Y164.495 E.01081
G1 X194.359 Y166.33 E.06624
G1 X194.477 Y166.862 E.01968
G1 X194.767 Y167.366 E.021
G1 X195.503 Y168.133 E.03839
G1 X195.543 Y168.257 E.00469
G1 X195.543 Y170.902 E.09549
G1 X195.458 Y171.097 E.00768
G1 X194.901 Y171.653 E.02843
G1 X194.562 Y172.113 E.02062
G1 X194.391 Y172.598 E.01856
G1 X194.343 Y172.999 E.01458
G1 X194.343 Y174.174 E.04241
G1 X194.411 Y174.658 E.01765
G1 X194.477 Y174.862 E.00774
G1 X194.767 Y175.366 E.021
G1 X195.503 Y176.133 E.03839
G1 X195.543 Y176.257 E.00469
G1 X195.543 Y178.902 E.09549
G1 X195.458 Y179.097 E.00768
G1 X194.901 Y179.653 E.02843
G1 X194.562 Y180.113 E.02062
G1 X194.391 Y180.598 E.01856
G1 X194.343 Y181 E.01462
G1 X194.343 Y182.174 E.04236
G1 X194.411 Y182.658 E.01765
G1 X194.477 Y182.862 E.00774
G1 X194.767 Y183.366 E.021
G1 X195.503 Y184.133 E.03839
G1 X195.543 Y184.277 E.00538
G1 X195.543 Y186.902 E.09477
G1 X195.458 Y187.097 E.00768
G1 X194.901 Y187.653 E.02843
G1 X194.562 Y188.113 E.02062
G1 X194.391 Y188.598 E.01856
G1 X194.343 Y189 E.01462
G1 X194.343 Y190.174 E.04236
G1 X194.351 Y190.281 E.00389
G1 X194.477 Y190.862 E.02145
G1 X194.767 Y191.366 E.021
G1 X195.462 Y192.091 E.03626
G1 X195.534 Y192.217 E.00523
G1 X195.541 Y194.513 E.08292
G1 X195.518 Y195.022 E.01839
G1 X194.895 Y195.646 E.03184
G1 X194.78 Y195.68 E.00431
G1 X165.114 Y195.682 E1.07114
G1 X164.605 Y195.764 E.01861
G1 X164.135 Y195.988 E.01879
G1 X163.816 Y196.238 E.01462
G1 X162.357 Y197.706 E.07474
;WIDTH:0.48706
G1 X162.201 Y197.891 E.00847
;WIDTH:0.446167
G1 X162.046 Y198.075 E.00769
;WIDTH:0.405273
G1 X161.89 Y198.26 E.00691
;WIDTH:0.364379
G1 X160.035 Y200.115 E.06663
;WIDTH:0.37782
G1 X159.799 Y200.342 E.00865
;WIDTH:0.411049
G1 X159.6 Y200.509 E.00756
;WIDTH:0.444278
G1 X159.401 Y200.677 E.00824
G1 X159.012 Y200.723 E.01244
;WIDTH:0.394417
G1 X158.508 Y200.741 E.01398
;WIDTH:0.36417
G1 X140.992 Y200.747 E.4445
;WIDTH:0.372937
G1 X140.74 Y200.743 E.00657
;WIDTH:0.407398
G1 X140.429 Y200.714 E.009
;WIDTH:0.441859
G1 X140.117 Y200.684 E.00985
G1 X139.834 Y200.459 E.0114
;WIDTH:0.399058
G1 X139.464 Y200.113 E.01427
;WIDTH:0.367152
G1 X137.528 Y198.17 E.07026
;WIDTH:0.389537
G1 X137.35 Y197.976 E.0072
;WIDTH:0.426358
G1 X137.237 Y197.836 E.00545
;WIDTH:0.463179
G1 X137.123 Y197.696 E.00598
;WIDTH:0.499999
G1 X137.01 Y197.556 E.0065
G1 X134.492 Y195.032 E.12874
G1 X134.457 Y194.918 E.00429
G1 X134.466 Y192.217 E.09755
G1 X134.538 Y192.091 E.00523
G1 X135.283 Y191.307 E.03905
G1 X135.544 Y190.815 E.02013
G1 X135.657 Y190.174 E.0235
G1 X135.657 Y189 E.04236
G1 X135.589 Y188.516 E.01765
G1 X135.523 Y188.312 E.00774
G1 X135.233 Y187.808 E.021
G1 X134.538 Y187.083 E.03626
M73 P1 R100
G1 X134.466 Y186.958 E.00522
G1 X134.46 Y185.1 E.06707
G1 X134.484 Y184.149 E.03436
G1 X135.104 Y183.516 E.032
G1 X135.438 Y183.061 E.02038
G1 X135.609 Y182.576 E.01856
G1 X135.657 Y182.174 E.01462
G1 X135.657 Y181 E.04236
G1 X135.589 Y180.516 E.01765
G1 X135.523 Y180.312 E.00774
G1 X135.233 Y179.808 E.021
G1 X134.497 Y179.041 E.03839
G1 X134.457 Y178.917 E.00469
G1 X134.457 Y176.272 E.09549
G1 X134.542 Y176.077 E.00768
G1 X135.099 Y175.521 E.02843
G1 X135.438 Y175.061 E.02062
G1 X135.609 Y174.576 E.01856
G1 X135.657 Y174.174 E.01462
G1 X135.657 Y173 E.04236
G1 X135.589 Y172.516 E.01765
G1 X135.523 Y172.312 E.00774
G1 X135.233 Y171.808 E.021
G1 X134.497 Y171.041 E.03839
G1 X134.457 Y170.917 E.00469
G1 X134.457 Y168.272 E.09549
G1 X134.542 Y168.077 E.00768
G1 X135.099 Y167.521 E.02843
G1 X135.438 Y167.061 E.02062
G1 X135.609 Y166.576 E.01856
G1 X135.657 Y166.174 E.01462
G1 X135.657 Y165 E.04236
G1 X135.589 Y164.516 E.01765
G1 X135.523 Y164.312 E.00774
G1 X135.233 Y163.808 E.021
G1 X134.537 Y163.083 E.03629
G1 X134.467 Y162.959 E.00515
G1 X134.467 Y160.266 E.09724
G1 X134.504 Y160.125 E.00524
G1 X135.233 Y159.366 E.03799
G1 X135.349 Y159.203 E.00723
G1 X135.58 Y158.703 E.0199
G1 X135.657 Y158.174 E.0193
G1 X135.657 Y157 E.04236
G1 X135.589 Y156.516 E.01765
G1 X135.523 Y156.312 E.00774
G1 X135.23 Y155.805 E.02114
G1 X134.545 Y155.101 E.03548
G1 X134.457 Y154.917 E.00735
G1 X134.457 Y153.1 E.06562
G1 X134.484 Y152.149 E.03435
G1 X135.104 Y151.516 E.032
G1 X135.43 Y151.074 E.01984
G1 X135.609 Y150.576 E.0191
G1 X135.657 Y150.174 E.01462
G1 X135.657 Y106.162 E1.58906
G1 X135.673 Y106.059 E.00379
G1 X135.78 Y105.994 E.00451
G1 X137.273 Y105.999 E.05394
G1 X137.441 Y106.061 E.00644
G1 X140.075 Y108.695 E.13452
G1 X140.833 Y109.488 E.0396
G1 X140.848 Y148.67 E1.41468
G1 X140.935 Y149.291 E.02267
G1 X141.112 Y149.799 E.01941
G1 X141.46 Y150.368 E.02407
G1 X142.015 Y150.913 E.02809
G1 X142.696 Y151.291 E.02812
G1 X143.27 Y151.449 E.0215
G1 X143.749 Y151.494 E.01739
G1 X163.578 Y151.491 E.71592
G1 X164.286 Y151.41 E.02572
G1 X164.869 Y151.246 E.02187
G1 X165.519 Y150.932 E.02606
G1 X165.785 Y150.742 E.01183
G1 X166.27 Y150.35 E.02249
G1 X192.013 Y124.607 E1.3145
G1 X192.596 Y123.856 E.03432
G1 X192.959 Y123.061 E.03155
G1 X193.12 Y122.358 E.02605
G1 X193.157 Y121.845 E.01856
G1 X193.157 Y108.685 E.47515
G1 X193.071 Y108.353 E.0124
G1 X192.969 Y108.239 E.0055
G1 E-1 F3000
G1 Z.6 F9000
G1 X137.447 Y197.457 Z.2
G1 E1 F1800
G1 F900
G1 X137.411 Y197.364 E.00363
G1 X137.384 Y197.123 E.00873
G1 X137.412 Y196.838 E.01034
G1 X137.521 Y196.495 E.01301
G1 X137.703 Y196.206 E.01234
G1 X138.035 Y195.899 E.01632
G1 X138.263 Y195.792 E.0091
G1 X138.784 Y195.68 E.01922
G1 X160.715 Y195.68 E.79186
G1 X161.235 Y195.791 E.01918
G1 X161.474 Y195.906 E.0096
G1 X161.817 Y196.225 E.01689
G1 X161.979 Y196.496 E.0114
G1 X162.088 Y196.838 E.01298
G1 X162.107 Y197.179 E.01234
G1 X162.031 Y197.532 E.01303
;WIDTH:0.48706
G1 X161.931 Y197.673 E.00606
;WIDTH:0.448013
G1 X161.832 Y197.814 E.00552
;WIDTH:0.408965
G1 X161.732 Y197.955 E.00499
;WIDTH:0.369917
G1 X161.663 Y198.033 E.00269
;WIDTH:0.364379
G1 X159.807 Y199.888 E.06663
;WIDTH:0.391584
G1 X159.512 Y200.138 E.01065
;WIDTH:0.435677
G1 X159.181 Y200.331 E.01188
G1 X158.893 Y200.375 E.00905
;WIDTH:0.400074
G1 X158.605 Y200.419 E.00823
;WIDTH:0.36447
G1 X158.508 Y200.424 E.00246
;WIDTH:0.36417
G1 X140.992 Y200.426 E.4445
;WIDTH:0.391484
G1 X140.606 Y200.394 E.01065
