; generated by SuperSlicer 2.5.59 on 2023-04-27 at 23:09:27 UTC


;
;

;
;
; 

; external perimeters extrusion width = 0.40mm
; perimeters extrusion width = 0.46mm
; infill extrusion width = 0.64mm
; solid infill extrusion width = 0.56mm
; top infill extrusion width = 0.40mm
; support material extrusion width = 0.46mm
; first layer extrusion width = 0.50mm

; object:{"name":"Adaptador_2","id":"Adaptador_2.5_3.5.STL id:0 copy 0","object_center":[152.500001,150.000001,0.000000],"boundingbox_center":[152.500001,150.000001,5.500003],"boundingbox_size":[93.999992,101.000000,11.000006]}
EXCLUDE_OBJECT_DEFINE NAME=Adaptador_2_5_3_5_STL_id_0_copy_0 CENTER=152.500001,150.000001 POLYGON=[[105.500000,112.047968],[130.289288,99.500000],[198.289296,99.500000],[199.364800,110.606328],[199.500000,112.047976],[199.500000,187.699760],[199.395280,189.393680],[198.289296,200.500000],[130.289288,200.500000],[105.500000,187.699776],[105.500000,112.047968]]
; plater:{"center":[152.500001,150.000001,0.000000],"boundingbox_center":[152.500001,150.000001,5.500003],"boundingbox_size":[93.999992,101.000000,11.000006]}

M73 P0 R64
;TYPE:Custom
START_PRINT T_BED=70 T_EXTRUDER=235
M107
G21 ; set units to millimeters
G90 ; use absolute coordinates
M82 ; use absolute distances for extrusion
G92 E0
; Filament gcode
PRESSURE_ADVANCE_SELECT FILAMENT=PETG
;_TOOLCHANGE 0
M104 S235 ; set temperature
M109 S235 ; set temperature and wait for it to be reached
M190 S70 ; set bed temperature and wait for it to be reached
M107
;LAYER_CHANGE
;Z:0.2
;HEIGHT:0.2
G1 Z0.2 F9000
M73 P0 R64
G1 E-1 F3000
M204 S1000
G1 X103.919 Y108.834 F9000
G1 E0 F1800
;TYPE:Skirt
;WIDTH:0.52
G1 X102.279 Y110.482 E0.09222
G1 X101.884 Y112.148 E0.16015
G1 X101.884 Y187.6 E3.15327
G1 X102.594 Y189.784 E3.24436
G1 X103.892 Y190.9 E3.31229
G1 X128.631 Y203.7 E4.41724
G1 X130.339 Y204.116 E4.48695
G1 X198.197 Y204.116 E7.17886
G1 X200.112 Y203.584 E7.25768
G1 X201.337 Y202.388 E7.32561
G1 X201.895 Y200.769 E7.39354
G1 X202.993 Y189.752 E7.83271
G1 X203.109 Y187.926 E7.90531
G1 X203.116 Y112.053 E10.91516
G1 X201.896 Y99.241 E11.42566
G1 X201.176 Y97.379 E11.50487
G1 X199.864 Y96.279 E11.5728
G1 X198.197 Y95.884 E11.64073
G1 X130.338 Y95.884 E14.33267
G1 X128.657 Y96.286 E14.40123
G1 X103.919 Y108.834 E15.50159
G1 X104.135 Y109.26 F9000
G1 F1800
G1 X102.755 Y110.6 E15.5779
G1 X102.361 Y112.148 E15.64125
G1 X102.361 Y187.6 E18.63438
G1 X102.918 Y189.415 E18.7097
G1 X104.112 Y190.476 E18.77305
G1 X128.85 Y203.276 E19.878
G1 X130.339 Y203.639 E19.93876
G1 X198.197 Y203.639 E22.63067
M73 P1 R64
G1 X199.678 Y203.28 E22.6911
G1 X200.874 Y202.222 E22.75446
G1 X201.42 Y200.721 E22.81782
G1 X202.518 Y189.705 E23.25699
G1 X202.639 Y187.697 E23.3368
G1 X202.639 Y112.053 E26.33755
G1 X201.421 Y99.288 E26.84624
G1 X200.917 Y97.841 E26.907
G1 X199.745 Y96.755 E26.97036
G1 X198.197 Y96.361 E27.03372
G1 X130.338 Y96.361 E29.72565
G1 X128.873 Y96.712 E29.78541
G1 X104.135 Y109.26 E30.88577
G92 E0
G1 E-1 F3000
; printing object Adaptador_2.5_3.5.STL id:0 copy 0
EXCLUDE_OBJECT_START NAME=Adaptador_2_5_3_5_STL_id_0_copy_0
G1 X187.646 Y181.657 F9000
G1 E0 F1800
;TYPE:Internal perimeter
;WIDTH:0.5
G1 X187.723 Y181.65 E0.00295
G1 X188.9 Y181.293 E0.04966
G1 X189.984 Y180.714 E0.09638
G1 X190.934 Y179.934 E0.1431
G1 X191.714 Y178.984 E0.18982
G1 X192.293 Y177.9 E0.23653
G1 X192.65 Y176.723 E0.28325
G1 X192.764 Y175.562 E0.32759
G1 X192.764 Y124.438 E2.27064
G1 X192.65 Y123.277 E2.31498
G1 X192.293 Y122.1 E2.3617
G1 X191.714 Y121.016 E2.40842
G1 X190.934 Y120.066 E2.45513
G1 X189.984 Y119.286 E2.50185
G1 X188.9 Y118.707 E2.54857
G1 X187.723 Y118.35 E2.59528
G1 X186.562 Y118.236 E2.63963
G1 X117.438 Y118.236 E5.26679
G1 X116.277 Y118.35 E5.31113
G1 X115.1 Y118.707 E5.35785
G1 X114.016 Y119.286 E5.40457
G1 X113.066 Y120.066 E5.45128
G1 X112.286 Y121.016 E5.498
G1 X111.707 Y122.1 E5.54472
G1 X111.35 Y123.277 E5.59143
G1 X111.236 Y124.438 E5.63578
G1 X111.236 Y175.562 E7.57882
G1 X111.35 Y176.723 E7.62317
G1 X111.707 Y177.9 E7.66988
G1 X112.286 Y178.984 E7.7166
G1 X113.066 Y179.934 E7.76332
G1 X114.016 Y180.714 E7.81004
G1 X115.1 Y181.293 E7.85675
G1 X116.277 Y181.65 E7.90347
G1 X117.438 Y181.764 E7.94781
G1 X186.562 Y181.764 E10.57497
G1 X187.646 Y181.657 E10.61637
G1 X187.595 Y181.203 F9000
G1 F1800
G1 X187.634 Y181.199 E10.61784
G1 X188.724 Y180.869 E10.66114
G1 X189.728 Y180.332 E10.70443
G1 X190.609 Y179.609 E10.74773
G1 X191.332 Y178.728 E10.79102
G1 X191.869 Y177.724 E10.83432
G1 X192.199 Y176.634 E10.87761
G1 X192.307 Y175.54 E10.91939
G1 X192.307 Y124.46 E12.86073
G1 X192.199 Y123.366 E12.90251
G1 X191.869 Y122.276 E12.94581
G1 X191.332 Y121.272 E12.9891
G1 X190.609 Y120.391 E13.0324
G1 X189.728 Y119.668 E13.07569
G1 X188.724 Y119.131 E13.11899
G1 X187.634 Y118.801 E13.16228
G1 X186.54 Y118.693 E13.20406
G1 X117.46 Y118.693 E15.82951
G1 X116.366 Y118.801 E15.87129
G1 X115.276 Y119.131 E15.91459
G1 X114.272 Y119.668 E15.95788
G1 X113.391 Y120.391 E16.00118
G1 X112.668 Y121.272 E16.04447
G1 X112.131 Y122.276 E16.08777
G1 X111.801 Y123.366 E16.13106
G1 X111.693 Y124.46 E16.17284
G1 X111.693 Y175.54 E18.11418
G1 X111.801 Y176.634 E18.15596
G1 X112.131 Y177.724 E18.19926
G1 X112.668 Y178.728 E18.24255
G1 X113.391 Y179.609 E18.28585
G1 X114.272 Y180.332 E18.32914
G1 X115.276 Y180.869 E18.37244
G1 X116.366 Y181.199 E18.41573
G1 X117.46 Y181.307 E18.45751
G1 X186.54 Y181.307 E21.08296
G1 X187.595 Y181.203 E21.12327
G1 X187.544 Y180.749 F9000
;TYPE:External perimeter
G1 F1800
G1 X188.548 Y180.444 E21.16314
G1 X189.473 Y179.95 E21.20301
G1 X190.284 Y179.284 E21.24289
G1 X190.95 Y178.473 E21.28276
G1 X191.444 Y177.548 E21.32263
G1 X191.749 Y176.544 E21.36251
G1 X191.85 Y175.517 E21.40172
G1 X191.85 Y124.483 E23.34135
G1 X191.749 Y123.456 E23.38057
G1 X191.444 Y122.452 E23.42044
G1 X190.95 Y121.527 E23.46031
G1 X190.284 Y120.716 E23.50019
G1 X189.473 Y120.05 E23.54006
G1 X188.548 Y119.556 E23.57993
G1 X187.544 Y119.251 E23.61981
G1 X186.517 Y119.15 E23.65902
G1 X117.483 Y119.15 E26.28277
G1 X116.456 Y119.251 E26.32198
G1 X115.452 Y119.556 E26.36186
G1 X114.527 Y120.05 E26.40173
G1 X113.716 Y120.716 E26.4416
G1 X113.05 Y121.527 E26.48148
G1 X112.556 Y122.452 E26.52135
G1 X112.251 Y123.456 E26.56122
G1 X112.15 Y124.483 E26.60044
G1 X112.15 Y175.517 E28.54007
G1 X112.251 Y176.544 E28.57928
G1 X112.556 Y177.548 E28.61916
G1 X113.05 Y178.473 E28.65903
G1 X113.716 Y179.284 E28.6989
G1 X114.527 Y179.95 E28.73878
G1 X115.452 Y180.444 E28.77865
G1 X116.456 Y180.749 E28.81852
G1 X117.483 Y180.85 E28.85774
G1 X186.517 Y180.85 E31.48148
M73 P1 R63
G1 X187.544 Y180.749 E31.5207
;WIPE_START
M204 S3000
G1 X187.818 Y181.041 F9000
;WIPE_END
G92 E0
G1 E-1 F3000
M204 S1000
G1 X153.827 Y186.436 F9000
G1 E0 F1800
;TYPE:Internal perimeter
G1 X153.68 Y186.436 E0.00556
G1 X153.139 Y187.498 E0.05087
G1 X150.545 Y188.12 E0.15227
G1 X148.605 Y188.802 E0.23042
G1 X146.742 Y189.667 E0.30847
G1 X144.972 Y190.708 E0.38652
G1 X143.31 Y191.914 E0.46457
G1 X141.772 Y193.275 E0.54262
G1 X140.373 Y194.779 E0.62067
M73 P1 R63
G1 X139.125 Y196.41 E0.69872
G1 X138.041 Y198.153 E0.77677
G1 X137.505 Y199.236 E0.82268
G1 X130.912 Y199.236 E1.07323
G1 X121.078 Y186.436 E1.68672
G1 X106.764 Y186.436 E2.23074
G1 X106.764 Y113.312 E5.00989
G1 X121.071 Y113.312 E5.55363
G1 X130.905 Y100.764 E6.15954
G1 X137.505 Y100.764 E6.41038
G1 X138.041 Y101.847 E6.45629
G1 X139.125 Y103.59 E6.53434
G1 X140.373 Y105.221 E6.61239
G1 X141.772 Y106.725 E6.69044
G1 X143.31 Y108.086 E6.76849
G1 X144.972 Y109.292 E6.84654
G1 X146.742 Y110.333 E6.92459
G1 X148.605 Y111.198 E7.00264
G1 X150.449 Y111.846 E7.07691
G1 X151.623 Y112.341 E7.12536
G1 X152.889 Y112.603 E7.17449
G1 X154.116 Y113.312 E7.22835
G1 X181.071 Y113.312 E8.25279
G1 X190.905 Y100.764 E8.8587
G1 X197.127 Y100.764 E9.09518
G1 X197.373 Y103.694 E9.20693
G1 X197.813 Y108.317 E9.38344
G1 X198.108 Y110.742 E9.47626
G1 X198.236 Y112.107 E9.52838
G1 X198.236 Y187.661 E12.3999
G1 X198.136 Y189.269 E12.46115
G1 X197.81 Y191.674 E12.55339
G1 X197.372 Y196.306 E12.73023
G1 X197.127 Y199.236 E12.84195
G1 X190.912 Y199.236 E13.07814
G1 X181.078 Y186.436 E13.69163
G1 X153.827 Y186.436 E14.72736
G1 X153.927 Y186.958 F9000
G1 F1800
G1 X153.451 Y187.893 E14.76725
G1 X150.674 Y188.559 E14.87577
G1 X148.777 Y189.226 E14.9522
G1 X146.955 Y190.073 E15.02857
G1 X145.223 Y191.091 E15.10494
G1 X143.596 Y192.271 E15.18131
G1 X142.092 Y193.603 E15.25768
G1 X140.723 Y195.074 E15.33405
G1 X139.502 Y196.67 E15.41042
G1 X138.44 Y198.376 E15.48679
G1 X137.788 Y199.693 E15.54264
G1 X130.687 Y199.693 E15.81253
G1 X120.853 Y186.893 E16.42602
G1 X106.307 Y186.893 E16.97885
G1 X106.307 Y112.855 E19.79275
G1 X120.848 Y112.855 E20.3454
G1 X130.682 Y100.307 E20.95131
G1 X137.788 Y100.307 E21.22139
G1 X138.44 Y101.624 E21.27724
G1 X139.502 Y103.33 E21.35361
G1 X140.723 Y104.926 E21.42998
G1 X142.092 Y106.397 E21.50635
G1 X143.596 Y107.729 E21.58272
G1 X145.223 Y108.909 E21.65909
G1 X146.955 Y109.927 E21.73547
G1 X148.777 Y110.774 E21.81183
G1 X150.613 Y111.419 E21.8858
G1 X151.76 Y111.902 E21.93308
G1 X153.054 Y112.171 E21.98332
G1 X154.239 Y112.855 E22.03532
G1 X180.848 Y112.855 E23.04664
G1 X190.682 Y100.307 E23.65255
G1 X197.547 Y100.307 E23.91346
G1 X197.828 Y103.653 E24.04109
G1 X198.267 Y108.268 E24.21728
G1 X198.562 Y110.693 E24.31011
G1 X198.693 Y112.086 E24.36328
G1 X198.693 Y187.675 E27.23614
G1 X198.592 Y189.314 E27.29858
G1 X198.264 Y191.727 E27.39109
G1 X197.827 Y196.347 E27.56749
G1 X197.547 Y199.693 E27.6951
G1 X190.687 Y199.693 E27.95582
G1 X180.853 Y186.893 E28.56931
G1 X153.96 Y186.893 E29.59139
G1 X153.927 Y186.958 E29.59417
G1 X154.241 Y187.35 F9000
;TYPE:External perimeter
G1 F1800
G1 X153.763 Y188.289 E29.63421
G1 X150.804 Y188.998 E29.74984
G1 X148.95 Y189.65 E29.82454
G1 X147.167 Y190.478 E29.89923
G1 X145.473 Y191.474 E29.97392
G1 X143.883 Y192.628 E30.04861
G1 X142.411 Y193.931 E30.1233
G1 X141.072 Y195.369 E30.19799
G1 X139.878 Y196.93 E30.27268
G1 X138.84 Y198.599 E30.34737
G1 X138.072 Y200.15 E30.41316
G1 X130.462 Y200.15 E30.7024
G1 X120.628 Y187.35 E31.31589
G1 X105.85 Y187.35 E31.87753
G1 X105.85 Y112.398 E34.72618
G1 X120.626 Y112.398 E35.28774
G1 X130.46 Y99.85 E35.89365
G1 X138.072 Y99.85 E36.18297
G1 X138.19 Y100.088 E36.19307
G1 X138.84 Y101.401 E36.24876
G1 X139.878 Y103.07 E36.32345
G1 X141.072 Y104.631 E36.39815
G1 X142.411 Y106.069 E36.47284
G1 X143.883 Y107.372 E36.54753
G1 X145.473 Y108.526 E36.62222
G1 X147.167 Y109.522 E36.69691
G1 X148.95 Y110.35 E36.7716
G1 X150.778 Y110.993 E36.84524
G1 X151.896 Y111.464 E36.89136
G1 X153.219 Y111.738 E36.94271
G1 X154.361 Y112.398 E36.99285
G1 X180.626 Y112.398 E37.99105
G1 X190.46 Y99.85 E38.59697
G1 X197.967 Y99.85 E38.88231
G1 X198.283 Y103.612 E39.02581
G1 X198.722 Y108.219 E39.20168
G1 X199.017 Y110.644 E39.29452
G1 X199.15 Y112.064 E39.34875
G1 X199.15 Y187.689 E42.22296
G1 X199.047 Y189.359 E42.28656
G1 X198.718 Y191.779 E42.37936
G1 X198.282 Y196.388 E42.55531
G1 X197.967 Y200.15 E42.6988
G1 X190.462 Y200.15 E42.98406
G1 X180.628 Y187.35 E43.59755
M73 P2 R63
G1 X154.241 Y187.35 E44.60043
;WIPE_START
M204 S3000
G1 X153.86 Y187.226 F9000
;WIPE_END
G92 E0
G1 E-1 F3000
M204 S1000
G1 X197.157 Y101.851 F9000
G1 E0 F1800
;TYPE:Solid infill
;WIDTH:0.49247
G1 F2400
G1 X196.138 Y100.833 E0.05391
G1 X195.492 Y100.833 F9000
G1 F2400
G1 X197.221 Y102.562 E0.14547
G1 X197.286 Y103.273 F9000
G1 F2400
G1 X194.845 Y100.833 E0.27466
G1 X194.199 Y100.833 F9000
G1 F2400
G1 X197.35 Y103.984 E0.44149
G1 X197.415 Y104.695 F9000
G1 F2400
G1 X193.553 Y100.833 E0.64595
G1 X192.906 Y100.833 F9000
G1 F2400
G1 X197.479 Y105.406 E0.88806
G1 X197.544 Y106.117 F9000
G1 F2400
G1 X192.26 Y100.833 E1.1678
G1 X191.613 Y100.833 F9000
G1 F2400
G1 X197.609 Y106.828 E1.48518
G1 X197.673 Y107.539 F9000
G1 F2400
G1 X190.967 Y100.833 E1.8402
G1 X190.667 Y101.179 F9000
G1 F2400
G1 X197.738 Y108.25 E2.21453
G1 X197.817 Y108.976 F9000
G1 F2400
G1 X190.383 Y101.541 E2.6081
G1 X190.099 Y101.904 F9000
G1 F2400
G1 X197.898 Y109.703 E3.02102
G1 X197.98 Y110.431 F9000
G1 F2400
G1 X189.815 Y102.266 E3.45327
G1 X189.531 Y102.628 F9000
G1 F2400
G1 X198.061 Y111.159 E3.90486
G1 X198.142 Y111.886 F9000
G1 F2400
G1 X189.247 Y102.991 E4.37578
G1 X188.963 Y103.353 F9000
G1 F2400
G1 X198.167 Y112.558 E4.86307
G1 X198.167 Y113.204 F9000
G1 F2400
G1 X188.679 Y103.716 E5.3654
G1 X188.395 Y104.078 F9000
G1 F2400
G1 X198.167 Y113.851 E5.88276
G1 X198.167 Y114.497 F9000
G1 F2400
G1 X188.111 Y104.44 E6.41515
G1 X187.827 Y104.803 F9000
G1 F2400
G1 X198.167 Y115.143 E6.96259
G1 X198.167 Y115.79 F9000
G1 F2400
G1 X187.543 Y105.165 E7.52505
G1 X187.259 Y105.528 F9000
G1 F2400
G1 X198.167 Y116.436 E8.10256
G1 X198.167 Y117.083 F9000
G1 F2400
G1 X186.975 Y105.89 E8.6951
G1 X186.691 Y106.252 F9000
G1 F2400
G1 X198.167 Y117.729 E9.30267
G1 X198.167 Y118.376 F9000
G1 F2400
G1 X186.407 Y106.615 E9.92528
G1 X186.123 Y106.977 F9000
G1 F2400
G1 X198.167 Y119.022 E10.56293
G1 X198.167 Y119.668 F9000
G1 F2400
G1 X185.839 Y107.34 E11.21561
G1 X185.554 Y107.702 F9000
G1 F2400
G1 X198.167 Y120.315 E11.88333
G1 X198.167 Y120.961 F9000
G1 F2400
G1 X185.27 Y108.064 E12.56608
G1 X184.986 Y108.427 F9000
G1 F2400
G1 X198.167 Y121.608 E13.26387
G1 X198.167 Y122.254 F9000
G1 F2400
G1 X184.702 Y108.789 E13.97669
G1 X184.418 Y109.151 F9000
G1 F2400
G1 X198.167 Y122.9 E14.70455
G1 X198.167 Y123.547 F9000
G1 F2400
G1 X184.134 Y109.514 E15.44745
G1 X183.85 Y109.876 F9000
G1 F2400
G1 X198.167 Y124.193 E16.20538
G1 X198.167 Y124.84 F9000
G1 F2400
G1 X183.566 Y110.239 E16.97835
G1 X183.282 Y110.601 F9000
G1 F2400
G1 X198.167 Y125.486 E17.76635
G1 X198.167 Y126.132 F9000
G1 F2400
G1 X182.998 Y110.963 E18.56939
G1 X182.714 Y111.326 F9000
G1 F2400
G1 X198.167 Y126.779 E19.38746
G1 X198.167 Y127.425 F9000
G1 F2400
G1 X191.829 Y121.087 E19.72302
G1 X192.438 Y122.342 F9000
G1 F2400
G1 X198.167 Y128.072 E20.02633
G1 X198.167 Y128.718 F9000
G1 F2400
G1 X192.718 Y123.269 E20.31482
G1 X192.788 Y123.986 F9000
G1 F2400
G1 X198.167 Y129.364 E20.59957
G1 X198.167 Y130.011 F9000
G1 F2400
G1 X192.833 Y124.676 E20.88198
G1 X192.833 Y125.323 F9000
G1 F2400
G1 X198.167 Y130.657 E21.16439
G1 X198.167 Y131.304 F9000
G1 F2400
G1 X192.833 Y125.969 E21.4468
G1 X192.833 Y126.615 F9000
G1 F2400
G1 X198.167 Y131.95 E21.72921
M73 P3 R62
G1 X198.167 Y132.596 F9000
G1 F2400
G1 X192.833 Y127.262 E22.01163
G1 X192.833 Y127.908 F9000
G1 F2400
G1 X198.167 Y133.243 E22.29404
G1 X198.167 Y133.889 F9000
G1 F2400
G1 X192.833 Y128.555 E22.57645
G1 X192.833 Y129.201 F9000
G1 F2400
G1 X198.167 Y134.536 E22.85886
G1 X198.167 Y135.182 F9000
G1 F2400
G1 X192.833 Y129.847 E23.14127
G1 X192.833 Y130.494 F9000
G1 F2400
G1 X198.167 Y135.828 E23.42368
G1 X198.167 Y136.475 F9000
G1 F2400
G1 X192.833 Y131.14 E23.70609
G1 X192.833 Y131.787 F9000
G1 F2400
G1 X198.167 Y137.121 E23.98851
G1 X198.167 Y137.768 F9000
G1 F2400
G1 X192.833 Y132.433 E24.27092
G1 X192.833 Y133.08 F9000
G1 F2400
G1 X198.167 Y138.414 E24.55333
G1 X198.167 Y139.061 F9000
G1 F2400
G1 X192.833 Y133.726 E24.83574
G1 X192.833 Y134.372 F9000
G1 F2400
G1 X198.167 Y139.707 E25.11815
G1 X198.167 Y140.353 F9000
G1 F2400
G1 X192.833 Y135.019 E25.40056
G1 X192.833 Y135.665 F9000
G1 F2400
G1 X198.167 Y141 E25.68297
G1 X198.167 Y141.646 F9000
G1 F2400
G1 X192.833 Y136.312 E25.96539
G1 X192.833 Y136.958 F9000
G1 F2400
G1 X198.167 Y142.293 E26.2478
G1 X198.167 Y142.939 F9000
G1 F2400
G1 X192.833 Y137.604 E26.53021
G1 X192.833 Y138.251 F9000
G1 F2400
G1 X198.167 Y143.585 E26.81262
G1 X198.167 Y144.232 F9000
G1 F2400
G1 X192.833 Y138.897 E27.09503
G1 X192.833 Y139.544 F9000
G1 F2400
G1 X198.167 Y144.878 E27.37744
G1 X198.167 Y145.525 F9000
G1 F2400
G1 X192.833 Y140.19 E27.65985
G1 X192.833 Y140.836 F9000
G1 F2400
G1 X198.167 Y146.171 E27.94227
G1 X198.167 Y146.817 F9000
G1 F2400
G1 X192.833 Y141.483 E28.22468
G1 X192.833 Y142.129 F9000
G1 F2400
G1 X198.167 Y147.464 E28.50709
G1 X198.167 Y148.11 F9000
G1 F2400
G1 X192.833 Y142.776 E28.7895
G1 X192.833 Y143.422 F9000
G1 F2400
G1 X198.167 Y148.757 E29.07191
G1 X198.167 Y149.403 F9000
G1 F2400
