; generated by SuperSlicer 2.5.59 on 2023-05-13 at 04:53:16 UTC


;
;

;
;
; 

; external perimeters extrusion width = 0.40mm
; perimeters extrusion width = 0.46mm
; infill extrusion width = 0.64mm
; solid infill extrusion width = 0.56mm
; top infill extrusion width = 0.40mm
; first layer extrusion width = 0.50mm

; object:{"name":"Adapteur_Thermacell(1)","id":"Adapteur_Thermacell(1).stl id:0 copy 0","object_center":[152.500000,150.000000,0.000000],"boundingbox_center":[152.500000,150.000000,7.500000],"boundingbox_size":[12.000000,11.976320,15.000000]}
EXCLUDE_OBJECT_DEFINE NAME=Adapteur_Thermacell_1_stl_id_0_copy_0 CENTER=152.500000,150.000000 POLYGON=[[146.500000,150.000000],[146.547296,149.248000],[146.688512,148.507856],[146.921344,147.791248],[147.242160,147.109488],[147.645904,146.473296],[148.126192,145.892720],[148.675456,145.376928],[149.285040,144.934032],[149.945312,144.571040],[150.645904,144.293648],[151.375712,144.106272],[152.123264,144.011840],[152.876736,144.011840],[153.624288,144.106272],[154.354096,144.293648],[155.054688,144.571040],[155.714960,144.934032],[156.324544,145.376928],[156.873808,145.892720],[157.354096,146.473296],[157.757840,147.109488],[158.078656,147.791248],[158.311488,148.507856],[158.452704,149.248000],[158.500000,150.000000],[158.452704,150.752000],[158.311488,151.492144],[158.078656,152.208752],[157.757840,152.890512],[157.354096,153.526704],[156.873808,154.107280],[156.324544,154.623072],[155.714960,155.065968],[155.054688,155.428960],[154.354096,155.706352],[153.624288,155.893728],[152.876736,155.988160],[152.123264,155.988160],[151.375712,155.893728],[150.645904,155.706352],[149.945312,155.428960],[149.285040,155.065968],[148.675456,154.623072],[148.126192,154.107280],[147.645904,153.526704],[147.242160,152.890512],[146.921344,152.208752],[146.688512,151.492144],[146.547296,150.752000],[146.500000,150.000000]]
; plater:{"center":[152.500000,150.000000,0.000000],"boundingbox_center":[152.500000,150.000000,7.500000],"boundingbox_size":[12.000000,11.976320,15.000000]}

M73 P0 R13
;TYPE:Custom
START_PRINT T_BED=70 T_EXTRUDER=235
M107
G21 ; set units to millimeters
G90 ; use absolute coordinates
M82 ; use absolute distances for extrusion
G92 E0
; Filament gcode
PRESSURE_ADVANCE_SELECT FILAMENT=PETG
;_TOOLCHANGE 0
M109 S235 ; set temperature and wait for it to be reached
M190 S70 ; set bed temperature and wait for it to be reached
M107
;LAYER_CHANGE
;Z:0.2
;HEIGHT:0.2
G1 Z0.2 F9000
M73 P0 R13
G1 E-1 F3000
M204 S1000
G1 X145.656 Y143.253 F9000
G1 E0 F1800
;TYPE:Skirt
;WIDTH:0.52
G1 X144.864 Y144.164 E0.04788
G1 X143.968 Y145.576 E0.11422
G1 X143.252 Y147.385 E0.19139
G1 X142.938 Y149.027 E0.25773
G1 X142.938 Y150.973 E0.33491
G1 X143.252 Y152.615 E0.40125
G1 X143.968 Y154.424 E0.47842
G1 X144.864 Y155.836 E0.54476
G1 X146.196 Y157.254 E0.62194
G1 X147.549 Y158.237 E0.68828
G1 X149.309 Y159.066 E0.76545
G1 X150.47 Y159.394 E0.81333
G1 X151.664 Y159.574 E0.86121
G1 X153.336 Y159.574 E0.92755
G1 X155.247 Y159.21 E1.00472
G1 X156.802 Y158.594 E1.07106
G1 X158.445 Y157.552 E1.14824
G1 X159.344 Y156.747 E1.19612
G1 X160.136 Y155.836 E1.244
G1 X161.032 Y154.424 E1.31033
G1 X161.748 Y152.615 E1.38751
G1 X162.062 Y150.973 E1.45385
G1 X162.062 Y149.027 E1.53103
G1 X161.748 Y147.385 E1.59736
G1 X161.032 Y145.576 E1.67454
G1 X160.136 Y144.164 E1.74088
G1 X158.804 Y142.746 E1.81806
G1 X157.451 Y141.763 E1.8844
G1 X155.691 Y140.934 E1.96157
G1 X154.53 Y140.606 E2.00945
G1 X153.336 Y140.426 E2.05733
G1 X151.664 Y140.426 E2.12367
G1 X149.753 Y140.79 E2.20084
G1 X148.198 Y141.406 E2.26718
G1 X146.555 Y142.448 E2.34436
G1 X145.656 Y143.253 E2.39224
G1 X145.982 Y143.601 F9000
G1 F1800
G1 X145.232 Y144.468 E2.43774
M73 P1 R13
G1 X144.4 Y145.779 E2.49934
G1 X143.706 Y147.532 E2.57414
G1 X143.415 Y149.057 E2.63573
G1 X143.415 Y150.943 E2.71053
G1 X143.706 Y152.468 E2.77212
G1 X144.4 Y154.221 E2.84692
G1 X145.232 Y155.532 E2.90852
G1 X146.522 Y156.907 E2.98332
G1 X147.779 Y157.819 E3.04491
G1 X149.485 Y158.622 E3.11971
G1 X150.589 Y158.932 E3.16522
G1 X151.724 Y159.101 E3.21072
G1 X153.276 Y159.101 E3.27232
G1 X155.129 Y158.748 E3.34711
G1 X156.572 Y158.176 E3.40871
G1 X158.164 Y157.166 E3.48351
G1 X159.018 Y156.399 E3.52901
G1 X159.768 Y155.532 E3.57452
G1 X160.6 Y154.221 E3.63611
G1 X161.294 Y152.468 E3.71091
G1 X161.585 Y150.943 E3.77251
G1 X161.585 Y149.057 E3.8473
G1 X161.294 Y147.532 E3.9089
G1 X160.6 Y145.779 E3.9837
G1 X159.768 Y144.468 E4.04529
G1 X158.478 Y143.093 E4.12009
G1 X157.221 Y142.181 E4.18169
G1 X155.515 Y141.378 E4.25649
G1 X154.411 Y141.068 E4.30199
G1 X153.276 Y140.899 E4.3475
G1 X151.724 Y140.899 E4.40909
G1 X149.871 Y141.252 E4.48389
G1 X148.428 Y141.824 E4.54548
G1 X146.836 Y142.834 E4.62028
G1 X145.982 Y143.601 E4.66579
G92 E0
G1 E-1 F3000
; printing object Adapteur_Thermacell(1).stl id:0 copy 0
EXCLUDE_OBJECT_START NAME=Adapteur_Thermacell_1_stl_id_0_copy_0
G1 X153.99 Y146.956 F9000
G1 E0 F1800
;TYPE:Internal perimeter
;WIDTH:0.5
G1 X153.944 Y146.931 E0.00199
G1 X153.548 Y146.774 E0.01818
G1 X153.136 Y146.668 E0.03436
G1 X152.713 Y146.615 E0.05055
G1 X152.287 Y146.615 E0.06674
G1 X151.864 Y146.668 E0.08293
G1 X151.452 Y146.774 E0.09912
G1 X151.056 Y146.931 E0.11531
G1 X150.683 Y147.136 E0.13149
G1 X150.338 Y147.387 E0.14768
G1 X150.028 Y147.678 E0.16387
G1 X149.756 Y148.006 E0.18006
G1 X149.528 Y148.366 E0.19625
G1 X149.347 Y148.751 E0.21243
G1 X149.215 Y149.157 E0.22862
G1 X149.135 Y149.575 E0.24481
G1 X149.108 Y150 E0.261
G1 X149.135 Y150.425 E0.27719
G1 X149.215 Y150.843 E0.29337
G1 X149.347 Y151.249 E0.30956
G1 X149.528 Y151.634 E0.32575
G1 X149.756 Y151.994 E0.34194
G1 X150.028 Y152.322 E0.35812
G1 X150.338 Y152.613 E0.37431
G1 X150.683 Y152.864 E0.3905
G1 X151.056 Y153.069 E0.40669
G1 X151.452 Y153.226 E0.42288
G1 X151.864 Y153.332 E0.43906
G1 X152.287 Y153.385 E0.45525
G1 X152.713 Y153.385 E0.47144
G1 X153.136 Y153.332 E0.48763
G1 X153.548 Y153.226 E0.50382
G1 X153.944 Y153.069 E0.52
G1 X154.317 Y152.864 E0.53619
G1 X154.662 Y152.613 E0.55238
G1 X154.972 Y152.322 E0.56857
G1 X155.244 Y151.994 E0.58476
G1 X155.472 Y151.634 E0.60094
G1 X155.653 Y151.249 E0.61713
G1 X155.785 Y150.843 E0.63332
G1 X155.865 Y150.425 E0.64951
G1 X155.892 Y150 E0.6657
G1 X155.865 Y149.575 E0.68188
G1 X155.785 Y149.157 E0.69807
G1 X155.653 Y148.751 E0.71426
G1 X155.472 Y148.366 E0.73045
G1 X155.244 Y148.006 E0.74664
G1 X154.972 Y147.678 E0.76282
G1 X154.662 Y147.387 E0.77901
G1 X154.317 Y147.136 E0.7952
G1 X153.99 Y146.956 E0.8094
G1 X153.725 Y147.336 F9000
G1 F1800
G1 X153.407 Y147.21 E0.8224
G1 X153.05 Y147.118 E0.8364
G1 X152.684 Y147.072 E0.85041
G1 X152.316 Y147.072 E0.86441
G1 X151.95 Y147.118 E0.87841
G1 X151.593 Y147.21 E0.89241
G1 X151.251 Y147.346 E0.90642
G1 X150.928 Y147.523 E0.92042
G1 X150.63 Y147.74 E0.93442
G1 X150.361 Y147.992 E0.94842
G1 X150.127 Y148.276 E0.96242
G1 X149.929 Y148.587 E0.97643
G1 X149.772 Y148.92 E0.99043
G1 X149.658 Y149.27 E1.00443
G1 X149.589 Y149.632 E1.01843
G1 X149.566 Y150 E1.03243
G1 X149.589 Y150.368 E1.04644
G1 X149.658 Y150.73 E1.06044
G1 X149.772 Y151.08 E1.07444
G1 X149.929 Y151.413 E1.08844
G1 X150.127 Y151.724 E1.10244
G1 X150.361 Y152.008 E1.11645
G1 X150.63 Y152.26 E1.13045
G1 X150.928 Y152.477 E1.14445
G1 X151.251 Y152.654 E1.15845
G1 X151.593 Y152.79 E1.17246
G1 X151.95 Y152.882 E1.18646
G1 X152.316 Y152.928 E1.20046
G1 X152.684 Y152.928 E1.21446
G1 X153.05 Y152.882 E1.22846
G1 X153.407 Y152.79 E1.24246
G1 X153.749 Y152.654 E1.25647
G1 X154.072 Y152.477 E1.27047
G1 X154.37 Y152.26 E1.28447
G1 X154.639 Y152.008 E1.29847
G1 X154.873 Y151.724 E1.31248
G1 X155.071 Y151.413 E1.32648
G1 X155.228 Y151.08 E1.34048
G1 X155.342 Y150.73 E1.35448
G1 X155.411 Y150.368 E1.36848
G1 X155.434 Y150 E1.38249
G1 X155.411 Y149.632 E1.39649
G1 X155.342 Y149.27 E1.41049
G1 X155.228 Y148.92 E1.42449
G1 X155.071 Y148.587 E1.43849
G1 X154.873 Y148.276 E1.4525
G1 X154.639 Y147.992 E1.4665
G1 X154.37 Y147.74 E1.4805
G1 X154.072 Y147.523 E1.4945
G1 X153.749 Y147.346 E1.5085
G1 X153.725 Y147.336 E1.5095
G1 X153.554 Y147.76 F9000
;TYPE:External perimeter
G1 F1800
G1 X153.265 Y147.645 E1.52132
G1 X152.964 Y147.568 E1.53313
G1 X152.655 Y147.529 E1.54495
G1 X152.345 Y147.529 E1.55676
G1 X152.036 Y147.568 E1.56858
G1 X151.735 Y147.645 E1.5804
G1 X151.446 Y147.76 E1.59221
G1 X151.173 Y147.91 E1.60403
G1 X150.922 Y148.092 E1.61585
G1 X150.695 Y148.305 E1.62766
G1 X150.497 Y148.545 E1.63948
G1 X150.331 Y148.807 E1.65129
G1 X150.198 Y149.089 E1.66311
G1 X150.102 Y149.384 E1.67493
G1 X150.044 Y149.69 E1.68674
G1 X150.024 Y150 E1.69856
G1 X150.044 Y150.31 E1.71037
G1 X150.102 Y150.616 E1.72219
G1 X150.198 Y150.911 E1.73401
G1 X150.331 Y151.193 E1.74582
G1 X150.497 Y151.455 E1.75764
G1 X150.695 Y151.695 E1.76946
G1 X150.922 Y151.908 E1.78127
G1 X151.173 Y152.09 E1.79309
G1 X151.446 Y152.24 E1.8049
G1 X151.735 Y152.355 E1.81672
G1 X152.036 Y152.432 E1.82854
G1 X152.345 Y152.471 E1.84035
G1 X152.655 Y152.471 E1.85217
G1 X152.964 Y152.432 E1.86399
G1 X153.265 Y152.355 E1.8758
G1 X153.554 Y152.24 E1.88762
G1 X153.827 Y152.09 E1.89943
G1 X154.078 Y151.908 E1.91125
G1 X154.305 Y151.695 E1.92307
G1 X154.503 Y151.455 E1.93488
G1 X154.669 Y151.193 E1.9467
G1 X154.802 Y150.911 E1.95851
G1 X154.898 Y150.616 E1.97033
G1 X154.956 Y150.31 E1.98215
G1 X154.976 Y150 E1.99396
G1 X154.956 Y149.69 E2.00578
G1 X154.898 Y149.384 E2.01759
G1 X154.802 Y149.089 E2.02941
G1 X154.669 Y148.807 E2.04123
G1 X154.503 Y148.545 E2.05304
G1 X154.305 Y148.305 E2.06486
G1 X154.078 Y148.092 E2.07668
G1 X153.827 Y147.91 E2.08849
G1 X153.554 Y147.76 E2.10031
;WIPE_START
M204 S3000
G1 X153.512 Y147.362 F9000
;WIPE_END
G92 E0
G1 E-1 F3000
M204 S1000
G1 X155.036 Y146.004 F9000
G1 E0 F1800
;TYPE:Internal perimeter
G1 X155.517 Y146.353 E0.02259
G1 X155.95 Y146.76 E0.04518
G1 X156.329 Y147.218 E0.06778
G1 X156.648 Y147.72 E0.09037
G1 X156.901 Y148.258 E0.11296
G1 X157.085 Y148.823 E0.13555
G1 X157.196 Y149.407 E0.15814
G1 X157.233 Y150 E0.18073
G1 X157.196 Y150.593 E0.20333
G1 X157.085 Y151.177 E0.22592
G1 X156.901 Y151.742 E0.24851
G1 X156.648 Y152.28 E0.2711
G1 X156.329 Y152.782 E0.29369
G1 X155.95 Y153.24 E0.31628
G1 X155.517 Y153.647 E0.33888
G1 X155.036 Y153.996 E0.36147
G1 X154.515 Y154.283 E0.38406
G1 X153.963 Y154.502 E0.40665
G1 X153.387 Y154.649 E0.42924
G1 X152.797 Y154.724 E0.45183
G1 X152.203 Y154.724 E0.47443
G1 X151.613 Y154.649 E0.49702
G1 X151.037 Y154.502 E0.51961
G1 X150.485 Y154.283 E0.5422
G1 X149.964 Y153.996 E0.56479
G1 X149.483 Y153.647 E0.58738
G1 X149.05 Y153.24 E0.60998
G1 X148.671 Y152.782 E0.63257
G1 X148.352 Y152.28 E0.65516
G1 X148.099 Y151.742 E0.67775
G1 X147.915 Y151.177 E0.70034
G1 X147.804 Y150.593 E0.72293
G1 X147.767 Y150 E0.74552
G1 X147.804 Y149.407 E0.76812
G1 X147.915 Y148.823 E0.79071
G1 X148.099 Y148.258 E0.8133
G1 X148.352 Y147.72 E0.83589
G1 X148.671 Y147.218 E0.85848
G1 X149.05 Y146.76 E0.88107
G1 X149.483 Y146.353 E0.90367
G1 X149.964 Y146.004 E0.92626
G1 X150.485 Y145.717 E0.94885
G1 X151.037 Y145.498 E0.97144
G1 X151.613 Y145.351 E0.99403
G1 X152.203 Y145.276 E1.01662
G1 X152.797 Y145.276 E1.03922
G1 X153.092 Y145.313 E1.05051
G1 X153.387 Y145.351 E1.06181
G1 X153.963 Y145.498 E1.0844
G1 X154.515 Y145.717 E1.10699
G1 X155.036 Y146.004 E1.12958
G1 X155.282 Y145.617 F9000
G1 F1800
G1 X155.809 Y146 E1.15436
G1 X156.284 Y146.446 E1.17914
G1 X156.7 Y146.949 E1.20392
G1 X157.049 Y147.499 E1.22869
G1 X157.327 Y148.089 E1.25347
G1 X157.528 Y148.709 E1.27825
G1 X157.65 Y149.349 E1.30303
G1 X157.691 Y150 E1.3278
G1 X157.65 Y150.651 E1.35258
G1 X157.528 Y151.291 E1.37736
G1 X157.327 Y151.911 E1.40214
G1 X157.049 Y152.501 E1.42691
G1 X156.7 Y153.051 E1.45169
G1 X156.284 Y153.554 E1.47647
G1 X155.809 Y154 E1.50125
G1 X155.282 Y154.383 E1.52602
G1 X154.71 Y154.697 E1.5508
G1 X154.104 Y154.937 E1.57558
G1 X153.473 Y155.099 E1.60036
G1 X152.826 Y155.181 E1.62513
G1 X152.174 Y155.181 E1.64991
G1 X151.527 Y155.099 E1.67469
G1 X150.896 Y154.937 E1.69947
G1 X150.29 Y154.697 E1.72424
G1 X149.718 Y154.383 E1.74902
G1 X149.191 Y154 E1.7738
G1 X148.716 Y153.554 E1.79858
G1 X148.3 Y153.051 E1.82335
G1 X147.951 Y152.501 E1.84813
G1 X147.673 Y151.911 E1.87291
G1 X147.472 Y151.291 E1.89769
G1 X147.35 Y150.651 E1.92246
G1 X147.309 Y150 E1.94724
G1 X147.35 Y149.349 E1.97202
G1 X147.472 Y148.709 E1.9968
G1 X147.673 Y148.089 E2.02157
G1 X147.951 Y147.499 E2.04635
G1 X148.3 Y146.949 E2.07113
G1 X148.716 Y146.446 E2.09591
G1 X149.191 Y146 E2.12068
G1 X149.718 Y145.617 E2.14546
G1 X150.29 Y145.303 E2.17024
G1 X150.896 Y145.063 E2.19502
G1 X151.527 Y144.901 E2.21979
G1 X152.174 Y144.819 E2.24457
G1 X152.826 Y144.819 E2.26935
G1 X153.149 Y144.86 E2.28174
G1 X153.473 Y144.901 E2.29413
G1 X154.104 Y145.063 E2.3189
G1 X154.71 Y145.303 E2.34368
G1 X155.282 Y145.617 E2.36846
G1 X155.527 Y145.23 F9000
;TYPE:External perimeter
G1 F1800
G1 X156.101 Y145.647 E2.39542
G1 X156.618 Y146.133 E2.42239
G1 X157.07 Y146.679 E2.44935
G1 X157.451 Y147.278 E2.47631
G1 X157.753 Y147.92 E2.50328
G1 X157.972 Y148.595 E2.53024
G1 X158.105 Y149.292 E2.5572
G1 X158.149 Y150 E2.58417
G1 X158.105 Y150.708 E2.61113
G1 X157.972 Y151.405 E2.63809
G1 X157.753 Y152.08 E2.66506
G1 X157.451 Y152.722 E2.69202
G1 X157.07 Y153.321 E2.71898
G1 X156.618 Y153.867 E2.74595
G1 X156.101 Y154.353 E2.77291
G1 X155.527 Y154.77 E2.79987
G1 X154.905 Y155.112 E2.82684
G1 X154.246 Y155.373 E2.8538
G1 X153.559 Y155.549 E2.88077
G1 X152.855 Y155.638 E2.90773
G1 X152.145 Y155.638 E2.93469
G1 X151.441 Y155.549 E2.96166
G1 X150.754 Y155.373 E2.98862
G1 X150.095 Y155.112 E3.01558
G1 X149.473 Y154.77 E3.04255
G1 X148.899 Y154.353 E3.06951
G1 X148.382 Y153.867 E3.09647
G1 X147.93 Y153.321 E3.12344
G1 X147.549 Y152.722 E3.1504
G1 X147.247 Y152.08 E3.17736
G1 X147.028 Y151.405 E3.20433
G1 X146.895 Y150.708 E3.23129
G1 X146.851 Y150 E3.25825
G1 X146.895 Y149.292 E3.28522
G1 X147.028 Y148.595 E3.31218
G1 X147.247 Y147.92 E3.33914
G1 X147.549 Y147.278 E3.36611
G1 X147.93 Y146.679 E3.39307
G1 X148.382 Y146.133 E3.42003
G1 X148.899 Y145.647 E3.447
G1 X149.473 Y145.23 E3.47396
G1 X150.095 Y144.888 E3.50092
G1 X150.754 Y144.627 E3.52789
G1 X151.441 Y144.451 E3.55485
G1 X152.145 Y144.362 E3.58181
G1 X152.855 Y144.362 E3.60878
G1 X153.207 Y144.406 E3.62226
G1 X153.559 Y144.451 E3.63574
G1 X154.246 Y144.627 E3.6627
G1 X154.905 Y144.888 E3.68967
G1 X155.527 Y145.23 E3.71663
;WIPE_START
M204 S3000
G1 X155.502 Y145.629 F9000
;WIPE_END
M204 S1000
G1 X154.695 Y145.919
;TYPE:Solid infill
;WIDTH:0.457685
G1 F2400
G1 X156.625 Y147.849 E3.81162
G1 X157.03 Y148.9 F9000
G1 F2400
G1 X153.627 Y145.497 E3.97904
M73 P2 R13
G1 X152.855 Y145.372 F9000
G1 F2400
G1 X157.127 Y149.644 E4.18923
G1 X157.127 Y150.291 F9000
G1 F2400
G1 X155.771 Y148.934 E4.25599
G1 X155.928 Y149.737 F9000
G1 F2400
G1 X157.056 Y150.865 E4.31149
G1 X156.923 Y151.379 F9000
G1 F2400
G1 X155.914 Y150.37 E4.36115
G1 X155.829 Y150.931 F9000
G1 F2400
G1 X156.766 Y151.868 E4.40727
G1 X156.55 Y152.299 F9000
G1 F2400
G1 X155.656 Y151.404 E4.45125
G1 X155.423 Y151.818 F9000
G1 F2400
G1 X156.278 Y152.673 E4.49331
G1 X156.006 Y153.047 F9000
G1 F2400
G1 X155.151 Y152.193 E4.53537
G1 X154.846 Y152.534 F9000
G1 F2400
G1 X155.697 Y153.385 E4.5772
G1 X155.35 Y153.684 F9000
G1 F2400
G1 X154.477 Y152.812 E4.62013
G1 X154.082 Y153.063 F9000
G1 F2400
G1 X154.971 Y153.952 E4.66386
G1 X154.531 Y154.158 F9000
G1 F2400
G1 X153.619 Y153.246 E4.70873
G1 X153.128 Y153.402 F9000
G1 F2400
G1 X154.092 Y154.365 E4.75614
G1 X153.584 Y154.504 F9000
G1 F2400
G1 X152.534 Y153.454 E4.80783
G1 X151.794 Y153.361 F9000
G1 F2400
G1 X153.041 Y154.608 E4.86918
G1 X152.443 Y154.655 F9000
G1 F2400
G1 X150.766 Y152.979 E4.95168
G92 E0
G1 E-1 F3000
G1 X153.54 Y146.703 F9000
G1 E0 F1800
G1 F2400
G1 X152.186 Y145.349 E0.06662
G1 X151.643 Y145.453 F9000
G1 F2400
G1 X152.741 Y146.551 E0.12065
G1 X152.112 Y146.568 F9000
G1 F2400
G1 X151.1 Y145.556 E0.17043
G1 X150.653 Y145.755 F9000
G1 F2400
G1 X151.585 Y146.687 E0.2163
G1 X151.097 Y146.846 F9000
G1 F2400
G1 X150.213 Y145.962 E0.25978
G1 X149.807 Y146.202 F9000
G1 F2400
G1 X150.67 Y147.065 E0.30224
