; generated by SuperSlicer 2.5.59 on 2023-05-03 at 06:12:59 UTC


;
;

;
;
; 

; external perimeters extrusion width = 0.40mm
; perimeters extrusion width = 0.46mm
; infill extrusion width = 0.64mm
; solid infill extrusion width = 0.56mm
; top infill extrusion width = 0.40mm
; first layer extrusion width = 0.50mm

; object:{"name":"BackPlate","id":"BackPlate.stl id:0 copy 0","object_center":[152.500000,150.000000,0.000000],"boundingbox_center":[152.500000,150.000000,5.750000],"boundingbox_size":[135.000000,124.239502,11.500000]}
EXCLUDE_OBJECT_DEFINE NAME=BackPlate_stl_id_0_copy_0 CENTER=152.500000,150.000000 POLYGON=[[85.000000,88.380248],[85.500000,87.880248],[219.500000,87.880248],[220.000000,88.380248],[220.000000,211.619744],[219.500000,212.119744],[85.500000,212.119744],[85.000000,211.619744],[85.000000,88.380248]]
; plater:{"center":[152.500000,150.000000,0.000000],"boundingbox_center":[152.500000,150.000000,5.750000],"boundingbox_size":[135.000000,124.239502,11.500000]}

M73 P0 R185
;TYPE:Custom
START_PRINT T_BED=70 T_EXTRUDER=235
M107
G21 ; set units to millimeters
G90 ; use absolute coordinates
M82 ; use absolute distances for extrusion
G92 E0
; Filament gcode
PRESSURE_ADVANCE_SELECT FILAMENT=PETG
;_TOOLCHANGE 0
M104 S235 ; set temperature
M109 S235 ; set temperature and wait for it to be reached
M190 S70 ; set bed temperature and wait for it to be reached
M107
;LAYER_CHANGE
;Z:0.2
;HEIGHT:0.2
G1 Z0.2 F9000
G1 E-1 F3000
M204 S1000
G1 X82.914 Y85.753 F9000
G1 E0 F1800
;TYPE:Skirt
;WIDTH:0.52
G1 X82.179 Y86.755 E0.04685
G1 X81.784 Y88.422 E0.11138
G1 X81.784 Y211.578 E4.75265
G1 X81.973 Y212.748 E4.79731
G1 X82.873 Y214.206 E4.86185
G1 X83.875 Y214.941 E4.90869
G1 X85.541 Y215.335 E4.97323
G1 X219.459 Y215.335 E10.02001
G1 X220.629 Y215.146 E10.06467
G1 X222.086 Y214.247 E10.12921
G1 X222.821 Y213.245 E10.17605
G1 X223.216 Y211.578 E10.24059
G1 X223.216 Y88.422 E14.88185
G1 X223.027 Y87.252 E14.92652
G1 X222.127 Y85.794 E14.99105
G1 X221.125 Y85.059 E15.0379
G1 X219.459 Y84.665 E15.10243
G1 X85.541 Y84.665 E20.14922
G1 X84.371 Y84.854 E20.19388
G1 X82.914 Y85.753 E20.25842
G1 X83.251 Y86.09 F9000
G1 F1800
G1 X82.655 Y86.874 E20.29552
G1 X82.261 Y88.422 E20.35571
G1 X82.261 Y211.578 E24.99698
G1 X82.394 Y212.495 E25.0319
G1 X83.21 Y213.868 E25.09209
G1 X83.994 Y214.464 E25.12919
G1 X85.541 Y214.858 E25.18938
G1 X219.459 Y214.858 E30.23616
M73 P0 R185
G1 X220.376 Y214.726 E30.27108
G1 X221.749 Y213.91 E30.33127
G1 X222.345 Y213.126 E30.36838
G1 X222.739 Y211.578 E30.42857
G1 X222.739 Y88.422 E35.06983
G1 X222.606 Y87.505 E35.10475
G1 X221.79 Y86.132 E35.16494
G1 X221.006 Y85.536 E35.20205
G1 X219.459 Y85.142 E35.26223
G1 X85.541 Y85.142 E40.30902
G1 X84.624 Y85.274 E40.34394
G1 X83.251 Y86.09 E40.40413
G92 E0
G1 E-1 F3000
; printing object BackPlate.stl id:0 copy 0
EXCLUDE_OBJECT_START NAME=BackPlate_stl_id_0_copy_0
G1 X216.538 Y210.618 F9000
G1 E0 F1800
;TYPE:Internal perimeter
;WIDTH:0.5
G1 X217.272 Y210.314 E0.0287
G1 X217.782 Y209.923 E0.05192
G1 X218.174 Y209.412 E0.07515
G1 X218.42 Y208.818 E0.09837
G1 X218.451 Y208.581 E0.10702
G1 X218.793 Y208.603 E0.11938
G1 X218.793 Y210.913 E0.20277
G1 X216.596 Y210.913 E0.28209
G1 X216.538 Y210.618 E0.29293
G92 E0
G1 E-1 F3000
G1 X216.138 Y89.429 F9000
G1 E0 F1800
G1 X216.16 Y89.087 E0.01237
G1 X218.793 Y89.087 E0.10743
G1 X218.793 Y91.457 E0.19301
G1 X218.451 Y91.48 E0.20537
G1 X218.42 Y91.243 E0.21401
G1 X218.174 Y90.648 E0.23724
G1 X217.782 Y90.138 E0.26046
G1 X217.272 Y89.746 E0.28369
G1 X216.678 Y89.5 E0.30691
G1 X216.138 Y89.429 E0.32658
G92 E0
G1 E-1 F3000
G1 X158.836 Y203.844 F9000
G1 E0 F1800
G1 X171.164 Y203.844 E0.44513
G1 X171.164 Y96.216 E4.33116
G1 X158.836 Y96.216 E4.77628
G1 X158.836 Y203.844 E8.66231
G1 X159.293 Y203.387 F9000
G1 F1800
G1 X170.707 Y203.387 E9.07443
G1 X170.707 Y96.673 E12.92745
G1 X159.293 Y96.673 E13.33957
G1 X159.293 Y203.387 E17.19259
G1 X159.75 Y202.93 F9000
;TYPE:External perimeter
G1 F1800
G1 X170.25 Y202.93 E17.57171
G1 X170.25 Y97.13 E21.39172
G1 X159.75 Y97.13 E21.77084
G1 X159.75 Y202.93 E25.59085
;WIPE_START
M204 S3000
G1 X159.75 Y203.33 F9000
;WIPE_END
G92 E0
G1 E-1 F3000
M204 S1000
G1 X173.836 Y203.844 F9000
G1 E0 F1800
;TYPE:Internal perimeter
G1 X184.164 Y203.844 E0.37291
G1 X184.164 Y96.216 E4.25894
G1 X173.836 Y96.216 E4.63186
G1 X173.836 Y203.844 E8.51789
G1 X174.293 Y203.387 F9000
G1 F1800
G1 X183.707 Y203.387 E8.85779
G1 X183.707 Y96.673 E12.71082
G1 X174.293 Y96.673 E13.05072
G1 X174.293 Y203.387 E16.90375
G1 X174.75 Y202.93 F9000
;TYPE:External perimeter
G1 F1800
G1 X183.25 Y202.93 E17.21065
G1 X183.25 Y97.13 E21.03066
G1 X174.75 Y97.13 E21.33756
G1 X174.75 Y202.93 E25.15758
;WIPE_START
M204 S3000
M73 P1 R184
G1 X174.75 Y203.33 F9000
;WIPE_END
G92 E0
G1 E-1 F3000
M204 S1000
G1 X203.664 Y203.844 F9000
G1 E0 F1800
;TYPE:Internal perimeter
G1 X203.664 Y96.216 E3.88603
M73 P1 R184
G1 X191.336 Y96.216 E4.33116
G1 X191.336 Y203.844 E8.21718
G1 X203.664 Y203.844 E8.66231
G1 X203.207 Y203.387 F9000
G1 F1800
G1 X203.207 Y96.673 E12.51533
G1 X191.793 Y96.673 E12.92745
G1 X191.793 Y203.387 E16.78047
G1 X203.207 Y203.387 E17.19259
G1 X202.75 Y202.93 F9000
;TYPE:External perimeter
G1 F1800
G1 X202.75 Y97.13 E21.01261
G1 X192.25 Y97.13 E21.39172
G1 X192.25 Y202.93 E25.21174
G1 X202.75 Y202.93 E25.59085
;WIPE_START
M204 S3000
G1 X203.15 Y202.93 F9000
;WIPE_END
G92 E0
G1 E-1 F3000
M204 S1000
G1 X206.336 Y203.844 F9000
G1 E0 F1800
;TYPE:Internal perimeter
G1 X216.664 Y203.844 E0.37291
G1 X216.664 Y96.216 E4.25894
G1 X206.336 Y96.216 E4.63186
G1 X206.336 Y203.844 E8.51789
G1 X206.793 Y203.387 F9000
G1 F1800
G1 X216.207 Y203.387 E8.85779
G1 X216.207 Y96.673 E12.71082
G1 X206.793 Y96.673 E13.05072
G1 X206.793 Y203.387 E16.90375
G1 X207.25 Y202.93 F9000
;TYPE:External perimeter
G1 F1800
G1 X215.75 Y202.93 E17.21065
G1 X215.75 Y97.13 E21.03066
G1 X207.25 Y97.13 E21.33756
G1 X207.25 Y202.93 E25.15758
;WIPE_START
M204 S3000
G1 X207.25 Y203.33 F9000
;WIPE_END
G92 E0
G1 E-1 F3000
M204 S1000
G1 X141.336 Y203.844 F9000
G1 E0 F1800
;TYPE:Internal perimeter
G1 X151.664 Y203.844 E0.37291
G1 X151.664 Y96.216 E4.25894
G1 X141.336 Y96.216 E4.63186
G1 X141.336 Y203.844 E8.51789
G1 X141.793 Y203.387 F9000
G1 F1800
G1 X151.207 Y203.387 E8.85779
G1 X151.207 Y96.673 E12.71082
M73 P1 R183
G1 X141.793 Y96.673 E13.05072
G1 X141.793 Y203.387 E16.90375
G1 X142.25 Y202.93 F9000
;TYPE:External perimeter
G1 F1800
G1 X150.75 Y202.93 E17.21065
G1 X150.75 Y97.13 E21.03066
G1 X142.25 Y97.13 E21.33756
G1 X142.25 Y202.93 E25.15758
;WIPE_START
M204 S3000
G1 X142.25 Y203.33 F9000
;WIPE_END
G92 E0
G1 E-1 F3000
M204 S1000
G1 X126.336 Y203.844 F9000
G1 E0 F1800
;TYPE:Internal perimeter
G1 X138.664 Y203.844 E0.44513
G1 X138.664 Y96.216 E4.33116
G1 X126.336 Y96.216 E4.77628
G1 X126.336 Y203.844 E8.66231
G1 X126.793 Y203.387 F9000
G1 F1800
G1 X138.207 Y203.387 E9.07443
G1 X138.207 Y96.673 E12.92745
G1 X126.793 Y96.673 E13.33957
G1 X126.793 Y203.387 E17.19259
G1 X127.25 Y202.93 F9000
;TYPE:External perimeter
G1 F1800
G1 X137.75 Y202.93 E17.57171
G1 X137.75 Y97.13 E21.39172
G1 X127.25 Y97.13 E21.77084
G1 X127.25 Y202.93 E25.59085
;WIPE_START
M204 S3000
G1 X127.25 Y203.33 F9000
;WIPE_END
G92 E0
G1 E-1 F3000
M204 S1000
G1 X119.164 Y96.216 F9000
G1 E0 F1800
;TYPE:Internal perimeter
G1 X108.836 Y96.216 E0.37291
G1 X108.836 Y203.844 E4.25894
G1 X119.164 Y203.844 E4.63186
G1 X119.164 Y96.216 E8.51789
G1 X118.707 Y96.673 F9000
G1 F1800
G1 X109.293 Y96.673 E8.85779
G1 X109.293 Y203.387 E12.71082
G1 X118.707 Y203.387 E13.05072
G1 X118.707 Y96.673 E16.90375
G1 X118.25 Y97.13 F9000
;TYPE:External perimeter
G1 F1800
G1 X109.75 Y97.13 E17.21065
G1 X109.75 Y202.93 E21.03066
M73 P2 R182
G1 X118.25 Y202.93 E21.33756
G1 X118.25 Y97.13 E25.15758
;WIPE_START
M204 S3000
M73 P2 R182
G1 X118.25 Y96.73 F9000
;WIPE_END
G92 E0
G1 E-1 F3000
M204 S1000
G1 X93.836 Y97.13 F9000
G1 E0 F1800
;TYPE:Internal perimeter
G1 X93.836 Y203.844 E3.85302
G1 X106.164 Y203.844 E4.29815
G1 X106.164 Y96.216 E8.18418
G1 X93.836 Y96.216 E8.6293
G1 X93.836 Y97.13 E8.66231
G1 X94.293 Y97.13 F9000
G1 F1800
G1 X94.293 Y203.387 E12.49883
G1 X105.707 Y203.387 E12.91095
G1 X105.707 Y96.673 E16.76397
G1 X94.293 Y96.673 E17.17609
G1 X94.293 Y97.13 E17.19259
G1 X94.75 Y97.13 F9000
;TYPE:External perimeter
G1 F1800
G1 X94.75 Y202.93 E21.01261
G1 X105.25 Y202.93 E21.39172
G1 X105.25 Y97.13 E25.21174
G1 X94.75 Y97.13 E25.59085
;WIPE_START
M204 S3000
G1 X94.35 Y97.13 F9000
;WIPE_END
G92 E0
G1 E-1 F3000
M204 S1000
G1 X154.673 Y89.89 F9000
G1 E0 F1800
;TYPE:Internal perimeter
G1 X154.408 Y89.544 E0.01572
G1 X214.177 Y89.544 E2.17374
G1 X213.507 Y90.418 E2.21349
G1 X213.214 Y91.123 E2.24106
G1 X213.115 Y91.88 E2.26863
G1 X213.214 Y92.637 E2.2962
G1 X213.507 Y93.343 E2.32377
G1 X213.972 Y93.949 E2.35134
G1 X214.577 Y94.413 E2.37891
G1 X215.283 Y94.706 E2.40648
G1 X216.04 Y94.805 E2.43405
G1 X216.797 Y94.706 E2.46162
G1 X217.502 Y94.413 E2.48919
G1 X218.336 Y93.774 E2.52712
G1 X218.336 Y206.287 E6.58951
G1 X217.502 Y205.647 E6.62744
G1 X216.797 Y205.355 E6.65501
G1 X216.04 Y205.255 E6.68258
G1 X215.283 Y205.355 E6.71015
G1 X214.577 Y205.647 E6.73772
G1 X213.972 Y206.112 E6.76529
G1 X213.507 Y206.718 E6.79286
G1 X213.214 Y207.423 E6.82043
G1 X213.115 Y208.18 E6.848
G1 X213.214 Y208.937 E6.87557
G1 X213.507 Y209.643 E6.90315
G1 X214.13 Y210.456 E6.94014
G1 X154.454 Y210.456 E9.09481
G1 X155.078 Y209.643 E9.1318
G1 X155.37 Y208.937 E9.15937
G1 X155.47 Y208.18 E9.18694
G1 X155.37 Y207.423 E9.21451
G1 X155.078 Y206.718 E9.24208
G1 X154.613 Y206.112 E9.26965
G1 X154.007 Y205.647 E9.29722
G1 X153.302 Y205.355 E9.32479
G1 X152.545 Y205.255 E9.35237
G1 X151.788 Y205.355 E9.37994
G1 X151.082 Y205.647 E9.40751
G1 X150.476 Y206.112 E9.43508
G1 X150.011 Y206.718 E9.46265
G1 X149.719 Y207.423 E9.49022
G1 X149.62 Y208.18 E9.51779
G1 X149.719 Y208.937 E9.54536
G1 X150.011 Y209.643 E9.57293
G1 X150.635 Y210.456 E9.60992
G1 X90.922 Y210.456 E11.76591
G1 X91.546 Y209.643 E11.80291
G1 X91.838 Y208.937 E11.83048
G1 X91.938 Y208.18 E11.85805
G1 X91.838 Y207.423 E11.88562
G1 X91.546 Y206.718 E11.91319
G1 X91.081 Y206.112 E11.94076
G1 X90.475 Y205.647 E11.96833
G1 X89.77 Y205.355 E11.9959
G1 X89.013 Y205.255 E12.02347
G1 X88.256 Y205.355 E12.05104
G1 X87.55 Y205.647 E12.07861
G1 X86.664 Y206.327 E12.11893
G1 X86.664 Y93.734 E16.18423
G1 X87.55 Y94.413 E16.22456
G1 X88.256 Y94.706 E16.25213
G1 X89.013 Y94.805 E16.2797
G1 X89.77 Y94.706 E16.30727
G1 X90.475 Y94.413 E16.33484
G1 X91.081 Y93.949 E16.36241
G1 X91.546 Y93.343 E16.38998
G1 X91.838 Y92.637 E16.41755
G1 X91.938 Y91.88 E16.44512
G1 X91.838 Y91.123 E16.47269
G1 X91.546 Y90.418 E16.50026
G1 X90.876 Y89.544 E16.54001
G1 X150.682 Y89.544 E18.69935
G1 X150.011 Y90.418 E18.7391
G1 X149.719 Y91.123 E18.76667
G1 X149.62 Y91.88 E18.79424
G1 X149.719 Y92.637 E18.82181
G1 X150.011 Y93.343 E18.84938
G1 X150.476 Y93.949 E18.87695
G1 X151.082 Y94.413 E18.90452
G1 X151.788 Y94.706 E18.93209
G1 X152.545 Y94.805 E18.95966
G1 X153.302 Y94.706 E18.98723
G1 X154.007 Y94.413 E19.0148
G1 X154.613 Y93.949 E19.04237
G1 X155.078 Y93.343 E19.06994
G1 X155.37 Y92.637 E19.09751
G1 X155.47 Y91.88 E19.12508
G1 X155.37 Y91.123 E19.15265
G1 X155.078 Y90.418 E19.18022
G1 X154.673 Y89.89 E19.20425
G1 X154.248 Y90.108 F9000
G1 F1800
G1 X153.777 Y89.746 E19.2257
G1 X153.182 Y89.5 E19.24893
G1 X152.642 Y89.429 E19.26859
G1 X152.665 Y89.087 E19.28096
G1 X215.92 Y89.087 E21.56485
G1 X215.942 Y89.429 E21.57721
G1 X215.402 Y89.5 E21.59688
G1 X214.808 Y89.746 E21.6201
G1 X214.298 Y90.138 E21.64333
G1 X213.906 Y90.648 E21.66655
G1 X213.66 Y91.243 E21.68978
G1 X213.576 Y91.88 E21.713
G1 X213.66 Y92.518 E21.73623
G1 X213.906 Y93.112 E21.75945
G1 X214.298 Y93.623 E21.78268
G1 X214.808 Y94.014 E21.8059
G1 X215.402 Y94.26 E21.82913
G1 X216.04 Y94.344 E21.85235
G1 X216.678 Y94.26 E21.87558
G1 X217.272 Y94.014 E21.8988
G1 X217.782 Y93.623 E21.92203
G1 X218.174 Y93.112 E21.94525
G1 X218.42 Y92.518 E21.96848
G1 X218.451 Y92.281 E21.97712
G1 X218.793 Y92.303 E21.98948
G1 X218.793 Y207.757 E26.15808
G1 X218.451 Y207.78 E26.17045
G1 X218.42 Y207.543 E26.17909
G1 X218.174 Y206.948 E26.20231
G1 X217.782 Y206.438 E26.22554
G1 X217.272 Y206.046 E26.24876
G1 X216.678 Y205.8 E26.27199
G1 X216.04 Y205.716 E26.29521
G1 X215.402 Y205.8 E26.31844
G1 X214.808 Y206.046 E26.34166
G1 X214.298 Y206.438 E26.36489
G1 X213.906 Y206.948 E26.38811
G1 X213.66 Y207.543 E26.41134
G1 X213.576 Y208.18 E26.43456
G1 X213.66 Y208.818 E26.45779
G1 X213.906 Y209.412 E26.48101
G1 X214.298 Y209.923 E26.50424
G1 X214.808 Y210.314 E26.52746
G1 X215.542 Y210.618 E26.55616
G1 X215.484 Y210.913 E26.567
G1 X153.101 Y210.913 E28.81939
G1 X153.042 Y210.618 E28.83023
G1 X153.777 Y210.314 E28.85893
G1 X154.287 Y209.923 E28.88215
G1 X154.679 Y209.412 E28.90538
G1 X154.925 Y208.818 E28.9286
G1 X155.009 Y208.18 E28.95183
G1 X154.925 Y207.543 E28.97505
G1 X154.679 Y206.948 E28.99828
G1 X154.287 Y206.438 E29.0215
G1 X153.777 Y206.046 E29.04473
G1 X153.182 Y205.8 E29.06795
G1 X152.545 Y205.716 E29.09118
G1 X151.907 Y205.8 E29.1144
G1 X151.313 Y206.046 E29.13763
G1 X150.802 Y206.438 E29.16085
G1 X150.411 Y206.948 E29.18408
G1 X150.165 Y207.543 E29.2073
G1 X150.081 Y208.18 E29.23053
G1 X150.165 Y208.818 E29.25375
G1 X150.411 Y209.412 E29.27698
G1 X150.802 Y209.923 E29.3002
G1 X151.313 Y210.314 E29.32343
G1 X152.047 Y210.618 E29.35213
G1 X151.988 Y210.913 E29.36296
G1 X89.569 Y210.913 E31.61668
G1 X89.51 Y210.618 E31.62751
G1 X90.245 Y210.314 E31.65621
G1 X90.755 Y209.923 E31.67944
G1 X91.147 Y209.412 E31.70266
G1 X91.393 Y208.818 E31.72589
G1 X91.477 Y208.18 E31.74911
G1 X91.393 Y207.543 E31.77234
G1 X91.147 Y206.948 E31.79556
G1 X90.755 Y206.438 E31.81879
G1 X90.245 Y206.046 E31.84201
G1 X89.65 Y205.8 E31.86524
G1 X89.013 Y205.716 E31.88846
G1 X88.375 Y205.8 E31.91169
G1 X87.781 Y206.046 E31.93491
G1 X87.27 Y206.438 E31.95814
G1 X86.879 Y206.948 E31.98136
G1 X86.633 Y207.543 E32.00459
G1 X86.549 Y208.179 E32.02778
G1 X86.207 Y208.157 E32.04015
G1 X86.207 Y91.904 E36.23759
M73 P2 R181
G1 X86.549 Y91.881 E36.24996
G1 X86.633 Y92.518 E36.27315
G1 X86.879 Y93.112 E36.29637
G1 X87.27 Y93.623 E36.3196
G1 X87.781 Y94.014 E36.34282
G1 X88.375 Y94.26 E36.36605
G1 X89.013 Y94.344 E36.38927
G1 X89.65 Y94.26 E36.4125
G1 X90.245 Y94.014 E36.43572
G1 X90.755 Y93.623 E36.45895
G1 X91.147 Y93.112 E36.48217
G1 X91.393 Y92.518 E36.5054
G1 X91.477 Y91.88 E36.52862
G1 X91.393 Y91.243 E36.55185
G1 X91.147 Y90.648 E36.57507
G1 X90.755 Y90.138 E36.5983
G1 X90.245 Y89.746 E36.62152
G1 X89.65 Y89.5 E36.64475
G1 X89.11 Y89.429 E36.66441
G1 X89.133 Y89.087 E36.67678
G1 X152.424 Y89.087 E38.96199
G1 X152.447 Y89.429 E38.97435
G1 X151.907 Y89.5 E38.99402
G1 X151.313 Y89.746 E39.01724
G1 X150.802 Y90.138 E39.04047
G1 X150.411 Y90.648 E39.06369
G1 X150.165 Y91.243 E39.08692
G1 X150.081 Y91.88 E39.11014
G1 X150.165 Y92.518 E39.13337
G1 X150.411 Y93.112 E39.15659
G1 X150.802 Y93.623 E39.17982
G1 X151.313 Y94.014 E39.20304
G1 X151.907 Y94.26 E39.22627
G1 X152.545 Y94.344 E39.24949
G1 X153.182 Y94.26 E39.27272
G1 X153.777 Y94.014 E39.29594
G1 X154.287 Y93.623 E39.31917
G1 X154.679 Y93.112 E39.34239
G1 X154.925 Y92.518 E39.36562
G1 X155.009 Y91.88 E39.38884
G1 X154.925 Y91.243 E39.41207
G1 X154.679 Y90.648 E39.43529
G1 X154.287 Y90.138 E39.45852
G1 X154.248 Y90.108 E39.46029
G92 E0
G1 E-1 F3000
G1 X86.549 Y91.879 F9000
G1 E0 F1800
G1 X86.207 Y91.857 E0.01237
G1 X86.207 Y89.087 E0.11237
G1 X88.893 Y89.087 E0.20933
G1 X88.915 Y89.429 E0.2217
G1 X88.375 Y89.5 E0.24136
G1 X87.781 Y89.746 E0.26459
G1 X87.27 Y90.138 E0.28781
G1 X86.879 Y90.648 E0.31104
G1 X86.633 Y91.243 E0.33426
G1 X86.549 Y91.879 E0.35745
G92 E0
G1 E-1 F3000
G1 X86.549 Y208.181 F9000
G1 E0 F1800
G1 X86.633 Y208.818 E0.02319
G1 X86.879 Y209.412 E0.04642
G1 X87.27 Y209.923 E0.06964
G1 X87.781 Y210.314 E0.09287
G1 X88.515 Y210.618 E0.12157
G1 X88.457 Y210.913 E0.1324
G1 X86.207 Y210.913 E0.21362
G1 X86.207 Y208.204 E0.31144
G1 X86.549 Y208.181 E0.3238
G92 E0
G1 E-1 F3000
G1 X150.542 Y208.18 F9000
G1 E0 F1800
;TYPE:External perimeter
