; generated by SuperSlicer 2.5.59 on 2023-08-31 at 19:16:28 UTC


;
;

;
;
; 

; external perimeters extrusion width = 0.40mm
; perimeters extrusion width = 0.46mm
; infill extrusion width = 0.64mm
; solid infill extrusion width = 0.56mm
; top infill extrusion width = 0.40mm
; support material extrusion width = 0.46mm
; first layer extrusion width = 0.50mm

; external perimeters extrusion width = 0.20mm
; perimeters extrusion width = 0.20mm
; infill extrusion width = 0.64mm
; solid infill extrusion width = 0.56mm
; top infill extrusion width = 0.46mm
; support material extrusion width = 0.46mm
; first layer extrusion width = 0.50mm

; object:{"name":"Sign Thick","id":"Sign Thick id:0 copy 0","object_center":[164.999999,131.979000,0.000000],"boundingbox_center":[164.999999,131.979000,8.819999],"boundingbox_size":[109.952072,60.043610,17.639997]}
EXCLUDE_OBJECT_DEFINE NAME=Sign_Thick_id_0_copy_0 CENTER=164.999999,131.979000 POLYGON=[[110.023968,103.557208],[110.043672,103.306904],[110.102272,103.062784],[110.198360,102.830824],[110.329536,102.616744],[110.492592,102.425824],[110.683512,102.262776],[110.897592,102.131576],[111.129544,102.035504],[111.373672,101.976904],[111.623968,101.957200],[218.376032,101.957200],[218.626320,101.976904],[218.870448,102.035504],[219.102416,102.131576],[219.316496,102.262776],[219.507424,102.425824],[219.670464,102.616744],[219.801664,102.830824],[219.897744,103.062784],[219.956336,103.306904],[219.976048,103.557208],[219.976048,146.807360],[219.953072,147.077472],[219.884864,147.339808],[219.773280,147.586896],[219.621648,147.811600],[219.434240,148.007456],[219.216464,148.168864],[218.974544,148.291216],[180.367248,161.961648],[180.245184,161.990944],[180.120032,162.000816],[149.880000,162.000816],[149.754848,161.990944],[149.632784,161.961648],[111.025464,148.291216],[110.783560,148.168864],[110.565776,148.007456],[110.378368,147.811600],[110.226712,147.586896],[110.115168,147.339808],[110.046928,147.077472],[110.023968,146.807360],[110.023968,103.557208]]
; plater:{"center":[164.999999,131.979000,0.000000],"boundingbox_center":[164.999999,131.979000,8.819999],"boundingbox_size":[109.952072,60.043610,17.639997]}

M73 P0 R100
M73 P0 R100
;TYPE:Custom
START_PRINT T_BED=60 T_EXTRUDER=210
M107
G21 ; set units to millimeters
G90 ; use absolute coordinates
M82 ; use absolute distances for extrusion
G92 E0
; Filament gcode

    PRESSURE_ADVANCE_SELECT FILAMENT=PLA
;_TOOLCHANGE 0
M104 S210 ; set temperature
M109 S210 ; set temperature and wait for it to be reached
M190 S60 ; set bed temperature and wait for it to be reached
M107
;LAYER_CHANGE
;Z:0.2
;HEIGHT:0.2
G1 Z0.2 F9000
M73 P0 R100
G1 E-0.8 F2400
M204 S1000
G1 X107.804 Y100.149 F9000
G1 E0 F1800
;TYPE:Skirt
;WIDTH:0.52
G1 X107.317 Y100.789 E0.03187
G1 X106.937 Y101.496 E0.06374
G1 X106.673 Y102.255 E0.09562
G1 X106.512 Y103.27 E0.13636
G1 X106.501 Y146.803 E1.86331
G1 X106.641 Y147.98 E1.91034
G1 X107.009 Y149.022 E1.95415
G1 X107.449 Y149.769 E1.98855
G1 X108.009 Y150.432 E2.02296
G1 X108.672 Y150.99 E2.05737
G1 X109.854 Y151.614 E2.11037
G1 X148.435 Y165.32 E3.73459
M73 P0 R99
G1 X149.098 Y165.489 E3.76171
G1 X149.889 Y165.567 E3.79324
G1 X180.223 Y165.558 E4.99657
G1 X181.37 Y165.376 E5.04263
G1 X220.579 Y151.428 E6.69353
G1 X221.328 Y150.99 E6.72794
G1 X221.991 Y150.432 E6.76235
G1 X222.685 Y149.571 E6.80617
G1 X223.089 Y148.805 E6.84056
G1 X223.299 Y148.211 E6.86554
G1 X223.486 Y147.118 E6.90953
G1 X223.499 Y103.561 E8.6374
G1 X223.379 Y102.47 E8.68097
G1 X223.147 Y101.701 E8.71283
G1 X222.683 Y100.789 E8.75343
G1 X222.196 Y100.149 E8.78531
G1 X221.145 Y99.251 E8.84017
G1 X220.437 Y98.871 E8.87204
G1 X219.463 Y98.554 E8.91264
G1 X218.664 Y98.445 E8.94466
G1 X111.628 Y98.434 E13.1907
G1 X110.536 Y98.554 E13.23426
G1 X109.563 Y98.871 E13.27485
G1 X108.384 Y99.593 E13.32973
G1 X107.804 Y100.149 E13.36159
G1 X108.166 Y100.459 F9000
G1 F1800
G1 X107.724 Y101.038 E13.3905
G1 X107.378 Y101.679 E13.4194
G1 X107.137 Y102.366 E13.4483
G1 X106.988 Y103.307 E13.48608
G1 X106.978 Y146.803 E15.21154
G1 X107.103 Y147.86 E15.25377
G1 X107.345 Y148.608 E15.28496
G1 X107.844 Y149.502 E15.32557
G1 X108.353 Y150.102 E15.35678
G1 X108.956 Y150.607 E15.38798
G1 X110.013 Y151.164 E15.43538
G1 X148.595 Y164.87 E17.0596
G1 X149.889 Y165.09 E17.11166
G1 X180.223 Y165.081 E18.31498
G1 X181.222 Y164.923 E18.35513
G1 X220.364 Y151.002 E20.00313
G1 X221.044 Y150.607 E20.03432
G1 X221.647 Y150.102 E20.06553
G1 X222.289 Y149.305 E20.10615
G1 X222.837 Y148.091 E20.15898
G1 X223.011 Y147.077 E20.19976
G1 X223.022 Y103.561 E21.92602
G1 X222.915 Y102.581 E21.96514
G1 X222.706 Y101.883 E21.99403
G1 X222.276 Y101.038 E22.03166
G1 X221.834 Y100.459 E22.06057
G1 X220.895 Y99.657 E22.10952
G1 X220.254 Y99.311 E22.13841
G1 X219.352 Y99.018 E22.17604
G1 X218.626 Y98.921 E22.20509
G1 X111.628 Y98.911 E26.44965
G1 X110.648 Y99.018 E26.48876
G1 X109.746 Y99.311 E26.52639
G1 X108.693 Y99.956 E26.57534
G1 X108.166 Y100.459 E26.60424
G92 E0
G1 E-0.8 F2400
; printing object Sign Thick id:0 copy 0
EXCLUDE_OBJECT_START NAME=Sign_Thick_id_0_copy_0
G1 X149.43 Y153.438 F9000
G1 E0 F1800
;TYPE:External perimeter
;WIDTH:0.5
G1 X149.183 Y153.207 E0.01288
G1 X141.864 Y152.63 E0.29188
G1 X134.193 Y151.807 E0.58514
G1 X126.55 Y150.75 E0.87838
G1 X118.943 Y149.46 E1.17163
G1 X111.39 Y147.941 E1.46441
G1 X111.191 Y147.88 E1.47232
G1 X111.017 Y147.791 E1.47976
G1 X110.859 Y147.675 E1.48721
G1 X110.724 Y147.533 E1.49466
G1 X110.614 Y147.371 E1.5021
G1 X110.534 Y147.192 E1.50955
G1 X110.484 Y147.003 E1.51699
G1 X110.466 Y146.793 E1.52501
G1 X110.466 Y103.571 E3.1677
G1 X110.482 Y103.376 E3.17512
G1 X110.524 Y103.2 E3.18202
G1 X110.594 Y103.032 E3.18891
G1 X110.688 Y102.877 E3.19581
G1 X110.806 Y102.739 E3.20271
G1 X110.944 Y102.622 E3.20961
G1 X111.099 Y102.527 E3.2165
G1 X111.267 Y102.457 E3.2234
G1 X111.443 Y102.415 E3.2303
G1 X111.638 Y102.4 E3.23772
G1 X218.362 Y102.4 E7.29393
G1 X218.533 Y102.413 E7.30042
G1 X218.733 Y102.457 E7.30824
G1 X218.901 Y102.527 E7.31513
G1 X219.056 Y102.622 E7.32203
G1 X219.194 Y102.739 E7.32893
G1 X219.312 Y102.877 E7.33583
G1 X219.406 Y103.032 E7.34272
G1 X219.476 Y103.2 E7.34962
G1 X219.518 Y103.376 E7.35652
G1 X219.534 Y103.571 E7.36394
G1 X219.534 Y146.792 E9.00663
G1 X219.516 Y147.003 E9.01464
G1 X219.466 Y147.192 E9.02209
G1 X219.386 Y147.371 E9.02953
G1 X219.276 Y147.533 E9.03698
G1 X219.141 Y147.675 E9.04443
G1 X218.983 Y147.791 E9.05187
G1 X218.809 Y147.88 E9.05932
G1 X218.61 Y147.941 E9.06723
G1 X211.057 Y149.46 E9.36001
G1 X203.45 Y150.75 E9.65325
G1 X195.807 Y151.807 E9.9465
G1 X188.136 Y152.63 E10.23975
G1 X180.817 Y153.207 E10.51875
G1 X180.57 Y153.438 E10.53164
G1 X180.52 Y153.688 E10.54132
G1 X180.512 Y161.263 E10.8292
G1 X180.473 Y161.381 E10.83393
G1 X180.4 Y161.481 E10.83864
G1 X180.3 Y161.554 E10.84336
G1 X180.182 Y161.593 E10.84808
G1 X149.907 Y161.602 E11.9987
G1 X149.757 Y161.578 E12.00448
G1 X149.634 Y161.515 E12.00973
G1 X149.527 Y161.381 E12.01628
G1 X149.488 Y161.263 E12.021
G1 X149.48 Y153.688 E12.30888
G1 X149.43 Y153.438 E12.31857
;WIPE_START
M204 S3000
G1 X149.599 Y153.076 F9000
;WIPE_END
M204 S1000
G1 X149.863 Y153.27
;TYPE:Internal perimeter
G1 F1800
G1 X149.85 Y153.205 E12.32107
G1 X149.378 Y152.763 E12.34563
G1 X141.907 Y152.175 E12.63047
G1 X134.248 Y151.353 E12.92322
G1 X126.619 Y150.298 E13.21593
G1 X119.026 Y149.011 E13.50864
G1 X111.503 Y147.497 E13.80029
G1 X111.363 Y147.454 E13.80585
G1 X111.163 Y147.331 E13.8148
G1 X111.015 Y147.147 E13.82375
G1 X110.966 Y147.039 E13.82825
G1 X110.923 Y146.773 E13.8385
G1 X110.923 Y103.589 E15.47977
G1 X110.96 Y103.341 E15.48928
G1 X111.059 Y103.147 E15.49758
G1 X111.214 Y102.993 E15.50588
G1 X111.408 Y102.893 E15.51418
G1 X111.656 Y102.857 E15.52368
G1 X218.465 Y102.866 E19.58312
M73 P1 R99
G1 X218.693 Y102.935 E19.59216
G1 X218.786 Y102.993 E19.59633
G1 X218.941 Y103.147 E19.60463
G1 X219.04 Y103.341 E19.61293
G1 X219.077 Y103.589 E19.62243
G1 X219.077 Y146.773 E21.2637
G1 X219.064 Y146.925 E21.2695
G1 X218.985 Y147.147 E21.27845
G1 X218.837 Y147.331 E21.28741
G1 X218.637 Y147.454 E21.29636
G1 X218.497 Y147.497 E21.30192
G1 X210.974 Y149.011 E21.59357
G1 X203.381 Y150.298 E21.88628
G1 X195.752 Y151.353 E22.17899
G1 X188.093 Y152.175 E22.47174
G1 X180.622 Y152.763 E22.75658
G1 X180.15 Y153.205 E22.78114
G1 X180.063 Y153.643 E22.79811
G1 X180.055 Y161.136 E23.08287
G1 X149.945 Y161.145 E24.22724
G1 X149.937 Y153.643 E24.51235
G1 X149.863 Y153.27 E24.52682
G1 X150.295 Y153.101 F9000
G1 F1800
G1 X150.27 Y152.972 E24.53182
G1 X149.574 Y152.32 E24.56806
G1 X141.949 Y151.72 E24.85874
G1 X134.304 Y150.9 E25.15097
G1 X126.689 Y149.846 E25.44316
G1 X119.109 Y148.561 E25.73534
G1 X111.615 Y147.054 E26.02585
G1 X111.469 Y146.983 E26.03203
G1 X111.408 Y146.906 E26.03575
G1 X111.381 Y146.737 E26.04228
G1 X111.381 Y103.623 E27.6809
G1 X111.401 Y103.482 E27.68628
G1 X111.434 Y103.419 E27.68899
G1 X111.549 Y103.335 E27.69443
G1 X111.689 Y103.314 E27.69981
G1 X218.397 Y103.323 E31.75539
G1 X218.503 Y103.355 E31.75957
G1 X218.566 Y103.419 E31.763
G1 X218.599 Y103.482 E31.7657
G1 X218.619 Y103.623 E31.77109
G1 X218.619 Y146.754 E33.41034
G1 X218.58 Y146.921 E33.41688
G1 X218.531 Y146.983 E33.41989
G1 X218.447 Y147.035 E33.42364
G1 X210.891 Y148.561 E33.71661
G1 X203.311 Y149.846 E34.00879
G1 X195.696 Y150.9 E34.30097
G1 X188.051 Y151.72 E34.59321
G1 X180.426 Y152.32 E34.88388
G1 X179.73 Y152.972 E34.92013
G1 X179.606 Y153.598 E34.94439
G1 X179.598 Y160.679 E35.21349
G1 X150.402 Y160.687 E36.32315
G1 X150.394 Y153.598 E36.5926
G1 X150.295 Y153.101 E36.61186
G92 E0
G1 E-0.8 F2400
G1 X217.627 Y103.392 F9000
G1 E0 F1800
;TYPE:Solid infill
;WIDTH:0.498458
G1 F2400
G1 X218.551 Y104.316 E0.0495
G1 X218.551 Y104.962 F9000
G1 F2400
G1 X216.981 Y103.392 E0.13364
G1 X216.334 Y103.392 F9000
G1 F2400
G1 X218.551 Y105.609 E0.25241
G1 X218.551 Y106.255 F9000
G1 F2400
G1 X215.688 Y103.392 E0.40581
G1 X215.042 Y103.392 F9000
G1 F2400
G1 X218.551 Y106.901 E0.59385
G1 X218.551 Y107.548 F9000
G1 F2400
G1 X214.395 Y103.392 E0.81652
G1 X213.749 Y103.392 F9000
G1 F2400
G1 X218.551 Y108.194 E1.07382
G1 X218.551 Y108.841 F9000
G1 F2400
G1 X213.103 Y103.392 E1.36576
G1 X212.456 Y103.392 F9000
G1 F2400
G1 X218.551 Y109.487 E1.69233
G1 X218.551 Y110.133 F9000
G1 F2400
G1 X211.81 Y103.393 E2.05353
G1 X211.164 Y103.393 F9000
G1 F2400
G1 X218.551 Y110.78 E2.44936
G1 X218.551 Y111.426 F9000
G1 F2400
G1 X210.517 Y103.393 E2.87983
G1 X209.871 Y103.393 F9000
G1 F2400
G1 X218.551 Y112.073 E3.34493
G1 X218.551 Y112.719 F9000
G1 F2400
G1 X209.225 Y103.393 E3.84466
G1 X208.578 Y103.393 F9000
G1 F2400
G1 X218.551 Y113.365 E4.37903
G1 X218.551 Y114.012 F9000
G1 F2400
G1 X207.932 Y103.393 E4.94803
G1 X207.286 Y103.393 F9000
G1 F2400
G1 X218.551 Y114.658 E5.55166
G1 X218.551 Y115.305 F9000
G1 F2400
G1 X206.639 Y103.393 E6.18992
G1 X205.993 Y103.393 F9000
G1 F2400
G1 X218.551 Y115.951 E6.86282
G1 X218.551 Y116.598 F9000
M73 P1 R98
G1 F2400
G1 X205.347 Y103.393 E7.57035
G1 X204.7 Y103.393 F9000
G1 F2400
G1 X218.551 Y117.244 E8.31252
G1 X218.551 Y117.89 F9000
G1 F2400
G1 X204.054 Y103.393 E9.08932
G1 X203.408 Y103.393 F9000
G1 F2400
G1 X218.551 Y118.537 E9.90075
G1 X218.551 Y119.183 F9000
G1 F2400
G1 X202.761 Y103.393 E10.74681
G1 X202.115 Y103.394 F9000
G1 F2400
G1 X218.551 Y119.83 E11.62751
G1 X218.551 Y120.476 F9000
G1 F2400
G1 X201.469 Y103.394 E12.54283
G1 X200.822 Y103.394 F9000
G1 F2400
G1 X218.551 Y121.122 E13.4928
G1 X218.551 Y121.769 F9000
G1 F2400
G1 X200.176 Y103.394 E14.47739
G1 X199.53 Y103.394 F9000
G1 F2400
G1 X218.551 Y122.415 E15.49662
G1 X218.551 Y123.062 F9000
G1 F2400
G1 X198.883 Y103.394 E16.55048
G1 X198.237 Y103.394 F9000
G1 F2400
G1 X218.551 Y123.708 E17.63897
G1 X218.551 Y124.354 F9000
G1 F2400
G1 X197.591 Y103.394 E18.7621
G1 X196.944 Y103.394 F9000
G1 F2400
G1 X218.551 Y125.001 E19.91986
G1 X218.551 Y125.647 F9000
G1 F2400
G1 X196.298 Y103.394 E21.11226
G1 X195.652 Y103.394 F9000
G1 F2400
G1 X218.551 Y126.294 E22.33928
G1 X218.551 Y126.94 F9000
G1 F2400
G1 X195.005 Y103.394 E23.60094
G1 X194.359 Y103.394 F9000
G1 F2400
G1 X218.551 Y127.586 E24.89723
G1 X218.551 Y128.233 F9000
G1 F2400
G1 X193.712 Y103.394 E26.22816
G1 X193.066 Y103.395 F9000
G1 F2400
G1 X218.551 Y128.879 E27.59372
G1 X218.551 Y129.526 F9000
G1 F2400
G1 X192.42 Y103.395 E28.99391
G1 X191.773 Y103.395 F9000
G1 F2400
G1 X218.551 Y130.172 E30.42873
G1 X218.551 Y130.818 F9000
G1 F2400
G1 X191.127 Y103.395 E31.89819
G1 X190.481 Y103.395 F9000
G1 F2400
G1 X218.551 Y131.465 E33.40228
G1 X218.551 Y132.111 F9000
G1 F2400
G1 X189.834 Y103.395 E34.941
G1 X189.188 Y103.395 F9000
G1 F2400
G1 X218.551 Y132.758 E36.51436
G1 X218.551 Y133.404 F9000
G1 F2400
G1 X188.542 Y103.395 E38.12235
G1 X187.895 Y103.395 F9000
G1 F2400
G1 X218.551 Y134.051 E39.76497
G1 X218.551 Y134.697 F9000
G1 F2400
G1 X187.249 Y103.395 E41.44222
G1 X186.603 Y103.395 F9000
G1 F2400
G1 X218.551 Y135.343 E43.15411
G1 X218.551 Y135.99 F9000
G1 F2400
G1 X185.956 Y103.395 E44.90063
G1 X185.31 Y103.395 F9000
G1 F2400
G1 X218.551 Y136.636 E46.68179
G1 X218.551 Y137.283 F9000
G1 F2400
G1 X184.664 Y103.395 E48.49757
G1 X184.017 Y103.395 F9000
G1 F2400
G1 X218.551 Y137.929 E50.34799
G1 X218.551 Y138.575 F9000
G1 F2400
G1 X183.371 Y103.396 E52.23305
G1 X182.725 Y103.396 F9000
G1 F2400
G1 X218.551 Y139.222 E54.15273
G1 X218.551 Y139.868 F9000
G1 F2400
G1 X182.078 Y103.396 E56.10705
G1 X181.432 Y103.396 F9000
G1 F2400
G1 X218.551 Y140.515 E58.096
M73 P2 R98
G1 X218.551 Y141.161 F9000
G1 F2400
G1 X180.786 Y103.396 E60.11959
G1 X180.139 Y103.396 F9000
G1 F2400
G1 X218.551 Y141.807 E62.17781
G1 X218.551 Y142.454 F9000
G1 F2400
G1 X179.493 Y103.396 E64.27066
G1 X178.847 Y103.396 F9000
G1 F2400
G1 X218.551 Y143.1 E66.39814
G1 X218.551 Y143.747 F9000
G1 F2400
G1 X178.2 Y103.396 E68.56026
G1 X177.554 Y103.396 F9000
G1 F2400
G1 X218.551 Y144.393 E70.75701
G1 X218.551 Y145.039 F9000
G1 F2400
G1 X176.908 Y103.396 E72.98839
G1 X176.261 Y103.396 F9000
G1 F2400
G1 X218.551 Y145.686 E75.25441
G1 X218.551 Y146.332 F9000
G1 F2400
G1 X175.615 Y103.396 E77.55506
G1 X174.969 Y103.396 F9000
G1 F2400
G1 X218.522 Y146.95 E79.88878
G1 X217.984 Y147.058 F9000
G1 F2400
G1 X174.322 Y103.396 E82.22831
G1 X173.676 Y103.397 F9000
G1 F2400
G1 X217.446 Y147.167 E84.57367
G1 X216.908 Y147.275 F9000
G1 F2400
G1 X173.03 Y103.397 E86.92484
G1 X172.383 Y103.397 F9000
G1 F2400
G1 X216.371 Y147.384 E89.28184
G1 X215.833 Y147.493 F9000
G1 F2400
G1 X171.737 Y103.397 E91.64464
G1 X171.091 Y103.397 F9000
G1 F2400
G1 X215.295 Y147.601 E94.01327
M73 P2 R97
G1 X214.757 Y147.71 F9000
G1 F2400
G1 X170.444 Y103.397 E96.38771
G1 X169.798 Y103.397 F9000
G1 F2400
G1 X214.22 Y147.819 E98.76797
G1 X213.682 Y147.927 F9000
G1 F2400
G1 X169.152 Y103.397 E101.15405
G1 X168.505 Y103.397 F9000
G1 F2400
G1 X213.144 Y148.036 E103.54595
G1 X212.606 Y148.145 F9000
G1 F2400
G1 X167.859 Y103.397 E105.94366
G1 X167.213 Y103.397 F9000
G1 F2400
G1 X212.069 Y148.253 E108.34719
G1 X211.531 Y148.362 F9000
G1 F2400
G1 X166.566 Y103.397 E110.75654
G1 X165.92 Y103.397 F9000
G1 F2400
G1 X210.993 Y148.47 E113.17171
G1 X210.443 Y148.567 F9000
G1 F2400
G1 X165.274 Y103.397 E115.59206
G1 X164.627 Y103.397 F9000
G1 F2400
G1 X209.891 Y148.661 E118.01744
G1 X209.338 Y148.755 F9000
G1 F2400
G1 X163.981 Y103.398 E120.44783
G1 X163.335 Y103.398 F9000
G1 F2400
G1 X208.785 Y148.849 E122.88324
G1 X208.233 Y148.942 F9000
G1 F2400
G1 X162.688 Y103.398 E125.32366
G1 X162.042 Y103.398 F9000
G1 F2400
G1 X207.68 Y149.036 E127.76911
G1 X207.127 Y149.13 F9000
G1 F2400
G1 X161.396 Y103.398 E130.21957
G1 X160.749 Y103.398 F9000
G1 F2400
G1 X206.575 Y149.223 E132.67505
G1 X206.022 Y149.317 F9000
G1 F2400
G1 X160.103 Y103.398 E135.13555
G1 X159.457 Y103.398 F9000
G1 F2400
G1 X205.469 Y149.411 E137.60107
G1 X204.917 Y149.505 F9000
G1 F2400
G1 X158.81 Y103.398 E140.0716
G1 X158.164 Y103.398 F9000
G1 F2400
G1 X204.364 Y149.598 E142.54715
G1 X203.811 Y149.692 F9000
G1 F2400
G1 X157.517 Y103.398 E145.02772
M73 P3 R97
G1 X156.871 Y103.398 F9000
G1 F2400
G1 X203.257 Y149.785 E147.51325
