; HEADER_BLOCK_START
; generated by OrcaSlicer 1.6.6 on 2023-08-26 at 16:40:36
; total layer number: 25
; HEADER_BLOCK_END

; THUMBNAIL_BLOCK_START
; THUMBNAIL_BLOCK_END

; external perimeters extrusion width = 0.40mm
; perimeters extrusion width = 0.45mm
; infill extrusion width = 0.45mm
; solid infill extrusion width = 0.40mm
; top infill extrusion width = 0.40mm
; support material extrusion width = 0.40mm
; first layer extrusion width = 0.50mm

; external perimeters extrusion width = 0.40mm
; perimeters extrusion width = 0.45mm
; infill extrusion width = 0.45mm
; solid infill extrusion width = 0.40mm
; top infill extrusion width = 0.40mm
; support material extrusion width = 0.40mm
; first layer extrusion width = 0.50mm

; external perimeters extrusion width = 0.40mm
; perimeters extrusion width = 0.45mm
; infill extrusion width = 0.45mm
; solid infill extrusion width = 0.40mm
; top infill extrusion width = 0.40mm
; support material extrusion width = 0.40mm
; first layer extrusion width = 0.50mm

; external perimeters extrusion width = 0.40mm
; perimeters extrusion width = 0.45mm
; infill extrusion width = 0.45mm
; solid infill extrusion width = 0.40mm
; top infill extrusion width = 0.40mm
; support material extrusion width = 0.40mm
; first layer extrusion width = 0.50mm

; EXECUTABLE_BLOCK_START
EXCLUDE_OBJECT_DEFINE NAME=BCW_Box_Divider.stl_id_0_copy_0 CENTER=155,234.2 POLYGON=[[100,246.8],[100.75,212.8],[209.25,212.8],[210,246.8],[210,250.8],[205.13,254.8],[204.13,255.6],[181.13,255.6],[100,250.8],[100,246.8]]
EXCLUDE_OBJECT_DEFINE NAME=BCW_Box_Divider.stl_id_1_copy_0 CENTER=155,181.4 POLYGON=[[100,194],[100.75,160],[209.25,160],[210,194],[210,198],[205.13,202],[204.13,202.8],[181.13,202.8],[100,198],[100,194]]
EXCLUDE_OBJECT_DEFINE NAME=BCW_Box_Divider.stl_id_2_copy_0 CENTER=155,128.6 POLYGON=[[100,141.2],[100.75,107.2],[209.25,107.2],[210,141.2],[210,145.2],[205.13,149.2],[204.13,150],[181.13,150],[100,145.2],[100,141.2]]
EXCLUDE_OBJECT_DEFINE NAME=BCW_Box_Divider.stl_id_3_copy_0 CENTER=155,75.8 POLYGON=[[100,88.4],[100.75,54.4],[209.25,54.4],[210,88.4],[210,92.4],[205.13,96.4],[204.13,97.2],[181.13,97.2],[100,92.4],[100,88.4]]
M73 P0 R118
;TYPE:Custom
START_PRINT T_BED=70 T_EXTRUDER=235
G90
G21
M83 ; use relative distances for extrusion
; Filament gcode
PRESSURE_ADVANCE_SELECT FILAMENT=PETG
M106 S0
;LAYER_CHANGE
;Z:0.2
;HEIGHT:0.2
;BEFORE_LAYER_CHANGE
;0.2
G92 E0

SET_VELOCITY_LIMIT ACCEL=1500 ACCEL_TO_DECEL=750
G1 E-.8 F3000
G1 Z.4 F9000
G1 X98.715 Y53.024
G1 Z.4
G1 Z.2
G1 E.8 F1800
;TYPE:Skirt
;WIDTH:0.5
G1 F3000
G1 X99.785 Y52.14 E.0501
G1 X100.75 Y51.943 E.03557
G1 X209.25 Y51.943 E3.9175
G1 X210.581 Y52.335 E.0501
G1 X211.488 Y53.385 E.0501
G1 X211.706 Y54.346 E.03557
G1 X212.457 Y88.4 E1.22986
G1 X212.457 Y250.8 E5.86362
G1 X212.065 Y252.131 E.0501
G1 X211.453 Y252.782 E.03226
G1 X205.396 Y257.222 E.27115
G1 X203.943 Y257.697 E.05519
G1 X181.182 Y257.693 E.82181
G1 X99.866 Y253.253 E2.94037
G1 X98.558 Y252.79 E.0501
G1 X97.71 Y251.691 E.0501
G1 X97.543 Y250.8 E.03274
G1 X97.543 Y88.4 E5.86362
G1 X98.294 Y54.346 E1.22986
G1 X98.703 Y53.062 E.04866
; printing object BCW_Box_Divider.stl id:0 copy 0
G1 E-.8
EXCLUDE_OBJECT_START NAME=BCW_Box_Divider.stl_id_0_copy_0
G1 Z.6 F9000
G1 X204.944 Y250.619 Z.6
G1 Z.2
G1 E.8 F1800
;TYPE:Outer wall
;WIDTH:0.499999
G1 F3000
G1 X204.88 Y250.779 E.0062
G1 X204.88 Y254.171 E.12248
G1 X203.856 Y254.99 E.04735
G1 X181.404 Y254.99 E.81064
G1 X180.38 Y254.171 E.04735
G1 X180.38 Y250.779 E.12248
G1 X180.312 Y250.616 E.00637
G1 X180.151 Y250.55 E.00626
G1 X100.25 Y250.55 E2.88491
G1 X100.25 Y247.05 E.12637
G1 X100.771 Y247.05 E.01883
G1 X100.925 Y246.991 E.00592
G1 X101 Y246.821 E.00671
G1 X101 Y213.05 E1.21935
G1 X209 Y213.05 E3.89944
G1 X209 Y246.821 E1.21935
G1 X209.075 Y246.991 E.00671
G1 X209.229 Y247.05 E.00592
G1 X209.75 Y247.05 E.01883
G1 X209.75 Y247.571 E.01883
G1 X209.75 Y250.55 E.10754
G1 X205.108 Y250.55 E.1676
G1 X204.981 Y250.604 E.00499
G1 X204.612 Y250.319 F9000
;TYPE:Inner wall
G1 F3000
G1 X204.477 Y250.511 E.00847
G1 X204.423 Y250.779 E.00987
G1 X204.423 Y253.951 E.11455
G1 X203.695 Y254.533 E.03363
G1 X181.564 Y254.533 E.79907
G1 X180.837 Y253.951 E.03363
G1 X180.837 Y250.779 E.11455
G1 X180.806 Y250.574 E.00746
G1 X180.687 Y250.35 E.00915
G1 X180.46 Y250.166 E.01055
G1 X180.151 Y250.093 E.01145
G1 X100.707 Y250.093 E2.8684
G1 X100.707 Y247.507 E.09336
G1 X101.231 Y247.331 E.01995
G1 X101.371 Y247.153 E.00817
G1 X101.457 Y246.821 E.01238
G1 X101.457 Y213.507 E1.20285
G1 X208.543 Y213.507 E3.86644
G1 X208.543 Y246.821 E1.20285
G1 X208.629 Y247.153 E.01238
G1 X208.769 Y247.331 E.00817
G1 X209.293 Y247.507 E.01995
G1 X209.293 Y247.571 E.00232
G1 X209.293 Y250.093 E.09104
G1 X205.271 Y250.093 E.1452
G1 X204.901 Y250.125 E.01344
G1 X204.643 Y250.275 E.01075
G1 X204.635 Y250.286 E.0005
G1 E-.8
G1 Z.6 F9000
G1 X207.47 Y213.653 Z.6
G1 Z.2
G1 E.8 F1800
;TYPE:Bottom surface
;WIDTH:0.501354
G1 F3000
G1 X208.191 Y214.374 E.03693
G1 X208.191 Y215.023 E.02348
G1 X207.027 Y213.859 E.0596
G1 X206.379 Y213.859 E.02348
G1 X208.191 Y215.671 E.0928
G1 X208.191 Y216.319 E.02348
G1 X205.731 Y213.859 E.12601
G1 X205.082 Y213.859 E.02348
G1 X208.191 Y216.968 E.15921
G1 X208.191 Y217.616 E.02348
G1 X204.434 Y213.859 E.19241
G1 X203.786 Y213.859 E.02348
G1 X208.191 Y218.264 E.22561
G1 X208.191 Y218.913 E.02348
G1 X203.137 Y213.859 E.25882
G1 X202.489 Y213.859 E.02348
G1 X208.191 Y219.561 E.29202
G1 X208.191 Y220.209 E.02348
G1 X201.841 Y213.859 E.32522
G1 X201.192 Y213.859 E.02348
G1 X208.191 Y220.858 E.35842
G1 X208.191 Y221.506 E.02348
G1 X200.544 Y213.859 E.39163
G1 X199.896 Y213.859 E.02348
G1 X208.191 Y222.154 E.42483
G1 X208.191 Y222.803 E.02348
G1 X199.247 Y213.859 E.45803
G1 X198.599 Y213.859 E.02348
G1 X208.191 Y223.451 E.49123
G1 X208.191 Y224.099 E.02348
G1 X197.951 Y213.859 E.52444
G1 X197.302 Y213.859 E.02348
G1 X208.191 Y224.748 E.55764
G1 X208.191 Y225.396 E.02348
G1 X196.654 Y213.859 E.59084
G1 X196.006 Y213.859 E.02348
G1 X208.191 Y226.044 E.62404
G1 X208.191 Y226.693 E.02348
G1 X195.357 Y213.859 E.65725
G1 X194.709 Y213.859 E.02348
G1 X208.191 Y227.341 E.69045
G1 X208.191 Y227.989 E.02348
G1 X194.061 Y213.859 E.72365
G1 X193.412 Y213.859 E.02348
G1 X208.191 Y228.638 E.75685
G1 X208.191 Y229.286 E.02348
G1 X192.764 Y213.859 E.79006
G1 X192.116 Y213.859 E.02348
G1 X208.191 Y229.934 E.82326
G1 X208.191 Y230.583 E.02348
G1 X191.467 Y213.859 E.85646
G1 X190.819 Y213.859 E.02348
G1 X208.191 Y231.231 E.88966
G1 X208.191 Y231.879 E.02348
G1 X190.171 Y213.859 E.92287
G1 X189.522 Y213.859 E.02348
G1 X208.191 Y232.528 E.95607
G1 X208.191 Y233.176 E.02348
G1 X188.874 Y213.859 E.98927
M73 P0 R117
G1 X188.226 Y213.859 E.02348
G1 X208.191 Y233.824 E1.02248
G1 X208.191 Y234.473 E.02348
G1 X187.577 Y213.859 E1.05568
G1 X186.929 Y213.859 E.02348
G1 X208.191 Y235.121 E1.08888
G1 X208.191 Y235.769 E.02348
G1 X186.281 Y213.859 E1.12208
G1 X185.633 Y213.859 E.02348
G1 X208.191 Y236.417 E1.15529
G1 X208.191 Y237.066 E.02348
G1 X184.984 Y213.859 E1.18849
G1 X184.336 Y213.859 E.02348
G1 X208.191 Y237.714 E1.22169
G1 X208.191 Y238.362 E.02348
G1 X183.688 Y213.859 E1.25489
G1 X183.039 Y213.859 E.02348
G1 X208.191 Y239.011 E1.2881
G1 X208.191 Y239.659 E.02348
G1 X182.391 Y213.859 E1.3213
G1 X181.743 Y213.859 E.02348
G1 X208.191 Y240.307 E1.3545
G1 X208.191 Y240.956 E.02348
G1 X181.094 Y213.859 E1.3877
G1 X180.446 Y213.859 E.02348
G1 X208.191 Y241.604 E1.42091
G1 X208.191 Y242.252 E.02348
G1 X179.798 Y213.859 E1.45411
G1 X179.149 Y213.859 E.02348
G1 X208.191 Y242.901 E1.48731
G1 X208.191 Y243.549 E.02348
G1 X178.501 Y213.859 E1.52051
G1 X177.853 Y213.859 E.02348
G1 X208.191 Y244.197 E1.55372
G1 X208.191 Y244.846 E.02348
G1 X177.204 Y213.859 E1.58692
G1 X176.556 Y213.859 E.02348
G1 X208.191 Y245.494 E1.62012
G1 X208.191 Y246.142 E.02348
G1 X175.908 Y213.859 E1.65332
G1 X175.259 Y213.859 E.02348
G1 X208.191 Y246.791 E1.68653
G1 X208.217 Y247.057 E.00971
G1 X208.32 Y247.326 E.01042
G1 X208.541 Y247.603 E.01283
G1 X208.941 Y247.757 E.01553
G1 X208.941 Y248.189 E.01563
G1 X174.611 Y213.859 E1.75814
G1 X173.963 Y213.859 E.02348
G1 X208.941 Y248.837 E1.79134
G1 X208.941 Y249.486 E.02348
G1 X173.314 Y213.859 E1.82454
G1 X172.666 Y213.859 E.02348
G1 X208.548 Y249.741 E1.83762
G1 X207.9 Y249.741 E.02348
G1 X172.018 Y213.859 E1.83762
G1 X171.369 Y213.859 E.02348
G1 X207.251 Y249.741 E1.83762
G1 X206.603 Y249.741 E.02348
G1 X170.721 Y213.859 E1.83762
G1 X170.073 Y213.859 E.02348
G1 X205.955 Y249.741 E1.83762
G1 X205.306 Y249.741 E.02348
G1 X169.424 Y213.859 E1.83762
G1 X168.776 Y213.859 E.02348
G1 X204.733 Y249.816 E1.84146
G1 X204.59 Y249.879 E.00566
G1 X204.453 Y249.973 E.00601
G1 X204.346 Y250.077 E.00541
G1 X168.128 Y213.859 E1.85484
G1 X167.479 Y213.859 E.02348
G1 X204.112 Y250.491 E1.87604
G1 X204.082 Y250.622 E.00486
G1 X204.08 Y251.108 E.01761
G1 X166.831 Y213.859 E1.90763
G1 X166.183 Y213.859 E.02348
G1 X204.078 Y251.754 E1.94072
M73 P1 R117
G1 X204.076 Y252.4 E.0234
G1 X165.534 Y213.859 E1.97381
G1 X164.886 Y213.859 E.02348
G1 X204.073 Y253.046 E2.0069
G1 X204.071 Y253.692 E.0234
G1 X164.238 Y213.859 E2.03998
G1 X163.59 Y213.859 E.02348
G1 X203.761 Y254.03 E2.05727
G1 X203.572 Y254.181 E.00875
G1 X203.263 Y254.181 E.01118
G1 X162.941 Y213.859 E2.065
G1 X162.293 Y213.859 E.02348
G1 X202.615 Y254.181 E2.065
G1 X201.966 Y254.181 E.02348
G1 X161.645 Y213.859 E2.065
G1 X160.996 Y213.859 E.02348
G1 X201.318 Y254.181 E2.065
G1 X200.67 Y254.181 E.02348
G1 X160.348 Y213.859 E2.065
G1 X159.7 Y213.859 E.02348
G1 X200.022 Y254.181 E2.065
G1 X199.373 Y254.181 E.02348
G1 X159.051 Y213.859 E2.065
G1 X158.403 Y213.859 E.02348
G1 X198.725 Y254.181 E2.065
G1 X198.077 Y254.181 E.02348
G1 X157.755 Y213.859 E2.065
G1 X157.106 Y213.859 E.02348
G1 X197.428 Y254.181 E2.065
G1 X196.78 Y254.181 E.02348
G1 X156.458 Y213.859 E2.065
G1 X155.81 Y213.859 E.02348
G1 X196.132 Y254.181 E2.065
G1 X195.483 Y254.181 E.02348
G1 X155.161 Y213.859 E2.065
G1 X154.513 Y213.859 E.02348
G1 X194.835 Y254.181 E2.065
G1 X194.187 Y254.181 E.02348
G1 X153.865 Y213.859 E2.065
G1 X153.216 Y213.859 E.02348
G1 X193.538 Y254.181 E2.065
G1 X192.89 Y254.181 E.02348
G1 X152.568 Y213.859 E2.065
G1 X151.92 Y213.859 E.02348
G1 X192.242 Y254.181 E2.065
G1 X191.593 Y254.181 E.02348
G1 X151.271 Y213.859 E2.065
G1 X150.623 Y213.859 E.02348
G1 X190.945 Y254.181 E2.065
M73 P1 R116
G1 X190.297 Y254.181 E.02348
G1 X149.975 Y213.859 E2.065
G1 X149.326 Y213.859 E.02348
G1 X189.648 Y254.181 E2.065
G1 X189 Y254.181 E.02348
G1 X148.678 Y213.859 E2.065
G1 X148.03 Y213.859 E.02348
G1 X188.352 Y254.181 E2.065
G1 X187.703 Y254.181 E.02348
G1 X147.381 Y213.859 E2.065
G1 X146.733 Y213.859 E.02348
G1 X187.055 Y254.181 E2.065
G1 X186.407 Y254.181 E.02348
G1 X146.085 Y213.859 E2.065
G1 X145.436 Y213.859 E.02348
G1 X185.758 Y254.181 E2.065
G1 X185.11 Y254.181 E.02348
G1 X144.788 Y213.859 E2.065
G1 X144.14 Y213.859 E.02348
G1 X180.023 Y249.742 E1.83766
G1 X180.203 Y249.742 E.00652
G1 X180.5 Y249.8 E.01097
G1 X180.766 Y249.942 E.0109
G1 X180.881 Y250.04 E.0055
G1 X181.009 Y250.194 E.00724
G1 X181.143 Y250.469 E.01109
G1 X181.189 Y250.769 E.011
G1 X181.189 Y250.908 E.00502
G1 X184.462 Y254.181 E.16762
G1 X183.813 Y254.181 E.02348
G1 X181.189 Y251.556 E.13442
G1 X181.189 Y252.205 E.02348
G1 X183.165 Y254.181 E.10122
G1 X182.517 Y254.181 E.02348
G1 X181.189 Y252.853 E.06801
G1 X181.189 Y253.501 E.02348
G1 X182.074 Y254.387 E.04535
G1 E-.8
G1 Z.6 F9000
G1 X179.58 Y249.948 Z.6
G1 Z.2
G1 E.8 F1800
G1 F3000
G1 X143.491 Y213.859 E1.8482
G1 X142.843 Y213.859 E.02348
G1 X178.726 Y249.742 E1.83766
G1 X178.078 Y249.742 E.02348
G1 X142.195 Y213.859 E1.83766
G1 X141.547 Y213.859 E.02348
G1 X177.429 Y249.742 E1.83766
G1 X176.781 Y249.742 E.02348
G1 X140.898 Y213.859 E1.83766
G1 X140.25 Y213.859 E.02348
G1 X176.133 Y249.742 E1.83766
G1 X175.484 Y249.742 E.02348
G1 X139.602 Y213.859 E1.83766
G1 X138.953 Y213.859 E.02348
G1 X174.836 Y249.742 E1.83766
G1 X174.188 Y249.742 E.02348
G1 X138.305 Y213.859 E1.83766
G1 X137.657 Y213.859 E.02348
G1 X173.539 Y249.742 E1.83766
G1 X172.891 Y249.742 E.02348
G1 X137.008 Y213.859 E1.83766
G1 X136.36 Y213.859 E.02348
G1 X172.243 Y249.742 E1.83766
G1 X171.594 Y249.742 E.02348
G1 X135.712 Y213.859 E1.83766
G1 X135.063 Y213.859 E.02348
G1 X170.946 Y249.742 E1.83766
G1 X170.298 Y249.742 E.02348
G1 X134.415 Y213.859 E1.83766
G1 X133.767 Y213.859 E.02348
G1 X169.649 Y249.742 E1.83766
G1 X169.001 Y249.742 E.02348
G1 X133.118 Y213.859 E1.83766
G1 X132.47 Y213.859 E.02348
G1 X168.353 Y249.742 E1.83766
G1 X167.704 Y249.742 E.02348
G1 X131.822 Y213.859 E1.83766
G1 X131.173 Y213.859 E.02348
G1 X167.056 Y249.742 E1.83766
G1 X166.408 Y249.742 E.02348
G1 X130.525 Y213.859 E1.83766
G1 X129.877 Y213.859 E.02348
G1 X165.759 Y249.742 E1.83766
G1 X165.111 Y249.742 E.02348
G1 X129.228 Y213.859 E1.83765
G1 X128.58 Y213.859 E.02348
G1 X164.463 Y249.742 E1.83765
G1 X163.814 Y249.742 E.02348
G1 X127.932 Y213.859 E1.83765
G1 X127.283 Y213.859 E.02348
G1 X163.166 Y249.742 E1.83765
G1 X162.518 Y249.742 E.02348
G1 X126.635 Y213.859 E1.83765
G1 X125.987 Y213.859 E.02348
G1 X161.869 Y249.742 E1.83765
M73 P2 R116
G1 X161.221 Y249.742 E.02348
G1 X125.338 Y213.859 E1.83765
G1 X124.69 Y213.859 E.02348
G1 X160.573 Y249.742 E1.83765
G1 X159.924 Y249.742 E.02348
G1 X124.042 Y213.859 E1.83765
G1 X123.393 Y213.859 E.02348
G1 X159.276 Y249.742 E1.83765
G1 X158.628 Y249.742 E.02348
G1 X122.745 Y213.859 E1.83765
G1 X122.097 Y213.859 E.02348
G1 X157.979 Y249.742 E1.83765
G1 X157.331 Y249.742 E.02348
G1 X121.448 Y213.859 E1.83765
G1 X120.8 Y213.859 E.02348
G1 X156.683 Y249.742 E1.83765
G1 X156.034 Y249.742 E.02348
G1 X120.152 Y213.859 E1.83765
G1 X119.503 Y213.859 E.02348
G1 X155.386 Y249.742 E1.83765
G1 X154.738 Y249.742 E.02348
G1 X118.855 Y213.859 E1.83765
G1 X118.207 Y213.859 E.02348
G1 X154.089 Y249.742 E1.83765
G1 X153.441 Y249.742 E.02348
G1 X117.559 Y213.859 E1.83765
G1 X116.91 Y213.859 E.02348
G1 X152.793 Y249.742 E1.83765
G1 X152.144 Y249.742 E.02348
G1 X116.262 Y213.859 E1.83765
G1 X115.614 Y213.859 E.02348
G1 X151.496 Y249.742 E1.83765
M73 P2 R115
G1 X150.848 Y249.742 E.02348
G1 X114.965 Y213.859 E1.83765
G1 X114.317 Y213.859 E.02348
G1 X150.199 Y249.742 E1.83765
G1 X149.551 Y249.742 E.02348
G1 X113.669 Y213.859 E1.83765
G1 X113.02 Y213.859 E.02348
G1 X148.903 Y249.741 E1.83765
G1 X148.254 Y249.741 E.02348
G1 X112.372 Y213.859 E1.83765
G1 X111.724 Y213.859 E.02348
G1 X147.606 Y249.741 E1.83765
G1 X146.958 Y249.741 E.02348
G1 X111.075 Y213.859 E1.83764
G1 X110.427 Y213.859 E.02348
G1 X146.309 Y249.741 E1.83764
G1 X145.661 Y249.741 E.02348
G1 X109.779 Y213.859 E1.83764
G1 X109.13 Y213.859 E.02348
G1 X145.013 Y249.741 E1.83764
G1 X144.364 Y249.741 E.02348
G1 X108.482 Y213.859 E1.83764
G1 X107.834 Y213.859 E.02348
G1 X143.716 Y249.741 E1.83764
G1 X143.068 Y249.741 E.02348
G1 X107.185 Y213.859 E1.83764
G1 X106.537 Y213.859 E.02348
G1 X142.419 Y249.741 E1.83764
G1 X141.771 Y249.741 E.02348
G1 X105.889 Y213.859 E1.83764
G1 X105.24 Y213.859 E.02348
G1 X141.123 Y249.741 E1.83764
G1 X140.474 Y249.741 E.02348
G1 X104.592 Y213.859 E1.83764
G1 X103.944 Y213.859 E.02348
G1 X139.826 Y249.741 E1.83764
G1 X139.178 Y249.741 E.02348
G1 X103.295 Y213.859 E1.83764
G1 X102.647 Y213.859 E.02348
G1 X138.529 Y249.741 E1.83764
G1 X137.881 Y249.741 E.02348
G1 X101.999 Y213.859 E1.83764
G1 X101.809 Y213.859 E.00687
G1 X101.809 Y214.318 E.01661
G1 X137.233 Y249.741 E1.81415
G1 X136.584 Y249.741 E.02348
G1 X101.809 Y214.966 E1.78095
G1 X101.809 Y215.614 E.02348
G1 X135.936 Y249.741 E1.74775
G1 X135.288 Y249.741 E.02348
G1 X101.809 Y216.263 E1.71455
G1 X101.809 Y216.911 E.02348
G1 X134.639 Y249.741 E1.68134
G1 X133.991 Y249.741 E.02348
G1 X101.809 Y217.559 E1.64814
G1 X101.809 Y218.208 E.02348
G1 X133.343 Y249.741 E1.61494
G1 X132.694 Y249.741 E.02348
G1 X101.809 Y218.856 E1.58173
G1 X101.809 Y219.504 E.02348
G1 X132.046 Y249.741 E1.54853
G1 X131.398 Y249.741 E.02348
G1 X101.809 Y220.153 E1.51533
G1 X101.809 Y220.801 E.02348
G1 X130.749 Y249.741 E1.48213
G1 X130.101 Y249.741 E.02348
