; HEADER_BLOCK_START
; generated by OrcaSlicer 1.6.6 on 2023-08-26 at 16:40:12
; total layer number: 200
; HEADER_BLOCK_END

; THUMBNAIL_BLOCK_START
; THUMBNAIL_BLOCK_END

; external perimeters extrusion width = 0.40mm
; perimeters extrusion width = 0.45mm
; infill extrusion width = 0.45mm
; solid infill extrusion width = 0.40mm
; top infill extrusion width = 0.40mm
; support material extrusion width = 0.40mm
; first layer extrusion width = 0.50mm

; EXECUTABLE_BLOCK_START
EXCLUDE_OBJECT_DEFINE NAME=BCW_Box_with_Notches.stl_id_0_copy_0 CENTER=155,155 POLYGON=[[100,45],[210,45],[210,265],[100,265],[100,45]]
M73 P0 R229
;TYPE:Custom
START_PRINT T_BED=70 T_EXTRUDER=235
G90
G21
M83 ; use relative distances for extrusion
; Filament gcode
PRESSURE_ADVANCE_SELECT FILAMENT=PETG
M106 S0
;LAYER_CHANGE
;Z:0.2
;HEIGHT:0.2
;BEFORE_LAYER_CHANGE
;0.2
G92 E0

SET_VELOCITY_LIMIT ACCEL=1500 ACCEL_TO_DECEL=750
G1 E-.8 F3000
G1 Z.4 F9000
G1 X97.935 Y43.669
G1 Z.4
G1 Z.2
G1 E.8 F1800
;TYPE:Skirt
;WIDTH:0.5
G1 F3000
G1 X98.985 Y42.762 E.0501
G1 X100 Y42.543 E.03748
G1 X210 Y42.543 E3.97166
G1 X211.331 Y42.935 E.0501
G1 X212.238 Y43.985 E.0501
G1 X212.457 Y45 E.03748
G1 X212.457 Y265 E7.94332
M73 P0 R228
G1 X212.065 Y266.331 E.0501
G1 X211.015 Y267.238 E.0501
G1 X210 Y267.457 E.03748
G1 X100 Y267.457 E3.97166
G1 X98.669 Y267.065 E.0501
G1 X97.762 Y266.015 E.0501
G1 X97.543 Y265 E.03748
G1 X97.543 Y45 E7.94332
G1 X97.923 Y43.707 E.04866
; printing object BCW_Box_with_Notches.stl id:0 copy 0
G1 E-.8
EXCLUDE_OBJECT_START NAME=BCW_Box_with_Notches.stl_id_0_copy_0
G1 Z.6 F9000
G1 X100.25 Y45.25 Z.6
G1 Z.2
G1 E.8 F1800
;TYPE:Outer wall
;WIDTH:0.499999
G1 F3000
G1 X209.75 Y45.25 E3.9536
G1 X209.75 Y100 E1.9768
G1 X209.75 Y264.75 E5.94846
G1 X100.25 Y264.75 E3.9536
G1 X100.25 Y45.29 E7.92381
G1 X100.707 Y45.707 F9000
;TYPE:Inner wall
G1 F3000
G1 X209.293 Y45.707 E3.9206
G1 X209.293 Y100 E1.9603
G1 X209.293 Y264.293 E5.93195
G1 X100.707 Y264.293 E3.9206
G1 X100.707 Y45.747 E7.89081
G1 E-.8
G1 Z.6 F9000
G1 X208.222 Y45.853 Z.6
G1 Z.2
G1 E.8 F1800
;TYPE:Bottom surface
;WIDTH:0.500338
G1 F3000
G1 X208.941 Y46.572 E.03674
G1 X208.941 Y47.219 E.02337
G1 X207.781 Y46.059 E.05929
G1 X207.134 Y46.059 E.02337
G1 X208.941 Y47.866 E.09234
G1 X208.941 Y48.513 E.02337
G1 X206.487 Y46.059 E.1254
G1 X205.84 Y46.059 E.02337
G1 X208.941 Y49.16 E.15845
G1 X208.941 Y49.807 E.02337
G1 X205.193 Y46.059 E.19151
G1 X204.546 Y46.059 E.02337
G1 X208.941 Y50.454 E.22456
G1 X208.941 Y51.101 E.02337
G1 X203.899 Y46.059 E.25762
G1 X203.253 Y46.059 E.02337
G1 X208.941 Y51.747 E.29067
G1 X208.941 Y52.394 E.02337
G1 X202.606 Y46.059 E.32373
G1 X201.959 Y46.059 E.02337
G1 X208.941 Y53.041 E.35679
G1 X208.941 Y53.688 E.02337
G1 X201.312 Y46.059 E.38984
G1 X200.665 Y46.059 E.02337
G1 X208.941 Y54.335 E.4229
G1 X208.941 Y54.982 E.02337
G1 X200.018 Y46.059 E.45595
G1 X199.371 Y46.059 E.02337
G1 X208.941 Y55.629 E.48901
G1 X208.941 Y56.276 E.02337
G1 X198.724 Y46.059 E.52206
G1 X198.077 Y46.059 E.02337
G1 X208.941 Y56.923 E.55512
G1 X208.941 Y57.569 E.02337
G1 X197.431 Y46.059 E.58817
G1 X196.784 Y46.059 E.02337
G1 X208.941 Y58.216 E.62123
G1 X208.941 Y58.863 E.02337
G1 X196.137 Y46.059 E.65429
G1 X195.49 Y46.059 E.02337
G1 X208.941 Y59.51 E.68734
G1 X208.941 Y60.157 E.02337
G1 X194.843 Y46.059 E.7204
G1 X194.196 Y46.059 E.02337
G1 X208.941 Y60.804 E.75345
G1 X208.941 Y61.451 E.02337
G1 X193.549 Y46.059 E.78651
G1 X192.902 Y46.059 E.02337
G1 X208.941 Y62.098 E.81956
G1 X208.941 Y62.745 E.02337
G1 X192.255 Y46.059 E.85262
G1 X191.609 Y46.059 E.02337
G1 X208.941 Y63.391 E.88567
G1 X208.941 Y64.038 E.02337
G1 X190.962 Y46.059 E.91873
G1 X190.315 Y46.059 E.02337
G1 X208.941 Y64.685 E.95179
G1 X208.941 Y65.332 E.02337
G1 X189.668 Y46.059 E.98484
G1 X189.021 Y46.059 E.02337
G1 X208.941 Y65.979 E1.0179
G1 X208.941 Y66.626 E.02337
G1 X188.374 Y46.059 E1.05095
G1 X187.727 Y46.059 E.02337
G1 X208.941 Y67.273 E1.08401
G1 X208.941 Y67.92 E.02337
G1 X187.08 Y46.059 E1.11706
G1 X186.434 Y46.059 E.02337
G1 X208.941 Y68.566 E1.15012
G1 X208.941 Y69.213 E.02337
G1 X185.787 Y46.059 E1.18317
G1 X185.14 Y46.059 E.02337
G1 X208.941 Y69.86 E1.21623
G1 X208.941 Y70.507 E.02337
G1 X184.493 Y46.059 E1.24928
G1 X183.846 Y46.059 E.02337
G1 X208.941 Y71.154 E1.28234
G1 X208.941 Y71.801 E.02337
G1 X183.199 Y46.059 E1.3154
G1 X182.552 Y46.059 E.02337
G1 X208.941 Y72.448 E1.34845
G1 X208.941 Y73.095 E.02337
G1 X181.905 Y46.059 E1.38151
G1 X181.258 Y46.059 E.02337
G1 X208.941 Y73.742 E1.41456
G1 X208.941 Y74.388 E.02337
G1 X180.612 Y46.059 E1.44762
G1 X179.965 Y46.059 E.02337
G1 X208.941 Y75.035 E1.48067
G1 X208.941 Y75.682 E.02337
G1 X179.318 Y46.059 E1.51373
M73 P0 R227
G1 X178.671 Y46.059 E.02337
G1 X208.941 Y76.329 E1.54678
G1 X208.941 Y76.976 E.02337
G1 X178.024 Y46.059 E1.57984
G1 X177.377 Y46.059 E.02337
G1 X208.941 Y77.623 E1.6129
G1 X208.941 Y78.27 E.02337
G1 X176.73 Y46.059 E1.64595
G1 X176.083 Y46.059 E.02337
G1 X208.941 Y78.917 E1.67901
G1 X208.941 Y79.564 E.02337
G1 X175.436 Y46.059 E1.71206
G1 X174.79 Y46.059 E.02337
G1 X208.941 Y80.21 E1.74512
G1 X208.941 Y80.857 E.02337
G1 X174.143 Y46.059 E1.77817
G1 X173.496 Y46.059 E.02337
G1 X208.941 Y81.504 E1.81123
G1 X208.941 Y82.151 E.02337
G1 X172.849 Y46.059 E1.84428
G1 X172.202 Y46.059 E.02337
G1 X208.941 Y82.798 E1.87734
G1 X208.941 Y83.445 E.02337
G1 X171.555 Y46.059 E1.9104
G1 X170.908 Y46.059 E.02337
G1 X208.941 Y84.092 E1.94345
G1 X208.941 Y84.739 E.02337
G1 X170.261 Y46.059 E1.97651
G1 X169.614 Y46.059 E.02337
G1 X208.941 Y85.386 E2.00956
G1 X208.941 Y86.032 E.02337
G1 X168.968 Y46.059 E2.04262
G1 X168.321 Y46.059 E.02337
G1 X208.941 Y86.679 E2.07567
G1 X208.941 Y87.326 E.02337
G1 X167.674 Y46.059 E2.10873
G1 X167.027 Y46.059 E.02337
G1 X208.941 Y87.973 E2.14178
G1 X208.941 Y88.62 E.02337
G1 X166.38 Y46.059 E2.17484
G1 X165.733 Y46.059 E.02337
G1 X208.941 Y89.267 E2.2079
G1 X208.941 Y89.914 E.02337
G1 X165.086 Y46.059 E2.24095
G1 X164.439 Y46.059 E.02337
G1 X208.941 Y90.561 E2.27401
G1 X208.941 Y91.208 E.02337
G1 X163.792 Y46.059 E2.30706
G1 X163.146 Y46.059 E.02337
G1 X208.941 Y91.854 E2.34012
G1 X208.941 Y92.501 E.02337
G1 X162.499 Y46.059 E2.37317
G1 X161.852 Y46.059 E.02337
G1 X208.941 Y93.148 E2.40623
G1 X208.941 Y93.795 E.02337
G1 X161.205 Y46.059 E2.43928
G1 X160.558 Y46.059 E.02337
G1 X208.941 Y94.442 E2.47234
G1 X208.941 Y95.089 E.02337
G1 X159.911 Y46.059 E2.50539
G1 X159.264 Y46.059 E.02337
G1 X208.941 Y95.736 E2.53845
G1 X208.941 Y96.383 E.02337
G1 X158.617 Y46.059 E2.57151
G1 X157.97 Y46.059 E.02337
G1 X208.941 Y97.03 E2.60456
G1 X208.941 Y97.676 E.02337
G1 X157.324 Y46.059 E2.63762
G1 X156.677 Y46.059 E.02337
G1 X208.941 Y98.323 E2.67067
G1 X208.941 Y98.97 E.02337
G1 X156.03 Y46.059 E2.70373
G1 X155.383 Y46.059 E.02337
G1 X208.941 Y99.617 E2.73678
G1 X208.941 Y100.264 E.02337
G1 X154.736 Y46.059 E2.76984
G1 X154.089 Y46.059 E.02337
G1 X208.941 Y100.911 E2.80289
G1 X208.941 Y101.558 E.02337
G1 X153.442 Y46.059 E2.83595
G1 X152.795 Y46.059 E.02337
G1 X208.941 Y102.205 E2.86901
G1 X208.941 Y102.851 E.02337
G1 X152.149 Y46.059 E2.90206
G1 X151.502 Y46.059 E.02337
G1 X208.941 Y103.498 E2.93512
G1 X208.941 Y104.145 E.02337
G1 X150.855 Y46.059 E2.96817
G1 X150.208 Y46.059 E.02337
G1 X208.941 Y104.792 E3.00123
G1 X208.941 Y105.439 E.02337
G1 X149.561 Y46.059 E3.03428
M73 P0 R226
G1 X148.914 Y46.059 E.02337
G1 X208.941 Y106.086 E3.06734
G1 X208.941 Y106.733 E.02337
G1 X148.267 Y46.059 E3.10039
G1 X147.62 Y46.059 E.02337
G1 X208.941 Y107.38 E3.13345
G1 X208.941 Y108.027 E.02337
G1 X146.973 Y46.059 E3.16651
G1 X146.327 Y46.059 E.02337
G1 X208.941 Y108.673 E3.19956
G1 X208.941 Y109.32 E.02337
G1 X145.68 Y46.059 E3.23262
G1 X145.033 Y46.059 E.02337
G1 X208.941 Y109.967 E3.26567
M73 P1 R226
G1 X208.941 Y110.614 E.02337
G1 X144.386 Y46.059 E3.29873
G1 X143.739 Y46.059 E.02337
G1 X208.941 Y111.261 E3.33178
G1 X208.941 Y111.908 E.02337
G1 X143.092 Y46.059 E3.36484
G1 X142.445 Y46.059 E.02337
G1 X208.941 Y112.555 E3.39789
G1 X208.941 Y113.202 E.02337
G1 X141.798 Y46.059 E3.43095
G1 X141.151 Y46.059 E.02337
G1 X208.941 Y113.849 E3.46401
G1 X208.941 Y114.495 E.02337
G1 X140.505 Y46.059 E3.49706
G1 X139.858 Y46.059 E.02337
G1 X208.941 Y115.142 E3.53012
G1 X208.941 Y115.789 E.02337
G1 X139.211 Y46.059 E3.56317
G1 X138.564 Y46.059 E.02337
G1 X208.941 Y116.436 E3.59623
G1 X208.941 Y117.083 E.02337
G1 X137.917 Y46.059 E3.62928
G1 X137.27 Y46.059 E.02337
G1 X208.941 Y117.73 E3.66234
G1 X208.941 Y118.377 E.02337
G1 X136.623 Y46.059 E3.69539
G1 X135.976 Y46.059 E.02337
G1 X208.941 Y119.024 E3.72845
G1 X208.941 Y119.671 E.02337
G1 X135.329 Y46.059 E3.7615
G1 X134.683 Y46.059 E.02337
G1 X208.941 Y120.317 E3.79456
G1 X208.941 Y120.964 E.02337
G1 X134.036 Y46.059 E3.82762
G1 X133.389 Y46.059 E.02337
G1 X208.941 Y121.611 E3.86067
G1 X208.941 Y122.258 E.02337
G1 X132.742 Y46.059 E3.89373
G1 X132.095 Y46.059 E.02337
G1 X208.941 Y122.905 E3.92678
G1 X208.941 Y123.552 E.02337
G1 X131.448 Y46.059 E3.95984
G1 X130.801 Y46.059 E.02337
G1 X208.941 Y124.199 E3.99289
G1 X208.941 Y124.846 E.02337
G1 X130.154 Y46.059 E4.02595
M73 P1 R225
G1 X129.507 Y46.059 E.02337
G1 X208.941 Y125.493 E4.059
G1 X208.941 Y126.139 E.02337
G1 X128.861 Y46.059 E4.09206
G1 X128.214 Y46.059 E.02337
G1 X208.941 Y126.786 E4.12512
G1 X208.941 Y127.433 E.02337
G1 X127.567 Y46.059 E4.15817
G1 X126.92 Y46.059 E.02337
G1 X208.941 Y128.08 E4.19123
G1 X208.941 Y128.727 E.02337
G1 X126.273 Y46.059 E4.22428
G1 X125.626 Y46.059 E.02337
G1 X208.941 Y129.374 E4.25734
G1 X208.941 Y130.021 E.02337
G1 X124.979 Y46.059 E4.29039
G1 X124.332 Y46.059 E.02337
G1 X208.941 Y130.668 E4.32345
G1 X208.941 Y131.315 E.02337
G1 X123.685 Y46.059 E4.3565
G1 X123.039 Y46.059 E.02337
G1 X208.941 Y131.961 E4.38956
G1 X208.941 Y132.608 E.02337
G1 X122.392 Y46.059 E4.42262
G1 X121.745 Y46.059 E.02337
G1 X208.941 Y133.255 E4.45567
G1 X208.941 Y133.902 E.02337
G1 X121.098 Y46.059 E4.48873
G1 X120.451 Y46.059 E.02337
G1 X208.941 Y134.549 E4.52178
G1 X208.941 Y135.196 E.02337
G1 X119.804 Y46.059 E4.55484
G1 X119.157 Y46.059 E.02337
G1 X208.941 Y135.843 E4.58789
G1 X208.941 Y136.49 E.02337
G1 X118.51 Y46.059 E4.62095
G1 X117.864 Y46.059 E.02337
G1 X208.941 Y137.136 E4.654
G1 X208.941 Y137.783 E.02337
G1 X117.217 Y46.059 E4.68706
G1 X116.57 Y46.059 E.02337
G1 X208.941 Y138.43 E4.72012
G1 X208.941 Y139.077 E.02337
G1 X115.923 Y46.059 E4.75317
G1 X115.276 Y46.059 E.02337
G1 X208.941 Y139.724 E4.78623
G1 X208.941 Y140.371 E.02337
G1 X114.629 Y46.059 E4.81928
M73 P1 R224
G1 X113.982 Y46.059 E.02337
G1 X208.941 Y141.018 E4.85234
G1 X208.941 Y141.665 E.02337
G1 X113.335 Y46.059 E4.88539
G1 X112.688 Y46.059 E.02337
G1 X208.941 Y142.312 E4.91845
G1 X208.941 Y142.958 E.02337
G1 X112.042 Y46.059 E4.9515
G1 X111.395 Y46.059 E.02337
G1 X208.941 Y143.605 E4.98456
G1 X208.941 Y144.252 E.02337
G1 X110.748 Y46.059 E5.01761
G1 X110.101 Y46.059 E.02337
G1 X208.941 Y144.899 E5.05067
G1 X208.941 Y145.546 E.02337
G1 X109.454 Y46.059 E5.08373
G1 X108.807 Y46.059 E.02337
G1 X208.941 Y146.193 E5.11678
G1 X208.941 Y146.84 E.02337
G1 X108.16 Y46.059 E5.14984
G1 X107.513 Y46.059 E.02337
G1 X208.941 Y147.487 E5.18289
M73 P2 R224
G1 X208.941 Y148.134 E.02337
G1 X106.866 Y46.059 E5.21595
G1 X106.22 Y46.059 E.02337
G1 X208.941 Y148.78 E5.249
G1 X208.941 Y149.427 E.02337
G1 X105.573 Y46.059 E5.28206
G1 X104.926 Y46.059 E.02337
G1 X208.941 Y150.074 E5.31511
G1 X208.941 Y150.721 E.02337
G1 X104.279 Y46.059 E5.34817
G1 X103.632 Y46.059 E.02337
G1 X208.941 Y151.368 E5.38123
G1 X208.941 Y152.015 E.02337
G1 X102.985 Y46.059 E5.41428
G1 X102.338 Y46.059 E.02337
G1 X208.941 Y152.662 E5.44734
G1 X208.941 Y153.309 E.02337
G1 X101.691 Y46.059 E5.48039
M73 P2 R223
G1 X101.059 Y46.059 E.02285
G1 X208.941 Y153.956 E5.51308
G1 X208.941 Y154.602 E.02337
G1 X101.059 Y46.72 E5.5127
G1 X101.059 Y47.367 E.02337
G1 X208.941 Y155.249 E5.5127
G1 X208.941 Y155.896 E.02337
G1 X101.059 Y48.014 E5.5127
G1 X101.059 Y48.661 E.02337
G1 X208.941 Y156.543 E5.5127
G1 X208.941 Y157.19 E.02337
G1 X101.059 Y49.308 E5.5127
G1 X101.059 Y49.955 E.02337
G1 X208.941 Y157.837 E5.5127
G1 X208.941 Y158.484 E.02337
G1 X101.059 Y50.602 E5.5127
G1 X101.059 Y51.249 E.02337
G1 X208.941 Y159.131 E5.5127
G1 X208.941 Y159.778 E.02337
G1 X101.059 Y51.896 E5.5127
G1 X101.059 Y52.542 E.02337
G1 X208.941 Y160.424 E5.5127
G1 X208.941 Y161.071 E.02337
G1 X101.059 Y53.189 E5.5127
G1 X101.059 Y53.836 E.02337
G1 X208.941 Y161.718 E5.5127
G1 X208.941 Y162.365 E.02337
G1 X101.059 Y54.483 E5.5127
G1 X101.059 Y55.13 E.02337
G1 X208.941 Y163.012 E5.5127
G1 X208.941 Y163.659 E.02337
G1 X101.059 Y55.777 E5.5127
G1 X101.059 Y56.424 E.02337
G1 X208.941 Y164.306 E5.5127
G1 X208.941 Y164.953 E.02337
G1 X101.059 Y57.071 E5.5127
G1 X101.059 Y57.718 E.02337
G1 X208.941 Y165.6 E5.5127
G1 X208.941 Y166.246 E.02337
G1 X101.059 Y58.364 E5.5127
M73 P2 R222
G1 X101.059 Y59.011 E.02337
G1 X208.941 Y166.893 E5.5127
G1 X208.941 Y167.54 E.02337
G1 X101.059 Y59.658 E5.5127
G1 X101.059 Y60.305 E.02337
G1 X208.941 Y168.187 E5.5127
G1 X208.941 Y168.834 E.02337
G1 X101.059 Y60.952 E5.5127
G1 X101.059 Y61.599 E.02337
G1 X208.941 Y169.481 E5.5127
G1 X208.941 Y170.128 E.02337
G1 X101.059 Y62.246 E5.5127
G1 X101.059 Y62.893 E.02337
G1 X208.941 Y170.775 E5.5127
G1 X208.941 Y171.421 E.02337
G1 X101.059 Y63.54 E5.5127
G1 X101.059 Y64.186 E.02337
G1 X208.941 Y172.068 E5.5127
G1 X208.941 Y172.715 E.02337
G1 X101.059 Y64.833 E5.5127
G1 X101.059 Y65.48 E.02337
G1 X208.941 Y173.362 E5.5127
G1 X208.941 Y174.009 E.02337
G1 X101.059 Y66.127 E5.5127
G1 X101.059 Y66.774 E.02337
G1 X208.941 Y174.656 E5.5127
G1 X208.941 Y175.303 E.02337
G1 X101.059 Y67.421 E5.5127
G1 X101.059 Y68.068 E.02337
G1 X208.941 Y175.95 E5.5127
M73 P3 R222
G1 X208.941 Y176.597 E.02337
G1 X101.059 Y68.715 E5.5127
G1 X101.059 Y69.361 E.02337
G1 X208.941 Y177.243 E5.5127
G1 X208.941 Y177.89 E.02337
G1 X101.059 Y70.008 E5.5127
G1 X101.059 Y70.655 E.02337
G1 X208.941 Y178.537 E5.5127
M73 P3 R221
G1 X208.941 Y179.184 E.02337
G1 X101.059 Y71.302 E5.5127
G1 X101.059 Y71.949 E.02337
G1 X208.941 Y179.831 E5.5127
G1 X208.941 Y180.478 E.02337
G1 X101.059 Y72.596 E5.5127
G1 X101.059 Y73.243 E.02337
G1 X208.941 Y181.125 E5.5127
G1 X208.941 Y181.772 E.02337
G1 X101.059 Y73.89 E5.5127
G1 X101.059 Y74.537 E.02337
G1 X208.941 Y182.419 E5.5127
G1 X208.941 Y183.065 E.02337
G1 X101.059 Y75.183 E5.5127
G1 X101.059 Y75.83 E.02337
G1 X208.941 Y183.712 E5.5127
G1 X208.941 Y184.359 E.02337
G1 X101.059 Y76.477 E5.5127
G1 X101.059 Y77.124 E.02337
G1 X208.941 Y185.006 E5.5127
G1 X208.941 Y185.653 E.02337
G1 X101.059 Y77.771 E5.5127
G1 X101.059 Y78.418 E.02337
G1 X208.941 Y186.3 E5.5127
G1 X208.941 Y186.947 E.02337
G1 X101.059 Y79.065 E5.5127
G1 X101.059 Y79.712 E.02337
G1 X208.941 Y187.594 E5.5127
G1 X208.941 Y188.241 E.02337
G1 X101.059 Y80.359 E5.5127
G1 X101.059 Y81.005 E.02337
G1 X208.941 Y188.887 E5.5127
G1 X208.941 Y189.534 E.02337
G1 X101.059 Y81.652 E5.5127
G1 X101.059 Y82.299 E.02337
G1 X208.941 Y190.181 E5.5127
G1 X208.941 Y190.828 E.02337
G1 X101.059 Y82.946 E5.5127
M73 P3 R220
G1 X101.059 Y83.593 E.02337
G1 X208.941 Y191.475 E5.5127
G1 X208.941 Y192.122 E.02337
G1 X101.059 Y84.24 E5.5127
G1 X101.059 Y84.887 E.02337
G1 X208.941 Y192.769 E5.5127
G1 X208.941 Y193.416 E.02337
G1 X101.059 Y85.534 E5.5127
G1 X101.059 Y86.181 E.02337
G1 X208.941 Y194.063 E5.5127
G1 X208.941 Y194.709 E.02337
G1 X101.059 Y86.827 E5.5127
G1 X101.059 Y87.474 E.02337
G1 X208.941 Y195.356 E5.5127
G1 X208.941 Y196.003 E.02337
G1 X101.059 Y88.121 E5.5127
G1 X101.059 Y88.768 E.02337
G1 X208.941 Y196.65 E5.5127
G1 X208.941 Y197.297 E.02337
G1 X101.059 Y89.415 E5.5127
G1 X101.059 Y90.062 E.02337
G1 X208.941 Y197.944 E5.5127
G1 X208.941 Y198.591 E.02337
G1 X101.059 Y90.709 E5.5127
G1 X101.059 Y91.356 E.02337
G1 X208.941 Y199.238 E5.5127
G1 X208.941 Y199.884 E.02337
G1 X101.059 Y92.003 E5.5127
G1 X101.059 Y92.649 E.02337
G1 X208.941 Y200.531 E5.5127
G1 X208.941 Y201.178 E.02337
G1 X101.059 Y93.296 E5.5127
G1 X101.059 Y93.943 E.02337
G1 X208.941 Y201.825 E5.5127
G1 X208.941 Y202.472 E.02337
G1 X101.059 Y94.59 E5.5127
