; generated by SuperSlicer 2.5.59 on 2023-06-07 at 05:27:57 UTC


;
;

;
;
; 

; external perimeters extrusion width = 0.40mm
; perimeters extrusion width = 0.46mm
; infill extrusion width = 0.64mm
; solid infill extrusion width = 0.56mm
; top infill extrusion width = 0.40mm
; support material extrusion width = 0.46mm
; first layer extrusion width = 0.50mm

; object:{"name":"belt_helper","id":"belt_helper.stl id:0 copy 0","object_center":[152.500000,150.000000,0.000000],"boundingbox_center":[152.500000,150.000000,12.500000],"boundingbox_size":[130.000000,50.000000,25.000000]}
EXCLUDE_OBJECT_DEFINE NAME=belt_helper_stl_id_0_copy_0 CENTER=152.500000,150.000000 POLYGON=[[87.500000,126.000000],[87.534072,125.741184],[87.633976,125.500000],[87.671336,125.445744],[87.792896,125.292896],[88.000000,125.133976],[88.111360,125.082496],[88.241184,125.034072],[88.500000,125.000000],[216.500000,125.000000],[216.758816,125.034072],[217.000000,125.133976],[217.207104,125.292896],[217.366032,125.500000],[217.465920,125.741184],[217.500000,126.000000],[217.500000,174.000000],[217.465920,174.258816],[217.366032,174.500000],[217.207104,174.707104],[217.000000,174.866032],[216.758816,174.965920],[216.500000,175.000000],[88.500000,175.000000],[88.241184,174.965920],[88.000000,174.866032],[87.945736,174.828672],[87.792896,174.707104],[87.633976,174.500000],[87.582496,174.388640],[87.534072,174.258816],[87.500000,174.000000],[87.500000,126.000000]]
; plater:{"center":[152.500000,150.000000,0.000000],"boundingbox_center":[152.500000,150.000000,12.500000],"boundingbox_size":[130.000000,50.000000,25.000000]}

M73 P0 R99
;TYPE:Custom
START_PRINT T_BED=60 T_EXTRUDER=200
M107
G21 ; set units to millimeters
G90 ; use absolute coordinates
M82 ; use absolute distances for extrusion
G92 E0
; Filament gcode

    PRESSURE_ADVANCE_SELECT FILAMENT=PLA
;_TOOLCHANGE 0
M109 S200 ; set temperature and wait for it to be reached
M190 S60 ; set bed temperature and wait for it to be reached
M107
;LAYER_CHANGE
;Z:0.2
;HEIGHT:0.2
G1 Z0.2 F9000
M73 P0 R99
G1 E-0.8 F3000
M204 S1000
G1 X85.524 Y123.312 F9000
G1 E0 F1800
;TYPE:Skirt
;WIDTH:0.52
G1 X84.638 Y124.815 E0.06923
G1 X84.458 Y125.96 E0.11521
G1 X84.466 Y173.991 E2.02056
G1 X84.563 Y174.847 E2.05476
G1 X85.812 Y176.976 E2.15263
G1 X87.315 Y177.862 E2.22186
G1 X88.46 Y178.042 E2.26782
G1 X216.487 Y178.034 E7.34658
G1 X217.633 Y177.857 E7.39256
G1 X219.284 Y176.899 E7.46829
G1 X220.357 Y175.133 E7.55028
G1 X220.534 Y173.987 E7.59628
G1 X220.534 Y126.013 E9.49934
G1 X220.357 Y124.867 E9.54534
G1 X219.399 Y123.216 E9.62107
G1 X217.707 Y122.164 E9.70013
G1 X216.525 Y121.973 E9.74762
G1 X89.497 Y121.966 E14.78674
G1 X87.653 Y122.063 E14.86
G1 X85.524 Y123.312 E14.95787
G1 X85.889 Y123.62 F9000
G1 F1800
G1 X85.094 Y124.957 E15.01957
G1 X84.935 Y125.96 E15.05987
G1 X84.943 Y173.991 E16.96522
G1 X85.032 Y174.756 E16.99579
G1 X86.12 Y176.611 E17.0811
G1 X87.457 Y177.406 E17.1428
G1 X88.46 Y177.565 E17.18308
G1 X216.487 Y177.557 E22.26183
G1 X217.507 Y177.397 E22.30281
G1 X218.947 Y176.562 E22.36881
G1 X219.897 Y175.007 E22.44108
G1 X220.057 Y173.987 E22.48206
G1 X220.057 Y126.013 E24.38513
G1 X219.897 Y124.993 E24.42611
G1 X219.062 Y123.553 E24.49212
G1 X217.572 Y122.621 E24.56184
G1 X216.525 Y122.45 E24.60392
G1 X89.497 Y122.444 E29.64305
G1 X87.744 Y122.532 E29.71267
G1 X85.889 Y123.62 E29.79798
G92 E0
G1 E-0.8 F3000
; printing object belt_helper.stl id:0 copy 0
EXCLUDE_OBJECT_START NAME=belt_helper_stl_id_0_copy_0
G1 X215.654 Y173.154 F9000
G1 E0 F1800
;TYPE:Internal perimeter
;WIDTH:0.5
G1 X89.346 Y173.162 E4.8005
G1 X89.338 Y126.846 E6.5608
G1 X215.654 Y126.863 E11.3616
G1 X215.654 Y173.154 E13.12094
G1 X216.111 Y173.611 F9000
G1 F1800
G1 X88.889 Y173.619 E17.95617
M73 P1 R98
G1 X88.881 Y126.389 E19.75122
G1 X216.111 Y126.406 E24.58678
G1 X216.111 Y173.611 E26.38085
G1 X216.548 Y174.027 F9000
;TYPE:External perimeter
G1 F1800
G1 X216.453 Y174.068 E26.38478
G1 X88.525 Y174.077 E31.24687
M73 P1 R98
G1 X88.439 Y174.004 E31.25112
G1 X88.432 Y173.966 E31.25259
G1 X88.424 Y126.025 E33.07467
G1 X88.496 Y125.939 E33.07892
G1 X88.534 Y125.932 E33.08039
G1 X88.998 Y125.932 E33.09804
G1 X216.524 Y125.949 E37.94483
G1 X216.568 Y126.047 E37.9489
G1 X216.568 Y173.953 E39.76964
G1 X216.548 Y174.027 E39.77254
;WIPE_START
M204 S3000
G1 X216.171 Y173.894 F9000
;WIPE_END
G92 E0
G1 E-0.8 F3000
M204 S1000
G1 X214.661 Y126.932 F9000
G1 E0 F1800
;TYPE:Solid infill
;WIDTH:0.498456
G1 F2400
G1 X215.585 Y127.856 E0.04952
G1 X215.585 Y128.502 F9000
G1 F2400
G1 X214.015 Y126.932 E0.13367
G1 X213.368 Y126.932 F9000
G1 F2400
G1 X215.585 Y129.149 E0.25247
G1 X215.585 Y129.795 F9000
G1 F2400
G1 X212.722 Y126.931 E0.40591
G1 X212.075 Y126.931 F9000
G1 F2400
G1 X215.585 Y130.441 E0.59399
G1 X215.585 Y131.088 F9000
G1 F2400
G1 X211.429 Y126.931 E0.81671
G1 X210.782 Y126.931 F9000
G1 F2400
G1 X215.585 Y131.734 E1.07408
G1 X215.585 Y132.381 F9000
G1 F2400
G1 X210.136 Y126.931 E1.36608
G1 X209.489 Y126.931 F9000
G1 F2400
G1 X215.585 Y133.027 E1.69273
G1 X215.585 Y133.674 F9000
G1 F2400
G1 X208.843 Y126.931 E2.05401
G1 X208.196 Y126.931 F9000
G1 F2400
G1 X215.585 Y134.32 E2.44994
G1 X215.585 Y134.966 F9000
G1 F2400
G1 X207.55 Y126.931 E2.88051
G1 X206.903 Y126.931 F9000
G1 F2400
G1 X215.585 Y135.613 E3.34572
G1 X215.585 Y136.259 F9000
G1 F2400
G1 X206.257 Y126.931 E3.84557
G1 X205.61 Y126.931 F9000
G1 F2400
G1 X215.585 Y136.906 E4.38007
G1 X215.585 Y137.552 F9000
G1 F2400
G1 X204.964 Y126.93 E4.9492
G1 X204.317 Y126.93 F9000
G1 F2400
G1 X215.585 Y138.198 E5.55297
G1 X215.585 Y138.845 F9000
G1 F2400
G1 X203.671 Y126.93 E6.19139
G1 X203.024 Y126.93 F9000
G1 F2400
G1 X215.585 Y139.491 E6.86445
G1 X215.585 Y140.138 F9000
G1 F2400
G1 X202.378 Y126.93 E7.57214
G1 X201.731 Y126.93 F9000
G1 F2400
G1 X215.585 Y140.784 E8.31448
G1 X215.585 Y141.43 F9000
G1 F2400
G1 X201.085 Y126.93 E9.09146
G1 X200.438 Y126.93 F9000
G1 F2400
G1 X215.585 Y142.077 E9.90309
G1 X215.585 Y142.723 F9000
G1 F2400
G1 X199.792 Y126.93 E10.74935
G1 X199.145 Y126.93 F9000
G1 F2400
G1 X215.585 Y143.37 E11.63025
G1 X215.585 Y144.016 F9000
G1 F2400
G1 X198.499 Y126.93 E12.5458
G1 X197.852 Y126.929 F9000
G1 F2400
G1 X215.585 Y144.662 E13.49598
G1 X215.585 Y145.309 F9000
G1 F2400
G1 X197.206 Y126.929 E14.48081
G1 X196.559 Y126.929 F9000
G1 F2400
G1 X215.585 Y145.955 E15.50028
G1 X215.585 Y146.602 F9000
G1 F2400
G1 X195.913 Y126.929 E16.55439
G1 X195.266 Y126.929 F9000
G1 F2400
G1 X215.585 Y147.248 E17.64314
G1 X215.585 Y147.894 F9000
G1 F2400
G1 X194.62 Y126.929 E18.76653
G1 X193.973 Y126.929 F9000
G1 F2400
G1 X215.585 Y148.541 E19.92457
G1 X215.585 Y149.187 F9000
G1 F2400
G1 X193.327 Y126.929 E21.11724
G1 X192.68 Y126.929 F9000
G1 F2400
G1 X215.585 Y149.834 E22.34456
G1 X215.585 Y150.48 F9000
G1 F2400
G1 X192.034 Y126.929 E23.60651
G1 X191.387 Y126.929 F9000
G1 F2400
G1 X215.585 Y151.126 E24.90311
G1 X215.585 Y151.773 F9000
G1 F2400
G1 X190.741 Y126.928 E26.23435
G1 X190.094 Y126.928 F9000
G1 F2400
G1 X215.585 Y152.419 E27.60023
G1 X215.585 Y153.066 F9000
G1 F2400
G1 X189.448 Y126.928 E29.00075
G1 X188.801 Y126.928 F9000
G1 F2400
G1 X215.585 Y153.712 E30.43591
G1 X215.585 Y154.359 F9000
G1 F2400
G1 X188.155 Y126.928 E31.90572
G1 X187.508 Y126.928 F9000
G1 F2400
G1 X215.585 Y155.005 E33.41016
G1 X215.585 Y155.651 F9000
G1 F2400
G1 X186.862 Y126.928 E34.94925
G1 X186.215 Y126.928 F9000
G1 F2400
G1 X215.585 Y156.298 E36.52298
G1 X215.585 Y156.944 F9000
G1 F2400
G1 X185.569 Y126.928 E38.13134
G1 X184.922 Y126.928 F9000
G1 F2400
G1 X215.585 Y157.591 E39.77435
G1 X215.585 Y158.237 F9000
G1 F2400
G1 X184.276 Y126.928 E41.45201
G1 X183.629 Y126.928 F9000
G1 F2400
G1 X215.585 Y158.883 E43.1643
G1 X215.585 Y159.53 F9000
G1 F2400
G1 X182.983 Y126.927 E44.91123
G1 X182.336 Y126.927 F9000
G1 F2400
G1 X215.585 Y160.176 E46.6928
G1 X215.585 Y160.823 F9000
G1 F2400
G1 X181.69 Y126.927 E48.50902
G1 X181.043 Y126.927 F9000
G1 F2400
G1 X215.585 Y161.469 E50.35988
M73 P2 R97
G1 X215.585 Y162.115 F9000
G1 F2400
G1 X180.397 Y126.927 E52.24537
G1 X179.75 Y126.927 F9000
G1 F2400
G1 X215.585 Y162.762 E54.16551
G1 X215.585 Y163.408 F9000
G1 F2400
G1 X179.104 Y126.927 E56.12029
G1 X178.457 Y126.927 F9000
G1 F2400
G1 X215.585 Y164.055 E58.10971
G1 X215.585 Y164.701 F9000
G1 F2400
G1 X177.811 Y126.927 E60.13378
G1 X177.164 Y126.927 F9000
G1 F2400
G1 X215.585 Y165.347 E62.19248
G1 X215.585 Y165.994 F9000
G1 F2400
G1 X176.518 Y126.927 E64.28582
G1 X175.871 Y126.926 F9000
G1 F2400
G1 X215.585 Y166.64 E66.41381
G1 X215.585 Y167.287 F9000
G1 F2400
G1 X175.225 Y126.926 E68.57644
M73 P2 R97
G1 X174.579 Y126.926 F9000
G1 F2400
G1 X215.585 Y167.933 E70.7737
G1 X215.585 Y168.579 F9000
G1 F2400
G1 X173.932 Y126.926 E73.00561
G1 X173.286 Y126.926 F9000
G1 F2400
G1 X215.585 Y169.226 E75.27216
G1 X215.585 Y169.872 F9000
G1 F2400
G1 X172.639 Y126.926 E77.57335
G1 X171.993 Y126.926 F9000
G1 F2400
G1 X215.585 Y170.519 E79.90919
G1 X215.585 Y171.165 F9000
G1 F2400
G1 X171.346 Y126.926 E82.27966
G1 X170.7 Y126.926 F9000
G1 F2400
G1 X215.585 Y171.812 E84.68478
G1 X215.585 Y172.458 F9000
G1 F2400
G1 X170.053 Y126.926 E87.12453
G1 X169.407 Y126.926 F9000
G1 F2400
G1 X215.566 Y173.085 E89.59791
G1 X214.92 Y173.085 F9000
G1 F2400
G1 X168.76 Y126.926 E92.0713
G1 X168.114 Y126.925 F9000
G1 F2400
G1 X214.274 Y173.085 E94.54469
G1 X213.627 Y173.085 F9000
G1 F2400
G1 X167.467 Y126.925 E97.01809
G1 X166.821 Y126.925 F9000
G1 F2400
G1 X212.981 Y173.086 E99.4915
G1 X212.334 Y173.086 F9000
G1 F2400
G1 X166.174 Y126.925 E101.96491
G1 X165.528 Y126.925 F9000
G1 F2400
G1 X211.688 Y173.086 E104.43833
G1 X211.042 Y173.086 F9000
G1 F2400
G1 X164.881 Y126.925 E106.91176
G1 X164.235 Y126.925 F9000
G1 F2400
G1 X210.395 Y173.086 E109.38519
G1 X209.749 Y173.086 F9000
G1 F2400
G1 X163.588 Y126.925 E111.85863
G1 X162.942 Y126.925 F9000
G1 F2400
G1 X209.103 Y173.086 E114.33208
G1 X208.456 Y173.086 F9000
G1 F2400
G1 X162.295 Y126.925 E116.80554
G1 X161.649 Y126.925 F9000
G1 F2400
G1 X207.81 Y173.086 E119.279
G1 X207.164 Y173.086 F9000
G1 F2400
G1 X161.002 Y126.924 E121.75247
G1 X160.356 Y126.924 F9000
G1 F2400
G1 X206.517 Y173.086 E124.22595
G1 X205.871 Y173.086 F9000
G1 F2400
G1 X159.709 Y126.924 E126.69943
G1 X159.063 Y126.924 F9000
G1 F2400
G1 X205.224 Y173.086 E129.17292
G1 X204.578 Y173.086 F9000
G1 F2400
G1 X158.416 Y126.924 E131.64642
G1 X157.77 Y126.924 F9000
G1 F2400
G1 X203.932 Y173.086 E134.11992
G1 X203.285 Y173.086 F9000
G1 F2400
G1 X157.123 Y126.924 E136.59344
M73 P3 R96
G1 X156.477 Y126.924 F9000
G1 F2400
G1 X202.639 Y173.086 E139.06695
G1 X201.993 Y173.086 F9000
G1 F2400
G1 X155.83 Y126.924 E141.54048
G1 X155.184 Y126.924 F9000
G1 F2400
G1 X201.346 Y173.086 E144.01401
G1 X200.7 Y173.086 F9000
G1 F2400
G1 X154.537 Y126.924 E146.48755
G1 X153.891 Y126.924 F9000
G1 F2400
G1 X200.054 Y173.086 E148.9611
G1 X199.407 Y173.086 F9000
G1 F2400
G1 X153.244 Y126.923 E151.43465
G1 X152.598 Y126.923 F9000
G1 F2400
G1 X198.761 Y173.086 E153.90821
G1 X198.114 Y173.087 F9000
G1 F2400
G1 X151.951 Y126.923 E156.38178
M73 P3 R96
G1 X151.305 Y126.923 F9000
G1 F2400
G1 X197.468 Y173.087 E158.85535
G1 X196.822 Y173.087 F9000
G1 F2400
G1 X150.658 Y126.923 E161.32894
G1 X150.012 Y126.923 F9000
G1 F2400
G1 X196.175 Y173.087 E163.80252
G1 X195.529 Y173.087 F9000
G1 F2400
G1 X149.365 Y126.923 E166.27612
G1 X148.719 Y126.923 F9000
G1 F2400
G1 X194.883 Y173.087 E168.74972
G1 X194.236 Y173.087 F9000
G1 F2400
G1 X148.072 Y126.923 E171.22333
G1 X147.426 Y126.923 F9000
G1 F2400
G1 X193.59 Y173.087 E173.69695
G1 X192.944 Y173.087 F9000
G1 F2400
G1 X146.779 Y126.923 E176.17057
G1 X146.133 Y126.922 F9000
G1 F2400
G1 X192.297 Y173.087 E178.6442
G1 X191.651 Y173.087 F9000
G1 F2400
G1 X145.486 Y126.922 E181.11784
G1 X144.84 Y126.922 F9000
G1 F2400
G1 X191.004 Y173.087 E183.59148
G1 X190.358 Y173.087 F9000
G1 F2400
G1 X144.193 Y126.922 E186.06513
G1 X143.547 Y126.922 F9000
G1 F2400
G1 X189.712 Y173.087 E188.53879
G1 X189.065 Y173.087 F9000
G1 F2400
G1 X142.9 Y126.922 E191.01246
G1 X142.254 Y126.922 F9000
G1 F2400
G1 X188.419 Y173.087 E193.48613
G1 X187.773 Y173.087 F9000
G1 F2400
G1 X141.607 Y126.922 E195.95981
G1 X140.961 Y126.922 F9000
G1 F2400
G1 X187.126 Y173.087 E198.4335
G1 X186.48 Y173.087 F9000
G1 F2400
G1 X140.314 Y126.922 E200.90719
G1 X139.668 Y126.922 F9000
G1 F2400
G1 X185.834 Y173.087 E203.38089
G1 X185.187 Y173.087 F9000
G1 F2400
G1 X139.021 Y126.922 E205.8546
G1 X138.375 Y126.921 F9000
G1 F2400
G1 X184.541 Y173.087 E208.32831
G1 X183.894 Y173.087 F9000
G1 F2400
G1 X137.728 Y126.921 E210.80203
G1 X137.082 Y126.921 F9000
G1 F2400
G1 X183.248 Y173.087 E213.27576
G1 X182.602 Y173.088 F9000
G1 F2400
G1 X136.435 Y126.921 E215.7495
G1 X135.789 Y126.921 F9000
G1 F2400
G1 X181.955 Y173.088 E218.22324
G1 X181.309 Y173.088 F9000
G1 F2400
G1 X135.142 Y126.921 E220.69699
G1 X134.496 Y126.921 F9000
G1 F2400
G1 X180.663 Y173.088 E223.17074
M73 P4 R95
G1 X180.016 Y173.088 F9000
G1 F2400
G1 X133.849 Y126.921 E225.64451
G1 X133.203 Y126.921 F9000
G1 F2400
G1 X179.37 Y173.088 E228.11828
G1 X178.724 Y173.088 F9000
G1 F2400
G1 X132.556 Y126.921 E230.59205
G1 X131.91 Y126.921 F9000
G1 F2400
G1 X178.077 Y173.088 E233.06584
G1 X177.431 Y173.088 F9000
G1 F2400
G1 X131.263 Y126.92 E235.53963
G1 X130.617 Y126.92 F9000
G1 F2400
G1 X176.784 Y173.088 E238.01343
G1 X176.138 Y173.088 F9000
G1 F2400
G1 X129.97 Y126.92 E240.48723
G1 X129.324 Y126.92 F9000
G1 F2400
G1 X175.492 Y173.088 E242.96104
M73 P4 R95
G1 X174.845 Y173.088 F9000
G1 F2400
G1 X128.677 Y126.92 E245.43486
G1 X128.031 Y126.92 F9000
G1 F2400
G1 X174.199 Y173.088 E247.90869
G1 X173.553 Y173.088 F9000
G1 F2400
G1 X127.384 Y126.92 E250.38252
G1 X126.738 Y126.92 F9000
G1 F2400
G1 X172.906 Y173.088 E252.85636
G1 X172.26 Y173.088 F9000
G1 F2400
G1 X126.091 Y126.92 E255.33021
G1 X125.445 Y126.92 F9000
G1 F2400
G1 X171.614 Y173.088 E257.80406
G1 X170.967 Y173.088 F9000
G1 F2400
G1 X124.798 Y126.92 E260.27793
G1 X124.152 Y126.919 F9000
G1 F2400
G1 X170.321 Y173.088 E262.75179
G1 X169.674 Y173.088 F9000
G1 F2400
G1 X123.505 Y126.919 E265.22567
G1 X122.859 Y126.919 F9000
G1 F2400
G1 X169.028 Y173.088 E267.69955
G1 X168.382 Y173.088 F9000
G1 F2400
G1 X122.212 Y126.919 E270.17344
G1 X121.566 Y126.919 F9000
G1 F2400
G1 X167.735 Y173.089 E272.64734
G1 X167.089 Y173.089 F9000
G1 F2400
G1 X120.919 Y126.919 E275.12124
G1 X120.273 Y126.919 F9000
G1 F2400
G1 X166.443 Y173.089 E277.59515
G1 X165.796 Y173.089 F9000
G1 F2400
G1 X119.626 Y126.919 E280.06906
G1 X118.98 Y126.919 F9000
G1 F2400
G1 X165.15 Y173.089 E282.54299
G1 X164.503 Y173.089 F9000
G1 F2400
G1 X118.333 Y126.919 E285.01692
G1 X117.687 Y126.919 F9000
G1 F2400
G1 X163.857 Y173.089 E287.49086
G1 X163.211 Y173.089 F9000
G1 F2400
G1 X117.04 Y126.919 E289.9648
G1 X116.394 Y126.918 F9000
G1 F2400
G1 X162.564 Y173.089 E292.43875
G1 X161.918 Y173.089 F9000
G1 F2400
G1 X115.747 Y126.918 E294.91271
G1 X115.101 Y126.918 F9000
G1 F2400
G1 X161.272 Y173.089 E297.38668
G1 X160.625 Y173.089 F9000
G1 F2400
G1 X114.454 Y126.918 E299.86065
G1 X113.808 Y126.918 F9000
G1 F2400
G1 X159.979 Y173.089 E302.33463
G1 X159.333 Y173.089 F9000
G1 F2400
G1 X113.162 Y126.918 E304.80862
G1 X112.515 Y126.918 F9000
G1 F2400
G1 X158.686 Y173.089 E307.28261
G1 X158.04 Y173.089 F9000
G1 F2400
G1 X111.869 Y126.918 E309.75661
M73 P5 R94
G1 X111.222 Y126.918 F9000
G1 F2400
G1 X157.393 Y173.089 E312.23062
G1 X156.747 Y173.089 F9000
G1 F2400
G1 X110.576 Y126.918 E314.70464
G1 X109.929 Y126.918 F9000
G1 F2400
G1 X156.101 Y173.089 E317.17866
G1 X155.454 Y173.089 F9000
G1 F2400
G1 X109.283 Y126.917 E319.65269
G1 X108.636 Y126.917 F9000
G1 F2400
G1 X154.808 Y173.089 E322.12672
G1 X154.162 Y173.089 F9000
G1 F2400
G1 X107.99 Y126.917 E324.60076
G1 X107.343 Y126.917 F9000
G1 F2400
G1 X153.515 Y173.089 E327.07481
G1 X152.869 Y173.09 F9000
G1 F2400
G1 X106.697 Y126.917 E329.54887
G1 X106.05 Y126.917 F9000
G1 F2400
G1 X152.223 Y173.09 E332.02293
M73 P5 R94
G1 X151.576 Y173.09 F9000
G1 F2400
G1 X105.404 Y126.917 E334.49701
G1 X104.757 Y126.917 F9000
G1 F2400
G1 X150.93 Y173.09 E336.97108
G1 X150.283 Y173.09 F9000
G1 F2400
