; generated by SuperSlicer 2.5.59 on 2023-08-07 at 17:10:49 UTC


;
;

;
;
; 

; external perimeters extrusion width = 0.40mm
; perimeters extrusion width = 0.46mm
; infill extrusion width = 0.64mm
; solid infill extrusion width = 0.56mm
; top infill extrusion width = 0.40mm
; support material extrusion width = 0.46mm
; first layer extrusion width = 0.50mm

; external perimeters extrusion width = 0.40mm
; perimeters extrusion width = 0.46mm
; infill extrusion width = 0.64mm
; solid infill extrusion width = 0.56mm
; top infill extrusion width = 0.40mm
; support material extrusion width = 0.46mm
; first layer extrusion width = 0.50mm

; object:{"name":"belt_helper(1)","id":"belt_helper(1).stl id:0 copy 0","object_center":[152.500000,122.000000,0.000000],"boundingbox_center":[152.500000,122.000000,12.500000],"boundingbox_size":[130.000000,50.000000,25.000000]}
EXCLUDE_OBJECT_DEFINE NAME=belt_helper_1_stl_id_0_copy_0 CENTER=152.500000,122.000000 POLYGON=[[87.500000,98.000000],[87.534072,97.741184],[87.633976,97.500000],[87.671336,97.445736],[87.792896,97.292896],[88.000000,97.133976],[88.111360,97.082496],[88.241184,97.034072],[88.500000,97.000000],[216.500000,97.000000],[216.758816,97.034072],[217.000000,97.133976],[217.207104,97.292896],[217.366032,97.500000],[217.465920,97.741184],[217.500000,98.000000],[217.500000,146.000000],[217.465920,146.258816],[217.366032,146.500000],[217.207104,146.707104],[217.000000,146.866032],[216.758816,146.965920],[216.500000,147.000000],[88.500000,147.000000],[88.241184,146.965920],[88.000000,146.866032],[87.945736,146.828672],[87.792896,146.707104],[87.633976,146.500000],[87.582496,146.388640],[87.534072,146.258816],[87.500000,146.000000],[87.500000,98.000000]]
; object:{"name":"belt_helper(1)","id":"belt_helper(1).stl id:1 copy 0","object_center":[152.500001,178.000000,0.000000],"boundingbox_center":[152.500001,178.000000,12.500000],"boundingbox_size":[130.000000,50.000000,25.000000]}
EXCLUDE_OBJECT_DEFINE NAME=belt_helper_1_stl_id_1_copy_0 CENTER=152.500001,178.000000 POLYGON=[[87.500000,154.000000],[87.534072,153.741184],[87.633976,153.500000],[87.671336,153.445744],[87.792896,153.292896],[88.000000,153.133968],[88.111360,153.082496],[88.241184,153.034080],[88.500000,153.000000],[216.500000,153.000000],[216.758816,153.034080],[217.000000,153.133968],[217.207104,153.292896],[217.366032,153.500000],[217.465920,153.741184],[217.500000,154.000000],[217.500000,202.000000],[217.465920,202.258816],[217.366032,202.500000],[217.207104,202.707104],[217.000000,202.866032],[216.758816,202.965920],[216.500000,203.000000],[88.500000,203.000000],[88.241184,202.965920],[88.000000,202.866032],[87.945736,202.828672],[87.792896,202.707104],[87.633976,202.500000],[87.582496,202.388640],[87.534072,202.258816],[87.500000,202.000000],[87.500000,154.000000]]
; plater:{"center":[152.500000,150.000000,0.000000],"boundingbox_center":[152.500000,150.000000,12.500000],"boundingbox_size":[130.000001,106.000000,25.000000]}

M73 P0 R199
;TYPE:Custom
START_PRINT T_BED=60 T_EXTRUDER=210
M107
G21 ; set units to millimeters
G90 ; use absolute coordinates
M82 ; use absolute distances for extrusion
G92 E0
; Filament gcode

    PRESSURE_ADVANCE_SELECT FILAMENT=PLA
;_TOOLCHANGE 0
M109 S210 ; set temperature and wait for it to be reached
M190 S60 ; set bed temperature and wait for it to be reached
M107
;LAYER_CHANGE
;Z:0.2
;HEIGHT:0.2
G1 Z0.2 F9000
G1 E-0.8 F2400
M204 S1000
G1 X85.524 Y95.312 F9000
G1 E0 F1800
;TYPE:Skirt
;WIDTH:0.52
G1 X84.638 Y96.815 E0.06923
G1 X84.458 Y97.959 E0.11518
G1 X84.466 Y201.991 E4.24205
G1 X84.563 Y202.847 E4.27624
G1 X85.812 Y204.976 E4.37411
G1 X87.315 Y205.862 E4.44334
G1 X88.46 Y206.042 E4.4893
G1 X216.487 Y206.034 E9.56806
M73 P0 R199
G1 X217.633 Y205.857 E9.61405
G1 X219.399 Y204.784 E9.69603
G1 X220.357 Y203.133 E9.77176
G1 X220.534 Y201.987 E9.81776
G1 X220.534 Y98.013 E13.94231
G1 X220.357 Y96.867 E13.98831
G1 X219.283 Y95.1 E14.07034
G1 X217.707 Y94.164 E14.14308
G1 X216.525 Y93.973 E14.19057
G1 X89.497 Y93.966 E19.22969
G1 X87.653 Y94.063 E19.30294
G1 X85.524 Y95.312 E19.40082
G1 X85.889 Y95.62 F9000
G1 F1800
G1 X85.094 Y96.957 E19.46252
G1 X84.935 Y97.959 E19.50279
G1 X84.943 Y201.991 E23.62965
G1 X85.032 Y202.756 E23.66022
G1 X86.12 Y204.611 E23.74553
G1 X87.457 Y205.406 E23.80723
G1 X88.46 Y205.565 E23.84751
G1 X216.487 Y205.557 E28.92627
G1 X217.507 Y205.397 E28.96724
G1 X219.062 Y204.447 E29.03951
G1 X219.897 Y203.007 E29.10551
G1 X220.057 Y201.987 E29.14649
G1 X220.057 Y98.013 E33.27104
G1 X219.897 Y96.993 E33.31203
G1 X218.946 Y95.437 E33.38434
G1 X217.572 Y94.621 E33.44774
G1 X216.525 Y94.45 E33.48982
G1 X89.497 Y94.444 E38.52894
G1 X87.744 Y94.532 E38.59857
G1 X85.889 Y95.62 E38.68388
G92 E0
G1 E-0.8 F2400
; printing object belt_helper(1).stl id:0 copy 0
EXCLUDE_OBJECT_START NAME=belt_helper_1_stl_id_0_copy_0
G1 X216.548 Y146.027 F9000
G1 E0 F1800
;TYPE:External perimeter
;WIDTH:0.5
G1 X216.453 Y146.068 E0.00393
G1 X88.525 Y146.077 E4.86602
G1 X88.439 Y146.004 E4.87026
G1 X88.432 Y145.966 E4.87174
G1 X88.424 Y98.025 E6.69382
G1 X88.496 Y97.939 E6.69807
G1 X88.534 Y97.932 E6.69954
G1 X88.998 Y97.932 E6.71719
G1 X216.524 Y97.949 E11.56398
G1 X216.568 Y98.047 E11.56804
G1 X216.568 Y145.953 E13.38879
G1 X216.548 Y146.027 E13.39169
;WIPE_START
M204 S3000
G1 X216.171 Y145.894 F9000
;WIPE_END
M204 S1000
G1 X216.111 Y145.611
;TYPE:Internal perimeter
G1 F1800
G1 X88.889 Y145.619 E18.22693
G1 X88.881 Y98.389 E20.02198
G1 X216.111 Y98.406 E24.85753
G1 X216.111 Y145.611 E26.6516
G1 X215.654 Y145.154 F9000
G1 F1800
G1 X89.346 Y145.162 E31.4521
G1 X89.338 Y98.846 E33.2124
G1 X215.654 Y98.863 E38.01321
G1 X215.654 Y145.154 E39.77254
G92 E0
M73 P1 R197
G1 E-0.8 F2400
G1 X214.661 Y98.932 F9000
G1 E0 F1800
;TYPE:Solid infill
;WIDTH:0.498456
G1 F2400
G1 X215.585 Y99.856 E0.04952
G1 X215.585 Y100.502 F9000
G1 F2400
G1 X214.015 Y98.932 E0.13367
G1 X213.368 Y98.932 F9000
G1 F2400
G1 X215.585 Y101.149 E0.25247
G1 X215.585 Y101.795 F9000
G1 F2400
G1 X212.722 Y98.931 E0.40591
G1 X212.075 Y98.931 F9000
G1 F2400
G1 X215.585 Y102.441 E0.59399
G1 X215.585 Y103.088 F9000
G1 F2400
G1 X211.429 Y98.931 E0.81671
G1 X210.782 Y98.931 F9000
G1 F2400
G1 X215.585 Y103.734 E1.07408
G1 X215.585 Y104.381 F9000
G1 F2400
G1 X210.136 Y98.931 E1.36608
G1 X209.489 Y98.931 F9000
G1 F2400
G1 X215.585 Y105.027 E1.69273
G1 X215.585 Y105.674 F9000
G1 F2400
G1 X208.843 Y98.931 E2.05401
G1 X208.196 Y98.931 F9000
G1 F2400
G1 X215.585 Y106.32 E2.44994
G1 X215.585 Y106.966 F9000
G1 F2400
G1 X207.55 Y98.931 E2.88051
G1 X206.903 Y98.931 F9000
G1 F2400
G1 X215.585 Y107.613 E3.34572
G1 X215.585 Y108.259 F9000
G1 F2400
G1 X206.257 Y98.931 E3.84557
G1 X205.61 Y98.931 F9000
G1 F2400
G1 X215.585 Y108.906 E4.38007
G1 X215.585 Y109.552 F9000
G1 F2400
G1 X204.964 Y98.93 E4.9492
G1 X204.317 Y98.93 F9000
G1 F2400
G1 X215.585 Y110.198 E5.55297
G1 X215.585 Y110.845 F9000
G1 F2400
G1 X203.671 Y98.93 E6.19139
G1 X203.024 Y98.93 F9000
G1 F2400
G1 X215.585 Y111.491 E6.86445
G1 X215.585 Y112.138 F9000
G1 F2400
G1 X202.378 Y98.93 E7.57214
G1 X201.731 Y98.93 F9000
G1 F2400
G1 X215.585 Y112.784 E8.31448
G1 X215.585 Y113.43 F9000
G1 F2400
G1 X201.085 Y98.93 E9.09146
G1 X200.438 Y98.93 F9000
G1 F2400
G1 X215.585 Y114.077 E9.90309
G1 X215.585 Y114.723 F9000
G1 F2400
G1 X199.792 Y98.93 E10.74935
G1 X199.145 Y98.93 F9000
G1 F2400
G1 X215.585 Y115.37 E11.63025
G1 X215.585 Y116.016 F9000
G1 F2400
G1 X198.499 Y98.93 E12.5458
G1 X197.852 Y98.929 F9000
G1 F2400
G1 X215.585 Y116.662 E13.49598
G1 X215.585 Y117.309 F9000
G1 F2400
G1 X197.206 Y98.929 E14.48081
G1 X196.559 Y98.929 F9000
G1 F2400
G1 X215.585 Y117.955 E15.50028
G1 X215.585 Y118.602 F9000
G1 F2400
G1 X195.913 Y98.929 E16.55439
G1 X195.266 Y98.929 F9000
G1 F2400
G1 X215.585 Y119.248 E17.64314
G1 X215.585 Y119.894 F9000
G1 F2400
G1 X194.62 Y98.929 E18.76653
G1 X193.973 Y98.929 F9000
G1 F2400
G1 X215.585 Y120.541 E19.92457
G1 X215.585 Y121.187 F9000
G1 F2400
G1 X193.327 Y98.929 E21.11724
G1 X192.68 Y98.929 F9000
G1 F2400
G1 X215.585 Y121.834 E22.34456
G1 X215.585 Y122.48 F9000
G1 F2400
G1 X192.034 Y98.929 E23.60651
G1 X191.387 Y98.929 F9000
G1 F2400
G1 X215.585 Y123.126 E24.90311
G1 X215.585 Y123.773 F9000
G1 F2400
G1 X190.741 Y98.928 E26.23435
G1 X190.094 Y98.928 F9000
G1 F2400
G1 X215.585 Y124.419 E27.60023
G1 X215.585 Y125.066 F9000
G1 F2400
G1 X189.448 Y98.928 E29.00075
G1 X188.801 Y98.928 F9000
G1 F2400
G1 X215.585 Y125.712 E30.43591
G1 X215.585 Y126.359 F9000
G1 F2400
G1 X188.155 Y98.928 E31.90572
G1 X187.508 Y98.928 F9000
G1 F2400
G1 X215.585 Y127.005 E33.41016
G1 X215.585 Y127.651 F9000
G1 F2400
G1 X186.862 Y98.928 E34.94925
G1 X186.215 Y98.928 F9000
G1 F2400
G1 X215.585 Y128.298 E36.52298
G1 X215.585 Y128.944 F9000
G1 F2400
G1 X185.569 Y98.928 E38.13134
G1 X184.922 Y98.928 F9000
G1 F2400
G1 X215.585 Y129.591 E39.77435
M73 P1 R197
G1 X215.585 Y130.237 F9000
G1 F2400
G1 X184.276 Y98.928 E41.45201
G1 X183.629 Y98.928 F9000
G1 F2400
G1 X215.585 Y130.883 E43.1643
G1 X215.585 Y131.53 F9000
G1 F2400
G1 X182.983 Y98.927 E44.91123
G1 X182.336 Y98.927 F9000
G1 F2400
G1 X215.585 Y132.176 E46.6928
G1 X215.585 Y132.823 F9000
G1 F2400
G1 X181.69 Y98.927 E48.50902
G1 X181.043 Y98.927 F9000
G1 F2400
G1 X215.585 Y133.469 E50.35988
G1 X215.585 Y134.115 F9000
G1 F2400
G1 X180.397 Y98.927 E52.24537
G1 X179.75 Y98.927 F9000
G1 F2400
G1 X215.585 Y134.762 E54.16551
G1 X215.585 Y135.408 F9000
G1 F2400
G1 X179.104 Y98.927 E56.12029
G1 X178.457 Y98.927 F9000
G1 F2400
G1 X215.585 Y136.055 E58.10971
G1 X215.585 Y136.701 F9000
G1 F2400
G1 X177.811 Y98.927 E60.13378
G1 X177.164 Y98.927 F9000
G1 F2400
G1 X215.585 Y137.347 E62.19248
G1 X215.585 Y137.994 F9000
G1 F2400
G1 X176.518 Y98.927 E64.28582
G1 X175.871 Y98.926 F9000
G1 F2400
G1 X215.585 Y138.64 E66.41381
G1 X215.585 Y139.287 F9000
G1 F2400
G1 X175.225 Y98.926 E68.57644
G1 X174.579 Y98.926 F9000
G1 F2400
G1 X215.585 Y139.933 E70.7737
G1 X215.585 Y140.579 F9000
G1 F2400
G1 X173.932 Y98.926 E73.00561
G1 X173.286 Y98.926 F9000
G1 F2400
G1 X215.585 Y141.226 E75.27216
G1 X215.585 Y141.872 F9000
G1 F2400
G1 X172.639 Y98.926 E77.57335
G1 X171.993 Y98.926 F9000
G1 F2400
G1 X215.585 Y142.519 E79.90919
G1 X215.585 Y143.165 F9000
G1 F2400
G1 X171.346 Y98.926 E82.27966
M73 P1 R196
G1 X170.7 Y98.926 F9000
G1 F2400
G1 X215.585 Y143.812 E84.68478
G1 X215.585 Y144.458 F9000
G1 F2400
G1 X170.053 Y98.926 E87.12453
G1 X169.407 Y98.926 F9000
G1 F2400
G1 X215.566 Y145.085 E89.59791
G1 X214.92 Y145.085 F9000
G1 F2400
G1 X168.76 Y98.926 E92.0713
G1 X168.114 Y98.925 F9000
G1 F2400
G1 X214.274 Y145.085 E94.54469
G1 X213.627 Y145.085 F9000
G1 F2400
G1 X167.467 Y98.925 E97.01809
G1 X166.821 Y98.925 F9000
G1 F2400
G1 X212.981 Y145.086 E99.4915
G1 X212.334 Y145.086 F9000
G1 F2400
G1 X166.174 Y98.925 E101.96491
G1 X165.528 Y98.925 F9000
G1 F2400
G1 X211.688 Y145.086 E104.43833
G1 X211.042 Y145.086 F9000
G1 F2400
G1 X164.881 Y98.925 E106.91176
G1 X164.235 Y98.925 F9000
G1 F2400
G1 X210.395 Y145.086 E109.38519
G1 X209.749 Y145.086 F9000
G1 F2400
G1 X163.588 Y98.925 E111.85863
G1 X162.942 Y98.925 F9000
G1 F2400
G1 X209.103 Y145.086 E114.33208
G1 X208.456 Y145.086 F9000
G1 F2400
G1 X162.295 Y98.925 E116.80554
G1 X161.649 Y98.925 F9000
G1 F2400
G1 X207.81 Y145.086 E119.279
G1 X207.164 Y145.086 F9000
G1 F2400
G1 X161.002 Y98.924 E121.75247
G1 X160.356 Y98.924 F9000
G1 F2400
G1 X206.517 Y145.086 E124.22595
G1 X205.871 Y145.086 F9000
G1 F2400
G1 X159.709 Y98.924 E126.69943
G1 X159.063 Y98.924 F9000
G1 F2400
G1 X205.224 Y145.086 E129.17292
G1 X204.578 Y145.086 F9000
G1 F2400
G1 X158.416 Y98.924 E131.64642
G1 X157.77 Y98.924 F9000
G1 F2400
G1 X203.932 Y145.086 E134.11992
G1 X203.285 Y145.086 F9000
G1 F2400
G1 X157.123 Y98.924 E136.59344
G1 X156.477 Y98.924 F9000
G1 F2400
G1 X202.639 Y145.086 E139.06695
G1 X201.993 Y145.086 F9000
G1 F2400
G1 X155.83 Y98.924 E141.54048
G1 X155.184 Y98.924 F9000
G1 F2400
G1 X201.346 Y145.086 E144.01401
G1 X200.7 Y145.086 F9000
G1 F2400
G1 X154.537 Y98.924 E146.48755
G1 X153.891 Y98.924 F9000
G1 F2400
G1 X200.054 Y145.086 E148.9611
G1 X199.407 Y145.086 F9000
G1 F2400
G1 X153.244 Y98.923 E151.43465
G1 X152.598 Y98.923 F9000
G1 F2400
G1 X198.761 Y145.086 E153.90821
G1 X198.114 Y145.087 F9000
G1 F2400
G1 X151.951 Y98.923 E156.38178
G1 X151.305 Y98.923 F9000
G1 F2400
G1 X197.468 Y145.087 E158.85535
G1 X196.822 Y145.087 F9000
G1 F2400
G1 X150.658 Y98.923 E161.32894
G1 X150.012 Y98.923 F9000
G1 F2400
G1 X196.175 Y145.087 E163.80252
G1 X195.529 Y145.087 F9000
G1 F2400
G1 X149.365 Y98.923 E166.27612
G1 X148.719 Y98.923 F9000
G1 F2400
G1 X194.883 Y145.087 E168.74972
M73 P2 R196
G1 X194.236 Y145.087 F9000
G1 F2400
G1 X148.072 Y98.923 E171.22333
G1 X147.426 Y98.923 F9000
G1 F2400
G1 X193.59 Y145.087 E173.69695
G1 X192.944 Y145.087 F9000
G1 F2400
G1 X146.779 Y98.923 E176.17057
G1 X146.133 Y98.922 F9000
G1 F2400
G1 X192.297 Y145.087 E178.6442
G1 X191.651 Y145.087 F9000
G1 F2400
G1 X145.486 Y98.922 E181.11784
G1 X144.84 Y98.922 F9000
G1 F2400
G1 X191.004 Y145.087 E183.59148
G1 X190.358 Y145.087 F9000
G1 F2400
G1 X144.193 Y98.922 E186.06513
G1 X143.547 Y98.922 F9000
G1 F2400
G1 X189.712 Y145.087 E188.53879
G1 X189.065 Y145.087 F9000
G1 F2400
G1 X142.9 Y98.922 E191.01246
G1 X142.254 Y98.922 F9000
G1 F2400
G1 X188.419 Y145.087 E193.48613
G1 X187.773 Y145.087 F9000
G1 F2400
G1 X141.607 Y98.922 E195.95981
G1 X140.961 Y98.922 F9000
G1 F2400
G1 X187.126 Y145.087 E198.4335
G1 X186.48 Y145.087 F9000
G1 F2400
G1 X140.314 Y98.922 E200.90719
G1 X139.668 Y98.922 F9000
G1 F2400
G1 X185.834 Y145.087 E203.38089
G1 X185.187 Y145.087 F9000
G1 F2400
G1 X139.021 Y98.922 E205.8546
G1 X138.375 Y98.921 F9000
G1 F2400
G1 X184.541 Y145.087 E208.32831
G1 X183.894 Y145.087 F9000
G1 F2400
G1 X137.728 Y98.921 E210.80203
G1 X137.082 Y98.921 F9000
G1 F2400
G1 X183.248 Y145.087 E213.27576
M73 P2 R195
G1 X182.602 Y145.088 F9000
G1 F2400
G1 X136.435 Y98.921 E215.7495
G1 X135.789 Y98.921 F9000
G1 F2400
G1 X181.955 Y145.088 E218.22324
G1 X181.309 Y145.088 F9000
G1 F2400
G1 X135.142 Y98.921 E220.69699
G1 X134.496 Y98.921 F9000
G1 F2400
G1 X180.663 Y145.088 E223.17074
G1 X180.016 Y145.088 F9000
G1 F2400
G1 X133.849 Y98.921 E225.64451
G1 X133.203 Y98.921 F9000
G1 F2400
G1 X179.37 Y145.088 E228.11828
G1 X178.724 Y145.088 F9000
G1 F2400
G1 X132.556 Y98.921 E230.59205
G1 X131.91 Y98.921 F9000
G1 F2400
G1 X178.077 Y145.088 E233.06584
G1 X177.431 Y145.088 F9000
G1 F2400
G1 X131.263 Y98.92 E235.53963
G1 X130.617 Y98.92 F9000
G1 F2400
G1 X176.784 Y145.088 E238.01343
G1 X176.138 Y145.088 F9000
G1 F2400
G1 X129.97 Y98.92 E240.48723
G1 X129.324 Y98.92 F9000
G1 F2400
G1 X175.492 Y145.088 E242.96104
G1 X174.845 Y145.088 F9000
G1 F2400
G1 X128.677 Y98.92 E245.43486
G1 X128.031 Y98.92 F9000
G1 F2400
G1 X174.199 Y145.088 E247.90869
G1 X173.553 Y145.088 F9000
G1 F2400
G1 X127.384 Y98.92 E250.38252
G1 X126.738 Y98.92 F9000
G1 F2400
G1 X172.906 Y145.088 E252.85636
G1 X172.26 Y145.088 F9000
G1 F2400
G1 X126.091 Y98.92 E255.33021
G1 X125.445 Y98.92 F9000
G1 F2400
G1 X171.614 Y145.088 E257.80406
M73 P2 R194
G1 X170.967 Y145.088 F9000
G1 F2400
G1 X124.798 Y98.92 E260.27793
G1 X124.152 Y98.919 F9000
G1 F2400
G1 X170.321 Y145.088 E262.75179
G1 X169.674 Y145.088 F9000
G1 F2400
G1 X123.505 Y98.919 E265.22567
G1 X122.859 Y98.919 F9000
G1 F2400
G1 X169.028 Y145.088 E267.69955
G1 X168.382 Y145.088 F9000
G1 F2400
G1 X122.212 Y98.919 E270.17344
G1 X121.566 Y98.919 F9000
G1 F2400
G1 X167.735 Y145.089 E272.64734
G1 X167.089 Y145.089 F9000
G1 F2400
G1 X120.919 Y98.919 E275.12124
G1 X120.273 Y98.919 F9000
G1 F2400
G1 X166.443 Y145.089 E277.59515
G1 X165.796 Y145.089 F9000
G1 F2400
G1 X119.626 Y98.919 E280.06906
G1 X118.98 Y98.919 F9000
G1 F2400
G1 X165.15 Y145.089 E282.54299
G1 X164.503 Y145.089 F9000
G1 F2400
G1 X118.333 Y98.919 E285.01692
G1 X117.687 Y98.919 F9000
G1 F2400
G1 X163.857 Y145.089 E287.49086
G1 X163.211 Y145.089 F9000
G1 F2400
G1 X117.04 Y98.919 E289.9648
G1 X116.394 Y98.918 F9000
G1 F2400
G1 X162.564 Y145.089 E292.43875
G1 X161.918 Y145.089 F9000
G1 F2400
G1 X115.747 Y98.918 E294.91271
G1 X115.101 Y98.918 F9000
G1 F2400
