; HEADER_BLOCK_START
; generated by OrcaSlicer 1.6.6 on 2023-09-05 at 21:18:31
; total layer number: 23
; HEADER_BLOCK_END

; THUMBNAIL_BLOCK_START
; THUMBNAIL_BLOCK_END

; external perimeters extrusion width = 0.40mm
; perimeters extrusion width = 0.45mm
; infill extrusion width = 0.45mm
; solid infill extrusion width = 0.40mm
; top infill extrusion width = 0.40mm
; support material extrusion width = 0.40mm
; first layer extrusion width = 0.50mm

; EXECUTABLE_BLOCK_START
EXCLUDE_OBJECT_DEFINE NAME=EulaKC.stl_id_0_copy_0 CENTER=155.001,155 POLYGON=[[134.664,153.97],[134.664,153.947],[134.665,153.923],[134.668,153.9],[134.673,153.877],[134.679,153.855],[139.091,139.553],[139.095,139.54],[139.1,139.527],[139.106,139.515],[139.113,139.502],[139.12,139.49],[139.128,139.479],[139.137,139.468],[139.146,139.458],[139.156,139.448],[139.167,139.439],[139.178,139.431],[139.189,139.423],[143.276,136.836],[143.288,136.829],[143.299,136.823],[143.311,136.817],[160.489,129.71],[162.395,129.119],[164.351,128.816],[166.302,128.75],[168.198,128.872],[169.986,129.13],[171.612,129.474],[173.026,129.854],[174.174,130.219],[174.192,130.225],[174.209,130.233],[174.226,130.241],[174.242,130.25],[174.257,130.26],[174.272,130.271],[174.287,130.283],[174.3,130.296],[174.313,130.309],[174.326,130.323],[174.337,130.338],[174.348,130.353],[174.358,130.369],[174.366,130.386],[174.374,130.403],[174.381,130.42],[174.387,130.438],[174.392,130.455],[174.396,130.474],[174.399,130.492],[174.401,130.51],[175.063,145.335],[175.065,145.376],[175.338,171.925],[175.316,172.397],[175.233,172.754],[175.119,173.009],[175.001,173.175],[174.909,173.265],[174.872,173.292],[156.323,180.983],[156.136,181.055],[155.946,181.117],[155.751,181.167],[155.554,181.205],[155.354,181.232],[155.153,181.247],[154.95,181.25],[154.747,181.241],[154.546,181.22],[154.347,181.187],[154.151,181.143],[153.958,181.087],[153.77,181.02],[153.585,180.942],[153.405,180.853],[153.231,180.753],[153.062,180.643],[152.899,180.523],[152.744,180.392],[142.172,171.103],[140.368,169.04],[138.967,166.849],[137.918,164.613],[137.173,162.412],[134.678,154.063],[134.673,154.04],[134.668,154.017],[134.665,153.994],[134.664,153.97]]
M73 P0 R15
M73 C12
;TYPE:Custom
START_PRINT T_BED=60 T_EXTRUDER=220
G90
G21
M83 ; use relative distances for extrusion
; filament start gcode
PRESSURE_ADVANCE_SELECT FILAMENT=PLA
M106 S0
;LAYER_CHANGE
;Z:0.2
;HEIGHT:0.2
;BEFORE_LAYER_CHANGE
;0.2
G92 E0

SET_VELOCITY_LIMIT ACCEL=1500 ACCEL_TO_DECEL=750
G1 E-.8 F3000
G1 Z.4 F9000
G1 X136.957 Y137.538
G1 Z.4
G1 Z.2
G1 E.8 F1800
;TYPE:Skirt
;WIDTH:0.5
G1 F3000
G1 X137.581 Y136.994 E.03081
G1 X142.108 Y134.164 E.19887
G1 X159.375 Y127.017 E.69602
G1 X161.949 Y126.239 E.10017
G1 X164.253 Y125.903 E.08672
G1 X166.489 Y125.842 E.08331
G1 X168.615 Y125.988 E.07936
G1 X170.589 Y126.279 E.07433
G1 X172.368 Y126.66 E.06778
G1 X175.252 Y127.511 E.112
G1 X175.703 Y127.73 E.01867
G1 X176.469 Y128.348 E.03663
G1 X176.81 Y128.798 E.02105
G1 X177.207 Y129.704 E.03682
G1 X177.313 Y130.399 E.02619
G1 X177.979 Y145.346 E.55726
G1 X178.252 Y171.895 E.98893
G1 X178.155 Y173.056 E.04337
G1 X177.891 Y173.949 E.0347
G1 X177.378 Y174.86 E.03893
G1 X176.63 Y175.616 E.03962
G1 X175.989 Y175.984 E.02754
G1 X157.191 Y183.772 E.75784
G1 X156.311 Y184.027 E.03414
G1 X155.37 Y184.153 E.03537
G1 X154.616 Y184.152 E.02808
G1 X153.702 Y184.029 E.03437
G1 X152.982 Y183.833 E.02776
G1 X152.113 Y183.464 E.03518
G1 X150.873 Y182.626 E.05574
G1 X140.249 Y173.293 E.52672
G1 X137.913 Y170.61 E.13249
G1 X136.328 Y168.086 E.11101
G1 X135.158 Y165.548 E.10409
G1 X134.381 Y163.246 E.09048
G1 X131.861 Y154.802 E.32821
G1 X131.755 Y154.121 E.02569
G1 X131.888 Y153.019 E.04135
G1 X136.341 Y138.591 E.5624
G1 X136.565 Y138.09 E.02044
G1 X136.934 Y137.571 E.02372
G1 X137.296 Y137.844 F9000
G1 F3000
G1 X137.829 Y137.378 E.02638
G1 X142.299 Y134.579 E.19641
G1 X159.549 Y127.439 E.69538
M73 C11
G1 X162.019 Y126.691 E.09612
G1 X164.268 Y126.36 E.08467
G1 X166.46 Y126.298 E.08165
G1 X168.549 Y126.44 E.07801
G1 X170.494 Y126.726 E.07322
G1 X172.25 Y127.101 E.06687
G1 X174.918 Y127.877 E.1035
G1 X175.477 Y128.127 E.02278
G1 X176.107 Y128.63 E.03005
G1 X176.427 Y129.047 E.01957
G1 X176.766 Y129.825 E.03159
G1 X176.856 Y130.419 E.02241
G1 X177.522 Y145.35 E.55667
G1 X177.795 Y171.9 E.98893
G1 X177.709 Y172.952 E.03933
G1 X177.474 Y173.762 E.03139
G1 X177.006 Y174.596 E.03563
G1 X176.36 Y175.247 E.03416
G1 X175.814 Y175.561 E.02349
G1 X157.026 Y183.346 E.75746
G1 X156.223 Y183.578 E.03113
G1 X155.336 Y183.698 E.03335
G1 X154.637 Y183.696 E.02604
G1 X153.803 Y183.583 E.03133
G1 X153.136 Y183.402 E.02575
G1 X152.315 Y183.055 E.03318
G1 X151.166 Y182.276 E.0517
G1 X140.551 Y172.949 E.52632
G1 X138.298 Y170.364 E.12773
G1 X136.742 Y167.892 E.10879
G1 X135.591 Y165.401 E.10219
G1 X134.819 Y163.115 E.08986
G1 X132.304 Y154.69 E.3275
G1 X132.211 Y154.093 E.02248
G1 X132.325 Y153.153 E.03527
G1 X136.774 Y138.737 E.56192
G1 X136.966 Y138.309 E.01748
G1 X137.273 Y137.877 E.01977
; printing object EulaKC.stl id:0 copy 0
G1 E-.8
EXCLUDE_OBJECT_START NAME=EulaKC.stl_id_0_copy_0
G1 Z.6 F9000
G1 X169.459 Y132.187 Z.6
M73 P1 R15
G1 Z.2
G1 E.8 F1800
;TYPE:Outer wall
;WIDTH:0.499999
G1 F3000
G1 X169.546 Y132.314 E.00574
G1 X169.705 Y132.355 E.00611
G1 X170.475 Y132.268 E.02887
G1 X171.223 Y132.314 E.0279
G1 X171.872 Y132.471 E.02487
G1 X172.424 Y132.701 E.02227
G1 X173.054 Y133.1 E.02779
G1 X173.096 Y133.211 E.0044
G1 X172.994 Y133.267 E.00433
G1 X172.053 Y133.343 E.03517
G1 X171.268 Y133.522 E.02999
G1 X170.747 Y133.696 E.02046
G1 X170.165 Y133.925 E.02327
G1 X169.473 Y134.267 E.02876
G1 X168.487 Y134.894 E.04355
G1 X168.072 Y135.191 E.01899
G1 X167.489 Y135.666 E.02801
G1 X166.993 Y136.114 E.02487
G1 X166.593 Y136.51 E.02099
G1 X166.045 Y137.116 E.03041
G1 X165.986 Y137.256 E.00567
G1 X166.041 Y137.418 E.00637
G1 X167.275 Y138.846 E.07028
G1 X167.699 Y138.961 E.01637
G1 X167.87 Y139.047 E.00712
G1 X168.284 Y139.33 E.01868
G1 X168.871 Y139.962 E.03213
G1 X169.373 Y140.68 E.03263
G1 X169.748 Y141.32 E.02761
G1 X169.996 Y141.802 E.02019
G1 X170.074 Y141.888 E.00434
G1 X170.257 Y141.918 E.00691
G1 X170.378 Y141.843 E.00529
G1 X170.933 Y141.361 E.02737
G1 X171.425 Y141.018 E.02237
G1 X171.983 Y140.732 E.02335
G1 X172.507 Y140.61 E.02002
G1 X173.01 Y140.619 E.01874
G1 X173.431 Y140.758 E.01652
G1 X173.742 Y140.97 E.014
G1 X173.773 Y141.046 E.00306
G1 X173.347 Y141.334 E.01914
G1 X172.97 Y141.729 E.02033
G1 X172.698 Y142.159 E.01896
G1 X172.477 Y142.639 E.01967
G1 X172.299 Y143.147 E.02003
G1 X172.157 Y143.668 E.02014
G1 X171.919 Y145.018 E.05102
G1 X171.867 Y145.667 E.02428
G1 X172.082 Y146.668 E.03811
G1 X172.237 Y146.755 E.0066
G1 X172.478 Y146.738 E.00901
G1 X172.566 Y146.648 E.00469
G1 X172.819 Y146.177 E.01992
G1 X173.197 Y145.697 E.02274
G1 X173.656 Y145.296 E.02269
G1 X174.106 Y145.031 E.01946
G1 X174.387 Y144.949 E.01089
G1 X174.583 Y145.003 E.00758
G1 X174.733 Y145.139 E.00754
G1 X174.805 Y145.328 E.00753
G1 X174.738 Y145.942 E.023
G1 X174.622 Y146.474 E.02029
G1 X174.469 Y147.027 E.02137
G1 X174.29 Y147.581 E.0217
G1 X174.097 Y148.122 E.02139
G1 X173.715 Y149.072 E.03814
G1 X173.115 Y150.385 E.05377
G1 X173.098 Y150.519 E.00504
G1 X173.544 Y152.91 E.09057
G1 X173.802 Y155.095 E.08196
G1 X173.902 Y157.089 E.07438
G1 X173.873 Y158.889 E.06705
G1 X173.744 Y160.491 E.05985
G1 X173.541 Y161.891 E.05267
G1 X173.293 Y163.084 E.0454
G1 X173.029 Y164.068 E.03794
G1 X172.775 Y164.838 E.03019
G1 X172.561 Y165.389 E.02201
G1 X172.335 Y165.897 E.02071
G1 X172.367 Y166.07 E.00656
G1 X173.317 Y167.511 E.06428
G1 X174.022 Y168.74 E.05278
G1 X174.522 Y169.785 E.04314
G1 X174.846 Y170.658 E.03466
G1 X175.024 Y171.37 E.02734
G1 X175.083 Y171.894 E.01968
G1 X175.069 Y172.332 E.01632
G1 X175.003 Y172.638 E.01164
G1 X174.857 Y172.92 E.01182
G1 X171.385 Y169.397 E.18421
G1 X171.353 Y169.37 E.00158
G1 X171.159 Y169.338 E.0073
G1 X171.058 Y169.398 E.00438
G1 X170.994 Y169.566 E.0067
G1 X171.035 Y170.603 E.03863
G1 X171.037 Y171.39 E.02933
G1 X171.008 Y172.002 E.0228
G1 X170.892 Y172.772 E.02901
G1 X170.779 Y173.045 E.01102
G1 X169.579 Y171.268 E.07988
G1 X169.398 Y171.167 E.00771
G1 X169.26 Y171.207 E.00533
G1 X168.213 Y171.925 E.04728
G1 X167.198 Y172.56 E.0446
G1 X166.194 Y173.131 E.04301
G1 X165.203 Y173.64 E.04151
G1 X164.225 Y174.089 E.04009
G1 X163.262 Y174.483 E.03875
G1 X162.315 Y174.824 E.03748
G1 X161.386 Y175.115 E.03627
G1 X160.475 Y175.358 E.03512
G1 X159.584 Y175.557 E.03401
G1 X158.713 Y175.714 E.03294
G1 X157.83 Y175.837 E.03322
G1 X157.706 Y175.896 E.0051
G1 X157.633 Y176.064 E.00684
G1 X157.857 Y176.539 E.01956
G1 X158.045 Y177.068 E.02091
G1 X158.136 Y177.613 E.0206
G1 X158.104 Y178.366 E.02804
G1 X157.973 Y178.873 E.0195
G1 X157.822 Y179.245 E.01495
G1 X157.531 Y179.723 E.02086
G1 X157.162 Y180.139 E.02071
G1 X156.556 Y180.588 E.0281
G1 X156.052 Y180.819 E.02062
G1 X155.516 Y180.957 E.02062
G1 X154.763 Y180.99 E.0281
G1 X154.217 Y180.9 E.0206
G1 X153.524 Y180.63 E.02771
G1 X152.911 Y180.204 E.02779
G1 X152.416 Y179.646 E.02779
G1 X152.069 Y178.991 E.02759
G1 X151.884 Y178.268 E.02779
G1 X151.875 Y177.522 E.02779
G1 X152.04 Y176.801 E.02758
G1 X152.365 Y176.151 E.02707
G1 X152.421 Y175.943 E.008
G1 X152.364 Y175.824 E.00492
G1 X152.237 Y175.753 E.00542
G1 X151.463 Y175.621 E.02923
G1 X150.145 Y175.325 E.05034
G1 X149.056 Y175.005 E.04226
G1 X148.216 Y174.704 E.03324
G1 X147.305 Y174.304 E.03706
G1 X144.573 Y172.753 E.11702
G1 X142.347 Y170.923 E.10731
G1 X140.568 Y168.889 E.10065
G1 X139.186 Y166.728 E.09555
G1 X138.151 Y164.519 E.09085
G1 X137.414 Y162.343 E.08558
G1 X136.926 Y160.28 E.07897
G1 X136.638 Y158.411 E.07043
G1 X136.501 Y156.818 E.05956
G1 X136.465 Y155.582 E.04602
G1 X136.496 Y154.477 E.0412
G1 X136.456 Y154.341 E.00528
G1 X136.323 Y154.249 E.00601
G1 X135.672 Y154.088 E.02499
G1 X135.066 Y154.083 E.02257
G1 X134.955 Y154.015 E.00484
G1 X134.949 Y153.903 E.00415
G1 X135.245 Y153.519 E.01809
G1 X135.625 Y153.185 E.01882
G1 X136.157 Y152.826 E.0239
G1 X136.627 Y152.567 E.02
G1 X136.931 Y152.139 E.01953
G1 X137.237 Y151.332 E.03216
G1 X137.378 Y150.849 E.01873
G1 X137.566 Y150.014 E.03189
G1 X137.733 Y149.098 E.03468
G1 X137.879 Y148.136 E.03626
G1 X138.113 Y146.23 E.07152
G1 X138.362 Y143.554 E.1001
G1 X138.778 Y143.703 E.01645
G1 X139.121 Y143.989 E.01663
G1 X139.409 Y144.407 E.01893
G1 X139.632 Y145.081 E.02641
G1 X139.763 Y145.221 E.00716
G1 X139.834 Y145.237 E.0027
G1 X140.046 Y145.225 E.00793
G1 X140.17 Y145.092 E.00677
G1 X140.383 Y144.487 E.0239
G1 X140.544 Y143.8 E.02628
G1 X140.618 Y143.159 E.02405
G1 X140.613 Y142.525 E.02361
G1 X140.55 Y142.008 E.01941
G1 X140.294 Y141.111 E.03475
G1 X140.129 Y140.78 E.01376
G1 X139.892 Y140.329 E.01896
G1 X139.362 Y139.647 E.0322
G1 X139.778 Y139.545 E.01595
G1 X140.214 Y139.55 E.01624
G1 X140.513 Y139.616 E.01142
G1 X141.045 Y139.828 E.02132
G1 X141.406 Y140.058 E.01594
G1 X142.146 Y140.745 E.03762
G1 X142.592 Y141.314 E.02692
G1 X142.875 Y141.746 E.01924
G1 X143.023 Y141.823 E.00621
G1 X143.154 Y141.798 E.00498
G1 X143.267 Y141.658 E.00669
G1 X143.438 Y141.052 E.02347
G1 X143.558 Y140.512 E.02058
G1 X143.69 Y139.535 E.03673
G1 X143.686 Y138.332 E.0448
G1 X143.595 Y137.696 E.02393
G1 X143.432 Y137.058 E.02455
G1 X143.92 Y137.143 E.01847
G1 X144.39 Y137.316 E.01865
G1 X144.895 Y137.641 E.02238
G1 X145.107 Y137.863 E.01141
G1 X145.448 Y138.316 E.02112
G1 X145.668 Y138.86 E.02187
G1 X145.763 Y139.295 E.0166
G1 X145.865 Y139.445 E.00674
G1 X145.999 Y139.481 E.00518
G1 X146.159 Y139.403 E.00663
G1 X146.879 Y138.582 E.04067
G1 X147.66 Y137.946 E.0375
G1 X148.514 Y137.433 E.03713
G1 X149.413 Y137.03 E.03668
G1 X150.324 Y136.725 E.03579
G1 X151.217 Y136.506 E.03423
G1 X152.058 Y136.358 E.03183
G1 X153.133 Y136.246 E.04025
G1 X154.476 Y136.204 E.05002
G1 X154.614 Y136.091 E.00666
G1 X155.796 Y133.855 E.09421
G1 X157.208 Y132.137 E.08285
G1 X158.82 Y130.85 E.07681
G1 X160.584 Y129.942 E.07388
G1 X162.452 Y129.363 E.07284
G1 X164.374 Y129.065 E.07244
G1 X166.361 Y129.005 E.07407
G1 X168.172 Y129.121 E.06759
G1 X169.942 Y129.376 E.06659
G1 X171.554 Y129.717 E.06138
G1 X172.956 Y130.094 E.05406
G1 X174.052 Y130.442 E.04283
G1 X174.137 Y130.509 E.00402
G1 X174.063 Y130.617 E.00487
G1 X172.772 Y130.85 E.04889
G1 X171.585 Y131.143 E.04553
G1 X170.646 Y131.412 E.03637
G1 X169.571 Y131.789 E.04243
G1 X169.457 Y131.876 E.00536
G1 X169.424 Y131.95 E.003
G1 X169.453 Y132.147 E.00742
G1 E-.8
G1 Z.6 F9000
G1 X156.12 Y176.017 Z.6
G1 Z.2
G1 E.8 F1800
G1 F3000
G1 X156.336 Y176.169 E.00984
G1 X156.688 Y176.519 E.01849
G1 X156.952 Y176.948 E.01874
G1 X157.12 Y177.48 E.02079
G1 X157.14 Y178.099 E.02306
G1 X157.005 Y178.613 E.0198
G1 X156.954 Y178.761 E.00585
G1 X156.657 Y179.23 E.02067
G1 X156.196 Y179.646 E.0231
G1 X155.76 Y179.863 E.01816
G1 X155.269 Y179.99 E.01888
G1 X154.811 Y179.983 E.01707
G1 X154.51 Y179.941 E.0113
G1 X154.012 Y179.766 E.01968
G1 X153.596 Y179.485 E.01869
G1 X153.219 Y179.057 E.02124
G1 X152.931 Y178.43 E.02568
G1 X152.854 Y177.795 E.02384
G1 X152.91 Y177.357 E.01643
G1 X153.066 Y176.917 E.01738
G1 X153.264 Y176.587 E.01434
G1 X153.58 Y176.241 E.01747
G1 X154.008 Y175.954 E.01917
G1 X155.166 Y175.981 E.04314
G1 X155.988 Y175.975 E.03065
G1 X156.082 Y176.004 E.00367
G1 X157.215 Y176.409 F9000
;TYPE:Inner wall
;WIDTH:0.594238
G1 F3000
G1 X157.424 Y176.798 E.01984
;WIDTH:0.57563
G1 X157.59 Y177.331 E.02423
;WIDTH:0.587284
G1 X157.633 Y177.644 E.01401
G1 X157.615 Y178.257 E.0272
;WIDTH:0.588066
G1 X157.488 Y178.748 E.02254
G1 X157.374 Y179.027 E.01337
;WIDTH:0.578946
G1 X157.074 Y179.494 E.02424
;WIDTH:0.590238
G1 X156.821 Y179.767 E.0166
G1 X156.381 Y180.109 E.02485
;WIDTH:0.57535
G1 X155.932 Y180.33 E.02173
;WIDTH:0.583676
G1 X155.442 Y180.461 E.02232
;WIDTH:0.591644
G1 X154.793 Y180.486 E.02906
G1 X154.35 Y180.415 E.02005
;WIDTH:0.58686
G1 X153.869 Y180.239 E.02271
;WIDTH:0.564822
G1 X153.362 Y179.922 E.02542
;WIDTH:0.576966
G1 X152.847 Y179.385 E.03238
;WIDTH:0.5902
G1 X152.541 Y178.809 E.0291
;WIDTH:0.602274
G1 X152.392 Y178.201 E.02851
G1 X152.368 Y177.672 E.02414
;WIDTH:0.56793
G1 X152.449 Y177.199 E.02055
;WIDTH:0.560746
G1 X152.625 Y176.714 E.02178
;WIDTH:0.58849
G1 X152.848 Y176.305 E.02071
G1 E-.8
G1 Z.6 F9000
G1 X169.029 Y132.32 Z.6
G1 Z.2
G1 E.8 F1800
;WIDTH:0.499999
G1 F3000
G1 X169.043 Y132.383 E.0024
G1 X169.28 Y132.685 E.0143
G1 X169.756 Y132.809 E.01833
G1 X170.511 Y132.728 E.02827
G1 X171.168 Y132.771 E.02451
G1 X171.793 Y132.933 E.02405
G1 X171.065 Y133.099 E.02782
G1 X169.963 Y133.515 E.04385
G1 X169.235 Y133.877 E.03027
G1 X168.221 Y134.523 E.04481
G1 X167.784 Y134.837 E.02005
G1 X167.182 Y135.327 E.0289
G1 X166.672 Y135.789 E.02563
G1 X166.252 Y136.205 E.02205
G1 X165.596 Y136.974 E.03764
G1 X165.53 Y137.231 E.00987
G1 X165.554 Y137.451 E.00826
G1 X165.695 Y137.716 E.01119
G1 X166.904 Y139.121 E.06902
G1 X167.09 Y139.272 E.00891
G1 X167.549 Y139.397 E.01775
G1 X167.976 Y139.67 E.01885
G1 X168.514 Y140.25 E.02947
G1 X168.988 Y140.927 E.03077
G1 X169.347 Y141.54 E.02647
G1 X169.604 Y142.038 E.02086
G1 X169.824 Y142.271 E.01194
G1 X170.143 Y142.38 E.01258
G1 X170.373 Y142.36 E.0086
G1 X170.656 Y142.208 E.01197
G1 X171.122 Y141.791 E.02328
G1 X171.529 Y141.489 E.01887
G1 X172.103 Y141.18 E.0243
G1 X172.611 Y141.055 E.01945
G1 X172.955 Y141.074 E.01283
G1 X172.585 Y141.483 E.02056
G1 X172.283 Y141.967 E.02123
G1 X172.045 Y142.487 E.02131
G1 X171.858 Y143.026 E.02124
G1 X171.707 Y143.589 E.0217
G1 X171.464 Y144.975 E.05241
G1 X171.418 Y145.753 E.02903
G1 X171.605 Y146.719 E.03664
G1 X171.751 Y146.984 E.01128
G1 X171.999 Y147.16 E.01133
G1 X172.286 Y147.22 E.01094
G1 X172.705 Y147.135 E.01591
G1 X172.918 Y146.945 E.01063
G1 X173.203 Y146.428 E.02197
G1 X173.53 Y146.013 E.01968
G1 X173.908 Y145.682 E.01872
G1 X174.334 Y145.428 E.01848
G1 X174.286 Y145.868 E.01649
G1 X174.178 Y146.364 E.01891
G1 X174.031 Y146.896 E.02055
G1 X173.669 Y147.959 E.04185
G1 X173.291 Y148.902 E.03783
G1 X172.651 Y150.342 E.05868
G1 X172.649 Y150.606 E.00985
G1 X173.092 Y152.978 E.08988
G1 X173.346 Y155.133 E.08081
