; HEADER_BLOCK_START
; generated by OrcaSlicer 1.6.6 on 2023-08-31 at 22:18:34
; total layer number: 23
; HEADER_BLOCK_END

; THUMBNAIL_BLOCK_START
; THUMBNAIL_BLOCK_END

; external perimeters extrusion width = 0.40mm
; perimeters extrusion width = 0.45mm
; infill extrusion width = 0.45mm
; solid infill extrusion width = 0.40mm
; top infill extrusion width = 0.40mm
; support material extrusion width = 0.40mm
; first layer extrusion width = 0.50mm

; external perimeters extrusion width = 0.40mm
; perimeters extrusion width = 0.45mm
; infill extrusion width = 0.45mm
; solid infill extrusion width = 0.40mm
; top infill extrusion width = 0.40mm
; support material extrusion width = 0.40mm
; first layer extrusion width = 0.50mm

; external perimeters extrusion width = 0.40mm
; perimeters extrusion width = 0.45mm
; infill extrusion width = 0.45mm
; solid infill extrusion width = 0.40mm
; top infill extrusion width = 0.40mm
; support material extrusion width = 0.40mm
; first layer extrusion width = 0.50mm

; external perimeters extrusion width = 0.40mm
; perimeters extrusion width = 0.45mm
; infill extrusion width = 0.45mm
; solid infill extrusion width = 0.40mm
; top infill extrusion width = 0.40mm
; support material extrusion width = 0.40mm
; first layer extrusion width = 0.50mm

; EXECUTABLE_BLOCK_START
EXCLUDE_OBJECT_DEFINE NAME=Body1_id_0_copy_0 CENTER=173.751,179.745 POLYGON=[[152.11,199.758],[152.204,198.322],[155.158,163.663],[155.177,163.443],[155.235,163.229],[155.328,163.029],[155.455,162.848],[155.612,162.691],[155.793,162.565],[155.994,162.471],[165.282,158.358],[189.172,165.181],[189.92,165.42],[190.641,165.728],[191.332,166.102],[191.984,166.538],[192.592,167.034],[193.152,167.584],[193.658,168.184],[194.106,168.828],[194.491,169.512],[194.812,170.228],[195.064,170.971],[195.245,171.735],[195.355,172.512],[195.392,173.296],[195.305,174.376],[195.299,174.435],[195.158,175.45],[195.138,175.566],[194.951,176.513],[194.911,176.686],[194.684,177.564],[194.618,177.791],[194.536,178.061],[194.45,178.33],[194.359,178.598],[194.349,178.629],[194.338,178.66],[194.327,178.691],[194.319,178.712],[194.315,178.724],[194.303,178.758],[194.291,178.792],[194.279,178.827],[194.278,178.829],[194.264,178.866],[194.251,178.903],[194.237,178.941],[194.208,179.021],[194.197,179.05],[194.163,179.139],[194.156,179.159],[194.118,179.256],[194.114,179.268],[194.077,179.363],[194.073,179.373],[194.035,179.469],[194.031,179.478],[193.992,179.575],[193.989,179.583],[193.952,179.673],[193.947,179.685],[193.911,179.771],[193.904,179.788],[193.87,179.868],[193.861,179.889],[193.831,179.958],[193.817,179.99],[193.792,180.049],[193.773,180.091],[193.752,180.139],[193.729,180.191],[193.719,180.213],[193.714,180.224],[193.709,180.235],[193.699,180.257],[193.688,180.28],[193.678,180.302],[193.675,180.309],[193.668,180.325],[193.657,180.348],[193.647,180.371],[193.636,180.394],[193.625,180.418],[193.614,180.442],[193.603,180.466],[193.598,180.475],[193.59,180.492],[193.578,180.518],[193.566,180.543],[193.56,180.556],[193.553,180.571],[193.54,180.599],[193.526,180.627],[193.522,180.637],[193.512,180.658],[193.497,180.689],[193.484,180.715],[193.482,180.72],[193.464,180.756],[193.447,180.791],[193.446,180.793],[193.43,180.826],[193.41,180.867],[193.408,180.871],[193.389,180.908],[193.37,180.947],[193.359,180.969],[193.349,180.988],[193.34,181.007],[193.331,181.023],[193.323,181.04],[193.315,181.056],[193.307,181.07],[193.3,181.085],[193.293,181.099],[155.882,201.024],[155.737,201.084],[155.584,201.121],[155.428,201.133],[153.11,201.133],[152.954,201.121],[152.801,201.084],[152.656,201.024],[152.522,200.942],[152.403,200.84],[152.301,200.721],[152.219,200.587],[152.159,200.442],[152.122,200.289],[152.11,200.133],[152.11,199.758]]
EXCLUDE_OBJECT_DEFINE NAME=Body1_id_1_copy_0 CENTER=173.751,130.303 POLYGON=[[152.11,150.316],[152.204,148.88],[155.158,114.221],[155.177,114.001],[155.235,113.787],[155.328,113.587],[155.455,113.406],[155.612,113.249],[155.793,113.123],[155.994,113.029],[165.282,108.916],[189.172,115.739],[189.92,115.978],[190.641,116.286],[191.332,116.66],[191.984,117.096],[192.592,117.592],[193.152,118.142],[193.658,118.742],[194.106,119.386],[194.491,120.07],[194.812,120.786],[195.064,121.53],[195.245,122.293],[195.355,123.07],[195.392,123.854],[195.305,124.934],[195.299,124.993],[195.158,126.008],[195.138,126.124],[194.951,127.072],[194.911,127.244],[194.684,128.122],[194.618,128.349],[194.536,128.619],[194.45,128.888],[194.359,129.156],[194.349,129.187],[194.338,129.218],[194.327,129.249],[194.319,129.271],[194.315,129.283],[194.303,129.316],[194.291,129.35],[194.279,129.385],[194.278,129.387],[194.264,129.424],[194.251,129.461],[194.237,129.499],[194.208,129.579],[194.197,129.609],[194.163,129.697],[194.156,129.718],[194.118,129.815],[194.114,129.826],[194.077,129.921],[194.073,129.931],[194.035,130.028],[194.031,130.036],[193.992,130.134],[193.989,130.141],[193.952,130.231],[193.947,130.244],[193.911,130.329],[193.904,130.346],[193.87,130.426],[193.861,130.448],[193.831,130.516],[193.817,130.548],[193.792,130.607],[193.773,130.649],[193.752,130.697],[193.729,130.749],[193.719,130.771],[193.714,130.782],[193.709,130.794],[193.699,130.816],[193.688,130.838],[193.678,130.86],[193.675,130.867],[193.668,130.883],[193.657,130.906],[193.647,130.929],[193.636,130.952],[193.625,130.976],[193.614,131],[193.603,131.024],[193.598,131.033],[193.59,131.05],[193.578,131.076],[193.566,131.102],[193.56,131.114],[193.553,131.13],[193.54,131.158],[193.526,131.185],[193.522,131.195],[193.512,131.216],[193.497,131.247],[193.484,131.273],[193.482,131.278],[193.464,131.314],[193.447,131.349],[193.446,131.351],[193.43,131.384],[193.41,131.425],[193.408,131.429],[193.389,131.467],[193.37,131.505],[193.359,131.527],[193.349,131.546],[193.34,131.565],[193.331,131.581],[193.323,131.598],[193.315,131.614],[193.307,131.629],[193.3,131.643],[193.293,131.657],[155.882,151.582],[155.737,151.642],[155.584,151.679],[155.428,151.691],[153.11,151.691],[152.954,151.679],[152.801,151.642],[152.656,151.582],[152.522,151.5],[152.403,151.398],[152.301,151.279],[152.219,151.145],[152.159,151],[152.122,150.848],[152.11,150.691],[152.11,150.316]]
EXCLUDE_OBJECT_DEFINE NAME=Pegboard_hook_v1(1).stl_id_2_copy_0 CENTER=134.033,151.089 POLYGON=[[122.794,138.833],[122.798,138.689],[122.813,138.546],[122.838,138.405],[122.874,138.267],[122.92,138.132],[122.976,138.001],[123.042,137.875],[123.117,137.753],[123.201,137.638],[123.293,137.529],[123.346,137.472],[123.361,137.456],[123.47,137.346],[123.588,137.245],[123.714,137.155],[123.847,137.075],[123.985,137.006],[124.129,136.949],[124.277,136.903],[124.429,136.87],[124.584,136.849],[124.74,136.841],[125.018,136.859],[125.291,136.917],[125.552,137.015],[125.797,137.15],[125.973,137.279],[126.133,137.429],[126.531,137.85],[143.18,155.77],[143.442,156.071],[143.681,156.383],[143.897,156.704],[144.091,157.031],[144.264,157.361],[144.418,157.694],[144.554,158.028],[144.676,158.364],[144.782,158.701],[144.876,159.04],[144.971,159.467],[145.027,159.721],[145.14,160.407],[145.221,161.097],[145.273,161.794],[145.267,162.059],[145.222,162.319],[145.138,162.569],[145.018,162.805],[144.937,162.917],[144.863,163.019],[144.769,163.116],[144.678,163.207],[144.55,163.305],[144.466,163.366],[144.302,163.456],[144.233,163.49],[144.17,163.516],[144.033,163.564],[143.984,163.579],[143.892,163.601],[143.749,163.625],[143.725,163.629],[129.42,165.324],[129.244,165.337],[129.068,165.334],[128.893,165.315],[128.72,165.279],[128.552,165.228],[128.388,165.161],[128.223,165.075],[128.066,164.972],[127.942,164.873],[127.827,164.764],[127.721,164.646],[127.625,164.519],[127.54,164.385],[127.467,164.244],[127.406,164.098],[127.357,163.947],[127.305,163.695],[122.814,139.088],[122.794,138.833]]
EXCLUDE_OBJECT_DEFINE NAME=Pegboard_hook_v1(1).stl_id_3_copy_0 CENTER=125.848,182.491 POLYGON=[[114.608,170.234],[114.612,170.09],[114.627,169.947],[114.653,169.807],[114.688,169.669],[114.734,169.534],[114.791,169.403],[114.856,169.276],[114.931,169.155],[115.015,169.039],[115.108,168.931],[115.16,168.873],[115.175,168.857],[115.284,168.747],[115.402,168.647],[115.528,168.556],[115.661,168.476],[115.799,168.407],[115.943,168.35],[116.092,168.305],[116.243,168.272],[116.398,168.251],[116.554,168.243],[116.833,168.261],[117.105,168.319],[117.367,168.416],[117.611,168.551],[117.787,168.681],[117.947,168.83],[118.345,169.252],[134.994,187.171],[135.256,187.473],[135.495,187.785],[135.711,188.105],[135.906,188.432],[136.078,188.763],[136.232,189.095],[136.369,189.429],[136.49,189.765],[136.596,190.103],[136.69,190.441],[136.785,190.868],[136.842,191.123],[136.954,191.808],[137.035,192.499],[137.087,193.196],[137.082,193.46],[137.036,193.72],[136.952,193.971],[136.832,194.206],[136.751,194.318],[136.677,194.42],[136.583,194.518],[136.492,194.609],[136.364,194.707],[136.28,194.767],[136.116,194.858],[136.048,194.892],[135.984,194.917],[135.847,194.965],[135.799,194.98],[135.706,195.002],[135.563,195.027],[135.539,195.03],[121.234,196.725],[121.058,196.738],[120.882,196.736],[120.707,196.716],[120.534,196.681],[120.366,196.63],[120.203,196.563],[120.037,196.476],[119.88,196.373],[119.756,196.274],[119.641,196.165],[119.535,196.047],[119.439,195.92],[119.355,195.786],[119.281,195.646],[119.22,195.499],[119.172,195.348],[119.12,195.097],[114.628,170.49],[114.608,170.234]]
M73 P0 R20
;TYPE:Custom
START_PRINT T_BED=70 T_EXTRUDER=235
G90
G21
M83 ; use relative distances for extrusion
; Filament gcode
PRESSURE_ADVANCE_SELECT FILAMENT=PETG
M106 S0
;LAYER_CHANGE
;Z:0.2
;HEIGHT:0.2
;BEFORE_LAYER_CHANGE
;0.2
G92 E0

SET_VELOCITY_LIMIT ACCEL=1500 ACCEL_TO_DECEL=750
G1 E-1 F3000
G1 Z.4 F9000
G1 X118.373 Y197.825
G1 Z.4
G1 Z.2
G1 E1 F1800
;TYPE:Skirt
;WIDTH:0.5
G1 F3000
G1 X117.757 Y197.152 E.03364
G1 X117.484 Y196.717 E.01894
G1 X117.083 Y195.628 E.0428
G1 X112.578 Y170.837 E.92892
G1 X112.538 Y169.953 E.03263
G1 X112.643 Y169.227 E.02703
G1 X120.841 Y137.781 E1.19803
G1 X121.165 Y136.947 E.03298
G1 X121.693 Y136.161 E.03492
G1 X122.362 Y135.543 E.03356
G1 X154.042 Y111.731 E1.46104
G1 X163.897 Y106.352 E.41392
G1 X166.082 Y106.114 E.08103
G1 X189.972 Y112.937 E.91597
G1 X191.785 Y113.605 E.07121
G1 X192.953 Y114.238 E.04898
G1 X194.432 Y115.332 E.06783
G1 X195.886 Y116.863 E.07783
G1 X196.644 Y117.954 E.04898
G1 X197.571 Y119.85 E.07783
G1 X198.08 Y121.619 E.06783
G1 X198.266 Y122.934 E.04897
G1 X198.306 Y173.296 E1.85665
G1 X198.045 Y175.848 E.09458
G1 X197.508 Y178.286 E.09203
G1 X196.799 Y180.404 E.08236
G1 X195.903 Y182.395 E.08047
G1 X194.663 Y183.671 E.06561
G1 X157.252 Y203.596 E1.5626
G1 X156.265 Y203.954 E.03871
G1 X155.428 Y204.047 E.03104
G1 X152.485 Y203.997 E.10852
G1 X120.38 Y198.763 E1.19919
G1 X119.411 Y198.48 E.03722
G1 X118.407 Y197.847 E.04376
G1 X118.681 Y197.488 F9000
G1 F3000
G1 X118.134 Y196.893 E.02978
G1 X117.888 Y196.505 E.01695
G1 X117.532 Y195.546 E.03771
G1 X113.027 Y170.755 E.92892
G1 X112.995 Y169.97 E.02898
G1 X113.085 Y169.342 E.02338
G1 X121.281 Y137.903 E1.19776
G1 X121.575 Y137.15 E.02982
G1 X122.045 Y136.453 E.03099
G1 X122.637 Y135.909 E.02964
G1 X154.317 Y112.097 E1.46104
G1 X164.114 Y106.754 E.41141
G1 X165.956 Y106.553 E.06832
G1 X189.847 Y113.376 E.91597
G1 X191.605 Y114.026 E.0691
G1 X192.698 Y114.618 E.04583
G1 X194.315 Y115.84 E.07469
G1 X195.536 Y117.158 E.06626
G1 X196.246 Y118.179 E.04583
G1 X197.139 Y119.997 E.07469
G1 X197.636 Y121.724 E.06626
G1 X197.809 Y122.955 E.04583
G1 X197.849 Y173.296 E1.85586
M73 P1 R20
G1 X197.592 Y175.786 E.09229
G1 X197.065 Y178.173 E.09014
G1 X196.372 Y180.241 E.08039
G1 X195.493 Y182.192 E.07887
G1 X194.448 Y183.268 E.05531
G1 X157.037 Y203.193 E1.5626
G1 X156.158 Y203.51 E.03445
G1 X155.428 Y203.59 E.02708
G1 X152.558 Y203.546 E.10581
G1 X120.454 Y198.312 E1.19919
G1 X119.583 Y198.056 E.03344
G1 X118.715 Y197.509 E.03784
; printing object Body1 id:0 copy 0
G1 E-1
EXCLUDE_OBJECT_START NAME=Body1_id_0_copy_0
G1 Z.6 F9000
G1 X165.568 Y167.867 Z.6
G1 Z.2
G1 E1 F1800
;TYPE:Outer wall
G1 F3000
G1 X156.447 Y167.876 E.33627
G1 X156.247 Y167.846 E.00744
G1 X156.127 Y167.801 E.0047
G1 X155.95 Y167.69 E.00772
G1 X155.821 Y167.56 E.00675
G1 X155.651 Y167.284 E.01195
G1 X155.568 Y167.07 E.00844
G1 X155.482 Y166.699 E.01407
G1 X155.434 Y166.146 E.02046
G1 X155.426 Y165.695 E.01662
G1 X155.435 Y165.219 E.01755
G1 X155.482 Y164.691 E.01954
G1 X155.568 Y164.318 E.01408
G1 X155.652 Y164.105 E.00846
G1 X155.815 Y163.837 E.01158
G1 X155.952 Y163.698 E.00718
G1 X156.106 Y163.599 E.00675
G1 X156.26 Y163.539 E.0061
G1 X156.446 Y163.513 E.00691
G1 X165.532 Y163.522 E.33496
G1 X165.532 Y158.983 E.16733
G1 X165.811 Y159.276 E.01494
G1 X166.577 Y159.978 E.0383
G1 X167.39 Y160.626 E.03831
G1 X168.245 Y161.216 E.03831
G1 X169.138 Y161.747 E.0383
G1 X170.066 Y162.214 E.03831
G1 X171.023 Y162.618 E.0383
G1 X172.006 Y162.954 E.0383
G1 X173.01 Y163.223 E.0383
G1 X174.03 Y163.422 E.0383
G1 X175.061 Y163.55 E.0383
G1 X176.094 Y163.608 E.03815
G1 X177.407 Y163.635 E.0484
G1 X178.708 Y163.718 E.04805
G1 X180.004 Y163.856 E.04805
G1 X181.295 Y164.049 E.04815
G1 X188.358 Y165.258 E.26415
G1 X189.107 Y165.423 E.02829
G1 X189.832 Y165.655 E.02807
G1 X190.533 Y165.953 E.02807
G1 X191.202 Y166.316 E.02807
G1 X191.835 Y166.74 E.02807
G1 X192.425 Y167.22 E.02807
G1 X192.968 Y167.754 E.02807
G1 X193.459 Y168.336 E.02807
G1 X193.894 Y168.961 E.02807
G1 X194.268 Y169.624 E.02807
G1 X194.579 Y170.32 E.02807
G1 X194.823 Y171.041 E.02807
G1 X194.999 Y171.781 E.02807
G1 X195.106 Y172.535 E.02807
G1 X195.141 Y173.292 E.02792
G1 X195.056 Y174.35 E.03915
G1 X194.911 Y175.411 E.03948
G1 X194.706 Y176.462 E.03948
G1 X194.442 Y177.5 E.03948
G1 X194.123 Y178.517 E.03928
G1 X193.844 Y179.271 E.02965
G1 X193.485 Y180.122 E.03403
G1 X193.129 Y180.862 E.0303
G1 X192.852 Y180.887 E.01027
G1 X192.463 Y180.853 E.01438
G1 X192.068 Y180.749 E.01505
G1 X191.707 Y180.58 E.01469
G1 X191.38 Y180.351 E.01471
G1 X191.098 Y180.069 E.01471
G1 X190.869 Y179.742 E.01471
G1 X190.701 Y179.381 E.01471
G1 X190.597 Y178.995 E.01471
G1 X190.562 Y178.587 E.01511
G1 X190.562 Y173.287 E.19538
G1 X190.527 Y172.797 E.01813
G1 X190.423 Y172.307 E.01845
G1 X190.251 Y171.837 E.01845
G1 X190.015 Y171.396 E.01845
G1 X189.72 Y170.991 E.01845
G1 X189.372 Y170.632 E.01845
G1 X188.976 Y170.326 E.01845
G1 X188.542 Y170.077 E.01845
G1 X188.077 Y169.891 E.01845
G1 X187.599 Y169.775 E.01813
G1 X180.194 Y168.507 E.27696
G1 X178.949 Y168.33 E.04638
G1 X177.692 Y168.223 E.04651
G1 X176.434 Y168.188 E.04638
G1 X173.548 Y168.188 E.10638
G1 X173.014 Y168.226 E.01974
G1 X172.482 Y168.342 E.02007
G1 X171.972 Y168.532 E.02007
G1 X171.494 Y168.793 E.02007
G1 X171.058 Y169.119 E.02007
G1 X170.673 Y169.504 E.02007
G1 X170.347 Y169.94 E.02007
G1 X170.086 Y170.418 E.02007
G1 X169.896 Y170.928 E.02007
G1 X169.78 Y171.46 E.02007
G1 X169.742 Y171.995 E.01974
G1 X169.742 Y188.75 E.6177
G1 X169.706 Y189.316 E.02092
G1 X169.6 Y189.866 E.02063
G1 X169.426 Y190.397 E.02063
G1 X169.186 Y190.903 E.02063
G1 X168.884 Y191.374 E.02063
G1 X168.526 Y191.803 E.02063
G1 X168.115 Y192.184 E.02063
G1 X167.661 Y192.51 E.02063
G1 X167.168 Y192.775 E.02063
G1 X166.646 Y192.977 E.02063
G1 X166.103 Y193.111 E.02063
G1 X165.547 Y193.175 E.02063
G1 X164.476 Y193.163 E.0395
G1 X164.397 Y193.262 E.00467
G1 X161.882 Y193.261 E.09274
G1 X160.842 Y193.511 E.03942
G1 X159.863 Y193.916 E.03905
G1 X158.96 Y194.47 E.03905
G1 X158.154 Y195.158 E.03905
G1 X157.466 Y195.963 E.03905
G1 X156.913 Y196.867 E.03905
G1 X156.508 Y197.845 E.03905
G1 X156.26 Y198.877 E.03911
G1 X156.168 Y200.252 E.0508
G1 X156.096 Y200.473 E.00859
G1 X155.958 Y200.663 E.00864
G1 X155.768 Y200.801 E.00864
G1 X155.66 Y200.846 E.00433
G1 X155.418 Y200.883 E.009
G1 X153.12 Y200.883 E.08473
G1 X152.878 Y200.846 E.009
G1 X152.67 Y200.739 E.00864
G1 X152.504 Y200.573 E.00864
G1 X152.397 Y200.364 E.00864
G1 X152.36 Y200.123 E.009
G1 X152.36 Y199.766 E.01317
G1 X152.452 Y198.355 E.05214
G1 X152.727 Y196.976 E.05184
G1 X153.179 Y195.644 E.05184
G1 X153.801 Y194.383 E.05184
