; HEADER_BLOCK_START
; generated by OrcaSlicer 1.6.2 on 2023-05-23 at 22:13:52
; total layer number: 103
; HEADER_BLOCK_END

; THUMBNAIL_BLOCK_START
; THUMBNAIL_BLOCK_END

; external perimeters extrusion width = 0.40mm
; perimeters extrusion width = 0.45mm
; infill extrusion width = 0.45mm
; solid infill extrusion width = 0.40mm
; top infill extrusion width = 0.40mm
; first layer extrusion width = 0.50mm

; EXECUTABLE_BLOCK_START
EXCLUDE_OBJECT_DEFINE NAME=Bottom_plate_hex_standoff.stl_id_0_copy_0 CENTER=160,150 POLYGON=[[132.5,130.39],[132.504,130.159],[132.513,129.999],[132.534,129.773],[132.556,129.61],[132.594,129.389],[132.629,129.225],[132.683,129.012],[132.732,128.847],[132.802,128.643],[132.865,128.479],[132.948,128.284],[133.025,128.122],[133.122,127.937],[133.214,127.778],[133.323,127.605],[133.428,127.451],[133.548,127.29],[133.668,127.141],[133.797,126.993],[133.931,126.851],[134.069,126.716],[134.216,126.583],[134.361,126.461],[134.521,126.337],[134.672,126.23],[134.844,126.117],[135,126.023],[135.184,125.922],[135.343,125.842],[135.538,125.754],[135.699,125.689],[135.904,125.615],[136.066,125.563],[136.279,125.504],[136.441,125.466],[136.663,125.424],[136.823,125.399],[137.051,125.373],[137.209,125.361],[137.442,125.353],[182.558,125.353],[182.791,125.361],[182.949,125.373],[183.177,125.399],[183.337,125.424],[183.559,125.466],[183.721,125.504],[183.934,125.563],[184.096,125.615],[184.301,125.689],[184.462,125.754],[184.657,125.842],[184.816,125.922],[185,126.023],[185.156,126.117],[185.328,126.23],[185.479,126.337],[185.639,126.461],[185.784,126.583],[185.931,126.716],[186.069,126.851],[186.203,126.993],[186.332,127.141],[186.452,127.29],[186.572,127.451],[186.677,127.605],[186.786,127.778],[186.878,127.937],[186.975,128.122],[187.052,128.284],[187.135,128.479],[187.198,128.643],[187.268,128.847],[187.317,129.012],[187.371,129.225],[187.406,129.389],[187.444,129.61],[187.466,129.773],[187.487,129.999],[187.496,130.159],[187.5,130.39],[187.496,130.547],[187.482,130.781],[187.466,130.933],[182.443,170.403],[182.44,170.42],[182.368,170.787],[182.365,170.8],[182.264,171.163],[182.261,171.174],[182.131,171.531],[182.129,171.538],[181.97,171.887],[181.968,171.891],[181.781,172.23],[181.781,172.23],[181.568,172.554],[181.567,172.556],[181.33,172.861],[181.327,172.865],[181.07,173.148],[181.064,173.154],[180.788,173.414],[180.779,173.422],[180.486,173.658],[180.474,173.667],[180.166,173.877],[180.151,173.887],[179.83,174.071],[179.811,174.081],[179.48,174.238],[179.458,174.248],[179.119,174.378],[179.092,174.387],[178.747,174.489],[178.717,174.497],[178.368,174.571],[178.334,174.577],[177.984,174.624],[177.947,174.627],[177.597,174.646],[177.556,174.647],[142.444,174.647],[142.403,174.646],[142.053,174.627],[142.016,174.624],[141.666,174.577],[141.632,174.571],[141.283,174.497],[141.253,174.489],[140.908,174.387],[140.881,174.378],[140.542,174.248],[140.52,174.238],[140.189,174.081],[140.17,174.071],[139.849,173.887],[139.834,173.877],[139.526,173.667],[139.514,173.658],[139.221,173.422],[139.212,173.414],[138.936,173.154],[138.93,173.148],[138.673,172.865],[138.67,172.861],[138.433,172.556],[138.432,172.554],[138.219,172.23],[138.219,172.23],[138.032,171.891],[138.03,171.887],[137.871,171.538],[137.869,171.531],[137.739,171.174],[137.736,171.163],[137.635,170.8],[137.632,170.787],[137.56,170.42],[137.557,170.403],[132.534,130.933],[132.518,130.781],[132.504,130.547],[132.5,130.39]]
M73 P0 R64
;TYPE:Custom
START_PRINT T_BED=100 T_EXTRUDER=250
G90
G21
M83 ; use relative distances for extrusion
; Filament gcode
PRESSURE_ADVANCE_SELECT FILAMENT=ABS
M106 S0
;LAYER_CHANGE
;Z:0.2
;HEIGHT:0.2
M204 S500
G1 E-.8 F3000
G1 Z.4 F9000
G1 X131.846 Y125.493
G1 Z.2
G1 E.8 F1800
;TYPE:Skirt
;WIDTH:0.5
G1 X132.984 Y124.42 E.05505
G1 X134.136 Y123.699 E.04781
G1 X135.583 Y123.148 E.05452
G1 X136.93 Y122.919 E.04806
G1 X182.555 Y122.896 E1.60572
G1 X183.838 Y123.018 E.04538
G1 X185.332 Y123.456 E.05478
G1 X186.536 Y124.084 E.0478
G1 X187.75 Y125.059 E.05478
G1 X188.63 Y126.109 E.04823
G1 X189.378 Y127.474 E.05478
G1 X189.786 Y128.77 E.0478
G1 X189.956 Y130.317 E.05478
G1 X189.87 Y131.478 E.04097
G1 X184.88 Y170.713 E1.39195
G1 X184.633 Y171.817 E.03981
G1 X184.209 Y172.899 E.04091
G1 X183.833 Y173.582 E.02745
G1 X183.144 Y174.519 E.04091
G1 X182.461 Y175.212 E.03425
G1 X181.852 Y175.7 E.02747
G1 X180.501 Y176.472 E.05478
G1 X179.22 Y176.902 E.04754
G1 X177.557 Y177.104 E.05896
G1 X142.319 Y177.101 E1.24014
G1 X141.16 Y176.981 E.04101
G1 X139.671 Y176.545 E.05461
G1 X138.634 Y176.022 E.04089
G1 X137.684 Y175.338 E.04119
G1 X136.732 Y174.372 E.04774
G1 X136.067 Y173.416 E.041
G1 X135.556 Y172.362 E.0412
G1 X135.145 Y170.869 E.0545
G1 X130.081 Y131.091 E1.41125
G1 X130.07 Y129.731 E.04787
G1 X130.215 Y128.767 E.03429
G1 X130.419 Y128.02 E.02726
G1 X131.058 Y126.599 E.05483
G1 X131.811 Y125.542 E.0457
; printing object Bottom plate hex standoff.stl id:0 copy 0
EXCLUDE_OBJECT_START NAME=Bottom_plate_hex_standoff.stl_id_0_copy_0
G1 E-.8 F3000
G1 Z.6 F9000
G1 X158.359 Y151.081 Z.2
G1 E.8 F1800
;TYPE:Inner wall
;WIDTH:0.499999
G1 X158.461 Y151.167 E.00469
G1 X158.663 Y151.421 E.01144
G1 X158.864 Y151.9 E.01829
G1 X158.894 Y152.389 E.01724
G1 X158.863 Y152.698 E.01092
G1 X158.727 Y153.022 E.01237
;WIDTH:0.485963
G1 X158.61 Y153.155 E.00606
;WIDTH:0.443076
G1 X158.493 Y153.289 E.00548
;WIDTH:0.400189
G1 X158.376 Y153.423 E.00489
;WIDTH:0.357302
G1 X153.846 Y157.953 E.15506
;WIDTH:0.404867
G1 X153.668 Y158.146 E.00733
;WIDTH:0.452433
G1 X153.491 Y158.34 E.00829
;WIDTH:0.499999
G1 X153.313 Y158.534 E.00926
G1 X153.021 Y158.702 E.01186
G1 X152.56 Y158.821 E.01674
G1 X152.103 Y158.818 E.01609
G1 X151.632 Y158.663 E.01745
G1 X151.347 Y158.487 E.01179
G1 X150.366 Y157.657 E.04521
G1 X149.921 Y157.327 E.01951
G1 X149.452 Y157.01 E.0199
G1 X148.97 Y156.714 E.0199
G1 X148.476 Y156.44 E.0199
G1 X147.979 Y156.193 E.01951
G1 X146.794 Y155.693 E.04528
G1 X146.427 Y155.446 E.01556
G1 X146.238 Y155.255 E.00946
G1 X146.151 Y155.116 E.00579
;WIDTH:0.473804
G1 X146.064 Y154.976 E.00546
;WIDTH:0.447609
G1 X145.997 Y154.725 E.00811
;WIDTH:0.416224
G1 X145.931 Y154.473 E.00748
;WIDTH:0.431619
G1 X145.889 Y154.212 E.00793
;WIDTH:0.478398
G1 X145.847 Y153.95 E.00888
;WIDTH:0.499999
G1 X145.836 Y150.003 E.13891
G1 X145.932 Y149.48 E.01873
G1 X146.134 Y149.061 E.01638
G1 X146.446 Y148.718 E.01632
G1 X146.743 Y148.522 E.01251
G1 X147.249 Y148.36 E.01871
G1 X147.797 Y148.367 E.01927
G1 X152.55 Y149.485 E.17182
;WIDTH:0.509617
G1 X153.049 Y149.597 E.01838
;WIDTH:0.54746
G1 X153.172 Y149.607 E.00479
;WIDTH:0.585303
G1 X153.295 Y149.616 E.00515
;WIDTH:0.623145
G1 X153.418 Y149.626 E.00551
G1 X153.912 Y149.76 E.02286
;WIDTH:0.616147
G1 X154.755 Y149.945 E.03811
G1 X155.034 Y150.031 E.0129
;WIDTH:0.577431
G1 X155.314 Y150.116 E.01203
;WIDTH:0.538715
G1 X155.593 Y150.202 E.01116
;WIDTH:0.499999
G1 X157.693 Y150.697 E.07593
G1 X158.152 Y150.906 E.01773
G1 X158.313 Y151.042 E.00742
G1 E-.8 F3000
G1 Z.6 F9000
G1 X153.517 Y161.903 Z.2
G1 E.8 F1800
G1 X153.921 Y161.735 E.01541
G1 X154.354 Y161.606 E.01589
;WIDTH:0.539674
G1 X154.601 Y161.556 E.00967
;WIDTH:0.579348
G1 X154.849 Y161.505 E.01044
;WIDTH:0.593222
G1 X155.648 Y161.559 E.03393
G1 X156.02 Y161.706 E.01693
;WIDTH:0.546611
G1 X156.391 Y161.853 E.01549
;WIDTH:0.499999
G1 X157.056 Y162.272 E.02765
G1 X157.601 Y162.837 E.02765
G1 X157.995 Y163.517 E.02765
G1 X158.216 Y164.271 E.02765
G1 X158.249 Y165.056 E.02765
G1 X158.093 Y165.826 E.02765
G1 X157.758 Y166.536 E.02765
G1 X157.268 Y167.14 E.02736
G1 X156.637 Y167.617 E.02783
G1 X155.913 Y167.928 E.02775
G1 X155.138 Y168.056 E.02765
G1 X154.363 Y167.996 E.02736
G1 X153.612 Y167.748 E.02784
G1 X152.944 Y167.328 E.02775
G1 X152.399 Y166.763 E.02765
G1 X152.008 Y166.091 E.02736
G1 X151.785 Y165.332 E.02783
G1 X151.751 Y164.625 E.0249
G1 X151.784 Y164.271 E.01253
G1 X151.907 Y163.774 E.018
G1 X152.005 Y163.517 E.00969
G1 X152.242 Y163.064 E.018
G1 X152.645 Y162.559 E.02274
G1 X153.005 Y162.23 E.01715
G1 X153.432 Y161.938 E.01821
G1 X153.461 Y161.926 E.00111
G1 X153.635 Y162.358 F9000
G1 F1800
G1 X153.713 Y162.305 E.00331
G1 X154.249 Y162.099 E.02022
G1 X154.909 Y161.998 E.02351
G1 X155.589 Y162.059 E.024
G1 X156.229 Y162.28 E.02384
G1 X156.796 Y162.648 E.02378
G1 X157.259 Y163.14 E.02378
G1 X157.591 Y163.729 E.02378
G1 X157.772 Y164.38 E.02378
G1 X157.792 Y165.056 E.02378
G1 X157.649 Y165.716 E.02378
G1 X157.353 Y166.324 E.02378
G1 X156.926 Y166.837 E.02351
G1 X156.377 Y167.242 E.024
G1 X155.751 Y167.501 E.02384
G1 X155.083 Y167.602 E.02378
G1 X154.417 Y167.542 E.02351
G1 X153.773 Y167.32 E.024
G1 X153.204 Y166.952 E.02384
G1 X152.741 Y166.46 E.02378
G1 X152.413 Y165.878 E.02351
G1 X152.229 Y165.221 E.024
G1 X152.208 Y164.625 E.021
G1 X152.228 Y164.38 E.00865
G1 X152.351 Y163.884 E.018
G1 X152.646 Y163.279 E.02368
G1 X152.987 Y162.862 E.01897
G1 X153.264 Y162.606 E.01327
G1 X153.585 Y162.391 E.01358
G1 X153.863 Y162.749 F9000
;TYPE:Outer wall
G1 F1800
G1 X153.88 Y162.736 E.00075
G1 X154.411 Y162.526 E.0201
G1 X154.965 Y162.452 E.01966
G1 X155.535 Y162.513 E.02017
G1 X156.067 Y162.708 E.01995
G1 X156.537 Y163.024 E.01993
G1 X156.917 Y163.443 E.01993
G1 X157.186 Y163.941 E.01993
G1 X157.328 Y164.49 E.01993
G1 X157.335 Y165.056 E.01993
G1 X157.206 Y165.607 E.01993
G1 X156.948 Y166.111 E.01993
G1 X156.583 Y166.534 E.01966
G1 X156.116 Y166.866 E.02016
G1 X155.589 Y167.074 E.01995
G1 X155.028 Y167.148 E.01993
G1 X154.472 Y167.088 E.01966
G1 X153.934 Y166.892 E.02016
G1 X153.463 Y166.576 E.01995
G1 X153.083 Y166.157 E.01993
G1 X152.817 Y165.665 E.01966
G1 X152.672 Y165.111 E.02016
G1 X152.665 Y164.625 E.0171
G1 X152.794 Y163.993 E.02271
G1 X153.05 Y163.491 E.01982
G1 X153.422 Y163.06 E.02003
G1 X153.814 Y162.783 E.01689
G1 X153.862 Y162.744
G1 E-.8 F3000
G1 Z.6 F9000
G1 X165.363 Y160.856 Z.2
G1 E.8 F1800
;TYPE:Inner wall
;WIDTH:0.534088
G1 X165.251 Y160.895 E.00451
;WIDTH:0.568176
G1 X165.003 Y160.982 E.01063
;WIDTH:0.593521
G1 X164.314 Y161.011 E.02921
G1 X163.88 Y160.988 E.01844
;WIDTH:0.54676
G1 X163.446 Y160.964 E.01687
;WIDTH:0.499999
G1 X156.554 Y160.964 E.24255
;WIDTH:0.508231
G1 X156.043 Y160.968 E.01832
;WIDTH:0.550727
G1 X155.862 Y160.99 E.00713
;WIDTH:0.593222
G1 X155.681 Y161.011 E.00772
G1 X155.168 Y160.995 E.02173
;WIDTH:0.579348
G1 X154.884 Y160.962 E.01183
G1 X154.617 Y160.847 E.01199
;WIDTH:0.539674
G1 X154.35 Y160.732 E.01111
;WIDTH:0.499999
G1 X153.958 Y160.412 E.01782
G1 X153.664 Y159.949 E.01932
G1 X153.561 Y159.584 E.01333
G1 X153.554 Y159.109 E.01674
G1 X153.624 Y158.773 E.01208
G1 X153.732 Y158.619 E.00663
;WIDTH:0.455347
G1 X153.841 Y158.464 E.00599
;WIDTH:0.410694
G1 X153.949 Y158.31 E.00534
;WIDTH:0.366041
G1 X154.069 Y158.175 E.00449
;WIDTH:0.357302
G1 X158.598 Y153.645 E.15506
;WIDTH:0.400189
G1 X158.715 Y153.503 E.00506
;WIDTH:0.443076
G1 X158.832 Y153.362 E.00566
;WIDTH:0.485963
G1 X158.949 Y153.22 E.00627
;WIDTH:0.499999
G1 X159.256 Y153.007 E.01315
G1 X159.671 Y152.865 E.01542
G1 X160.009 Y152.842 E.01194
G1 X160.405 Y152.884 E.014
G1 X160.772 Y153.034 E.01394
G1 X160.958 Y153.164 E.00803
;WIDTH:0.472743
G1 X161.106 Y153.325 E.00722
;WIDTH:0.434263
G1 X161.254 Y153.485 E.00657
;WIDTH:0.395782
G1 X161.402 Y153.645 E.00592
;WIDTH:0.357301
G1 X165.931 Y158.174 E.15504
;WIDTH:0.406434
G1 X166.098 Y158.376 E.00733
;WIDTH:0.455566
G1 X166.266 Y158.577 E.00832
;WIDTH:0.499999
G1 X166.384 Y158.779 E.00822
G1 X166.459 Y159.191 E.01475
G1 X166.432 Y159.609 E.01475
G1 X166.232 Y160.153 E.02039
G1 X166.179 Y160.236 E.00346
G1 X165.785 Y160.644 E.01997
G1 X165.499 Y160.809 E.01161
;WIDTH:0.534088
G1 X165.42 Y160.836 E.00316
G1 E-.8 F3000
G1 Z.6 F9000
G1 X167.633 Y162.902 Z.2
G1 E.8 F1800
;WIDTH:0.499999
G1 X167.759 Y163.067 E.00728
G1 X167.995 Y163.517 E.01789
G1 X168.106 Y163.828 E.01164
G1 X168.228 Y164.327 E.01807
G1 X168.249 Y165.056 E.02565
G1 X168.093 Y165.826 E.02765
G1 X167.797 Y166.462 E.0247
G1 X167.602 Y166.762 E.01259
G1 X167.268 Y167.14 E.01774
G1 X166.637 Y167.617 E.02783
G1 X165.913 Y167.928 E.02775
G1 X165.138 Y168.056 E.02765
G1 X164.355 Y167.994 E.02765
G1 X163.609 Y167.747 E.02765
G1 X162.944 Y167.328 E.02765
G1 X162.399 Y166.763 E.02765
G1 X162.028 Y166.128 E.02587
G1 X161.907 Y165.826 E.01146
G1 X161.784 Y165.329 E.018
G1 X161.751 Y164.544 E.02765
G1 X161.907 Y163.774 E.02765
G1 X162.242 Y163.064 E.02765
G1 X162.738 Y162.454 E.02765
G1 X163.365 Y161.981 E.02765
;WIDTH:0.528913
G1 X164.082 Y161.658 E.02943
;WIDTH:0.561217
G1 X164.215 Y161.609 E.00566
;WIDTH:0.593521
G1 X164.348 Y161.559 E.00601
G1 X164.85 Y161.513 E.02138
;WIDTH:0.562832
G1 X165.186 Y161.532 E.01345
;WIDTH:0.538442
G1 X165.798 Y161.635 E.02368
;WIDTH:0.499999
G1 X166.327 Y161.829 E.01984
G1 X166.635 Y161.981 E.0121
G1 X167.056 Y162.272 E.018
G1 X167.472 Y162.691 E.02079
G1 X167.597 Y162.855 E.00725
G1 X167.303 Y163.218 F9000
G1 F1800
G1 X167.591 Y163.729 E.02065
G1 X167.779 Y164.414 E.025
G1 X167.792 Y165.056 E.02259
G1 X167.649 Y165.716 E.02378
G1 X167.392 Y166.25 E.02084
G1 X167.26 Y166.459 E.00873
G1 X166.926 Y166.837 E.01774
G1 X166.377 Y167.242 E.024
G1 X165.751 Y167.501 E.02384
G1 X165.083 Y167.602 E.02378
G1 X164.41 Y167.54 E.02378
G1 X163.771 Y167.32 E.02378
G1 X163.204 Y166.952 E.02378
G1 X162.741 Y166.46 E.02378
G1 X162.433 Y165.916 E.02201
G1 X162.351 Y165.716 E.00759
G1 X162.228 Y165.22 E.018
G1 X162.208 Y164.544 E.02378
G1 X162.351 Y163.884 E.02378
G1 X162.647 Y163.276 E.02378
G1 X163.08 Y162.757 E.02378
G1 X163.625 Y162.357 E.02378
G1 X164.249 Y162.099 E.02378
G1 X164.897 Y162 E.02305
G1 X165.589 Y162.059 E.02445
G1 X166.165 Y162.256 E.02143
G1 X166.375 Y162.357 E.00822
G1 X166.796 Y162.648 E.018
G1 X167.259 Y163.14 E.02378
G1 X167.273 Y163.165 E.00102
G1 X166.991 Y163.58 F9000
;TYPE:Outer wall
G1 F1800
G1 X167.186 Y163.941 E.01445
G1 X167.33 Y164.501 E.02033
G1 X167.335 Y165.056 E.01953
G1 X167.206 Y165.607 E.01993
G1 X166.948 Y166.111 E.01993
G1 X166.583 Y166.534 E.01966
G1 X166.116 Y166.866 E.02016
G1 X165.589 Y167.074 E.01995
G1 X165.028 Y167.148 E.01993
G1 X164.465 Y167.087 E.01993
G1 X163.933 Y166.892 E.01993
G1 X163.463 Y166.576 E.01993
G1 X163.083 Y166.157 E.01993
G1 X162.837 Y165.703 E.01815
G1 X162.672 Y165.11 E.02166
G1 X162.665 Y164.544 E.01993
G1 X162.794 Y163.993 E.01993
G1 X163.052 Y163.489 E.01993
G1 X163.422 Y163.06 E.01993
G1 X163.884 Y162.733 E.01993
G1 X164.411 Y162.526 E.01993
G1 X164.952 Y162.454 E.0192
G1 X165.535 Y162.513 E.02061
G1 X166.067 Y162.708 E.01995
G1 X166.537 Y163.024 E.01993
G1 X166.917 Y163.443 E.01993
G1 X166.962 Y163.527 E.00336
G1 X167.071 Y163.577
G1 E-.8 F3000
G1 Z.6 F9000
G1 X172.867 Y148.405 Z.2
G1 E.8 F1800
;TYPE:Inner wall
G1 X173.169 Y148.492 E.01106
G1 X173.526 Y148.697 E.01451
G1 X173.884 Y149.085 E.01859
G1 X174.094 Y149.542 E.01768
G1 X174.157 Y149.917 E.01338
G1 X174.153 Y153.95 E.14196
;WIDTH:0.478415
G1 X174.114 Y154.201 E.00849
;WIDTH:0.431556
G1 X174.075 Y154.451 E.00758
;WIDTH:0.416156
G1 X174.006 Y154.714 E.00781
;WIDTH:0.447615
G1 X173.936 Y154.976 E.00846
;WIDTH:0.473807
G1 X173.808 Y155.157 E.00735
;WIDTH:0.499999
G1 X173.68 Y155.338 E.00779
G1 X173.452 Y155.551 E.01101
G1 X172.634 Y155.935 E.0318
G1 X172.021 Y156.193 E.02341
G1 X171.524 Y156.44 E.01951
G1 X171.041 Y156.708 E.01944
G1 X170.547 Y157.011 E.02039
G1 X170.079 Y157.327 E.01988
G1 X169.634 Y157.657 E.01951
G1 X168.653 Y158.487 E.04524
G1 X168.368 Y158.663 E.01176
G1 X167.897 Y158.818 E.01745
G1 X167.291 Y158.804 E.02135
G1 X166.911 Y158.665 E.01425
G1 X166.51 Y158.377 E.01736
;WIDTH:0.455566
G1 X166.332 Y158.164 E.00882
;WIDTH:0.406434
G1 X166.153 Y157.952 E.00777
;WIDTH:0.357301
G1 X161.624 Y153.423 E.15504
;WIDTH:0.395782
G1 X161.493 Y153.261 E.00566
;WIDTH:0.434263
G1 X161.362 Y153.099 E.00628
;WIDTH:0.472743
G1 X161.231 Y152.937 E.0069
;WIDTH:0.499999
G1 X161.111 Y152.506 E.01574
G1 X161.094 Y152.16 E.01218
G1 X161.244 Y151.604 E.02025
G1 X161.454 Y151.267 E.01401
G1 X161.751 Y150.969 E.0148
G1 X162.165 Y150.74 E.01663
G1 X164.407 Y150.202 E.08114
;WIDTH:0.509833
G1 X164.903 Y150.08 E.01839
;WIDTH:0.545292
