; HEADER_BLOCK_START
; generated by OrcaSlicer 1.6.6 on 2023-08-27 at 11:54:10
; total layer number: 425
; HEADER_BLOCK_END

; THUMBNAIL_BLOCK_START
; THUMBNAIL_BLOCK_END

; external perimeters extrusion width = 0.40mm
; perimeters extrusion width = 0.45mm
; infill extrusion width = 0.45mm
; solid infill extrusion width = 0.40mm
; top infill extrusion width = 0.40mm
; support material extrusion width = 0.40mm
; first layer extrusion width = 0.50mm

; EXECUTABLE_BLOCK_START
EXCLUDE_OBJECT_DEFINE NAME=box23.stl_id_0_copy_0 CENTER=165,165 POLYGON=[[108.5,150],[221.5,150],[221.5,180],[108.5,180],[108.5,150]]
M73 P0 R207
;TYPE:Custom
START_PRINT T_BED=60 T_EXTRUDER=220
G90
G21
M83 ; use relative distances for extrusion
; filament start gcode
PRESSURE_ADVANCE_SELECT FILAMENT=PLA
M106 S0
;LAYER_CHANGE
;Z:0.2
;HEIGHT:0.2
;BEFORE_LAYER_CHANGE
;0.2
G92 E0

SET_VELOCITY_LIMIT ACCEL=1500 ACCEL_TO_DECEL=750
G1 E-.8 F3000
G1 Z.4 F9000
G1 X107.052 Y147.471
G1 Z.4
G1 Z.2
G1 E.8 F1800
;TYPE:Skirt
;WIDTH:0.5
G1 F3000
G1 X108.5 Y147.086 E.0558
G1 X221.5 Y147.086 E4.20882
G1 X222.962 Y147.479 E.05638
G1 X224.029 Y148.552 E.05638
G1 X224.414 Y150 E.0558
G1 X224.414 Y180 E1.11739
G1 X224.021 Y181.462 E.05638
G1 X222.948 Y182.529 E.05638
G1 X221.5 Y182.914 E.0558
G1 X108.5 Y182.914 E4.20882
G1 X107.038 Y182.521 E.05638
G1 X105.971 Y181.448 E.05638
G1 X105.586 Y180 E.0558
G1 X105.586 Y150 E1.11739
G1 X105.979 Y148.538 E.05638
G1 X107.024 Y147.499 E.05489
G1 X107.351 Y147.878 F9000
G1 F3000
G1 X107.485 Y147.762 E.00661
G1 X108.5 Y147.543 E.03866
G1 X221.5 Y147.543 E4.20882
G1 X222.831 Y147.935 E.05169
G1 X223.738 Y148.985 E.05169
G1 X223.957 Y150 E.03866
G1 X223.957 Y180 E1.11739
G1 X223.565 Y181.331 E.05169
G1 X222.515 Y182.238 E.05169
G1 X221.5 Y182.457 E.03866
G1 X108.5 Y182.457 E4.20882
G1 X107.169 Y182.065 E.05169
G1 X106.262 Y181.015 E.05169
G1 X106.043 Y180 E.03866
G1 X106.043 Y150 E1.11739
G1 X106.435 Y148.669 E.05169
G1 X107.321 Y147.904 E.04359
; printing object box23.stl id:0 copy 0
G1 E-.8
EXCLUDE_OBJECT_START NAME=box23.stl_id_0_copy_0
G1 Z.6 F9000
G1 X221.25 Y179.75 Z.6
G1 Z.2
G1 E.8 F1800
;TYPE:Outer wall
;WIDTH:0.499999
G1 F3000
G1 X108.75 Y179.75 E4.19019
G1 X108.75 Y150.25 E1.09876
G1 X221.25 Y150.25 E4.19019
G1 X221.25 Y165 E.54938
G1 X221.25 Y179.71 E.54789
G1 X220.793 Y179.293 F9000
;TYPE:Inner wall
G1 F3000
G1 X109.207 Y179.293 E4.15614
G1 X109.207 Y150.707 E1.06471
G1 X220.793 Y150.707 E4.15614
G1 X220.793 Y165 E.53236
G1 X220.793 Y179.253 E.53087
G1 X220.336 Y178.836 F9000
G1 F3000
G1 X109.664 Y178.836 E4.12209
G1 X109.664 Y151.164 E1.03066
G1 X220.336 Y151.164 E4.12209
G1 X220.336 Y165 E.51533
G1 X220.336 Y178.796 E.51384
G1 E-.8
G1 Z.6 F9000
G1 X220.19 Y152.236 Z.6
G1 Z.2
G1 E.8 F1800
;TYPE:Bottom surface
;WIDTH:0.500546
G1 F3000
G1 X219.47 Y151.516 E.03794
G1 X218.823 Y151.516 E.02413
G1 X219.984 Y152.677 E.06122
G1 X219.984 Y153.324 E.02413
G1 X218.176 Y151.516 E.09536
G1 X217.529 Y151.516 E.02413
G1 X219.984 Y153.971 E.12949
G1 X219.984 Y154.619 E.02413
G1 X216.881 Y151.516 E.16362
G1 X216.234 Y151.516 E.02413
G1 X219.984 Y155.266 E.19775
G1 X219.984 Y155.913 E.02413
G1 X215.587 Y151.516 E.23188
G1 X214.94 Y151.516 E.02413
G1 X219.984 Y156.56 E.26601
G1 X219.984 Y157.207 E.02413
G1 X214.293 Y151.516 E.30014
G1 X213.646 Y151.516 E.02413
G1 X219.984 Y157.854 E.33427
G1 X219.984 Y158.502 E.02413
G1 X212.998 Y151.516 E.3684
G1 X212.351 Y151.516 E.02413
G1 X219.984 Y159.149 E.40253
G1 X219.984 Y159.796 E.02413
G1 X211.704 Y151.516 E.43666
G1 X211.057 Y151.516 E.02413
G1 X219.984 Y160.443 E.47079
G1 X219.984 Y161.09 E.02413
G1 X210.41 Y151.516 E.50492
G1 X209.762 Y151.516 E.02413
G1 X219.984 Y161.738 E.53905
G1 X219.984 Y162.385 E.02413
G1 X209.115 Y151.516 E.57318
G1 X208.468 Y151.516 E.02413
G1 X219.984 Y163.032 E.60731
G1 X219.984 Y163.679 E.02413
G1 X207.821 Y151.516 E.64144
G1 X207.174 Y151.516 E.02413
G1 X219.984 Y164.326 E.67557
G1 X219.984 Y164.973 E.02413
G1 X206.527 Y151.516 E.7097
G1 X205.879 Y151.516 E.02413
G1 X219.984 Y165.621 E.74383
G1 X219.984 Y166.268 E.02413
G1 X205.232 Y151.516 E.77796
G1 X204.585 Y151.516 E.02413
G1 X219.984 Y166.915 E.81209
G1 X219.984 Y167.562 E.02413
G1 X203.938 Y151.516 E.84622
G1 X203.291 Y151.516 E.02413
G1 X219.984 Y168.209 E.88035
G1 X219.984 Y168.857 E.02413
G1 X202.643 Y151.516 E.91448
G1 X201.996 Y151.516 E.02413
G1 X219.984 Y169.504 E.94862
G1 X219.984 Y170.151 E.02413
G1 X201.349 Y151.516 E.98275
G1 X200.702 Y151.516 E.02413
G1 X219.984 Y170.798 E1.01688
G1 X219.984 Y171.445 E.02413
G1 X200.055 Y151.516 E1.05101
G1 X199.408 Y151.516 E.02413
G1 X219.984 Y172.092 E1.08514
G1 X219.984 Y172.74 E.02413
G1 X198.76 Y151.516 E1.11927
G1 X198.113 Y151.516 E.02413
G1 X219.984 Y173.387 E1.1534
G1 X219.984 Y174.034 E.02413
G1 X197.466 Y151.516 E1.18753
G1 X196.819 Y151.516 E.02413
G1 X219.984 Y174.681 E1.22166
G1 X219.984 Y175.328 E.02413
G1 X196.172 Y151.516 E1.25579
G1 X195.524 Y151.516 E.02413
G1 X219.984 Y175.976 E1.28992
G1 X219.984 Y176.623 E.02413
G1 X194.877 Y151.516 E1.32405
G1 X194.23 Y151.516 E.02413
G1 X219.984 Y177.27 E1.35818
G1 X219.984 Y177.917 E.02413
G1 X193.583 Y151.516 E1.39231
G1 X192.936 Y151.516 E.02413
G1 X219.904 Y178.484 E1.4222
G1 X219.256 Y178.484 E.02413
G1 X192.289 Y151.516 E1.4222
G1 X191.641 Y151.516 E.02413
G1 X218.609 Y178.484 E1.4222
G1 X217.962 Y178.484 E.02413
G1 X190.994 Y151.516 E1.4222
G1 X190.347 Y151.516 E.02413
G1 X217.315 Y178.484 E1.4222
G1 X216.668 Y178.484 E.02413
G1 X189.7 Y151.516 E1.4222
M73 P0 R206
G1 X189.053 Y151.516 E.02413
G1 X216.02 Y178.484 E1.4222
G1 X215.373 Y178.484 E.02413
G1 X188.405 Y151.516 E1.4222
G1 X187.758 Y151.516 E.02413
G1 X214.726 Y178.484 E1.4222
G1 X214.079 Y178.484 E.02413
G1 X187.111 Y151.516 E1.4222
G1 X186.464 Y151.516 E.02413
G1 X213.432 Y178.484 E1.4222
G1 X212.785 Y178.484 E.02413
G1 X185.817 Y151.516 E1.4222
G1 X185.17 Y151.516 E.02413
G1 X212.137 Y178.484 E1.4222
G1 X211.49 Y178.484 E.02413
G1 X184.522 Y151.516 E1.4222
G1 X183.875 Y151.516 E.02413
G1 X210.843 Y178.484 E1.4222
G1 X210.196 Y178.484 E.02413
G1 X183.228 Y151.516 E1.4222
G1 X182.581 Y151.516 E.02413
G1 X209.549 Y178.484 E1.4222
G1 X208.901 Y178.484 E.02413
G1 X181.934 Y151.516 E1.4222
G1 X181.286 Y151.516 E.02413
G1 X208.254 Y178.484 E1.4222
G1 X207.607 Y178.484 E.02413
G1 X180.639 Y151.516 E1.4222
G1 X179.992 Y151.516 E.02413
G1 X206.96 Y178.484 E1.4222
G1 X206.313 Y178.484 E.02413
G1 X179.345 Y151.516 E1.4222
G1 X178.698 Y151.516 E.02413
G1 X205.666 Y178.484 E1.4222
G1 X205.018 Y178.484 E.02413
G1 X178.051 Y151.516 E1.4222
G1 X177.403 Y151.516 E.02413
G1 X204.371 Y178.484 E1.4222
G1 X203.724 Y178.484 E.02413
G1 X176.756 Y151.516 E1.4222
G1 X176.109 Y151.516 E.02413
G1 X203.077 Y178.484 E1.4222
G1 X202.43 Y178.484 E.02413
G1 X175.462 Y151.516 E1.4222
G1 X174.815 Y151.516 E.02413
G1 X201.782 Y178.484 E1.4222
G1 X201.135 Y178.484 E.02413
G1 X174.167 Y151.516 E1.4222
G1 X173.52 Y151.516 E.02413
G1 X200.488 Y178.484 E1.4222
G1 X199.841 Y178.484 E.02413
G1 X172.873 Y151.516 E1.4222
G1 X172.226 Y151.516 E.02413
G1 X199.194 Y178.484 E1.4222
G1 X198.547 Y178.484 E.02413
G1 X171.579 Y151.516 E1.4222
G1 X170.932 Y151.516 E.02413
G1 X197.899 Y178.484 E1.4222
G1 X197.252 Y178.484 E.02413
G1 X170.284 Y151.516 E1.4222
G1 X169.637 Y151.516 E.02413
G1 X196.605 Y178.484 E1.4222
G1 X195.958 Y178.484 E.02413
G1 X168.99 Y151.516 E1.4222
G1 X168.343 Y151.516 E.02413
G1 X195.311 Y178.484 E1.4222
G1 X194.663 Y178.484 E.02413
G1 X167.696 Y151.516 E1.4222
G1 X167.048 Y151.516 E.02413
G1 X194.016 Y178.484 E1.4222
G1 X193.369 Y178.484 E.02413
G1 X166.401 Y151.516 E1.4222
G1 X165.754 Y151.516 E.02413
G1 X192.722 Y178.484 E1.4222
G1 X192.075 Y178.484 E.02413
G1 X165.107 Y151.516 E1.4222
G1 X164.46 Y151.516 E.02413
G1 X191.428 Y178.484 E1.4222
G1 X190.78 Y178.484 E.02413
G1 X163.813 Y151.516 E1.4222
G1 X163.165 Y151.516 E.02413
G1 X190.133 Y178.484 E1.4222
G1 X189.486 Y178.484 E.02413
G1 X162.518 Y151.516 E1.4222
G1 X161.871 Y151.516 E.02413
G1 X188.839 Y178.484 E1.4222
G1 X188.192 Y178.484 E.02413
G1 X161.224 Y151.516 E1.4222
G1 X160.577 Y151.516 E.02413
G1 X187.544 Y178.484 E1.4222
G1 X186.897 Y178.484 E.02413
G1 X159.929 Y151.516 E1.4222
G1 X159.282 Y151.516 E.02413
G1 X186.25 Y178.484 E1.4222
G1 X185.603 Y178.484 E.02413
G1 X158.635 Y151.516 E1.4222
G1 X157.988 Y151.516 E.02413
G1 X184.956 Y178.484 E1.4222
G1 X184.309 Y178.484 E.02413
G1 X157.341 Y151.516 E1.4222
G1 X156.694 Y151.516 E.02413
G1 X183.661 Y178.484 E1.4222
G1 X183.014 Y178.484 E.02413
G1 X156.046 Y151.516 E1.4222
G1 X155.399 Y151.516 E.02413
G1 X182.367 Y178.484 E1.4222
G1 X181.72 Y178.484 E.02413
G1 X154.752 Y151.516 E1.4222
G1 X154.105 Y151.516 E.02413
G1 X181.073 Y178.484 E1.4222
G1 X180.425 Y178.484 E.02413
G1 X153.458 Y151.516 E1.4222
G1 X152.811 Y151.516 E.02413
G1 X179.778 Y178.484 E1.4222
G1 X179.131 Y178.484 E.02413
G1 X152.163 Y151.516 E1.4222
G1 X151.516 Y151.516 E.02413
G1 X178.484 Y178.484 E1.4222
G1 X177.837 Y178.484 E.02413
G1 X150.869 Y151.516 E1.4222
G1 X150.222 Y151.516 E.02413
G1 X177.19 Y178.484 E1.4222
G1 X176.542 Y178.484 E.02413
G1 X149.575 Y151.516 E1.4222
G1 X148.927 Y151.516 E.02413
G1 X175.895 Y178.484 E1.4222
G1 X175.248 Y178.484 E.02413
G1 X148.28 Y151.516 E1.4222
G1 X147.633 Y151.516 E.02413
G1 X174.601 Y178.484 E1.4222
G1 X173.954 Y178.484 E.02413
G1 X146.986 Y151.516 E1.4222
G1 X146.339 Y151.516 E.02413
G1 X173.307 Y178.484 E1.4222
G1 X172.659 Y178.484 E.02413
G1 X145.692 Y151.516 E1.4222
G1 X145.044 Y151.516 E.02413
G1 X172.012 Y178.484 E1.4222
G1 X171.365 Y178.484 E.02413
G1 X144.397 Y151.516 E1.4222
G1 X143.75 Y151.516 E.02413
G1 X170.718 Y178.484 E1.4222
G1 X170.071 Y178.484 E.02413
G1 X143.103 Y151.516 E1.4222
G1 X142.456 Y151.516 E.02413
G1 X169.423 Y178.484 E1.4222
G1 X168.776 Y178.484 E.02413
G1 X141.808 Y151.516 E1.4222
M73 P0 R205
G1 X141.161 Y151.516 E.02413
G1 X168.129 Y178.484 E1.4222
G1 X167.482 Y178.484 E.02413
G1 X140.514 Y151.516 E1.4222
G1 X139.867 Y151.516 E.02413
G1 X166.835 Y178.484 E1.4222
G1 X166.188 Y178.484 E.02413
G1 X139.22 Y151.516 E1.4222
G1 X138.573 Y151.516 E.02413
G1 X165.54 Y178.484 E1.4222
G1 X164.893 Y178.484 E.02413
G1 X137.925 Y151.516 E1.4222
G1 X137.278 Y151.516 E.02413
G1 X164.246 Y178.484 E1.4222
G1 X163.599 Y178.484 E.02413
G1 X136.631 Y151.516 E1.4222
G1 X135.984 Y151.516 E.02413
G1 X162.952 Y178.484 E1.4222
G1 X162.304 Y178.484 E.02413
G1 X135.337 Y151.516 E1.4222
G1 X134.689 Y151.516 E.02413
G1 X161.657 Y178.484 E1.4222
M73 P1 R205
G1 X161.01 Y178.484 E.02413
G1 X134.042 Y151.516 E1.4222
G1 X133.395 Y151.516 E.02413
G1 X160.363 Y178.484 E1.4222
G1 X159.716 Y178.484 E.02413
G1 X132.748 Y151.516 E1.4222
G1 X132.101 Y151.516 E.02413
G1 X159.069 Y178.484 E1.4222
G1 X158.421 Y178.484 E.02413
G1 X131.454 Y151.516 E1.4222
G1 X130.806 Y151.516 E.02413
G1 X157.774 Y178.484 E1.4222
G1 X157.127 Y178.484 E.02413
G1 X130.159 Y151.516 E1.4222
G1 X129.512 Y151.516 E.02413
G1 X156.48 Y178.484 E1.4222
G1 X155.833 Y178.484 E.02413
G1 X128.865 Y151.516 E1.4222
G1 X128.218 Y151.516 E.02413
G1 X155.185 Y178.484 E1.4222
G1 X154.538 Y178.484 E.02413
G1 X127.57 Y151.516 E1.4222
G1 X126.923 Y151.516 E.02413
G1 X153.891 Y178.484 E1.4222
G1 X153.244 Y178.484 E.02413
G1 X126.276 Y151.516 E1.4222
G1 X125.629 Y151.516 E.02413
G1 X152.597 Y178.484 E1.4222
G1 X151.95 Y178.484 E.02413
G1 X124.982 Y151.516 E1.4222
G1 X124.335 Y151.516 E.02413
G1 X151.302 Y178.484 E1.4222
G1 X150.655 Y178.484 E.02413
G1 X123.687 Y151.516 E1.4222
G1 X123.04 Y151.516 E.02413
G1 X150.008 Y178.484 E1.4222
G1 X149.361 Y178.484 E.02413
G1 X122.393 Y151.516 E1.4222
G1 X121.746 Y151.516 E.02413
G1 X148.714 Y178.484 E1.4222
G1 X148.066 Y178.484 E.02413
G1 X121.099 Y151.516 E1.4222
G1 X120.451 Y151.516 E.02413
G1 X147.419 Y178.484 E1.4222
G1 X146.772 Y178.484 E.02413
G1 X119.804 Y151.516 E1.4222
G1 X119.157 Y151.516 E.02413
G1 X146.125 Y178.484 E1.4222
G1 X145.478 Y178.484 E.02413
G1 X118.51 Y151.516 E1.4222
G1 X117.863 Y151.516 E.02413
G1 X144.831 Y178.484 E1.4222
G1 X144.183 Y178.484 E.02413
G1 X117.216 Y151.516 E1.4222
G1 X116.568 Y151.516 E.02413
G1 X143.536 Y178.484 E1.4222
G1 X142.889 Y178.484 E.02413
G1 X115.921 Y151.516 E1.4222
G1 X115.274 Y151.516 E.02413
G1 X142.242 Y178.484 E1.4222
G1 X141.595 Y178.484 E.02413
G1 X114.627 Y151.516 E1.4222
G1 X113.98 Y151.516 E.02413
G1 X140.947 Y178.484 E1.4222
G1 X140.3 Y178.484 E.02413
G1 X113.332 Y151.516 E1.4222
G1 X112.685 Y151.516 E.02413
G1 X139.653 Y178.484 E1.4222
G1 X139.006 Y178.484 E.02413
G1 X112.038 Y151.516 E1.4222
G1 X111.391 Y151.516 E.02413
G1 X138.359 Y178.484 E1.4222
G1 X137.712 Y178.484 E.02413
G1 X110.744 Y151.516 E1.4222
G1 X110.097 Y151.516 E.02413
G1 X137.064 Y178.484 E1.4222
G1 X136.417 Y178.484 E.02413
G1 X110.016 Y152.083 E1.39232
G1 X110.016 Y152.73 E.02413
G1 X135.77 Y178.484 E1.35819
G1 X135.123 Y178.484 E.02413
G1 X110.016 Y153.377 E1.32405
G1 X110.016 Y154.024 E.02413
G1 X134.476 Y178.484 E1.28992
G1 X133.828 Y178.484 E.02413
G1 X110.016 Y154.672 E1.25579
G1 X110.016 Y155.319 E.02413
G1 X133.181 Y178.484 E1.22166
G1 X132.534 Y178.484 E.02413
G1 X110.016 Y155.966 E1.18753
G1 X110.016 Y156.613 E.02413
G1 X131.887 Y178.484 E1.1534
G1 X131.24 Y178.484 E.02413
G1 X110.016 Y157.26 E1.11927
G1 X110.016 Y157.907 E.02413
G1 X130.593 Y178.484 E1.08514
G1 X129.945 Y178.484 E.02413
G1 X110.016 Y158.555 E1.05101
G1 X110.016 Y159.202 E.02413
G1 X129.298 Y178.484 E1.01688
G1 X128.651 Y178.484 E.02413
G1 X110.016 Y159.849 E.98275
G1 X110.016 Y160.496 E.02413
G1 X128.004 Y178.484 E.94862
G1 X127.357 Y178.484 E.02413
G1 X110.016 Y161.143 E.91449
G1 X110.016 Y161.791 E.02413
G1 X126.709 Y178.484 E.88036
G1 X126.062 Y178.484 E.02413
G1 X110.016 Y162.438 E.84623
G1 X110.016 Y163.085 E.02413
G1 X125.415 Y178.484 E.8121
G1 X124.768 Y178.484 E.02413
G1 X110.016 Y163.732 E.77797
G1 X110.016 Y164.379 E.02413
G1 X124.121 Y178.484 E.74384
G1 X123.474 Y178.484 E.02413
G1 X110.016 Y165.026 E.70971
G1 X110.016 Y165.674 E.02413
G1 X122.826 Y178.484 E.67558
G1 X122.179 Y178.484 E.02413
G1 X110.016 Y166.321 E.64145
G1 X110.016 Y166.968 E.02413
G1 X121.532 Y178.484 E.60732
G1 X120.885 Y178.484 E.02413
G1 X110.016 Y167.615 E.57319
G1 X110.016 Y168.262 E.02413
G1 X120.238 Y178.484 E.53906
G1 X119.59 Y178.484 E.02413
G1 X110.016 Y168.91 E.50493
G1 X110.016 Y169.557 E.02413
G1 X118.943 Y178.484 E.47079
G1 X118.296 Y178.484 E.02413
G1 X110.016 Y170.204 E.43666
G1 X110.016 Y170.851 E.02413
G1 X117.649 Y178.484 E.40253
G1 X117.002 Y178.484 E.02413
G1 X110.016 Y171.498 E.3684
G1 X110.016 Y172.145 E.02413
G1 X116.355 Y178.484 E.33427
G1 X115.707 Y178.484 E.02413
G1 X110.016 Y172.793 E.30014
G1 X110.016 Y173.44 E.02413
G1 X115.06 Y178.484 E.26601
G1 X114.413 Y178.484 E.02413
G1 X110.016 Y174.087 E.23188
G1 X110.016 Y174.734 E.02413
G1 X113.766 Y178.484 E.19775
G1 X113.119 Y178.484 E.02413
G1 X110.016 Y175.381 E.16362
G1 X110.016 Y176.028 E.02413
G1 X112.472 Y178.484 E.12949
G1 X111.824 Y178.484 E.02413
G1 X110.016 Y176.676 E.09536
G1 X110.016 Y177.323 E.02413
G1 X111.177 Y178.484 E.06123
G1 X110.53 Y178.484 E.02413
G1 X109.81 Y177.764 E.03795
; stop printing object box23.stl id:0 copy 0
M106 S255
;LAYER_CHANGE
;Z:0.4
;HEIGHT:0.2
;BEFORE_LAYER_CHANGE
;0.4
G92 E0

EXCLUDE_OBJECT_END NAME=box23.stl_id_0_copy_0
SET_VELOCITY_LIMIT ACCEL=4000 ACCEL_TO_DECEL=2000
M140 S60 ; set bed temperature
; printing object box23.stl id:0 copy 0
SET_VELOCITY_LIMIT ACCEL=3000 ACCEL_TO_DECEL=1500
G1 E-.8 F3000
EXCLUDE_OBJECT_START NAME=box23.stl_id_0_copy_0
G1 Z.6 F9000
G1 X221.3 Y179.8 Z.6
G1 Z.4
G1 E.8 F1800
SET_VELOCITY_LIMIT ACCEL=2000 ACCEL_TO_DECEL=1000
;TYPE:Outer wall
;WIDTH:0.399999
G1 F4200
G1 X108.7 Y179.8 E3.27637
M73 P1 R204
G1 X108.7 Y150.2 E.86128
G1 X221.3 Y150.2 E3.27637
G1 X221.3 Y165 E.43064
G1 X221.3 Y179.76 E.42948
SET_VELOCITY_LIMIT ACCEL=3000 ACCEL_TO_DECEL=1500
G1 X220.918 Y179.418 F9000
;TYPE:Inner wall
;WIDTH:0.449999
G1 F4800
G1 X109.082 Y179.418 E3.70979
G1 X109.082 Y150.582 E.95654
G1 X220.918 Y150.582 E3.70979
G1 X220.918 Y165 E.47827
G1 X220.918 Y179.378 E.47694
G1 X220.511 Y179.011 F9000
G1 F4800
