; HEADER_BLOCK_START
; generated by OrcaSlicer 1.6.6 on 2023-08-26 at 20:23:37
; total layer number: 200
; HEADER_BLOCK_END

; THUMBNAIL_BLOCK_START
; THUMBNAIL_BLOCK_END

; external perimeters extrusion width = 0.40mm
; perimeters extrusion width = 0.45mm
; infill extrusion width = 0.45mm
; solid infill extrusion width = 0.40mm
; top infill extrusion width = 0.40mm
; support material extrusion width = 0.40mm
; first layer extrusion width = 0.50mm

; EXECUTABLE_BLOCK_START
EXCLUDE_OBJECT_DEFINE NAME=box.stl_id_0_copy_0 CENTER=155,155 POLYGON=[[98.5,145],[211.5,145],[211.5,165],[98.5,165],[98.5,145]]
M73 P0 R90
;TYPE:Custom
START_PRINT T_BED=60 T_EXTRUDER=220
G90
G21
M83 ; use relative distances for extrusion
; filament start gcode
PRESSURE_ADVANCE_SELECT FILAMENT=PLA
M106 S0
;LAYER_CHANGE
;Z:0.2
;HEIGHT:0.2
;BEFORE_LAYER_CHANGE
;0.2
G92 E0

SET_VELOCITY_LIMIT ACCEL=1500 ACCEL_TO_DECEL=750
G1 E-.8 F3000
G1 Z.4 F9000
G1 X97.485 Y142.762
M73 P0 R89
G1 Z.4
G1 Z.2
G1 E.8 F1800
;TYPE:Skirt
;WIDTH:0.5
G1 F3000
G1 X98.5 Y142.543 E.03866
G1 X211.5 Y142.543 E4.20882
G1 X212.831 Y142.935 E.05169
G1 X213.738 Y143.985 E.05169
G1 X213.957 Y145 E.03866
G1 X213.957 Y165 E.74492
G1 X213.565 Y166.331 E.05169
G1 X212.515 Y167.238 E.05169
G1 X211.5 Y167.457 E.03866
G1 X98.5 Y167.457 E4.20882
G1 X97.169 Y167.065 E.05169
G1 X96.262 Y166.015 E.05169
G1 X96.043 Y165 E.03866
G1 X96.043 Y145 E.74492
G1 X96.435 Y143.669 E.05169
G1 X97.455 Y142.788 E.0502
; printing object box.stl id:0 copy 0
G1 E-.8
EXCLUDE_OBJECT_START NAME=box.stl_id_0_copy_0
G1 Z.6 F9000
G1 X211.25 Y145.25 Z.6
G1 Z.2
G1 E.8 F1800
;TYPE:Outer wall
;WIDTH:0.499999
G1 F3000
G1 X211.25 Y164.75 E.7263
G1 X108.5 Y164.75 E3.82704
G1 X98.75 Y164.75 E.36315
G1 X98.75 Y145.25 E.7263
G1 X211.21 Y145.25 E4.1887
G1 X210.793 Y145.707 F9000
;TYPE:Inner wall
G1 F3000
G1 X210.793 Y164.293 E.69225
G1 X108.5 Y164.293 E3.81002
G1 X99.207 Y164.293 E.34613
G1 X99.207 Y145.707 E.69225
G1 X210.753 Y145.707 E4.15465
G1 X210.336 Y146.164 F9000
G1 F3000
G1 X210.336 Y163.836 E.6582
G1 X108.5 Y163.836 E3.79299
G1 X99.664 Y163.836 E.3291
G1 X99.664 Y146.164 E.6582
G1 X210.296 Y146.164 E4.1206
G1 X209.262 Y146.31 F9000
;TYPE:Bottom surface
;WIDTH:0.50182
G1 F3000
G1 X209.984 Y147.033 E.03819
G1 X209.984 Y147.682 E.02427
G1 X208.818 Y146.516 E.06163
G1 X208.169 Y146.516 E.02427
G1 X209.984 Y148.331 E.09595
G1 X209.984 Y148.98 E.02427
G1 X207.52 Y146.516 E.13027
G1 X206.872 Y146.516 E.02427
G1 X209.984 Y149.628 E.1646
G1 X209.984 Y150.277 E.02427
G1 X206.223 Y146.516 E.19892
G1 X205.574 Y146.516 E.02427
G1 X209.984 Y150.926 E.23324
G1 X209.984 Y151.575 E.02427
G1 X204.925 Y146.516 E.26756
G1 X204.276 Y146.516 E.02427
G1 X209.984 Y152.224 E.30188
G1 X209.984 Y152.873 E.02427
G1 X203.627 Y146.516 E.3362
G1 X202.978 Y146.516 E.02427
G1 X209.984 Y153.522 E.37052
G1 X209.984 Y154.171 E.02427
G1 X202.329 Y146.516 E.40484
G1 X201.68 Y146.516 E.02427
G1 X209.984 Y154.82 E.43916
G1 X209.984 Y155.469 E.02427
G1 X201.031 Y146.516 E.47348
G1 X200.382 Y146.516 E.02427
G1 X209.984 Y156.118 E.5078
G1 X209.984 Y156.767 E.02427
G1 X199.733 Y146.516 E.54212
G1 X199.084 Y146.516 E.02427
G1 X209.984 Y157.416 E.57644
G1 X209.984 Y158.065 E.02427
G1 X198.435 Y146.516 E.61076
G1 X197.786 Y146.516 E.02427
G1 X209.984 Y158.714 E.64509
G1 X209.984 Y159.363 E.02427
G1 X197.137 Y146.516 E.67941
G1 X196.488 Y146.516 E.02427
G1 X209.984 Y160.012 E.71373
G1 X209.984 Y160.661 E.02427
G1 X195.839 Y146.516 E.74805
G1 X195.19 Y146.516 E.02427
G1 X209.984 Y161.31 E.78237
G1 X209.984 Y161.959 E.02427
G1 X194.541 Y146.516 E.81669
G1 X193.892 Y146.516 E.02427
G1 X209.984 Y162.608 E.85101
G1 X209.984 Y163.257 E.02427
G1 X193.243 Y146.516 E.88533
G1 X192.594 Y146.516 E.02427
G1 X209.562 Y163.484 E.89732
G1 X208.913 Y163.484 E.02427
G1 X191.945 Y146.516 E.89732
G1 X191.296 Y146.516 E.02427
G1 X208.264 Y163.484 E.89732
G1 X207.615 Y163.484 E.02427
G1 X190.647 Y146.516 E.89732
G1 X189.998 Y146.516 E.02427
G1 X206.966 Y163.484 E.89732
G1 X206.317 Y163.484 E.02427
G1 X189.349 Y146.516 E.89732
G1 X188.7 Y146.516 E.02427
G1 X205.668 Y163.484 E.89732
G1 X205.019 Y163.484 E.02427
G1 X188.051 Y146.516 E.89732
G1 X187.402 Y146.516 E.02427
G1 X204.37 Y163.484 E.89732
G1 X203.721 Y163.484 E.02427
G1 X186.753 Y146.516 E.89732
G1 X186.104 Y146.516 E.02427
G1 X203.072 Y163.484 E.89732
G1 X202.423 Y163.484 E.02427
G1 X185.455 Y146.516 E.89732
G1 X184.806 Y146.516 E.02427
G1 X201.774 Y163.484 E.89732
G1 X201.125 Y163.484 E.02427
G1 X184.157 Y146.516 E.89732
G1 X183.508 Y146.516 E.02427
G1 X200.476 Y163.484 E.89732
G1 X199.827 Y163.484 E.02427
G1 X182.859 Y146.516 E.89732
G1 X182.21 Y146.516 E.02427
G1 X199.178 Y163.484 E.89732
G1 X198.529 Y163.484 E.02427
G1 X181.561 Y146.516 E.89732
G1 X180.912 Y146.516 E.02427
G1 X197.88 Y163.484 E.89732
G1 X197.231 Y163.484 E.02427
G1 X180.263 Y146.516 E.89732
G1 X179.614 Y146.516 E.02427
G1 X196.582 Y163.484 E.89732
G1 X195.933 Y163.484 E.02427
G1 X178.965 Y146.516 E.89732
G1 X178.316 Y146.516 E.02427
G1 X195.284 Y163.484 E.89732
G1 X194.635 Y163.484 E.02427
G1 X177.667 Y146.516 E.89732
G1 X177.018 Y146.516 E.02427
G1 X193.986 Y163.484 E.89732
G1 X193.337 Y163.484 E.02427
G1 X176.369 Y146.516 E.89732
G1 X175.72 Y146.516 E.02427
G1 X192.688 Y163.484 E.89732
G1 X192.039 Y163.484 E.02427
G1 X175.071 Y146.516 E.89732
G1 X174.422 Y146.516 E.02427
G1 X191.39 Y163.484 E.89732
G1 X190.741 Y163.484 E.02427
G1 X173.773 Y146.516 E.89732
G1 X173.124 Y146.516 E.02427
G1 X190.092 Y163.484 E.89732
G1 X189.443 Y163.484 E.02427
G1 X172.475 Y146.516 E.89732
G1 X171.826 Y146.516 E.02427
G1 X188.794 Y163.484 E.89732
G1 X188.145 Y163.484 E.02427
G1 X171.177 Y146.516 E.89732
G1 X170.528 Y146.516 E.02427
G1 X187.496 Y163.484 E.89732
G1 X186.847 Y163.484 E.02427
G1 X169.88 Y146.516 E.89732
G1 X169.231 Y146.516 E.02427
G1 X186.198 Y163.484 E.89732
G1 X185.549 Y163.484 E.02427
G1 X168.582 Y146.516 E.89732
G1 X167.933 Y146.516 E.02427
G1 X184.9 Y163.484 E.89732
G1 X184.251 Y163.484 E.02427
G1 X167.284 Y146.516 E.89732
G1 X166.635 Y146.516 E.02427
G1 X183.602 Y163.484 E.89732
M73 P1 R89
G1 X182.953 Y163.484 E.02427
G1 X165.986 Y146.516 E.89732
G1 X165.337 Y146.516 E.02427
G1 X182.304 Y163.484 E.89732
G1 X181.655 Y163.484 E.02427
G1 X164.688 Y146.516 E.89732
G1 X164.039 Y146.516 E.02427
G1 X181.006 Y163.484 E.89732
G1 X180.357 Y163.484 E.02427
G1 X163.39 Y146.516 E.89732
G1 X162.741 Y146.516 E.02427
G1 X179.708 Y163.484 E.89732
G1 X179.06 Y163.484 E.02427
G1 X162.092 Y146.516 E.89732
G1 X161.443 Y146.516 E.02427
G1 X178.411 Y163.484 E.89732
G1 X177.762 Y163.484 E.02427
G1 X160.794 Y146.516 E.89732
G1 X160.145 Y146.516 E.02427
G1 X177.113 Y163.484 E.89732
G1 X176.464 Y163.484 E.02427
G1 X159.496 Y146.516 E.89732
G1 X158.847 Y146.516 E.02427
G1 X175.815 Y163.484 E.89732
G1 X175.166 Y163.484 E.02427
G1 X158.198 Y146.516 E.89732
G1 X157.549 Y146.516 E.02427
G1 X174.517 Y163.484 E.89732
M73 P1 R88
G1 X173.868 Y163.484 E.02427
G1 X156.9 Y146.516 E.89732
G1 X156.251 Y146.516 E.02427
G1 X173.219 Y163.484 E.89732
G1 X172.57 Y163.484 E.02427
G1 X155.602 Y146.516 E.89732
G1 X154.953 Y146.516 E.02427
G1 X171.921 Y163.484 E.89732
G1 X171.272 Y163.484 E.02427
G1 X154.304 Y146.516 E.89732
G1 X153.655 Y146.516 E.02427
G1 X170.623 Y163.484 E.89732
G1 X169.974 Y163.484 E.02427
G1 X153.006 Y146.516 E.89732
G1 X152.357 Y146.516 E.02427
G1 X169.325 Y163.484 E.89732
G1 X168.676 Y163.484 E.02427
G1 X151.708 Y146.516 E.89732
G1 X151.059 Y146.516 E.02427
G1 X168.027 Y163.484 E.89732
G1 X167.378 Y163.484 E.02427
G1 X150.41 Y146.516 E.89732
G1 X149.761 Y146.516 E.02427
G1 X166.729 Y163.484 E.89732
G1 X166.08 Y163.484 E.02427
G1 X149.112 Y146.516 E.89732
G1 X148.463 Y146.516 E.02427
G1 X165.431 Y163.484 E.89732
G1 X164.782 Y163.484 E.02427
G1 X147.814 Y146.516 E.89732
G1 X147.165 Y146.516 E.02427
G1 X164.133 Y163.484 E.89732
G1 X163.484 Y163.484 E.02427
G1 X146.516 Y146.516 E.89732
G1 X145.867 Y146.516 E.02427
G1 X162.835 Y163.484 E.89732
G1 X162.186 Y163.484 E.02427
G1 X145.218 Y146.516 E.89732
G1 X144.569 Y146.516 E.02427
G1 X161.537 Y163.484 E.89732
G1 X160.888 Y163.484 E.02427
G1 X143.92 Y146.516 E.89732
G1 X143.271 Y146.516 E.02427
G1 X160.239 Y163.484 E.89732
G1 X159.59 Y163.484 E.02427
G1 X142.622 Y146.516 E.89732
G1 X141.973 Y146.516 E.02427
G1 X158.941 Y163.484 E.89732
G1 X158.292 Y163.484 E.02427
G1 X141.324 Y146.516 E.89732
G1 X140.675 Y146.516 E.02427
G1 X157.643 Y163.484 E.89732
G1 X156.994 Y163.484 E.02427
G1 X140.026 Y146.516 E.89732
G1 X139.377 Y146.516 E.02427
G1 X156.345 Y163.484 E.89732
G1 X155.696 Y163.484 E.02427
G1 X138.728 Y146.516 E.89732
G1 X138.079 Y146.516 E.02427
G1 X155.047 Y163.484 E.89732
G1 X154.398 Y163.484 E.02427
G1 X137.43 Y146.516 E.89732
G1 X136.781 Y146.516 E.02427
G1 X153.749 Y163.484 E.89732
G1 X153.1 Y163.484 E.02427
G1 X136.132 Y146.516 E.89732
G1 X135.483 Y146.516 E.02427
G1 X152.451 Y163.484 E.89732
G1 X151.802 Y163.484 E.02427
G1 X134.834 Y146.516 E.89732
G1 X134.185 Y146.516 E.02427
G1 X151.153 Y163.484 E.89732
G1 X150.504 Y163.484 E.02427
G1 X133.536 Y146.516 E.89732
G1 X132.887 Y146.516 E.02427
G1 X149.855 Y163.484 E.89732
G1 X149.206 Y163.484 E.02427
G1 X132.239 Y146.516 E.89732
G1 X131.59 Y146.516 E.02427
G1 X148.557 Y163.484 E.89732
G1 X147.908 Y163.484 E.02427
G1 X130.941 Y146.516 E.89732
G1 X130.292 Y146.516 E.02427
G1 X147.259 Y163.484 E.89732
G1 X146.61 Y163.484 E.02427
G1 X129.643 Y146.516 E.89732
G1 X128.994 Y146.516 E.02427
G1 X145.961 Y163.484 E.89732
G1 X145.312 Y163.484 E.02427
G1 X128.345 Y146.516 E.89732
G1 X127.696 Y146.516 E.02427
G1 X144.663 Y163.484 E.89732
G1 X144.014 Y163.484 E.02427
G1 X127.047 Y146.516 E.89732
G1 X126.398 Y146.516 E.02427
G1 X143.365 Y163.484 E.89732
G1 X142.716 Y163.484 E.02427
G1 X125.749 Y146.516 E.89732
G1 X125.1 Y146.516 E.02427
G1 X142.068 Y163.484 E.89732
G1 X141.419 Y163.484 E.02427
G1 X124.451 Y146.516 E.89732
G1 X123.802 Y146.516 E.02427
G1 X140.77 Y163.484 E.89732
G1 X140.121 Y163.484 E.02427
G1 X123.153 Y146.516 E.89732
G1 X122.504 Y146.516 E.02427
G1 X139.472 Y163.484 E.89732
G1 X138.823 Y163.484 E.02427
G1 X121.855 Y146.516 E.89732
G1 X121.206 Y146.516 E.02427
G1 X138.174 Y163.484 E.89732
G1 X137.525 Y163.484 E.02427
G1 X120.557 Y146.516 E.89732
G1 X119.908 Y146.516 E.02427
G1 X136.876 Y163.484 E.89732
G1 X136.227 Y163.484 E.02427
G1 X119.259 Y146.516 E.89732
G1 X118.61 Y146.516 E.02427
G1 X135.578 Y163.484 E.89732
G1 X134.929 Y163.484 E.02427
G1 X117.961 Y146.516 E.89732
G1 X117.312 Y146.516 E.02427
G1 X134.28 Y163.484 E.89732
G1 X133.631 Y163.484 E.02427
G1 X116.663 Y146.516 E.89732
G1 X116.014 Y146.516 E.02427
G1 X132.982 Y163.484 E.89732
G1 X132.333 Y163.484 E.02427
G1 X115.365 Y146.516 E.89732
G1 X114.716 Y146.516 E.02427
G1 X131.684 Y163.484 E.89732
G1 X131.035 Y163.484 E.02427
G1 X114.067 Y146.516 E.89732
G1 X113.418 Y146.516 E.02427
G1 X130.386 Y163.484 E.89732
G1 X129.737 Y163.484 E.02427
G1 X112.769 Y146.516 E.89732
G1 X112.12 Y146.516 E.02427
G1 X129.088 Y163.484 E.89732
G1 X128.439 Y163.484 E.02427
G1 X111.471 Y146.516 E.89732
G1 X110.822 Y146.516 E.02427
G1 X127.79 Y163.484 E.89732
G1 X127.141 Y163.484 E.02427
G1 X110.173 Y146.516 E.89732
G1 X109.524 Y146.516 E.02427
G1 X126.492 Y163.484 E.89732
G1 X125.843 Y163.484 E.02427
G1 X108.875 Y146.516 E.89732
G1 X108.226 Y146.516 E.02427
G1 X125.194 Y163.484 E.89732
G1 X124.545 Y163.484 E.02427
G1 X107.577 Y146.516 E.89732
G1 X106.928 Y146.516 E.02427
G1 X123.896 Y163.484 E.89732
G1 X123.247 Y163.484 E.02427
G1 X106.279 Y146.516 E.89732
G1 X105.63 Y146.516 E.02427
G1 X122.598 Y163.484 E.89732
G1 X121.949 Y163.484 E.02427
G1 X104.981 Y146.516 E.89732
G1 X104.332 Y146.516 E.02427
G1 X121.3 Y163.484 E.89732
G1 X120.651 Y163.484 E.02427
G1 X103.683 Y146.516 E.89732
G1 X103.034 Y146.516 E.02427
G1 X120.002 Y163.484 E.89732
G1 X119.353 Y163.484 E.02427
G1 X102.385 Y146.516 E.89732
G1 X101.736 Y146.516 E.02427
G1 X118.704 Y163.484 E.89732
G1 X118.055 Y163.484 E.02427
G1 X101.087 Y146.516 E.89732
M73 P2 R88
G1 X100.438 Y146.516 E.02427
G1 X117.406 Y163.484 E.89732
G1 X116.757 Y163.484 E.02427
G1 X100.016 Y146.743 E.88533
G1 X100.016 Y147.392 E.02427
G1 X116.108 Y163.484 E.85101
G1 X115.459 Y163.484 E.02427
G1 X100.016 Y148.041 E.81669
G1 X100.016 Y148.69 E.02427
G1 X114.81 Y163.484 E.78237
G1 X114.161 Y163.484 E.02427
G1 X100.016 Y149.339 E.74805
G1 X100.016 Y149.988 E.02427
G1 X113.512 Y163.484 E.71373
G1 X112.863 Y163.484 E.02427
G1 X100.016 Y150.637 E.67941
G1 X100.016 Y151.286 E.02427
G1 X112.214 Y163.484 E.64509
G1 X111.565 Y163.484 E.02427
G1 X100.016 Y151.935 E.61077
G1 X100.016 Y152.584 E.02427
G1 X110.916 Y163.484 E.57645
G1 X110.267 Y163.484 E.02427
G1 X100.016 Y153.233 E.54213
G1 X100.016 Y153.882 E.02427
G1 X109.618 Y163.484 E.50781
G1 X108.969 Y163.484 E.02427
G1 X100.016 Y154.531 E.47348
G1 X100.016 Y155.18 E.02427
G1 X108.32 Y163.484 E.43916
G1 X107.671 Y163.484 E.02427
G1 X100.016 Y155.829 E.40484
G1 X100.016 Y156.478 E.02427
G1 X107.022 Y163.484 E.37052
G1 X106.373 Y163.484 E.02427
G1 X100.016 Y157.127 E.3362
G1 X100.016 Y157.776 E.02427
G1 X105.724 Y163.484 E.30188
G1 X105.075 Y163.484 E.02427
G1 X100.016 Y158.425 E.26756
G1 X100.016 Y159.073 E.02427
G1 X104.427 Y163.484 E.23324
G1 X103.778 Y163.484 E.02427
G1 X100.016 Y159.722 E.19892
G1 X100.016 Y160.371 E.02427
G1 X103.129 Y163.484 E.1646
G1 X102.48 Y163.484 E.02427
G1 X100.016 Y161.02 E.13028
G1 X100.016 Y161.669 E.02427
G1 X101.831 Y163.484 E.09596
G1 X101.182 Y163.484 E.02427
G1 X100.016 Y162.318 E.06164
G1 X100.016 Y162.967 E.02427
G1 X100.738 Y163.69 E.03819
; stop printing object box.stl id:0 copy 0
M106 S255
;LAYER_CHANGE
;Z:0.4
;HEIGHT:0.2
;BEFORE_LAYER_CHANGE
;0.4
G92 E0

EXCLUDE_OBJECT_END NAME=box.stl_id_0_copy_0
SET_VELOCITY_LIMIT ACCEL=4000 ACCEL_TO_DECEL=2000
M140 S60 ; set bed temperature
; printing object box.stl id:0 copy 0
SET_VELOCITY_LIMIT ACCEL=3000 ACCEL_TO_DECEL=1500
G1 E-.8 F3000
EXCLUDE_OBJECT_START NAME=box.stl_id_0_copy_0
G1 Z.6 F9000
G1 X211.3 Y145.2 Z.6
G1 Z.4
G1 E.8 F1800
SET_VELOCITY_LIMIT ACCEL=2000 ACCEL_TO_DECEL=1000
;TYPE:Outer wall
;WIDTH:0.399999
G1 F4200
G1 X211.3 Y155 E.28515
G1 X211.3 Y164.8 E.28515
G1 X98.7 Y164.8 E3.27637
G1 X98.7 Y145.2 E.57031
G1 X211.26 Y145.2 E3.27521
SET_VELOCITY_LIMIT ACCEL=3000 ACCEL_TO_DECEL=1500
G1 X210.918 Y145.582 F9000
;TYPE:Inner wall
;WIDTH:0.449999
G1 F4800
G1 X210.918 Y155 E.31241
M73 P2 R87
G1 X210.918 Y164.418 E.31241
G1 X99.082 Y164.418 E3.70979
G1 X99.082 Y145.582 E.62482
G1 X210.878 Y145.582 E3.70847
G1 X210.511 Y145.989 F9000
G1 F4800
G1 X210.511 Y155 E.29891
G1 X210.511 Y164.011 E.29891
G1 X99.489 Y164.011 E3.68279
G1 X99.489 Y145.989 E.59781
G1 X210.471 Y145.989 E3.68146
G1 X210.383 Y163.159 F9000
SET_VELOCITY_LIMIT ACCEL=4000 ACCEL_TO_DECEL=2000
;TYPE:Internal solid infill
;WIDTH:0.400937
G1 F3600
G1 X209.82 Y163.722 E.02323
G1 X209.314 Y163.722 E.01477
G1 X210.222 Y162.814 E.03749
G1 X210.222 Y162.307 E.01477
G1 X208.807 Y163.722 E.05838
G1 X208.301 Y163.722 E.01477
G1 X210.222 Y161.801 E.07927
G1 X210.222 Y161.295 E.01477
G1 X207.795 Y163.722 E.10016
G1 X207.288 Y163.722 E.01477
G1 X210.222 Y160.788 E.12105
G1 X210.222 Y160.282 E.01477
G1 X206.782 Y163.722 E.14194
G1 X206.276 Y163.722 E.01477
G1 X210.222 Y159.776 E.16283
G1 X210.222 Y159.269 E.01477
G1 X205.769 Y163.722 E.18372
G1 X205.263 Y163.722 E.01477
G1 X210.222 Y158.763 E.20461
G1 X210.222 Y158.257 E.01477
G1 X204.757 Y163.722 E.2255
G1 X204.25 Y163.722 E.01477
G1 X210.222 Y157.75 E.24639
G1 X210.222 Y157.244 E.01477
G1 X203.744 Y163.722 E.26728
G1 X203.238 Y163.722 E.01477
G1 X210.222 Y156.738 E.28817
G1 X210.222 Y156.232 E.01477
G1 X202.732 Y163.722 E.30906
G1 X202.225 Y163.722 E.01477
G1 X210.222 Y155.725 E.32995
G1 X210.222 Y155.219 E.01477
G1 X201.719 Y163.722 E.35084
G1 X201.213 Y163.722 E.01477
G1 X210.222 Y154.713 E.37173
G1 X210.222 Y154.206 E.01477
G1 X200.706 Y163.722 E.39262
G1 X200.2 Y163.722 E.01477
G1 X210.222 Y153.7 E.4135
G1 X210.222 Y153.194 E.01477
G1 X199.694 Y163.722 E.43439
G1 X199.187 Y163.722 E.01477
G1 X210.222 Y152.687 E.45528
G1 X210.222 Y152.181 E.01477
