; generated by SuperSlicer 2.5.59 on 2023-07-19 at 02:09:31 UTC


;
;

;
;
; 

; external perimeters extrusion width = 0.40mm
; perimeters extrusion width = 0.46mm
; infill extrusion width = 0.64mm
; solid infill extrusion width = 0.56mm
; top infill extrusion width = 0.40mm
; support material extrusion width = 0.46mm
; first layer extrusion width = 0.50mm

; object:{"name":"BoxwithSliding_lid","id":"BoxwithSliding_lid.stl_2 id:0 copy 0","object_center":[152.500001,150.000000,0.000000],"boundingbox_center":[152.500001,150.000000,1.500000],"boundingbox_size":[136.300018,102.100006,3.000000]}
EXCLUDE_OBJECT_DEFINE NAME=BoxwithSliding_lid_stl_2_id_0_copy_0 CENTER=152.500001,150.000000 POLYGON=[[84.349992,101.049992],[84.452776,100.401064],[84.751056,99.815648],[85.215656,99.351056],[85.801056,99.052784],[86.450000,98.950000],[218.550000,98.950000],[219.198928,99.052784],[219.784352,99.351056],[220.248944,99.815648],[220.547232,100.401064],[220.650016,101.049992],[220.650016,198.950000],[220.547232,199.598944],[220.248944,200.184352],[219.784352,200.648928],[219.198928,200.947216],[218.550000,201.050000],[86.450000,201.050000],[85.801056,200.947216],[85.215656,200.648928],[84.751056,200.184352],[84.452776,199.598944],[84.349992,198.950000],[84.349992,101.049992]]
; plater:{"center":[152.500001,150.000000,0.000000],"boundingbox_center":[152.500001,150.000000,1.500000],"boundingbox_size":[136.300018,102.100006,3.000000]}

M73 P0 R91
;TYPE:Custom
START_PRINT T_BED=60 T_EXTRUDER=210
M107
G21 ; set units to millimeters
G90 ; use absolute coordinates
M82 ; use absolute distances for extrusion
G92 E0
; Filament gcode

    PRESSURE_ADVANCE_SELECT FILAMENT=PLA
;_TOOLCHANGE 0
M109 S210 ; set temperature and wait for it to be reached
M190 S60 ; set bed temperature and wait for it to be reached
M107
;LAYER_CHANGE
;Z:0.2
;HEIGHT:0.2
G1 Z0.2 F9000
M73 P0 R91
G1 E-0.8 F2400
M204 S1000
G1 X82.667 Y96.833 F9000
G1 E0 F1800
;TYPE:Skirt
;WIDTH:0.52
G1 X82.233 Y97.267 E0.02439
G1 X81.549 Y98.208 E0.07051
G1 X81.27 Y98.756 E0.0949
G1 X80.911 Y99.861 E0.14102
G1 X80.768 Y101.058 E0.18882
G1 X80.768 Y198.942 E4.07182
G1 X80.911 Y200.139 E4.11963
G1 X81.27 Y201.244 E4.16574
G1 X81.549 Y201.792 E4.19014
G1 X82.233 Y202.733 E4.23625
G1 X82.667 Y203.167 E4.26065
G1 X83.608 Y203.851 E4.30676
G1 X84.156 Y204.13 E4.33115
G1 X85.261 Y204.489 E4.37727
G1 X86.458 Y204.632 E4.42507
G1 X218.542 Y204.632 E9.66477
G1 X219.739 Y204.489 E9.71257
G1 X220.844 Y204.13 E9.75868
G1 X221.392 Y203.851 E9.78308
G1 X222.333 Y203.167 E9.82919
G1 X222.767 Y202.733 E9.85358
G1 X223.451 Y201.792 E9.8997
G1 X223.73 Y201.244 E9.9241
G1 X224.089 Y200.139 E9.97021
G1 X224.232 Y198.942 E10.01801
G1 X224.232 Y101.058 E13.90102
G1 X224.089 Y99.861 E13.94882
G1 X223.73 Y98.756 E13.99493
G1 X223.451 Y98.208 E14.01933
G1 X222.767 Y97.267 E14.06544
G1 X222.333 Y96.833 E14.08984
G1 X221.392 Y96.149 E14.13595
G1 X220.844 Y95.87 E14.16035
G1 X219.739 Y95.511 E14.20646
G1 X219.123 Y95.413 E14.23117
G1 X86.458 Y95.368 E19.49392
G1 X85.261 Y95.511 E19.54173
G1 X84.156 Y95.87 E19.58784
G1 X83.608 Y96.149 E19.61223
G1 X82.667 Y96.833 E19.65835
G1 X83.005 Y97.17 F9000
G1 F1800
G1 X82.57 Y97.605 E19.68274
G1 X81.974 Y98.424 E19.72294
G1 X81.695 Y98.972 E19.74733
G1 X81.382 Y99.936 E19.78752
G1 X81.245 Y101.058 E19.83236
G1 X81.245 Y198.942 E23.71536
G1 X81.382 Y200.064 E23.7602
G1 X81.695 Y201.028 E23.80039
G1 X81.974 Y201.576 E23.82479
G1 X82.57 Y202.395 E23.86498
G1 X83.005 Y202.83 E23.88938
G1 X83.824 Y203.426 E23.92957
G1 X84.372 Y203.705 E23.95396
G1 X85.336 Y204.018 E23.99416
G1 X86.458 Y204.155 E24.03899
G1 X218.542 Y204.155 E29.27869
G1 X219.664 Y204.018 E29.32352
G1 X220.628 Y203.705 E29.36371
G1 X221.176 Y203.426 E29.38811
G1 X221.995 Y202.83 E29.4283
G1 X222.43 Y202.395 E29.45269
G1 X223.026 Y201.575 E29.49289
G1 X223.305 Y201.028 E29.51728
G1 X223.618 Y200.064 E29.55748
G1 X223.755 Y198.942 E29.60231
G1 X223.755 Y101.058 E33.48532
G1 X223.618 Y99.936 E33.53015
G1 X223.305 Y98.972 E33.57034
G1 X223.026 Y98.425 E33.59474
G1 X222.43 Y97.605 E33.63493
G1 X221.995 Y97.17 E33.65933
G1 X221.175 Y96.574 E33.69952
G1 X220.628 Y96.295 E33.72392
G1 X219.664 Y95.982 E33.76411
G1 X219.049 Y95.885 E33.78882
G1 X86.458 Y95.845 E39.04861
G1 X85.336 Y95.982 E39.09345
G1 X84.372 Y96.295 E39.13364
G1 X83.824 Y96.574 E39.15803
G1 X83.005 Y97.17 E39.19823
G92 E0
G1 E-0.8 F2400
; printing object BoxwithSliding_lid.stl_2 id:0 copy 0
EXCLUDE_OBJECT_START NAME=BoxwithSliding_lid_stl_2_id_0_copy_0
G1 X218.815 Y99.38 F9000
M73 P1 R90
G1 E0 F1800
;TYPE:External perimeter
;WIDTH:0.5
G1 X219.079 Y99.422 E0.01018
G1 X219.556 Y99.665 E0.03054
G1 X219.935 Y100.044 E0.0509
G1 X220.179 Y100.521 E0.07126
G1 X220.267 Y101.078 E0.09268
G1 X220.267 Y198.922 E3.81141
G1 X220.179 Y199.479 E3.83283
G1 X219.935 Y199.956 E3.85319
G1 X219.556 Y200.335 E3.87355
G1 X219.079 Y200.578 E3.89391
G1 X218.522 Y200.667 E3.91534
G1 X86.478 Y200.667 E8.93388
G1 X85.921 Y200.578 E8.9553
G1 X85.444 Y200.335 E8.97566
G1 X85.065 Y199.956 E8.99602
G1 X84.821 Y199.479 E9.01638
G1 X84.733 Y198.922 E9.0378
G1 X84.733 Y101.078 E12.75653
G1 X84.821 Y100.521 E12.77795
G1 X85.065 Y100.044 E12.79831
G1 X85.444 Y99.665 E12.81867
G1 X85.921 Y99.422 E12.83903
G1 X86.478 Y99.333 E12.86045
G1 X218.522 Y99.333 E17.879
G1 X218.815 Y99.38 E17.89024
;WIPE_START
M204 S3000
G1 X218.958 Y99.753 F9000
;WIPE_END
M204 S1000
G1 X218.743 Y99.831
;TYPE:Internal perimeter
G1 F1800
G1 X218.936 Y99.862 E17.89766
G1 X219.284 Y100.039 E17.91252
G1 X219.561 Y100.316 E17.92738
G1 X219.738 Y100.664 E17.94224
G1 X219.81 Y101.114 E17.95954
G1 X219.81 Y198.886 E21.67553
G1 X219.738 Y199.336 E21.69283
G1 X219.561 Y199.684 E21.70769
G1 X219.284 Y199.961 E21.72255
G1 X218.936 Y200.138 E21.73741
G1 X218.486 Y200.21 E21.75471
G1 X86.514 Y200.21 E26.77052
M73 P1 R90
G1 X86.064 Y200.138 E26.78782
G1 X85.716 Y199.961 E26.80268
G1 X85.439 Y199.684 E26.81754
G1 X85.262 Y199.336 E26.8324
G1 X85.19 Y198.886 E26.8497
G1 X85.19 Y101.114 E30.56569
G1 X85.262 Y100.664 E30.58299
G1 X85.439 Y100.316 E30.59785
G1 X85.716 Y100.039 E30.61271
G1 X86.064 Y99.862 E30.62757
G1 X86.514 Y99.79 E30.64487
G1 X218.486 Y99.79 E35.66068
G1 X218.743 Y99.831 E35.67055
G1 X218.672 Y100.282 F9000
G1 F1800
G1 X218.793 Y100.302 E35.67523
G1 X219.012 Y100.414 E35.68458
G1 X219.187 Y100.588 E35.69394
G1 X219.298 Y100.807 E35.70329
G1 X219.353 Y101.149 E35.71648
G1 X219.353 Y198.851 E39.42973
G1 X219.298 Y199.193 E39.44292
G1 X219.187 Y199.412 E39.45227
G1 X219.012 Y199.586 E39.46163
G1 X218.793 Y199.698 E39.47098
G1 X218.451 Y199.753 E39.48417
G1 X86.549 Y199.753 E44.49724
G1 X86.207 Y199.698 E44.51042
G1 X85.988 Y199.586 E44.51978
G1 X85.813 Y199.412 E44.52914
G1 X85.702 Y199.193 E44.53849
G1 X85.647 Y198.851 E44.55167
G1 X85.647 Y101.149 E48.26493
G1 X85.702 Y100.807 E48.27811
G1 X85.813 Y100.588 E48.28747
G1 X85.988 Y100.413 E48.29683
G1 X86.207 Y100.302 E48.30618
G1 X86.549 Y100.247 E48.31936
G1 X218.451 Y100.247 E53.33244
G1 X218.672 Y100.282 E53.34094
G1 X219.248 Y101.037 F9000
;TYPE:Solid infill
;WIDTH:0.499072
G1 F2400
G1 X218.562 Y100.351 E53.37773
G1 X217.915 Y100.351 F9000
G1 F2400
G1 X219.284 Y101.719 E53.45115
G1 X219.284 Y102.366 F9000
G1 F2400
G1 X217.269 Y100.351 E53.55925
G1 X216.622 Y100.35 F9000
G1 F2400
G1 X219.284 Y103.012 E53.70205
G1 X219.284 Y103.659 F9000
G1 F2400
G1 X215.976 Y100.35 E53.87953
G1 X215.329 Y100.35 F9000
G1 F2400
G1 X219.284 Y104.305 E54.09171
G1 X219.284 Y104.951 F9000
G1 F2400
G1 X214.683 Y100.35 E54.33857
G1 X214.036 Y100.35 F9000
G1 F2400
G1 X219.284 Y105.598 E54.62012
G1 X219.284 Y106.244 F9000
G1 F2400
G1 X213.389 Y100.35 E54.93635
G1 X212.743 Y100.349 F9000
G1 F2400
G1 X219.284 Y106.891 E55.28728
G1 X219.284 Y107.537 F9000
G1 F2400
G1 X212.096 Y100.349 E55.6729
G1 X211.45 Y100.349 F9000
G1 F2400
G1 X219.284 Y108.183 E56.0932
G1 X219.284 Y108.83 F9000
G1 F2400
G1 X210.803 Y100.349 E56.54819
G1 X210.157 Y100.349 F9000
G1 F2400
G1 X219.284 Y109.476 E57.03787
G1 X219.284 Y110.123 F9000
G1 F2400
G1 X209.51 Y100.349 E57.56224
G1 X208.863 Y100.348 F9000
G1 F2400
G1 X219.284 Y110.769 E58.1213
G1 X219.284 Y111.415 F9000
G1 F2400
G1 X208.217 Y100.348 E58.71505
G1 X207.57 Y100.348 F9000
G1 F2400
G1 X219.284 Y112.062 E59.34348
G1 X219.284 Y112.708 F9000
G1 F2400
G1 X206.924 Y100.348 E60.0066
G1 X206.277 Y100.348 F9000
G1 F2400
G1 X219.284 Y113.355 E60.70441
G1 X219.284 Y114.001 F9000
G1 F2400
G1 X205.63 Y100.348 E61.43691
G1 X204.984 Y100.347 F9000
G1 F2400
G1 X219.284 Y114.647 E62.2041
G1 X219.284 Y115.294 F9000
G1 F2400
G1 X204.337 Y100.347 E63.00598
M73 P2 R89
G1 X203.691 Y100.347 F9000
G1 F2400
G1 X219.284 Y115.94 E63.84255
G1 X219.284 Y116.587 F9000
G1 F2400
G1 X203.044 Y100.347 E64.7138
G1 X202.398 Y100.347 F9000
G1 F2400
G1 X219.284 Y117.233 E65.61974
G1 X219.284 Y117.88 F9000
G1 F2400
G1 X201.751 Y100.347 E66.56037
G1 X201.104 Y100.346 F9000
G1 F2400
G1 X219.284 Y118.526 E67.53569
G1 X219.284 Y119.172 F9000
G1 F2400
G1 X200.458 Y100.346 E68.5457
G1 X199.811 Y100.346 F9000
G1 F2400
G1 X219.284 Y119.819 E69.5904
G1 X219.284 Y120.465 F9000
G1 F2400
G1 X199.165 Y100.346 E70.66978
G1 X198.518 Y100.346 F9000
G1 F2400
G1 X219.284 Y121.112 E71.78385
G1 X219.284 Y121.758 F9000
G1 F2400
G1 X197.872 Y100.346 E72.93262
G1 X197.225 Y100.345 F9000
G1 F2400
G1 X219.284 Y122.404 E74.11607
G1 X219.284 Y123.051 F9000
G1 F2400
G1 X196.578 Y100.345 E75.33421
G1 X195.932 Y100.345 F9000
G1 F2400
G1 X219.284 Y123.697 E76.58703
G1 X219.284 Y124.344 F9000
G1 F2400
G1 X195.285 Y100.345 E77.87455
G1 X194.639 Y100.345 F9000
G1 F2400
G1 X219.284 Y124.99 E79.19675
G1 X219.284 Y125.636 F9000
G1 F2400
G1 X193.992 Y100.344 E80.55365
G1 X193.345 Y100.344 F9000
G1 F2400
G1 X219.284 Y126.283 E81.94523
G1 X219.284 Y126.929 F9000
G1 F2400
G1 X192.699 Y100.344 E83.3715
G1 X192.052 Y100.344 F9000
G1 F2400
G1 X219.284 Y127.576 E84.83246
G1 X219.284 Y128.222 F9000
G1 F2400
G1 X191.406 Y100.344 E86.3281
G1 X190.759 Y100.344 F9000
G1 F2400
G1 X219.284 Y128.868 E87.85844
G1 X219.284 Y129.515 F9000
G1 F2400
G1 X190.113 Y100.343 E89.42346
G1 X189.466 Y100.343 F9000
G1 F2400
G1 X219.284 Y130.161 E91.02317
G1 X219.284 Y130.808 F9000
G1 F2400
G1 X188.819 Y100.343 E92.65758
G1 X188.173 Y100.343 F9000
G1 F2400
G1 X219.284 Y131.454 E94.32666
G1 X219.284 Y132.1 F9000
G1 F2400
G1 X187.526 Y100.343 E96.03044
G1 X186.88 Y100.343 F9000
G1 F2400
G1 X219.284 Y132.747 E97.76891
G1 X219.284 Y133.393 F9000
G1 F2400
G1 X186.233 Y100.342 E99.54206
G1 X185.587 Y100.342 F9000
G1 F2400
G1 X219.284 Y134.04 E101.34991
M73 P2 R89
G1 X219.284 Y134.686 F9000
G1 F2400
G1 X184.94 Y100.342 E103.19244
G1 X184.293 Y100.342 F9000
G1 F2400
G1 X219.284 Y135.333 E105.06966
G1 X219.284 Y135.979 F9000
G1 F2400
G1 X183.647 Y100.342 E106.98157
G1 X183 Y100.342 F9000
G1 F2400
G1 X219.284 Y136.625 E108.92817
G1 X219.284 Y137.272 F9000
G1 F2400
G1 X182.354 Y100.341 E110.90945
G1 X181.707 Y100.341 F9000
G1 F2400
G1 X219.284 Y137.918 E112.92543
G1 X219.284 Y138.565 F9000
G1 F2400
G1 X181.061 Y100.341 E114.97609
G1 X180.414 Y100.341 F9000
G1 F2400
G1 X219.284 Y139.211 E117.06144
G1 X219.284 Y139.857 F9000
G1 F2400
G1 X179.767 Y100.341 E119.18148
G1 X179.121 Y100.341 F9000
G1 F2400
G1 X219.284 Y140.504 E121.33621
G1 X219.284 Y141.15 F9000
G1 F2400
G1 X178.474 Y100.34 E123.52562
G1 X177.828 Y100.34 F9000
G1 F2400
G1 X219.284 Y141.797 E125.74973
G1 X219.284 Y142.443 F9000
G1 F2400
G1 X177.181 Y100.34 E128.00852
G1 X176.534 Y100.34 F9000
G1 F2400
G1 X219.284 Y143.089 E130.302
G1 X219.284 Y143.736 F9000
G1 F2400
G1 X175.888 Y100.34 E132.63018
G1 X175.241 Y100.34 F9000
G1 F2400
G1 X219.284 Y144.382 E134.99303
G1 X219.284 Y145.029 F9000
G1 F2400
G1 X174.595 Y100.339 E137.39058
G1 X173.948 Y100.339 F9000
G1 F2400
G1 X219.284 Y145.675 E139.82282
G1 X219.284 Y146.321 F9000
G1 F2400
G1 X173.302 Y100.339 E142.28974
M73 P3 R88
G1 X172.655 Y100.339 F9000
G1 F2400
G1 X219.284 Y146.968 E144.79136
G1 X219.284 Y147.614 F9000
G1 F2400
G1 X172.008 Y100.339 E147.32766
G1 X171.362 Y100.339 F9000
G1 F2400
G1 X219.284 Y148.261 E149.89865
G1 X219.284 Y148.907 F9000
G1 F2400
G1 X170.715 Y100.338 E152.50433
G1 X170.069 Y100.338 F9000
G1 F2400
G1 X219.284 Y149.553 E155.14469
G1 X219.284 Y150.2 F9000
G1 F2400
G1 X169.422 Y100.338 E157.81975
G1 X168.776 Y100.338 F9000
G1 F2400
G1 X219.284 Y150.846 E160.52949
G1 X219.284 Y151.493 F9000
G1 F2400
G1 X168.129 Y100.338 E163.27393
G1 X167.482 Y100.337 F9000
G1 F2400
G1 X219.284 Y152.139 E166.05305
G1 X219.284 Y152.786 F9000
G1 F2400
G1 X166.836 Y100.337 E168.86686
G1 X166.189 Y100.337 F9000
G1 F2400
G1 X219.284 Y153.432 E171.71535
G1 X219.284 Y154.078 F9000
G1 F2400
G1 X165.543 Y100.337 E174.59854
G1 X164.896 Y100.337 F9000
G1 F2400
G1 X219.284 Y154.725 E177.51642
G1 X219.284 Y155.371 F9000
G1 F2400
G1 X164.249 Y100.337 E180.46898
G1 X163.603 Y100.336 F9000
G1 F2400
G1 X219.284 Y156.018 E183.45623
G1 X219.284 Y156.664 F9000
G1 F2400
G1 X162.956 Y100.336 E186.47817
G1 X162.31 Y100.336 F9000
G1 F2400
G1 X219.284 Y157.31 E189.5348
M73 P3 R88
G1 X219.284 Y157.957 F9000
G1 F2400
G1 X161.663 Y100.336 E192.62612
G1 X161.017 Y100.336 F9000
G1 F2400
G1 X219.284 Y158.603 E195.75213
G1 X219.284 Y159.25 F9000
G1 F2400
G1 X160.37 Y100.336 E198.91282
G1 X159.723 Y100.335 F9000
G1 F2400
G1 X219.284 Y159.896 E202.1082
G1 X219.284 Y160.542 F9000
G1 F2400
G1 X159.077 Y100.335 E205.33827
G1 X158.43 Y100.335 F9000
G1 F2400
G1 X219.284 Y161.189 E208.60303
G1 X219.284 Y161.835 F9000
G1 F2400
G1 X157.784 Y100.335 E211.90248
G1 X157.137 Y100.335 F9000
G1 F2400
G1 X219.284 Y162.482 E215.23662
G1 X219.284 Y163.128 F9000
G1 F2400
G1 X156.491 Y100.335 E218.60545
G1 X155.844 Y100.334 F9000
G1 F2400
G1 X219.284 Y163.774 E222.00896
M73 P4 R87
G1 X219.284 Y164.421 F9000
G1 F2400
G1 X155.197 Y100.334 E225.44716
G1 X154.551 Y100.334 F9000
G1 F2400
G1 X219.284 Y165.067 E228.92005
G1 X219.284 Y165.714 F9000
G1 F2400
G1 X153.904 Y100.334 E232.42763
G1 X153.258 Y100.334 F9000
G1 F2400
G1 X219.284 Y166.36 E235.9699
G1 X219.284 Y167.006 F9000
G1 F2400
G1 X152.611 Y100.334 E239.54686
G1 X151.964 Y100.333 F9000
G1 F2400
G1 X219.284 Y167.653 E243.1585
G1 X219.284 Y168.299 F9000
G1 F2400
G1 X151.318 Y100.333 E246.80483
G1 X150.671 Y100.333 F9000
G1 F2400
G1 X219.284 Y168.946 E250.48586
G1 X219.284 Y169.592 F9000
G1 F2400
G1 X150.025 Y100.333 E254.20157
G1 X149.378 Y100.333 F9000
G1 F2400
G1 X219.284 Y170.239 E257.95197
G1 X219.284 Y170.885 F9000
G1 F2400
G1 X148.732 Y100.333 E261.73705
G1 X148.085 Y100.332 F9000
G1 F2400
G1 X219.284 Y171.531 E265.55683
G1 X219.284 Y172.178 F9000
G1 F2400
G1 X147.438 Y100.332 E269.41129
G1 X146.792 Y100.332 F9000
G1 F2400
G1 X219.284 Y172.824 E273.30045
G1 X219.284 Y173.471 F9000
G1 F2400
G1 X146.145 Y100.332 E277.22429
M73 P4 R87
G1 X145.499 Y100.332 F9000
G1 F2400
G1 X219.284 Y174.117 E281.18282
G1 X219.284 Y174.763 F9000
G1 F2400
G1 X144.852 Y100.331 E285.17604
G1 X144.206 Y100.331 F9000
G1 F2400
G1 X219.284 Y175.41 E289.20394
G1 X219.284 Y176.056 F9000
G1 F2400
G1 X143.559 Y100.331 E293.26654
G1 X142.912 Y100.331 F9000
G1 F2400
G1 X219.284 Y176.703 E297.36382
G1 X219.284 Y177.349 F9000
G1 F2400
G1 X142.266 Y100.331 E301.49579
G1 X141.619 Y100.331 F9000
G1 F2400
G1 X219.284 Y177.995 E305.66245
M73 P5 R86
G1 X219.284 Y178.642 F9000
G1 F2400
G1 X140.973 Y100.33 E309.8638
G1 X140.326 Y100.33 F9000
G1 F2400
G1 X219.284 Y179.288 E314.09984
G1 X219.284 Y179.935 F9000
G1 F2400
G1 X139.679 Y100.33 E318.37057
G1 X139.033 Y100.33 F9000
G1 F2400
G1 X219.284 Y180.581 E322.67598
G1 X219.284 Y181.227 F9000
G1 F2400
G1 X138.386 Y100.33 E327.01609
G1 X137.74 Y100.33 F9000
G1 F2400
G1 X219.284 Y181.874 E331.39088
G1 X219.284 Y182.52 F9000
G1 F2400
G1 X137.093 Y100.329 E335.80036
G1 X136.447 Y100.329 F9000
G1 F2400
G1 X219.284 Y183.167 E340.24453
G1 X219.284 Y183.813 F9000
G1 F2400
G1 X135.8 Y100.329 E344.72338
G1 X135.153 Y100.329 F9000
G1 F2400
G1 X219.284 Y184.459 E349.23693
G1 X219.284 Y185.106 F9000
G1 F2400
G1 X134.507 Y100.329 E353.78516
G1 X133.86 Y100.329 F9000
G1 F2400
G1 X219.284 Y185.752 E358.36809
G1 X219.284 Y186.399 F9000
G1 F2400
