; HEADER_BLOCK_START
; generated by OrcaSlicer 1.6.6 on 2023-08-25 at 16:43:19
; total layer number: 236
; HEADER_BLOCK_END

; THUMBNAIL_BLOCK_START
; THUMBNAIL_BLOCK_END

; external perimeters extrusion width = 0.40mm
; perimeters extrusion width = 0.45mm
; infill extrusion width = 0.45mm
; solid infill extrusion width = 0.40mm
; top infill extrusion width = 0.40mm
; support material extrusion width = 0.40mm
; first layer extrusion width = 0.50mm

; external perimeters extrusion width = 0.40mm
; perimeters extrusion width = 0.45mm
; infill extrusion width = 0.45mm
; solid infill extrusion width = 0.40mm
; top infill extrusion width = 0.40mm
; support material extrusion width = 0.40mm
; first layer extrusion width = 0.50mm

; external perimeters extrusion width = 0.40mm
; perimeters extrusion width = 0.45mm
; infill extrusion width = 0.45mm
; solid infill extrusion width = 0.40mm
; top infill extrusion width = 0.40mm
; support material extrusion width = 0.40mm
; first layer extrusion width = 0.50mm

; EXECUTABLE_BLOCK_START
EXCLUDE_OBJECT_DEFINE NAME=Business_Card_Display.stl_id_0_copy_0 CENTER=175.769,195.279 POLYGON=[[127.769,181.779],[223.769,181.779],[223.769,208.779],[127.769,208.779],[127.769,181.779]]
EXCLUDE_OBJECT_DEFINE NAME=easel_wide.STL_id_1_copy_0 CENTER=102,161.894 POLYGON=[[86.2312,139.712],[107.636,115.008],[115.994,115.008],[117.769,115.897],[117.769,207.89],[115.994,208.78],[107.636,208.78],[86.2312,184.075],[86.2312,139.712]]
EXCLUDE_OBJECT_DEFINE NAME=easel.STL_id_2_copy_0 CENTER=143.538,136.5 POLYGON=[[127.769,125.925],[149.173,101.22],[157.531,101.22],[159.306,102.11],[159.306,170.89],[157.531,171.779],[149.173,171.779],[127.769,147.075],[127.769,125.925]]
M73 P0 R126
;TYPE:Custom
START_PRINT T_BED=70 T_EXTRUDER=235
G90
G21
M83 ; use relative distances for extrusion
; Filament gcode
PRESSURE_ADVANCE_SELECT FILAMENT=PETG
M106 S0
;LAYER_CHANGE
;Z:0.2
;HEIGHT:0.2
;BEFORE_LAYER_CHANGE
;0.2
G92 E0

SET_VELOCITY_LIMIT ACCEL=1500 ACCEL_TO_DECEL=750
G1 E-.8 F3000
G1 Z.4 F9000
G1 X105.778 Y113.399
G1 Z.4
G1 Z.2
G1 E.8 F1800
;TYPE:Skirt
;WIDTH:0.5
G1 F3000
G1 X106.861 Y112.676 E.04702
G1 X148.399 Y98.889 E1.58022
G1 X149.173 Y98.763 E.02831
G1 X157.531 Y98.763 E.30177
G1 X158.632 Y99.024 E.04084
G1 X160.407 Y99.913 E.07169
G1 X161.217 Y100.564 E.03751
G1 X225.679 Y180.234 E3.70023
G1 X226.226 Y181.779 E.05919
G1 X226.226 Y208.752 E.97386
G1 X225.834 Y210.083 E.0501
G1 X224.783 Y210.99 E.0501
G1 X223.769 Y211.209 E.03746
G1 X107.636 Y211.237 E4.19313
G1 X105.778 Y210.388 E.07371
G1 X84.374 Y185.684 E1.1802
G1 X83.774 Y184.075 E.062
G1 X83.774 Y139.712 E1.6018
G1 X84.374 Y138.103 E.062
G1 X105.752 Y113.429 E1.17875
; printing object Business_Card_Display.stl id:0 copy 0
G1 E-.8
EXCLUDE_OBJECT_START NAME=Business_Card_Display.stl_id_0_copy_0
G1 Z.6 F9000
G1 X223.519 Y208.502 Z.6
G1 Z.2
G1 E.8 F1800
;TYPE:Outer wall
;WIDTH:0.499999
G1 F3000
G1 X128.019 Y208.502 E3.44812
G1 X128.019 Y182.029 E.95581
G1 X223.519 Y182.029 E3.44812
G1 X223.519 Y195.266 E.4779
G1 X223.519 Y208.462 E.47646
G1 X223.062 Y208.045 F9000
;TYPE:Inner wall
G1 F3000
G1 X128.476 Y208.045 E3.41511
G1 X128.476 Y182.487 E.9228
G1 X223.062 Y182.487 E3.41511
G1 X223.062 Y195.266 E.4614
G1 X223.062 Y208.005 E.45996
G1 X222.605 Y207.588 F9000
G1 F3000
G1 X128.933 Y207.588 E3.38211
G1 X128.933 Y182.944 E.88979
G1 X222.605 Y182.944 E3.38211
G1 X222.605 Y195.266 E.4449
G1 X222.605 Y207.548 E.44345
G1 X222.148 Y207.13 F9000
G1 F3000
G1 X129.39 Y207.13 E3.3491
G1 X129.39 Y183.401 E.85679
G1 X222.148 Y183.401 E3.3491
G1 X222.148 Y195.266 E.42839
G1 X222.148 Y207.09 E.42695
G1 E-.8
G1 Z.6 F9000
G1 X221.075 Y183.547 Z.6
G1 Z.2
G1 E.8 F1800
;TYPE:Bottom surface
;WIDTH:0.501131
G1 F3000
G1 X221.796 Y184.268 E.03689
G1 X221.796 Y184.916 E.02345
G1 X220.633 Y183.753 E.05953
G1 X219.985 Y183.753 E.02345
G1 X221.796 Y185.564 E.0927
G1 X221.796 Y186.212 E.02345
G1 X219.337 Y183.753 E.12587
G1 X218.689 Y183.753 E.02345
G1 X221.796 Y186.86 E.15904
G1 X221.796 Y187.508 E.02345
G1 X218.041 Y183.753 E.19221
G1 X217.393 Y183.753 E.02345
G1 X221.796 Y188.156 E.22538
G1 X221.796 Y188.804 E.02345
G1 X216.745 Y183.753 E.25855
G1 X216.097 Y183.753 E.02345
G1 X221.796 Y189.452 E.29172
G1 X221.796 Y190.1 E.02345
G1 X215.449 Y183.753 E.32489
G1 X214.801 Y183.753 E.02345
G1 X221.796 Y190.748 E.35806
G1 X221.796 Y191.396 E.02345
G1 X214.153 Y183.753 E.39123
G1 X213.505 Y183.753 E.02345
G1 X221.796 Y192.044 E.4244
G1 X221.796 Y192.692 E.02345
G1 X212.857 Y183.753 E.45758
G1 X212.209 Y183.753 E.02345
G1 X221.796 Y193.34 E.49075
G1 X221.796 Y193.988 E.02345
G1 X211.561 Y183.753 E.52392
G1 X210.912 Y183.753 E.02345
G1 X221.796 Y194.636 E.55709
G1 X221.796 Y195.284 E.02345
G1 X210.264 Y183.753 E.59026
G1 X209.616 Y183.753 E.02345
G1 X221.796 Y195.932 E.62343
G1 X221.796 Y196.58 E.02345
G1 X208.968 Y183.753 E.6566
G1 X208.32 Y183.753 E.02345
G1 X221.796 Y197.228 E.68977
G1 X221.796 Y197.876 E.02345
G1 X207.672 Y183.753 E.72294
G1 X207.024 Y183.753 E.02345
G1 X221.796 Y198.524 E.75611
G1 X221.796 Y199.172 E.02345
G1 X206.376 Y183.753 E.78928
G1 X205.728 Y183.753 E.02345
G1 X221.796 Y199.82 E.82245
G1 X221.796 Y200.468 E.02345
G1 X205.08 Y183.753 E.85562
G1 X204.432 Y183.753 E.02345
G1 X221.796 Y201.116 E.88879
G1 X221.796 Y201.764 E.02345
G1 X203.784 Y183.753 E.92196
G1 X203.136 Y183.753 E.02345
G1 X221.796 Y202.412 E.95513
G1 X221.796 Y203.06 E.02345
G1 X202.488 Y183.753 E.9883
G1 X201.84 Y183.753 E.02345
G1 X221.796 Y203.708 E1.02147
G1 X221.796 Y204.356 E.02345
G1 X201.192 Y183.753 E1.05464
G1 X200.544 Y183.753 E.02345
G1 X221.796 Y205.004 E1.08781
G1 X221.796 Y205.652 E.02345
G1 X199.896 Y183.753 E1.12098
G1 X199.248 Y183.753 E.02345
G1 X221.796 Y206.3 E1.15415
G1 X221.796 Y206.779 E.01732
G1 X221.626 Y206.779 E.00613
G1 X198.6 Y183.753 E1.17865
G1 X197.952 Y183.753 E.02345
G1 X220.978 Y206.779 E1.17865
G1 X220.33 Y206.779 E.02345
G1 X197.304 Y183.753 E1.17865
G1 X196.656 Y183.753 E.02345
G1 X219.682 Y206.779 E1.17865
G1 X219.034 Y206.779 E.02345
G1 X196.008 Y183.753 E1.17865
G1 X195.36 Y183.753 E.02345
G1 X218.386 Y206.779 E1.17865
G1 X217.738 Y206.779 E.02345
G1 X194.712 Y183.753 E1.17865
G1 X194.064 Y183.753 E.02345
G1 X217.09 Y206.779 E1.17865
M73 P0 R125
G1 X216.442 Y206.779 E.02345
G1 X193.416 Y183.753 E1.17865
G1 X192.768 Y183.753 E.02345
G1 X215.794 Y206.779 E1.17865
G1 X215.146 Y206.779 E.02345
G1 X192.12 Y183.753 E1.17865
G1 X191.472 Y183.753 E.02345
G1 X214.498 Y206.779 E1.17865
G1 X213.85 Y206.779 E.02345
G1 X190.824 Y183.753 E1.17865
G1 X190.176 Y183.753 E.02345
G1 X213.202 Y206.779 E1.17865
G1 X212.554 Y206.779 E.02345
G1 X189.528 Y183.753 E1.17865
G1 X188.88 Y183.753 E.02345
G1 X211.906 Y206.779 E1.17865
G1 X211.258 Y206.779 E.02345
G1 X188.232 Y183.753 E1.17865
G1 X187.584 Y183.753 E.02345
G1 X210.61 Y206.779 E1.17865
G1 X209.962 Y206.779 E.02345
G1 X186.936 Y183.753 E1.17865
G1 X186.288 Y183.753 E.02345
G1 X209.314 Y206.779 E1.17865
G1 X208.666 Y206.779 E.02345
G1 X185.64 Y183.753 E1.17865
G1 X184.992 Y183.753 E.02345
G1 X208.018 Y206.779 E1.17865
G1 X207.37 Y206.779 E.02345
G1 X184.344 Y183.753 E1.17865
G1 X183.696 Y183.753 E.02345
G1 X206.722 Y206.779 E1.17865
G1 X206.074 Y206.779 E.02345
G1 X183.048 Y183.753 E1.17865
G1 X182.4 Y183.753 E.02345
G1 X205.426 Y206.779 E1.17865
G1 X204.778 Y206.779 E.02345
G1 X181.752 Y183.753 E1.17865
G1 X181.104 Y183.753 E.02345
G1 X204.13 Y206.779 E1.17865
G1 X203.482 Y206.779 E.02345
G1 X180.456 Y183.753 E1.17865
G1 X179.808 Y183.753 E.02345
G1 X202.834 Y206.779 E1.17865
G1 X202.186 Y206.779 E.02345
G1 X179.16 Y183.753 E1.17865
G1 X178.512 Y183.753 E.02345
G1 X201.538 Y206.779 E1.17865
G1 X200.89 Y206.779 E.02345
G1 X177.864 Y183.753 E1.17865
G1 X177.216 Y183.753 E.02345
G1 X200.242 Y206.779 E1.17865
G1 X199.594 Y206.779 E.02345
G1 X176.568 Y183.753 E1.17865
G1 X175.92 Y183.753 E.02345
G1 X198.946 Y206.779 E1.17865
G1 X198.298 Y206.779 E.02345
G1 X175.272 Y183.753 E1.17865
G1 X174.624 Y183.753 E.02345
G1 X197.65 Y206.779 E1.17865
G1 X197.002 Y206.779 E.02345
G1 X173.976 Y183.753 E1.17865
G1 X173.328 Y183.753 E.02345
G1 X196.354 Y206.779 E1.17865
G1 X195.706 Y206.779 E.02345
G1 X172.68 Y183.753 E1.17865
G1 X172.032 Y183.753 E.02345
G1 X195.058 Y206.779 E1.17865
G1 X194.41 Y206.779 E.02345
G1 X171.384 Y183.753 E1.17865
G1 X170.736 Y183.753 E.02345
G1 X193.762 Y206.779 E1.17865
M73 P1 R125
G1 X193.114 Y206.779 E.02345
G1 X170.088 Y183.753 E1.17865
G1 X169.44 Y183.753 E.02345
G1 X192.466 Y206.779 E1.17865
G1 X191.818 Y206.779 E.02345
G1 X168.792 Y183.753 E1.17865
G1 X168.144 Y183.753 E.02345
G1 X191.17 Y206.779 E1.17865
G1 X190.522 Y206.779 E.02345
G1 X167.496 Y183.753 E1.17865
G1 X166.848 Y183.753 E.02345
G1 X189.874 Y206.779 E1.17865
G1 X189.226 Y206.779 E.02345
G1 X166.2 Y183.753 E1.17865
G1 X165.552 Y183.753 E.02345
G1 X188.578 Y206.779 E1.17865
G1 X187.93 Y206.779 E.02345
G1 X164.904 Y183.753 E1.17865
G1 X164.256 Y183.753 E.02345
G1 X187.282 Y206.779 E1.17865
G1 X186.634 Y206.779 E.02345
G1 X163.608 Y183.753 E1.17865
G1 X162.96 Y183.753 E.02345
G1 X185.986 Y206.779 E1.17865
G1 X185.338 Y206.779 E.02345
G1 X162.312 Y183.753 E1.17865
G1 X161.664 Y183.753 E.02345
G1 X184.69 Y206.779 E1.17865
G1 X184.042 Y206.779 E.02345
G1 X161.016 Y183.753 E1.17865
G1 X160.368 Y183.753 E.02345
G1 X183.394 Y206.779 E1.17865
G1 X182.746 Y206.779 E.02345
G1 X159.72 Y183.753 E1.17865
G1 X159.072 Y183.753 E.02345
G1 X182.098 Y206.779 E1.17865
G1 X181.45 Y206.779 E.02345
G1 X158.424 Y183.753 E1.17865
G1 X157.776 Y183.753 E.02345
G1 X180.802 Y206.779 E1.17865
G1 X180.154 Y206.779 E.02345
G1 X157.128 Y183.753 E1.17865
G1 X156.48 Y183.753 E.02345
G1 X179.506 Y206.779 E1.17865
G1 X178.858 Y206.779 E.02345
G1 X155.832 Y183.753 E1.17865
G1 X155.184 Y183.753 E.02345
G1 X178.21 Y206.779 E1.17865
G1 X177.562 Y206.779 E.02345
G1 X154.536 Y183.753 E1.17865
G1 X153.888 Y183.753 E.02345
G1 X176.914 Y206.779 E1.17865
G1 X176.266 Y206.779 E.02345
G1 X153.24 Y183.753 E1.17865
G1 X152.592 Y183.753 E.02345
G1 X175.618 Y206.779 E1.17865
G1 X174.97 Y206.779 E.02345
G1 X151.944 Y183.753 E1.17865
G1 X151.296 Y183.753 E.02345
G1 X174.322 Y206.779 E1.17865
G1 X173.674 Y206.779 E.02345
G1 X150.648 Y183.753 E1.17865
G1 X150 Y183.753 E.02345
G1 X173.026 Y206.779 E1.17865
G1 X172.378 Y206.779 E.02345
G1 X149.352 Y183.753 E1.17865
G1 X148.704 Y183.753 E.02345
G1 X171.73 Y206.779 E1.17865
G1 X171.082 Y206.779 E.02345
G1 X148.056 Y183.753 E1.17865
G1 X147.408 Y183.753 E.02345
G1 X170.434 Y206.779 E1.17865
G1 X169.786 Y206.779 E.02345
G1 X146.76 Y183.753 E1.17865
G1 X146.112 Y183.753 E.02345
G1 X169.138 Y206.779 E1.17865
G1 X168.49 Y206.779 E.02345
G1 X145.464 Y183.753 E1.17865
G1 X144.816 Y183.753 E.02345
G1 X167.842 Y206.779 E1.17865
G1 X167.194 Y206.779 E.02345
G1 X144.168 Y183.753 E1.17865
G1 X143.52 Y183.753 E.02345
G1 X166.546 Y206.779 E1.17865
G1 X165.898 Y206.779 E.02345
G1 X142.872 Y183.753 E1.17865
G1 X142.224 Y183.753 E.02345
G1 X165.249 Y206.779 E1.17865
G1 X164.601 Y206.779 E.02345
G1 X141.576 Y183.753 E1.17865
G1 X140.928 Y183.753 E.02345
G1 X163.953 Y206.779 E1.17865
G1 X163.305 Y206.779 E.02345
G1 X140.28 Y183.753 E1.17865
G1 X139.632 Y183.753 E.02345
G1 X162.657 Y206.779 E1.17865
G1 X162.009 Y206.779 E.02345
G1 X138.984 Y183.753 E1.17865
M73 P1 R124
G1 X138.336 Y183.753 E.02345
G1 X161.361 Y206.779 E1.17865
G1 X160.713 Y206.779 E.02345
G1 X137.688 Y183.753 E1.17865
G1 X137.04 Y183.753 E.02345
G1 X160.065 Y206.779 E1.17865
G1 X159.417 Y206.779 E.02345
G1 X136.392 Y183.753 E1.17865
G1 X135.744 Y183.753 E.02345
G1 X158.769 Y206.779 E1.17865
G1 X158.121 Y206.779 E.02345
G1 X135.096 Y183.753 E1.17865
G1 X134.448 Y183.753 E.02345
G1 X157.473 Y206.779 E1.17865
G1 X156.825 Y206.779 E.02345
G1 X133.8 Y183.753 E1.17865
G1 X133.152 Y183.753 E.02345
G1 X156.177 Y206.779 E1.17865
G1 X155.529 Y206.779 E.02345
G1 X132.504 Y183.753 E1.17865
G1 X131.855 Y183.753 E.02345
G1 X154.881 Y206.779 E1.17865
G1 X154.233 Y206.779 E.02345
G1 X131.207 Y183.753 E1.17865
G1 X130.559 Y183.753 E.02345
G1 X153.585 Y206.779 E1.17865
G1 X152.937 Y206.779 E.02345
G1 X129.911 Y183.753 E1.17865
G1 X129.742 Y183.753 E.00613
G1 X129.742 Y184.231 E.01732
G1 X152.289 Y206.779 E1.15415
G1 X151.641 Y206.779 E.02345
G1 X129.742 Y184.879 E1.12098
G1 X129.742 Y185.527 E.02345
G1 X150.993 Y206.779 E1.08781
G1 X150.345 Y206.779 E.02345
G1 X129.742 Y186.175 E1.05464
G1 X129.742 Y186.823 E.02345
G1 X149.697 Y206.779 E1.02147
G1 X149.049 Y206.779 E.02345
G1 X129.742 Y187.471 E.9883
G1 X129.742 Y188.119 E.02345
G1 X148.401 Y206.779 E.95513
G1 X147.753 Y206.779 E.02345
G1 X129.742 Y188.767 E.92196
G1 X129.742 Y189.415 E.02345
G1 X147.105 Y206.779 E.88879
G1 X146.457 Y206.779 E.02345
G1 X129.742 Y190.063 E.85562
G1 X129.742 Y190.711 E.02345
G1 X145.809 Y206.779 E.82245
G1 X145.161 Y206.779 E.02345
G1 X129.742 Y191.359 E.78928
G1 X129.742 Y192.007 E.02345
G1 X144.513 Y206.779 E.75611
G1 X143.865 Y206.779 E.02345
G1 X129.742 Y192.655 E.72294
G1 X129.742 Y193.303 E.02345
G1 X143.217 Y206.779 E.68977
G1 X142.569 Y206.779 E.02345
G1 X129.742 Y193.951 E.6566
G1 X129.742 Y194.599 E.02345
G1 X141.921 Y206.779 E.62343
G1 X141.273 Y206.779 E.02345
G1 X129.742 Y195.247 E.59026
G1 X129.742 Y195.895 E.02345
G1 X140.625 Y206.779 E.55709
G1 X139.977 Y206.779 E.02345
G1 X129.742 Y196.543 E.52392
G1 X129.742 Y197.191 E.02345
G1 X139.329 Y206.779 E.49075
G1 X138.681 Y206.779 E.02345
G1 X129.742 Y197.839 E.45758
G1 X129.742 Y198.487 E.02345
G1 X138.033 Y206.779 E.42441
G1 X137.385 Y206.779 E.02345
G1 X129.742 Y199.135 E.39124
G1 X129.742 Y199.783 E.02345
G1 X136.737 Y206.779 E.35807
G1 X136.089 Y206.779 E.02345
G1 X129.742 Y200.431 E.3249
G1 X129.742 Y201.079 E.02345
G1 X135.441 Y206.779 E.29173
G1 X134.793 Y206.779 E.02345
G1 X129.742 Y201.727 E.25856
G1 X129.742 Y202.375 E.02345
G1 X134.145 Y206.779 E.22539
G1 X133.497 Y206.779 E.02345
G1 X129.742 Y203.023 E.19222
G1 X129.742 Y203.671 E.02345
G1 X132.849 Y206.779 E.15905
G1 X132.201 Y206.779 E.02345
G1 X129.742 Y204.319 E.12588
G1 X129.742 Y204.967 E.02345
G1 X131.553 Y206.779 E.09271
G1 X130.905 Y206.779 E.02345
G1 X129.742 Y205.615 E.05954
G1 X129.742 Y206.263 E.02345
G1 X130.463 Y206.984 E.03689
; stop printing object Business_Card_Display.stl id:0 copy 0
; printing object easel.STL id:2 copy 0
G1 E-.8
EXCLUDE_OBJECT_END NAME=Business_Card_Display.stl_id_0_copy_0
EXCLUDE_OBJECT_START NAME=easel.STL_id_2_copy_0
G1 Z.6 F9000
G1 X140.557 Y125.337 Z.6
G1 Z.2
G1 E.8 F1800
;TYPE:Outer wall
;WIDTH:0.499999
G1 F3000
G1 X140.554 Y125.346 E.00034
G1 X140.554 Y147.654 E.80549
G1 X140.602 Y147.795 E.00537
G1 X149.013 Y158.55 E.49295
G1 X149.163 Y158.606 E.00577
G1 X157.472 Y158.606 E.30002
G1 X159.056 Y159.399 E.06398
G1 X159.056 Y160.681 E.04626
G1 X159.056 Y170.736 E.36304
G1 X157.472 Y171.529 E.06398
G1 X149.287 Y171.529 E.29552
G1 X128.019 Y146.982 E1.17271
G1 X128.019 Y126.018 E.75693
G1 X149.287 Y101.47 E1.17271
G1 X157.472 Y101.47 E.29552
G1 X159.056 Y102.264 E.06398
G1 X159.056 Y113.601 E.4093
G1 X157.472 Y114.394 E.06398
G1 X149.163 Y114.394 E.30002
G1 X149.125 Y114.397 E.00136
G1 X148.983 Y114.482 E.00598
G1 X140.602 Y125.205 E.49137
G1 X140.57 Y125.299 E.00359
G1 X140.121 Y125.246 F9000
;TYPE:Inner wall
G1 F3000
G1 X140.097 Y125.346 E.00371
G1 X140.097 Y147.654 E.80549
G1 X140.132 Y147.871 E.00791
G1 X140.242 Y148.077 E.00844
G1 X148.623 Y158.799 E.49137
G1 X148.713 Y158.895 E.00476
G1 X148.934 Y159.023 E.00921
G1 X149.163 Y159.063 E.0084
G1 X157.364 Y159.063 E.29611
G1 X158.599 Y159.682 E.04989
G1 X158.599 Y160.681 E.03607
G1 X158.599 Y170.453 E.35285
G1 X157.364 Y171.072 E.04989
G1 X149.496 Y171.072 E.28408
G1 X128.476 Y146.812 E1.15902
G1 X128.476 Y126.188 E.74462
G1 X149.496 Y101.928 E1.15902
G1 X157.364 Y101.928 E.28408
G1 X158.599 Y102.547 E.04989
G1 X158.599 Y113.318 E.38892
G1 X157.364 Y113.937 E.04989
G1 X149.163 Y113.937 E.29611
G1 X149.05 Y113.947 E.00408
G1 X148.819 Y114.03 E.00886
G1 X148.623 Y114.201 E.00941
G1 X140.177 Y125.023 E.49563
G1 X140.131 Y125.207 E.00687
G1 X139.663 Y125.2 F9000
G1 F3000
G1 X139.639 Y125.346 E.00532
