; generated by SuperSlicer 2.5.59 on 2023-05-01 at 17:55:48 UTC


;
;

;
;
; 

; external perimeters extrusion width = 0.40mm
; perimeters extrusion width = 0.46mm
; infill extrusion width = 0.64mm
; solid infill extrusion width = 0.56mm
; top infill extrusion width = 0.40mm
; support material extrusion width = 0.46mm
; first layer extrusion width = 0.50mm

; external perimeters extrusion width = 0.40mm
; perimeters extrusion width = 0.46mm
; infill extrusion width = 0.64mm
; solid infill extrusion width = 0.56mm
; top infill extrusion width = 0.40mm
; support material extrusion width = 0.46mm
; first layer extrusion width = 0.50mm

; external perimeters extrusion width = 0.40mm
; perimeters extrusion width = 0.46mm
; infill extrusion width = 0.64mm
; solid infill extrusion width = 0.56mm
; top infill extrusion width = 0.40mm
; support material extrusion width = 0.46mm
; first layer extrusion width = 0.50mm

; object:{"name":"butane_converter_v3","id":"butane_converter_v3.2.stl id:0 copy 0","object_center":[161.483691,144.560191,0.000000],"boundingbox_center":[161.483691,144.560191,8.400000],"boundingbox_size":[5.000000,4.994337,16.799999]}
EXCLUDE_OBJECT_DEFINE NAME=butane_converter_v3_2_stl_id_0_copy_0 CENTER=161.483691,144.560191 POLYGON=[[158.983696,144.560192],[158.995008,144.322560],[159.028864,144.087072],[159.084960,143.855872],[159.162768,143.631040],[159.261600,143.414624],[159.380560,143.208592],[159.518560,143.014800],[159.674352,142.834992],[159.846544,142.670816],[160.033536,142.523760],[160.233696,142.395120],[160.445152,142.286112],[160.666016,142.197696],[160.894288,142.130656],[161.127904,142.085648],[161.364736,142.063040],[161.602640,142.063040],[161.839472,142.085648],[162.073088,142.130656],[162.301360,142.197696],[162.522240,142.286112],[162.733696,142.395120],[162.933840,142.523760],[163.120832,142.670816],[163.293024,142.834992],[163.448816,143.014800],[163.586816,143.208592],[163.705776,143.414624],[163.804608,143.631040],[163.882416,143.855872],[163.938512,144.087072],[163.972368,144.322560],[163.983696,144.560192],[163.972368,144.797840],[163.938512,145.033328],[163.882416,145.264528],[163.804608,145.489344],[163.705776,145.705760],[163.586816,145.911808],[163.448816,146.105584],[163.293024,146.285408],[163.120832,146.449568],[162.933840,146.596640],[162.733696,146.725264],[162.522240,146.834272],[162.301360,146.922704],[162.073088,146.989728],[161.839472,147.034752],[161.602640,147.057360],[161.364736,147.057360],[161.127904,147.034752],[160.894288,146.989728],[160.666016,146.922704],[160.445152,146.834272],[160.233696,146.725264],[160.033536,146.596640],[159.846544,146.449568],[159.674352,146.285408],[159.518560,146.105584],[159.380560,145.911808],[159.261600,145.705760],[159.162768,145.489344],[159.084960,145.264528],[159.028864,145.033328],[158.995008,144.797840],[158.983696,144.560192]]
; object:{"name":"Adapteur_Thermacell","id":"Adapteur_Thermacell.stl id:1 copy 0","object_center":[147.016310,145.336725,0.000000],"boundingbox_center":[147.016310,145.336725,7.500000],"boundingbox_size":[12.000000,11.976320,15.000000]}
EXCLUDE_OBJECT_DEFINE NAME=Adapteur_Thermacell_stl_id_1_copy_0 CENTER=147.016310,145.336725 POLYGON=[[141.016320,145.336736],[141.063632,144.584736],[141.204816,143.844592],[141.437648,143.127968],[141.758464,142.446208],[142.162224,141.810032],[142.642496,141.229440],[143.191776,140.713648],[143.801344,140.270768],[144.461632,139.907776],[145.162224,139.630384],[145.892032,139.443008],[146.639568,139.348576],[147.393056,139.348576],[148.140592,139.443008],[148.870400,139.630384],[149.570992,139.907776],[150.231280,140.270768],[150.840848,140.713648],[151.390128,141.229440],[151.870400,141.810032],[152.274160,142.446208],[152.594976,143.127968],[152.827808,143.844592],[152.968992,144.584736],[153.016320,145.336736],[152.968992,146.088736],[152.827808,146.828880],[152.594976,147.545488],[152.274160,148.227248],[151.870400,148.863440],[151.390128,149.444016],[150.840848,149.959808],[150.231280,150.402688],[149.570992,150.765680],[148.870400,151.043072],[148.140592,151.230448],[147.393056,151.324896],[146.639568,151.324896],[145.892032,151.230448],[145.162224,151.043072],[144.461632,150.765680],[143.801344,150.402688],[143.191776,149.959808],[142.642496,149.444016],[142.162224,148.863440],[141.758464,148.227248],[141.437648,147.545488],[141.204816,146.828880],[141.063632,146.088736],[141.016320,145.336736]]
; object:{"name":"thermacell_filler_v1","id":"thermacell_filler_v1.2_v3.stl id:2 copy 0","object_center":[158.320841,156.651436,0.000000],"boundingbox_center":[158.320841,156.651436,8.000000],"boundingbox_size":[8.000000,8.000000,16.000000]}
EXCLUDE_OBJECT_DEFINE NAME=thermacell_filler_v1_2_v3_stl_id_2_copy_0 CENTER=158.320841,156.651436 POLYGON=[[154.320848,156.651440],[154.333184,156.337600],[154.370080,156.025712],[154.431360,155.717664],[154.516624,155.415376],[154.625344,155.120720],[154.756816,154.835488],[154.910272,154.561440],[155.084784,154.300304],[155.279216,154.053648],[155.492416,153.823008],[155.723056,153.609824],[155.969712,153.415376],[156.230848,153.240880],[156.504880,153.087424],[156.790112,152.955936],[157.084784,152.847216],[157.387072,152.761968],[157.695120,152.700688],[158.007008,152.663776],[158.320848,152.651440],[158.634688,152.663776],[158.946576,152.700688],[159.254624,152.761968],[159.556912,152.847216],[159.851584,152.955936],[160.136816,153.087424],[160.410848,153.240880],[160.671984,153.415376],[160.918640,153.609824],[161.149280,153.823008],[161.362480,154.053648],[161.556912,154.300304],[161.731408,154.561440],[161.884880,154.835488],[162.016352,155.120720],[162.125072,155.415376],[162.210320,155.717664],[162.271600,156.025712],[162.308512,156.337600],[162.320848,156.651440],[162.308512,156.965280],[162.271600,157.277184],[162.210320,157.585216],[162.125072,157.887520],[162.016352,158.182176],[161.884880,158.467408],[161.731408,158.741440],[161.556912,159.002576],[161.362480,159.249232],[161.149280,159.479872],[160.918640,159.693072],[160.671984,159.887520],[160.410848,160.062016],[160.136816,160.215472],[159.851584,160.346960],[159.556912,160.455680],[159.254624,160.540928],[158.946576,160.602208],[158.634688,160.639120],[158.320848,160.651440],[158.007008,160.639120],[157.695120,160.602208],[157.387072,160.540928],[157.084784,160.455680],[156.790112,160.346960],[156.504880,160.215472],[156.230848,160.062016],[155.969712,159.887520],[155.723056,159.693072],[155.492416,159.479872],[155.279216,159.249232],[155.084784,159.002576],[154.910272,158.741440],[154.756816,158.467408],[154.625344,158.182176],[154.516624,157.887520],[154.431360,157.585216],[154.370080,157.277184],[154.333184,156.965280],[154.320848,156.651440]]
; plater:{"center":[152.500000,150.000000,0.000000],"boundingbox_center":[152.500000,150.000000,8.400000],"boundingbox_size":[22.967381,21.302871,16.799999]}

M73 P0 R33
;TYPE:Custom
START_PRINT T_BED=70 T_EXTRUDER=235
M107
G21 ; set units to millimeters
G90 ; use absolute coordinates
M82 ; use absolute distances for extrusion
G92 E0
; Filament gcode
PRESSURE_ADVANCE_SELECT FILAMENT=PETG
;_TOOLCHANGE 0
M104 S235 ; set temperature
M109 S235 ; set temperature and wait for it to be reached
M190 S70 ; set bed temperature and wait for it to be reached
M107
;LAYER_CHANGE
;Z:0.1
;HEIGHT:0.1
G1 Z0.1 F9000
M73 P0 R33
G1 E-1 F3000
M204 S1000
G1 X138.367 Y137.537 F9000
G1 E0 F1800
;TYPE:Skirt
;WIDTH:0.52
G1 X137.458 Y138.683 E0.03031
G1 X136.926 Y139.521 E0.05089
G1 X136.103 Y141.269 E0.09093
G1 X135.679 Y142.669 E0.12125
G1 X135.493 Y143.644 E0.14182
G1 X135.372 Y145.101 E0.17213
G1 X135.434 Y146.563 E0.20245
G1 X135.796 Y148.46 E0.24249
G1 X136.276 Y149.842 E0.27281
G1 X136.699 Y150.74 E0.29338
G1 X137.734 Y152.371 E0.33343
G1 X138.689 Y153.479 E0.36374
G1 X139.679 Y154.387 E0.39157
G1 X152.582 Y164.409 E0.73022
G1 X153.681 Y165.109 E0.75723
G1 X155.621 Y165.913 E0.80074
G1 X156.92 Y166.198 E0.82831
G1 X158.211 Y166.299 E0.85515
G1 X159.539 Y166.221 E0.88271
G1 X160.984 Y165.921 E0.91331
G1 X161.911 Y165.607 E0.9336
G1 X163.108 Y165.026 E0.96117
G1 X164.359 Y164.174 E0.99255
G1 X165.617 Y162.968 E1.02867
G1 X172.42 Y155.119 E1.24396
G1 X172.941 Y154.338 E1.26341
G1 X173.336 Y152.664 E1.29906
G1 X173.336 Y136.456 E1.635
G1 X172.583 Y134.204 E1.68422
G1 X171.262 Y133.103 E1.71987
G1 X169.588 Y132.708 E1.75552
G1 X153.38 Y132.708 E2.09146
G1 X145.007 Y133.863 E2.26664
G1 X143.194 Y134.335 E2.30547
G1 X141.846 Y134.901 E2.33578
G1 X140.578 Y135.631 E2.3661
G1 X139.775 Y136.215 E2.38667
G1 X138.367 Y137.537 E2.42672
G1 X138.751 Y137.855 F9000
G1 F1800
G1 X137.879 Y138.95 E2.45573
G1 X137.347 Y139.788 E2.47631
G1 X136.577 Y141.423 E2.51376
G1 X136.169 Y142.762 E2.54278
G1 X135.983 Y143.737 E2.56335
G1 X135.87 Y145.133 E2.59237
G1 X135.932 Y146.531 E2.62139
G1 X136.271 Y148.306 E2.65884
G1 X136.728 Y149.63 E2.68786
G1 X137.15 Y150.528 E2.70844
G1 X138.118 Y152.054 E2.74589
G1 X139.03 Y153.116 E2.77491
G1 X139.985 Y153.993 E2.80178
G1 X152.888 Y164.015 E3.14042
G1 X153.942 Y164.684 E3.16629
G1 X155.737 Y165.428 E3.20657
G1 X156.979 Y165.703 E3.23292
G1 X158.231 Y165.801 E3.25895
G1 X160.003 Y165.644 E3.29583
G1 X161.234 Y165.325 E3.32218
G1 X162.089 Y164.986 E3.34126
G1 X163.317 Y164.316 E3.37024
G1 X164.066 Y163.771 E3.38945
G1 X165.241 Y162.642 E3.42322
G1 X172.043 Y154.792 E3.63851
G1 X172.837 Y152.664 E3.68558
G1 X172.837 Y136.456 E4.02153
G1 X172.313 Y134.687 E4.05977
G1 X171.138 Y133.601 E4.09293
G1 X169.588 Y133.207 E4.12609
G1 X153.38 Y133.207 E4.46203
G1 X145.077 Y134.356 E4.63576
G1 X143.378 Y134.799 E4.67216
G1 X142.086 Y135.338 E4.70118
G1 X141.216 Y135.816 E4.72175
G1 X140.068 Y136.618 E4.75077
G1 X138.751 Y137.855 E4.78822
G92 E0
G1 E-1 F3000
G1 X141.536 Y140.254 F9000
G1 E0 F1800
;WIDTH:0.5
G1 X142.204 Y139.618 E0.01835
G1 X143.064 Y138.993 E0.03951
G1 X143.848 Y138.567 E0.05726
G1 X144.663 Y138.242 E0.07472
G1 X145.678 Y137.983 E0.09556
G1 X146.564 Y137.876 E0.11332
G1 X147.472 Y137.876 E0.13139
G1 X148.479 Y138.007 E0.15159
G1 X149.343 Y138.233 E0.16935
G1 X150.187 Y138.568 E0.18741
G1 X151.075 Y139.06 E0.20761
G1 X151.818 Y139.609 E0.22599
G1 X152.497 Y140.254 E0.24463
G1 X153.054 Y140.931 E0.26206
G1 X153.536 Y141.681 E0.2798
G1 X153.565 Y141.744 E0.28119
G1 X153.565 Y138.213 E0.35144
G1 X153.807 Y137.529 E0.36587
G1 X153.971 Y137.295 E0.37157
G1 X154.486 Y136.857 E0.38502
G1 X155.153 Y136.642 E0.39896
G1 X167.938 Y136.66 E0.65331
G1 X168.561 Y136.907 E0.66665
G1 X169.039 Y137.34 E0.67948
G1 X169.096 Y137.423 E0.68149
G1 X169.402 Y138.209 E0.69828
G1 X169.402 Y150.853 E0.94982
G1 X169.168 Y151.466 E0.96288
G1 X168.468 Y152.192 E0.98294
G1 X167.776 Y152.479 E0.99784
G1 X161.861 Y152.479 E1.11553
G1 X162.455 Y153.064 E1.13214
G1 X162.976 Y153.771 E1.14961
G1 X163.392 Y154.586 E1.16781
G1 X163.549 Y155.03 E1.17718
G1 X163.725 Y155.776 E1.19243
G1 X163.795 Y156.698 E1.21083
G1 X163.714 Y157.588 E1.22861
G1 X163.532 Y158.328 E1.24377
G1 X163.233 Y159.067 E1.25962
G1 X162.75 Y159.87 E1.27827
G1 X162.436 Y160.261 E1.28826
G1 X161.935 Y160.763 E1.30236
G1 X161.235 Y161.286 E1.31974
G1 X160.414 Y161.71 E1.33812
G1 X159.942 Y161.88 E1.34809
G1 X159.196 Y162.055 E1.36334
G1 X158.274 Y162.126 E1.38175
G1 X157.384 Y162.044 E1.39953
G1 X156.644 Y161.863 E1.41469
G1 X155.906 Y161.564 E1.43054
G1 X155.103 Y161.08 E1.44919
G1 X154.711 Y160.766 E1.45917
G1 X154.186 Y160.239 E1.47398
G1 X153.686 Y159.565 E1.49066
G1 X153.25 Y158.717 E1.50965
G1 X153.093 Y158.273 E1.51901
G1 X152.917 Y157.527 E1.53426
G1 X152.846 Y156.605 E1.55266
G1 X152.922 Y155.751 E1.56972
G1 X153.12 Y154.941 E1.5863
G1 X153.425 Y154.203 E1.6022
G1 X153.892 Y153.433 E1.6201
G1 X154.206 Y153.042 E1.63009
G1 X154.707 Y152.54 E1.6442
G1 X154.889 Y152.402 E1.64874
G1 X154.453 Y152.237 E1.65802
G1 X154.218 Y152.073 E1.66371
G1 X153.78 Y151.558 E1.67716
G1 X153.565 Y150.892 E1.69109
G1 X153.565 Y148.937 E1.72998
G1 X153.557 Y148.954 E1.73034
G1 X153.071 Y149.719 E1.74838
G1 X152.497 Y150.419 E1.7664
G1 X151.829 Y151.055 E1.78475
G1 X150.969 Y151.681 E1.80591
G1 X150.185 Y152.107 E1.82366
G1 X149.369 Y152.431 E1.84112
G1 X148.355 Y152.69 E1.86195
G1 X147.47 Y152.797 E1.87969
G1 X146.592 Y152.799 E1.89715
G1 X145.554 Y152.667 E1.91797
G1 X144.692 Y152.441 E1.93571
G1 X143.875 Y152.119 E1.95317
G1 X142.958 Y151.613 E1.97401
G1 X142.215 Y151.065 E1.99237
G1 X141.557 Y150.442 E2.0104
G1 X140.98 Y149.744 E2.02843
G1 X140.497 Y148.993 E2.04619
G1 X140.05 Y148.046 E2.06703
G1 X139.781 Y147.211 E2.08449
G1 X139.609 Y146.335 E2.10224
G1 X139.542 Y145.275 E2.12336
G1 X139.602 Y144.387 E2.14108
G1 X139.762 Y143.538 E2.15826
G1 X140.09 Y142.527 E2.17942
G1 X140.475 Y141.72 E2.19721
G1 X140.961 Y140.954 E2.21525
G1 X141.536 Y140.254 E2.23326
G1 X141.896 Y140.57 F9000
G1 F1800
G1 X142.522 Y139.976 E2.25043
G1 X143.307 Y139.406 E2.26974
G1 X144.039 Y139.006 E2.28632
G1 X144.826 Y138.692 E2.30319
G1 X145.751 Y138.456 E2.32218
G1 X146.607 Y138.353 E2.33934
G1 X147.456 Y138.355 E2.35623
G1 X148.373 Y138.474 E2.37462
G1 X149.207 Y138.693 E2.39178
G1 X149.996 Y139.007 E2.40867
G1 X150.804 Y139.455 E2.42705
G1 X151.5 Y139.966 E2.44423
G1 X152.137 Y140.57 E2.4617
G1 X152.676 Y141.224 E2.47855
G1 X153.124 Y141.926 E2.49513
G1 X153.532 Y142.789 E2.51412
G1 X153.792 Y143.596 E2.53099
G1 X153.951 Y144.414 E2.54757
G1 X154.012 Y145.382 E2.56687
G1 X153.957 Y146.213 E2.58342
G1 X153.803 Y147.032 E2.60001
G1 X153.504 Y147.955 E2.61932
G1 X153.132 Y148.734 E2.6365
G1 X152.676 Y149.45 E2.65338
G1 X152.137 Y150.104 E2.67023
G1 X151.511 Y150.697 E2.6874
G1 X150.726 Y151.268 E2.70671
G1 X149.994 Y151.667 E2.72329
G1 X149.207 Y151.981 E2.74016
G1 X148.282 Y152.217 E2.75915
G1 X147.455 Y152.319 E2.77573
G1 X146.607 Y152.321 E2.7926
G1 X145.66 Y152.2 E2.81159
G1 X144.853 Y151.99 E2.82817
G1 X144.065 Y151.68 E2.84503
G1 X143.229 Y151.218 E2.86403
G1 X142.533 Y150.707 E2.8812
G1 X141.916 Y150.125 E2.89808
G1 X141.374 Y149.473 E2.91494
G1 X140.908 Y148.747 E2.9321
G1 X140.501 Y147.884 E2.95109
G1 X140.24 Y147.078 E2.96796
G1 X140.082 Y146.259 E2.98454
G1 X140.021 Y145.291 E3.00384
G1 X140.075 Y144.461 E3.0204
G1 X140.229 Y143.642 E3.03698
G1 X140.529 Y142.719 E3.05629
G1 X140.901 Y141.939 E3.07347
G1 X141.357 Y141.224 E3.09035
G1 X141.896 Y140.57 E3.10721
G1 X142.255 Y140.886 F9000
G1 F1800
G1 X142.839 Y140.334 E3.12319
G1 X143.55 Y139.818 E3.14067
G1 X144.255 Y139.433 E3.15665
G1 X144.988 Y139.143 E3.17234
G1 X145.825 Y138.93 E3.18952
G1 X146.622 Y138.831 E3.2055
G1 X147.411 Y138.831 E3.22119
G1 X148.267 Y138.941 E3.23837
G1 X149.045 Y139.143 E3.25435
G1 X149.778 Y139.433 E3.27004
G1 X150.534 Y139.85 E3.28722
G1 X151.182 Y140.325 E3.3032
G1 X151.778 Y140.886 E3.31949
G1 X152.28 Y141.494 E3.33517
G1 X152.713 Y142.171 E3.35116
G1 X153.082 Y142.951 E3.36833
G1 X153.325 Y143.701 E3.38402
G1 X153.478 Y144.49 E3.40001
G1 X153.533 Y145.367 E3.41748
G1 X153.484 Y146.139 E3.43287
G1 X153.336 Y146.928 E3.44885
G1 X153.065 Y147.764 E3.46633
G1 X152.72 Y148.49 E3.48232
G1 X152.28 Y149.18 E3.4986
G1 X151.778 Y149.787 E3.51429
G1 X151.194 Y150.339 E3.53027
G1 X150.483 Y150.855 E3.54775
G1 X149.778 Y151.24 E3.56373
G1 X149.045 Y151.531 E3.57942
G1 X148.208 Y151.744 E3.5966
G1 X147.411 Y151.842 E3.61258
G1 X146.622 Y151.842 E3.62827
G1 X145.766 Y151.733 E3.64545
G1 X144.988 Y151.531 E3.66143
G1 X144.255 Y151.24 E3.67712
G1 X143.499 Y150.823 E3.6943
G1 X142.85 Y150.349 E3.71028
G1 X142.255 Y149.787 E3.72657
G1 X141.752 Y149.18 E3.74225
G1 X141.32 Y148.503 E3.75824
G1 X140.951 Y147.722 E3.77542
G1 X140.707 Y146.972 E3.7911
G1 X140.555 Y146.183 E3.80709
G1 X140.499 Y145.307 E3.82456
G1 X140.548 Y144.535 E3.83995
G1 X140.697 Y143.745 E3.85594
G1 X140.968 Y142.91 E3.87341
G1 X141.312 Y142.184 E3.8894
G1 X141.752 Y141.494 E3.90568
G1 X142.255 Y140.886 E3.92137
G1 X142.609 Y141.208 F9000
G1 F1800
G1 X142.619 Y141.197 E3.92167
G1 X143.161 Y140.688 E3.93646
G1 X143.173 Y140.679 E3.93675
G1 X143.774 Y140.242 E3.95154
G1 X143.787 Y140.234 E3.95184
G1 X144.438 Y139.876 E3.96663
G1 X144.452 Y139.869 E3.96693
