; HEADER_BLOCK_START
; generated by OrcaSlicer 1.6.3 on 2023-06-14 at 19:45:25
; total layer number: 88
; HEADER_BLOCK_END

; THUMBNAIL_BLOCK_START
; THUMBNAIL_BLOCK_END

; external perimeters extrusion width = 0.40mm
; perimeters extrusion width = 0.45mm
; infill extrusion width = 0.45mm
; solid infill extrusion width = 0.40mm
; top infill extrusion width = 0.40mm
; support material extrusion width = 0.40mm
; first layer extrusion width = 0.50mm

; external perimeters extrusion width = 0.40mm
; perimeters extrusion width = 0.45mm
; infill extrusion width = 0.45mm
; solid infill extrusion width = 0.40mm
; top infill extrusion width = 0.40mm
; support material extrusion width = 0.40mm
; first layer extrusion width = 0.50mm

; EXECUTABLE_BLOCK_START
EXCLUDE_OBJECT_DEFINE NAME=cf_tube_end.stl_id_0_copy_0 CENTER=155,168.75 POLYGON=[[143.5,160],[166.5,160],[166.5,177.5],[143.5,177.5],[143.5,160]]
EXCLUDE_OBJECT_DEFINE NAME=cf_tube_end.stl_id_1_copy_0 CENTER=155,141.25 POLYGON=[[143.5,132.5],[166.5,132.5],[166.5,150],[143.5,150],[143.5,132.5]]
M73 P0 R56
;TYPE:Custom
START_PRINT T_BED=60 T_EXTRUDER=220
G90
G21
M83 ; use relative distances for extrusion
; filament start gcode
PRESSURE_ADVANCE_SELECT FILAMENT=PLA
M106 S0
;LAYER_CHANGE
;Z:0.2
;HEIGHT:0.2
M204 S500
G1 E-.8 F3000
G1 Z.4 F9000
G1 X141.435 Y131.37
G1 Z.2
G1 E.8 F1800
;TYPE:Skirt
;WIDTH:0.5
G1 F900
G1 X142.485 Y130.463 E.05169
G1 X143.5 Y130.244 E.03866
G1 X166.5 Y130.244 E.85666
G1 X167.831 Y130.636 E.05169
G1 X168.738 Y131.686 E.05169
G1 X168.957 Y132.701 E.03866
G1 X168.957 Y177.299 E1.66112
G1 X168.565 Y178.63 E.05169
G1 X167.515 Y179.537 E.05169
G1 X166.5 Y179.756 E.03866
G1 X143.5 Y179.756 E.85666
G1 X142.169 Y179.364 E.05169
G1 X141.262 Y178.314 E.05169
G1 X141.043 Y177.299 E.03866
G1 X141.043 Y132.701 E1.66112
G1 X141.418 Y131.427 E.04945
; printing object cf tube end.stl id:0 copy 0
EXCLUDE_OBJECT_START NAME=cf_tube_end.stl_id_0_copy_0
G1 E-.8 F3000
G1 Z.6 F9000
G1 X165.336 Y176.135 Z.2
G1 E.8 F1800
;TYPE:Inner wall
;WIDTH:0.499999
G1 F900
G1 X144.664 Y176.135 E.76994
G1 X144.664 Y161.365 E.55013
G1 X165.336 Y161.365 E.76994
G1 X165.336 Y165.389 E.14988
G1 X165.336 Y176.075 E.39801
G1 X165.793 Y176.592 F9000
G1 F900
G1 X144.207 Y176.592 E.80399
G1 X144.207 Y160.908 E.58418
G1 X165.793 Y160.908 E.80399
G1 X165.793 Y165.389 E.1669
G1 X165.793 Y176.532 E.41504
M73 P0 R55
G1 X166.25 Y177.049 F9000
;TYPE:Outer wall
G1 F900
G1 X143.75 Y177.049 E.83804
G1 X143.75 Y160.451 E.61822
G1 X166.25 Y160.451 E.83804
G1 X166.25 Y165.389 E.18393
G1 X166.25 Y176.989 E.43206
G1 X166.181 Y177.009
G1 E-.8 F3000
G1 Z.6 F9000
G1 X154.044 Y166.201 Z.2
G1 E.8 F1800
;TYPE:Inner wall
G1 F900
G1 X154.225 Y166.098 E.00774
G1 X154.709 Y165.95 E.01884
G1 X155.211 Y165.89 E.01884
G1 X155.716 Y165.919 E.01884
G1 X156.208 Y166.036 E.01884
G1 X156.713 Y166.266 E.02067
G1 X157.283 Y166.686 E.02636
G1 X157.615 Y167.068 E.01884
G1 X157.893 Y167.547 E.02063
G1 X158.111 Y168.213 E.02612
G1 X158.163 Y168.674 E.01726
G1 X158.132 Y169.175 E.01871
G1 X157.993 Y169.718 E.02086
G1 X157.78 Y170.177 E.01884
G1 X157.456 Y170.627 E.02067
G1 X156.931 Y171.102 E.02636
G1 X156.444 Y171.369 E.02067
G1 X155.838 Y171.563 E.02371
G1 X155.338 Y171.614 E.01871
G1 X154.712 Y171.547 E.02345
G1 X154.048 Y171.323 E.02612
G1 X153.608 Y171.058 E.01912
G1 X153.228 Y170.724 E.01884
G1 X152.889 Y170.286 E.02063
G1 X152.598 Y169.696 E.02449
;WIDTH:0.534587
G1 X152.537 Y169.517 E.00758
;WIDTH:0.569175
G1 X152.476 Y169.338 E.00812
;WIDTH:0.603763
G1 X152.415 Y169.159 E.00865
;WIDTH:0.611468
G1 X152.385 Y168.644 E.02389
G1 X152.424 Y168.478 E.00789
;WIDTH:0.574312
G1 X152.463 Y168.313 E.00737
;WIDTH:0.537156
G1 X152.503 Y168.147 E.00686
;WIDTH:0.499999
G1 X152.653 Y167.664 E.01884
G1 X152.885 Y167.215 E.01884
G1 X153.193 Y166.814 E.01884
G1 X153.582 Y166.463 E.0195
G1 X153.992 Y166.23 E.01757
G1 X154.26 Y166.597 F9000
G1 F900
G1 X154.374 Y166.53 E.00493
G1 X154.779 Y166.402 E.01584
G1 X155.201 Y166.347 E.01584
G1 X155.626 Y166.367 E.01583
G1 X156.04 Y166.461 E.01583
G1 X156.456 Y166.644 E.01693
G1 X156.949 Y166.999 E.02261
G1 X157.231 Y167.316 E.01584
G1 X157.464 Y167.706 E.0169
G1 X157.658 Y168.275 E.02239
G1 X157.705 Y168.674 E.01496
G1 X157.675 Y169.128 E.01697
G1 X157.572 Y169.541 E.01583
G1 X157.397 Y169.928 E.01584
G1 X157.136 Y170.3 E.01693
G1 X156.69 Y170.713 E.02261
G1 X156.295 Y170.937 E.01693
G1 X155.759 Y171.113 E.02102
G1 X155.293 Y171.155 E.01744
G1 X154.841 Y171.109 E.0169
G1 X154.27 Y170.923 E.02239
G1 X153.898 Y170.704 E.01608
G1 X153.575 Y170.427 E.01584
G1 X153.258 Y170.006 E.01962
G1 X153.034 Y169.558 E.01865
G1 X152.915 Y169.033 E.02006
G1 X152.908 Y168.544 E.01821
G1 X153.003 Y168.049 E.01879
G1 X153.196 Y167.585 E.01872
G1 X153.513 Y167.14 E.02033
G1 X153.849 Y166.835 E.01693
G1 X154.208 Y166.627 E.01544
G1 X154.503 Y166.975 F9000
;TYPE:Outer wall
G1 F900
G1 X154.85 Y166.853 E.01369
G1 X155.191 Y166.804 E.01283
G1 X155.535 Y166.815 E.01283
G1 X155.872 Y166.887 E.01283
G1 X156.199 Y167.022 E.01318
G1 X156.615 Y167.311 E.01886
G1 X156.848 Y167.565 E.01283
G1 X157.036 Y167.865 E.01318
G1 X157.205 Y168.336 E.01866
G1 X157.248 Y168.674 E.01267
G1 X157.229 Y169.028 E.01321
G1 X157.15 Y169.363 E.01283
G1 X157.013 Y169.68 E.01283
G1 X156.816 Y169.973 E.01318
G1 X156.45 Y170.324 E.01886
G1 X156.146 Y170.505 E.01318
G1 X155.666 Y170.665 E.01886
G1 X155.323 Y170.699 E.01283
G1 X154.97 Y170.67 E.01318
G1 X154.491 Y170.523 E.01866
G1 X154.019 Y170.212 E.02108
G1 X153.697 Y169.857 E.01786
G1 X153.467 Y169.412 E.01866
G1 X153.365 Y168.932 E.01829
G1 X153.378 Y168.427 E.01881
G1 X153.509 Y167.99 E.01698
G1 X153.707 Y167.637 E.01506
G1 X154.05 Y167.255 E.01913
G1 X154.45 Y167.002 E.01763
G1 X154.508 Y166.902
G1 E-.8 F3000
G1 Z.6 F9000
G1 X146.079 Y168.398 Z.2
G1 E.8 F1800
;TYPE:Inner wall
G1 F900
G1 X146.17 Y167.903 E.01874
G1 X146.383 Y167.389 E.02071
G1 X146.662 Y166.967 E.01884
G1 X147.01 Y166.601 E.01882
G1 X147.597 Y166.206 E.02634
G1 X148.113 Y165.999 E.02071
G1 X148.61 Y165.903 E.01884
G1 X149.115 Y165.897 E.01882
G1 X149.807 Y166.04 E.02634
G1 X150.316 Y166.264 E.02071
G1 X150.732 Y166.552 E.01884
G1 X151.09 Y166.909 E.01884
G1 X151.38 Y167.323 E.01882
G1 X151.622 Y167.897 E.0232
;WIDTH:0.535339
G1 X151.705 Y168.206 E.01285
;WIDTH:0.570678
G1 X151.787 Y168.515 E.01377
;WIDTH:0.598138
G1 X151.799 Y168.773 E.01167
;WIDTH:0.625597
G1 X151.811 Y169.031 E.01225
G1 X151.743 Y169.239 E.0104
;WIDTH:0.583731
G1 X151.675 Y169.447 E.00965
;WIDTH:0.541865
G1 X151.606 Y169.655 E.0089
;WIDTH:0.499999
G1 X151.497 Y169.952 E.01179
G1 X151.245 Y170.391 E.01884
G1 X150.919 Y170.778 E.01884
G1 X150.531 Y171.102 E.01884
G1 X150.092 Y171.352 E.01881
G1 X149.591 Y171.524 E.01973
G1 X148.938 Y171.614 E.02455
G1 X148.359 Y171.56 E.02166
G1 X147.873 Y171.421 E.01884
G1 X147.419 Y171.198 E.01884
G1 X147.011 Y170.899 E.01884
G1 X146.662 Y170.533 E.01884
G1 X146.383 Y170.111 E.01884
G1 X146.171 Y169.598 E.02067
G1 X146.06 Y169.1 E.01903
G1 X146.042 Y168.598 E.01868
G1 X146.069 Y168.457 E.00537
G1 X146.514 Y168.521 F9000
G1 F900
G1 X146.516 Y168.448 E.00271
G1 X146.666 Y167.86 E.02261
G1 X146.857 Y167.48 E.01584
G1 X147.113 Y167.14 E.01583
G1 X147.449 Y166.835 E.01693
G1 X147.974 Y166.53 E.02261
G1 X148.379 Y166.402 E.01584
G1 X148.801 Y166.347 E.01584
G1 X149.255 Y166.374 E.01693
G1 X149.84 Y166.536 E.02261
G1 X150.215 Y166.736 E.01584
G1 X150.621 Y167.076 E.01976
G1 X150.904 Y167.428 E.0168
G1 X151.089 Y167.773 E.0146
G1 X151.258 Y168.275 E.01971
G1 X151.299 Y168.846 E.02132
G1 X151.246 Y169.237 E.01468
G1 X151.093 Y169.738 E.01954
G1 X150.885 Y170.109 E.01584
G1 X150.614 Y170.437 E.01584
G1 X150.29 Y170.713 E.01583
G1 X149.924 Y170.927 E.01582
M73 P1 R55
G1 X149.501 Y171.076 E.0167
G1 X148.938 Y171.157 E.02118
G1 X148.469 Y171.116 E.01753
G1 X148.059 Y171.004 E.01583
G1 X147.676 Y170.82 E.01584
G1 X147.33 Y170.572 E.01584
G1 X147.034 Y170.268 E.01584
G1 X146.796 Y169.915 E.01583
G1 X146.617 Y169.498 E.01693
G1 X146.5 Y168.902 E.02261
G1 X146.511 Y168.581 E.01198
G1 X146.958 Y168.797 F9000
;TYPE:Outer wall
G1 F900
G1 X146.962 Y168.548 E.00927
G1 X147.079 Y168.055 E.01886
G1 X147.229 Y167.746 E.01283
G1 X147.432 Y167.467 E.01283
G1 X147.689 Y167.224 E.01318
G1 X148.123 Y166.962 E.01886
G1 X148.45 Y166.853 E.01283
G1 X148.791 Y166.804 E.01283
G1 X149.145 Y166.817 E.01318
G1 X149.635 Y166.944 E.01886
G1 X149.941 Y167.102 E.01283
G1 X150.288 Y167.389 E.01675
G1 X150.613 Y167.82 E.02013
G1 X150.792 Y168.288 E.01866
G1 X150.848 Y168.684 E.0149
G1 X150.805 Y169.117 E.0162
G1 X150.689 Y169.524 E.01579
G1 X150.412 Y169.972 E.0196
G1 X150.05 Y170.324 E.01878
G1 X149.755 Y170.502 E.01283
G1 X149.429 Y170.625 E.01298
G1 X148.923 Y170.699 E.01907
G1 X148.579 Y170.673 E.01283
G1 X148.246 Y170.586 E.01283
G1 X147.933 Y170.442 E.01283
G1 X147.65 Y170.246 E.01283
G1 X147.406 Y170.002 E.01283
G1 X147.209 Y169.72 E.01283
G1 X147.062 Y169.397 E.01318
G1 X146.957 Y168.902 E.01886
G1 X146.957 Y168.857 E.00168
G1 X146.914 Y168.774
G1 E-.8 F3000
G1 Z.6 F9000
G1 X165.19 Y162.436 Z.2
G1 E.8 F1800
;TYPE:Bottom surface
;WIDTH:0.50055
G1 F1200
G1 X164.47 Y161.717 E.03794
G1 X163.823 Y161.717 E.02413
G1 X164.984 Y162.878 E.06123
G1 X164.984 Y163.525 E.02413
G1 X163.176 Y161.717 E.09536
G1 X162.529 Y161.717 E.02413
G1 X164.984 Y164.172 E.12949
G1 X164.984 Y164.819 E.02413
G1 X161.881 Y161.717 E.16362
G1 X161.234 Y161.717 E.02413
G1 X164.984 Y165.467 E.19775
G1 X164.984 Y166.114 E.02413
G1 X160.587 Y161.717 E.23188
G1 X159.94 Y161.717 E.02413
G1 X164.984 Y166.761 E.26601
G1 X164.984 Y167.408 E.02413
G1 X159.293 Y161.717 E.30014
G1 X158.645 Y161.717 E.02413
G1 X164.984 Y168.055 E.33427
G1 X164.984 Y168.703 E.02413
G1 X157.998 Y161.717 E.36841
G1 X157.351 Y161.717 E.02413
G1 X164.984 Y169.35 E.40254
G1 X164.984 Y169.997 E.02413
G1 X156.704 Y161.717 E.43667
G1 X156.057 Y161.717 E.02413
G1 X164.984 Y170.644 E.4708
G1 X164.984 Y171.291 E.02413
G1 X155.41 Y161.717 E.50493
G1 X154.762 Y161.717 E.02413
G1 X164.984 Y171.938 E.53906
G1 X164.984 Y172.586 E.02413
G1 X154.115 Y161.717 E.57319
G1 X153.468 Y161.717 E.02413
G1 X164.984 Y173.233 E.60732
G1 X164.984 Y173.88 E.02413
G1 X152.821 Y161.717 E.64145
G1 X152.174 Y161.717 E.02413
G1 X156.092 Y165.636 E.20667
G1 X156.624 Y165.822 E.02101
G1 X156.906 Y165.971 E.01188
G1 X157.294 Y166.235 E.01752
G1 X157.535 Y166.441 E.01181
G1 X157.751 Y166.672 E.01181
G1 X157.907 Y166.872 E.00946
G1 X158.122 Y167.207 E.01481
G1 X158.221 Y167.42 E.00878
G1 X158.406 Y167.949 E.02091
G1 X164.984 Y174.527 E.34691
G1 X164.984 Y175.174 E.02413
G1 X158.512 Y168.702 E.34132
G1 X158.464 Y169.302 E.02243
G1 X164.945 Y175.783 E.3418
G1 X164.298 Y175.783 E.02413
G1 X158.33 Y169.815 E.31473
G1 X158.134 Y170.266 E.01834
G1 X163.651 Y175.783 E.29095
G1 X163.004 Y175.783 E.02413
G1 X157.881 Y170.66 E.27016
G1 X157.707 Y170.874 E.01028
G1 X157.575 Y171.002 E.00684
G1 X162.357 Y175.783 E.25215
G1 X161.709 Y175.783 E.02413
G1 X157.235 Y171.309 E.23598
G1 X156.846 Y171.567 E.01741
G1 X161.062 Y175.783 E.22236
G1 X160.415 Y175.783 E.02413
G1 X156.392 Y171.76 E.21219
G1 X155.895 Y171.91 E.01935
G1 X159.768 Y175.783 E.20424
G1 X159.121 Y175.783 E.02413
G1 X155.301 Y171.964 E.20142
G1 X154.929 Y171.942 E.01389
G1 X154.559 Y171.869 E.01406
G1 X158.679 Y175.989 E.21726
G1 E-.8 F3000
G1 Z.6 F9000
G1 X155.569 Y165.759 Z.2
G1 E.8 F1800
G1 F1200
G1 X151.526 Y161.717 E.21318
G1 X150.879 Y161.717 E.02413
G1 X154.75 Y165.588 E.20413
G1 X154.403 Y165.665 E.01326
G1 X154.237 Y165.722 E.00655
G1 X150.232 Y161.717 E.2112
G1 X149.585 Y161.717 E.02413
G1 X153.789 Y165.921 E.22173
G1 X153.394 Y166.173 E.01748
G1 X148.938 Y161.717 E.23501
G1 X148.29 Y161.717 E.02413
G1 X153.044 Y166.47 E.25069
G1 X152.944 Y166.565 E.00514
G1 X152.74 Y166.814 E.01199
G1 X147.643 Y161.717 E.26878
G1 X146.996 Y161.717 E.02413
G1 X152.485 Y167.206 E.28949
G1 X152.283 Y167.651 E.01823
G1 X146.349 Y161.717 E.31295
G1 X145.702 Y161.717 E.02413
G1 X149.614 Y165.629 E.20632
G1 X149.443 Y165.587 E.00657
G1 X149.129 Y165.545 E.01179
G1 X148.877 Y165.539 E.00942
G1 X145.055 Y161.717 E.20158
G1 X145.016 Y161.717 E.00143
G1 X145.016 Y162.326 E.0227
G1 X148.289 Y165.598 E.17259
G1 X148.003 Y165.664 E.01092
G1 X147.783 Y165.74 E.00868
G1 X145.016 Y162.973 E.14594
G1 X145.016 Y163.62 E.02413
G1 X147.344 Y165.948 E.12279
G1 X146.951 Y166.202 E.01746
G1 X145.016 Y164.267 E.10205
G1 X145.016 Y164.914 E.02413
G1 X146.612 Y166.51 E.08417
G1 X146.379 Y166.758 E.01268
G1 X146.313 Y166.858 E.00448
G1 X145.016 Y165.562 E.06837
G1 X145.016 Y166.209 E.02413
G1 X146.059 Y167.251 E.05498
G1 X145.932 Y167.519 E.01107
G1 X145.867 Y167.707 E.00739
G1 X145.016 Y166.856 E.04487
G1 X145.016 Y167.503 E.02413
G1 X145.737 Y168.224 E.03804
G1 X145.69 Y168.594 E.01389
G1 X145.699 Y168.834 E.00895
G1 X144.81 Y167.945 E.04689
G1 E-.8 F3000
G1 Z.6 F9000
G1 X151.718 Y167.733 Z.2
G1 E.8 F1800
G1 F1200
G1 X152.3 Y168.315 E.03072
G1 X151.93 Y169.239 F9000
G1 F1200
G1 X152.479 Y169.788 E.02896
G1 X151.741 Y169.698 F9000
G1 F1200
G1 X157.826 Y175.783 E.32094
G1 X157.179 Y175.783 E.02413
G1 X151.706 Y170.31 E.28866
G1 X151.448 Y170.7 E.01742
G1 X156.532 Y175.783 E.26809
G1 X155.885 Y175.783 E.02413
G1 X151.143 Y171.041 E.25007
G1 X150.796 Y171.342 E.01711
G1 X155.238 Y175.783 E.23421
G1 X154.59 Y175.783 E.02413
G1 X150.396 Y171.589 E.22119
G1 X149.947 Y171.787 E.0183
G1 X153.943 Y175.783 E.21073
G1 X153.296 Y175.783 E.02413
G1 X149.421 Y171.908 E.20437
G1 X149.165 Y171.948 E.00965
G1 X148.827 Y171.961 E.01262
G1 X152.649 Y175.783 E.20155
G1 X152.002 Y175.783 E.02413
G1 X148.057 Y171.839 E.20802
G1 X147.735 Y171.745 E.01252
G1 X147.226 Y171.493 E.02118
G1 X146.769 Y171.155 E.02118
G1 X146.379 Y170.742 E.02118
G1 X146.068 Y170.269 E.02109
G1 X145.932 Y169.981 E.0119
G1 X145.808 Y169.59 E.0153
G1 X145.016 Y168.798 E.04177
G1 X145.016 Y169.445 E.02413
G1 X151.354 Y175.783 E.33427
G1 X150.707 Y175.783 E.02413
G1 X145.016 Y170.092 E.30014
G1 X145.016 Y170.739 E.02413
G1 X150.06 Y175.783 E.26601
G1 X149.413 Y175.783 E.02413
G1 X145.016 Y171.386 E.23188
G1 X145.016 Y172.033 E.02413
G1 X148.766 Y175.783 E.19774
G1 X148.119 Y175.783 E.02413
G1 X145.016 Y172.681 E.16361
G1 X145.016 Y173.328 E.02413
G1 X147.471 Y175.783 E.12948
G1 X146.824 Y175.783 E.02413
G1 X145.016 Y173.975 E.09535
G1 X145.016 Y174.622 E.02413
G1 X146.177 Y175.783 E.06122
G1 X145.53 Y175.783 E.02413
G1 X144.81 Y175.064 E.03794
; stop printing object cf tube end.stl id:0 copy 0
EXCLUDE_OBJECT_END NAME=cf_tube_end.stl_id_0_copy_0
; printing object cf tube end.stl id:1 copy 0
EXCLUDE_OBJECT_START NAME=cf_tube_end.stl_id_1_copy_0
G1 E-.8 F3000
G1 Z.6 F9000
G1 X165.336 Y148.635 Z.2
G1 E.8 F1800
;TYPE:Inner wall
;WIDTH:0.499999
G1 F900
G1 X144.664 Y148.635 E.76994
G1 X144.664 Y133.865 E.55013
M73 P2 R55
G1 X165.336 Y133.865 E.76994
G1 X165.336 Y137.889 E.14988
G1 X165.336 Y148.575 E.39801
G1 X165.793 Y149.092 F9000
G1 F900
G1 X144.207 Y149.092 E.80399
G1 X144.207 Y133.408 E.58418
G1 X165.793 Y133.408 E.80399
G1 X165.793 Y137.889 E.1669
G1 X165.793 Y149.032 E.41504
G1 X166.25 Y149.549 F9000
;TYPE:Outer wall
G1 F900
G1 X143.75 Y149.549 E.83804
G1 X143.75 Y132.951 E.61822
G1 X166.25 Y132.951 E.83804
G1 X166.25 Y137.889 E.18393
G1 X166.25 Y149.489 E.43206
G1 X166.181 Y149.509
G1 E-.8 F3000
G1 Z.6 F9000
G1 X154.044 Y138.701 Z.2
G1 E.8 F1800
;TYPE:Inner wall
G1 F900
G1 X154.225 Y138.598 E.00774
G1 X154.709 Y138.45 E.01884
G1 X155.211 Y138.39 E.01884
G1 X155.716 Y138.419 E.01884
G1 X156.208 Y138.536 E.01884
G1 X156.713 Y138.766 E.02067
G1 X157.283 Y139.186 E.02636
G1 X157.615 Y139.568 E.01884
G1 X157.893 Y140.047 E.02063
G1 X158.111 Y140.713 E.02612
G1 X158.163 Y141.174 E.01726
G1 X158.132 Y141.675 E.01871
G1 X157.993 Y142.218 E.02086
G1 X157.78 Y142.677 E.01884
G1 X157.456 Y143.127 E.02067
G1 X156.931 Y143.602 E.02636
G1 X156.444 Y143.869 E.02067
G1 X155.838 Y144.063 E.02371
G1 X155.338 Y144.114 E.01871
G1 X154.712 Y144.047 E.02345
G1 X154.048 Y143.823 E.02612
G1 X153.608 Y143.558 E.01912
G1 X153.228 Y143.224 E.01884
G1 X152.889 Y142.786 E.02063
G1 X152.598 Y142.196 E.02449
