; generated by SuperSlicer 2.5.59 on 2023-03-19 at 17:41:17 UTC


;
;

;
;
; 

; external perimeters extrusion width = 0.40mm
; perimeters extrusion width = 0.46mm
; infill extrusion width = 0.64mm
; solid infill extrusion width = 0.56mm
; top infill extrusion width = 0.40mm
; support material extrusion width = 0.46mm
; first layer extrusion width = 0.50mm

; object:{"name":"Copy of WiFi QR Code Sign - Embedded Magnet Version","id":"Copy of WiFi QR Code Sign - Embedded Magnet Version.stl id:0 copy 0","object_center":[152.500001,150.000000,0.000000],"boundingbox_center":[152.500001,150.000000,2.500000],"boundingbox_size":[64.000000,73.440002,5.000000]}
EXCLUDE_OBJECT_DEFINE NAME=Copy_of_WiFi_QR_Code_Sign_Embedded_Magnet_Version_stl_id_0_copy_0 CENTER=152.500001,150.000000 POLYGON=[[120.500000,113.280000],[184.500000,113.280000],[184.500000,186.720000],[120.500000,186.720000],[120.500000,113.280000]]
; plater:{"center":[152.500001,150.000000,0.000000],"boundingbox_center":[152.500001,150.000000,2.500000],"boundingbox_size":[64.000000,73.440002,5.000000]}

M73 P0 R50
M73 P0 R50
;TYPE:Custom
START_PRINT T_BED=70 T_EXTRUDER=235
M107
G21 ; set units to millimeters
G90 ; use absolute coordinates
M82 ; use absolute distances for extrusion
G92 E0
; Filament gcode
PRESSURE_ADVANCE_SELECT FILAMENT=PETG
;_TOOLCHANGE 0
M109 S235 ; set temperature and wait for it to be reached
M190 S70 ; set bed temperature and wait for it to be reached
M107
;LAYER_CHANGE
;Z:0.2
;HEIGHT:0.2
G1 Z0.2 F9000
M73 P0 R50
G1 E-1 F3000
M204 S1000
G1 X118.379 Y110.401 F9000
G1 E0 F1800
;TYPE:Skirt
;WIDTH:0.52
G1 X117.279 Y111.714 E0.06793
G1 X116.884 Y113.38 E0.13586
G1 X116.884 Y186.62 E3.04125
G1 X117.621 Y188.841 E3.13407
G1 X118.934 Y189.941 E3.202
G1 X120.6 Y190.336 E3.26994
G1 X184.4 Y190.336 E5.80084
G1 X186.621 Y189.599 E5.89367
G1 X187.721 Y188.286 E5.9616
G1 X188.116 Y186.62 E6.02953
G1 X188.116 Y113.38 E8.93491
G1 X187.379 Y111.159 E9.02774
G1 X186.066 Y110.059 E9.09567
G1 X184.4 Y109.664 E9.1636
G1 X120.6 Y109.664 E11.69451
M73 P0 R50
G1 X118.379 Y110.401 E11.78733
G1 X118.757 Y110.751 F9000
G1 F1800
G1 X117.755 Y111.832 E11.84578
G1 X117.361 Y113.38 E11.90914
G1 X117.361 Y186.62 E14.81452
G1 X117.881 Y188.379 E14.88728
G1 X119.052 Y189.465 E14.95064
G1 X120.6 Y189.859 E15.014
G1 X184.4 Y189.859 E17.5449
G1 X186.159 Y189.339 E17.61766
G1 X187.245 Y188.168 E17.68101
G1 X187.639 Y186.62 E17.74437
G1 X187.639 Y113.38 E20.64975
G1 X187.119 Y111.621 E20.72251
G1 X185.948 Y110.535 E20.78587
G1 X184.4 Y110.141 E20.84922
G1 X120.6 Y110.141 E23.38013
M73 P1 R50
G1 X118.841 Y110.661 E23.45288
G1 X118.757 Y110.751 E23.45779
G92 E0
G1 E-1 F3000
; printing object Copy of WiFi QR Code Sign - Embedded Magnet Version.stl id:0 copy 0
EXCLUDE_OBJECT_START NAME=Copy_of_WiFi_QR_Code_Sign_Embedded_Magnet_Version_stl_id_0_copy_0
G1 X183.236 Y185.456 F9000
G1 E0 F1800
;TYPE:Internal perimeter
;WIDTH:0.5
G1 X121.764 Y185.456 E2.33631
G1 X121.764 Y114.544 E5.03141
G1 X183.236 Y114.544 E7.36772
G1 X183.236 Y185.456 E10.06281
G1 X183.693 Y185.913 F9000
G1 F1800
G1 X121.307 Y185.913 E12.43387
G1 X121.307 Y114.087 E15.1637
G1 X183.693 Y114.087 E17.53476
G1 X183.693 Y185.913 E20.2646
M73 P1 R49
G1 X184.15 Y186.37 F9000
;TYPE:External perimeter
G1 F1800
G1 X120.85 Y186.37 E22.6704
G1 X120.85 Y113.63 E25.43498
G1 X184.15 Y113.63 E27.84078
G1 X184.15 Y186.37 E30.60536
;WIPE_START
M204 S3000
G1 X183.804 Y186.17 F9000
;WIPE_END
G92 E0
G1 E-1 F3000
M204 S1000
G1 X182.243 Y114.613 F9000
G1 E0 F1800
;TYPE:Solid infill
;WIDTH:0.498412
G1 F2400
G1 X183.167 Y115.537 E0.04951
G1 X183.167 Y116.183 F9000
G1 F2400
G1 X181.597 Y114.613 E0.13364
G1 X180.951 Y114.613 F9000
G1 F2400
G1 X183.167 Y116.829 E0.25242
G1 X183.167 Y117.476 F9000
G1 F2400
G1 X180.304 Y114.613 E0.40582
G1 X179.658 Y114.613 F9000
G1 F2400
G1 X183.167 Y118.122 E0.59386
G1 X183.167 Y118.769 F9000
G1 F2400
G1 X179.011 Y114.613 E0.81653
G1 X178.365 Y114.613 F9000
G1 F2400
G1 X183.167 Y119.415 E1.07384
G1 X183.167 Y120.062 F9000
G1 F2400
G1 X177.718 Y114.613 E1.36578
G1 X177.072 Y114.613 F9000
G1 F2400
G1 X183.167 Y120.708 E1.69235
G1 X183.167 Y121.354 F9000
G1 F2400
G1 X176.426 Y114.613 E2.05356
G1 X175.779 Y114.613 F9000
G1 F2400
G1 X183.167 Y122.001 E2.4494
G1 X183.167 Y122.647 F9000
G1 F2400
G1 X175.133 Y114.613 E2.87987
G1 X174.486 Y114.613 F9000
G1 F2400
G1 X183.167 Y123.294 E3.34498
G1 X183.167 Y123.94 F9000
G1 F2400
G1 X173.84 Y114.613 E3.84472
G1 X173.194 Y114.613 F9000
G1 F2400
G1 X183.167 Y124.586 E4.37909
G1 X183.167 Y125.233 F9000
G1 F2400
G1 X172.547 Y114.613 E4.9481
G1 X171.901 Y114.613 F9000
G1 F2400
G1 X183.167 Y125.879 E5.55174
G1 X183.167 Y126.526 F9000
G1 F2400
G1 X171.254 Y114.613 E6.19001
G1 X170.608 Y114.613 F9000
G1 F2400
G1 X183.167 Y127.172 E6.86292
G1 X183.167 Y127.818 F9000
G1 F2400
G1 X169.962 Y114.613 E7.57046
G1 X169.315 Y114.613 F9000
G1 F2400
G1 X183.167 Y128.465 E8.31263
G1 X183.167 Y129.111 F9000
G1 F2400
G1 X168.669 Y114.613 E9.08944
G1 X168.022 Y114.613 F9000
G1 F2400
G1 X183.167 Y129.758 E9.90088
G1 X183.167 Y130.404 F9000
G1 F2400
G1 X167.376 Y114.613 E10.74696
G1 X166.73 Y114.613 F9000
G1 F2400
G1 X183.167 Y131.05 E11.62766
G1 X183.167 Y131.697 F9000
G1 F2400
G1 X166.083 Y114.613 E12.54301
G1 X165.437 Y114.613 F9000
G1 F2400
G1 X183.167 Y132.343 E13.49298
G1 X183.167 Y132.99 F9000
G1 F2400
G1 X164.79 Y114.613 E14.47759
G1 X164.144 Y114.613 F9000
G1 F2400
G1 X183.167 Y133.636 E15.49683
G1 X183.167 Y134.282 F9000
G1 F2400
G1 X163.498 Y114.613 E16.55071
G1 X162.851 Y114.613 F9000
G1 F2400
G1 X183.167 Y134.929 E17.63922
G1 X183.167 Y135.575 F9000
G1 F2400
G1 X162.205 Y114.613 E18.76236
G1 X161.558 Y114.613 F9000
G1 F2400
G1 X183.167 Y136.222 E19.92014
G1 X183.167 Y136.868 F9000
G1 F2400
G1 X160.912 Y114.613 E21.11254
G1 X160.265 Y114.613 F9000
G1 F2400
G1 X183.167 Y137.515 E22.33959
G1 X183.167 Y138.161 F9000
G1 F2400
G1 X159.619 Y114.613 E23.60126
G1 X158.973 Y114.613 F9000
G1 F2400
G1 X183.167 Y138.807 E24.89757
G1 X183.167 Y139.454 F9000
G1 F2400
G1 X158.326 Y114.613 E26.22852
M73 P2 R49
G1 X157.68 Y114.613 F9000
G1 F2400
G1 X183.167 Y140.1 E27.59409
G1 X183.167 Y140.747 F9000
G1 F2400
G1 X157.033 Y114.613 E28.9943
G1 X156.387 Y114.613 F9000
G1 F2400
G1 X183.167 Y141.393 E30.42915
G1 X183.167 Y142.039 F9000
G1 F2400
G1 X155.741 Y114.613 E31.89862
G1 X155.094 Y114.613 F9000
G1 F2400
G1 X183.167 Y142.686 E33.40273
G1 X183.167 Y143.332 F9000
G1 F2400
G1 X154.448 Y114.613 E34.94148
G1 X153.801 Y114.613 F9000
G1 F2400
G1 X183.167 Y143.979 E36.51486
G1 X183.167 Y144.625 F9000
G1 F2400
G1 X153.155 Y114.613 E38.12287
G1 X152.509 Y114.613 F9000
G1 F2400
G1 X183.167 Y145.271 E39.76551
M73 P3 R49
G1 X183.167 Y145.918 F9000
G1 F2400
G1 X151.862 Y114.613 E41.44279
G1 X151.216 Y114.613 F9000
G1 F2400
G1 X183.167 Y146.564 E43.1547
G1 X183.167 Y147.211 F9000
G1 F2400
G1 X150.569 Y114.613 E44.90125
G1 X149.923 Y114.613 F9000
G1 F2400
G1 X183.167 Y147.857 E46.68242
G1 X183.167 Y148.503 F9000
G1 F2400
G1 X149.277 Y114.613 E48.49824
G1 X148.63 Y114.613 F9000
G1 F2400
G1 X183.167 Y149.15 E50.34868
G1 X183.167 Y149.796 F9000
G1 F2400
G1 X147.984 Y114.613 E52.23376
G1 X147.337 Y114.613 F9000
G1 F2400
G1 X183.167 Y150.443 E54.15347
G1 X183.167 Y151.089 F9000
G1 F2400
G1 X146.691 Y114.613 E56.10782
G1 X146.045 Y114.613 F9000
G1 F2400
G1 X183.167 Y151.735 E58.0968
G1 X183.167 Y152.382 F9000
G1 F2400
G1 X145.398 Y114.613 E60.12041
G1 X144.752 Y114.613 F9000
G1 F2400
G1 X183.167 Y153.028 E62.17865
G1 X183.167 Y153.675 F9000
G1 F2400
G1 X144.105 Y114.613 E64.27153
G1 X143.459 Y114.613 F9000
G1 F2400
G1 X183.167 Y154.321 E66.39905
G1 X183.167 Y154.968 F9000
G1 F2400
G1 X142.812 Y114.613 E68.56119
M73 P3 R48
G1 X142.166 Y114.613 F9000
G1 F2400
G1 X183.167 Y155.614 E70.75797
G1 X183.167 Y156.26 F9000
G1 F2400
G1 X141.52 Y114.613 E72.98939
G1 X140.873 Y114.613 F9000
G1 F2400
G1 X183.167 Y156.907 E75.25543
G1 X183.167 Y157.553 F9000
G1 F2400
G1 X140.227 Y114.613 E77.55611
G1 X139.58 Y114.613 F9000
G1 F2400
G1 X183.167 Y158.2 E79.89143
G1 X183.167 Y158.846 F9000
G1 F2400
G1 X138.934 Y114.613 E82.26137
G1 X138.288 Y114.613 F9000
G1 F2400
G1 X183.167 Y159.492 E84.66595
G1 X183.167 Y160.139 F9000
G1 F2400
G1 X137.641 Y114.613 E87.10517
G1 X136.995 Y114.613 F9000
G1 F2400
G1 X183.167 Y160.785 E89.57902
G1 X183.167 Y161.432 F9000
G1 F2400
G1 X136.348 Y114.613 E92.0875
G1 X135.702 Y114.613 F9000
G1 F2400
G1 X183.167 Y162.078 E94.63061
G1 X183.167 Y162.724 F9000
G1 F2400
G1 X135.056 Y114.613 E97.20836
G1 X134.409 Y114.613 F9000
G1 F2400
G1 X183.167 Y163.371 E99.82074
G1 X183.167 Y164.017 F9000
G1 F2400
G1 X133.763 Y114.613 E102.46776
G1 X133.116 Y114.613 F9000
G1 F2400
G1 X183.167 Y164.664 E105.1494
G1 X183.167 Y165.31 F9000
G1 F2400
G1 X132.47 Y114.613 E107.86569
G1 X131.824 Y114.613 F9000
G1 F2400
G1 X183.167 Y165.956 E110.6166
G1 X183.167 Y166.603 F9000
G1 F2400
G1 X131.177 Y114.613 E113.40215
M73 P4 R48
G1 X130.531 Y114.613 F9000
G1 F2400
G1 X183.167 Y167.249 E116.22233
G1 X183.167 Y167.896 F9000
G1 F2400
G1 X129.884 Y114.613 E119.07715
G1 X129.238 Y114.613 F9000
G1 F2400
G1 X183.167 Y168.542 E121.9666
G1 X183.167 Y169.188 F9000
G1 F2400
G1 X128.592 Y114.613 E124.89068
G1 X127.945 Y114.613 F9000
G1 F2400
G1 X183.167 Y169.835 E127.8494
M73 P5 R48
G1 X183.167 Y170.481 F9000
G1 F2400
G1 X127.299 Y114.613 E130.84275
G1 X126.652 Y114.613 F9000
G1 F2400
G1 X183.167 Y171.128 E133.87073
G1 X183.167 Y171.774 F9000
G1 F2400
G1 X126.006 Y114.613 E136.93335
G1 X125.359 Y114.613 F9000
G1 F2400
G1 X183.167 Y172.421 E140.0306
G1 X183.167 Y173.067 F9000
G1 F2400
G1 X124.713 Y114.613 E143.16248
G1 X124.067 Y114.613 F9000
G1 F2400
G1 X183.167 Y173.713 E146.329
G1 X183.167 Y174.36 F9000
G1 F2400
G1 X123.42 Y114.613 E149.53015
G1 X122.774 Y114.613 F9000
G1 F2400
G1 X183.167 Y175.006 E152.76593
G1 X183.167 Y175.653 F9000
G1 F2400
G1 X122.127 Y114.613 E156.03635
M73 P5 R47
G1 X121.833 Y114.964 F9000
G1 F2400
G1 X183.167 Y176.299 E159.32256
G1 X183.167 Y176.945 F9000
G1 F2400
G1 X121.833 Y115.611 E162.60877
G1 X121.833 Y116.257 F9000
G1 F2400
G1 X183.167 Y177.592 E165.89497
G1 X183.167 Y178.238 F9000
G1 F2400
G1 X121.833 Y116.904 E169.18118
G1 X121.833 Y117.55 F9000
G1 F2400
G1 X183.167 Y178.885 E172.46739
G1 X183.167 Y179.531 F9000
G1 F2400
G1 X121.833 Y118.196 E175.7536
G1 X121.833 Y118.843 F9000
G1 F2400
G1 X183.167 Y180.177 E179.03981
G1 X183.167 Y180.824 F9000
G1 F2400
G1 X121.833 Y119.489 E182.32602
G1 X121.833 Y120.136 F9000
G1 F2400
G1 X183.167 Y181.47 E185.61223
G1 X183.167 Y182.117 F9000
G1 F2400
G1 X121.833 Y120.782 E188.89844
G1 X121.833 Y121.428 F9000
G1 F2400
G1 X183.167 Y182.763 E192.18465
G1 X183.167 Y183.409 F9000
G1 F2400
G1 X121.833 Y122.075 E195.47086
G1 X121.833 Y122.721 F9000
G1 F2400
G1 X183.167 Y184.056 E198.75707
G1 X183.167 Y184.702 F9000
G1 F2400
G1 X121.833 Y123.368 E202.04328
M73 P6 R47
G1 X121.833 Y124.014 F9000
G1 F2400
G1 X183.167 Y185.349 E205.32949
G1 X182.56 Y185.387 F9000
G1 F2400
G1 X121.833 Y124.66 E208.58313
G1 X121.833 Y125.307 F9000
G1 F2400
G1 X181.913 Y185.387 E211.80215
G1 X181.267 Y185.387 F9000
G1 F2400
G1 X121.833 Y125.953 E214.98652
M73 P7 R47
G1 X121.833 Y126.6 F9000
G1 F2400
G1 X180.62 Y185.387 E218.13627
G1 X179.974 Y185.387 F9000
G1 F2400
G1 X121.833 Y127.246 E221.25138
G1 X121.833 Y127.893 F9000
G1 F2400
G1 X179.327 Y185.387 E224.33186
G1 X178.681 Y185.387 F9000
G1 F2400
G1 X121.833 Y128.539 E227.37771
G1 X121.833 Y129.185 F9000
G1 F2400
G1 X178.035 Y185.387 E230.38892
G1 X177.388 Y185.387 F9000
G1 F2400
G1 X121.833 Y129.832 E233.3655
G1 X121.833 Y130.478 F9000
G1 F2400
G1 X176.742 Y185.387 E236.30744
G1 X176.095 Y185.387 F9000
G1 F2400
G1 X121.833 Y131.125 E239.21475
G1 X121.833 Y131.771 F9000
G1 F2400
G1 X175.449 Y185.387 E242.08743
G1 X174.803 Y185.387 F9000
G1 F2400
G1 X121.833 Y132.417 E244.92548
M73 P7 R46
G1 X121.833 Y133.064 F9000
G1 F2400
G1 X174.156 Y185.387 E247.72889
G1 X173.51 Y185.387 F9000
G1 F2400
G1 X121.833 Y133.71 E250.49766
G1 X121.833 Y134.357 F9000
G1 F2400
G1 X172.863 Y185.387 E253.23181
G1 X172.217 Y185.387 F9000
G1 F2400
G1 X121.833 Y135.003 E255.93132
G1 X121.833 Y135.649 F9000
G1 F2400
G1 X171.571 Y185.387 E258.5962
G1 X170.924 Y185.387 F9000
G1 F2400
G1 X121.833 Y136.296 E261.22644
G1 X121.833 Y136.942 F9000
G1 F2400
G1 X170.278 Y185.387 E263.82205
G1 X169.631 Y185.387 F9000
G1 F2400
G1 X121.833 Y137.589 E266.38303
G1 X121.833 Y138.235 F9000
G1 F2400
G1 X168.985 Y185.387 E268.90937
G1 X168.339 Y185.387 F9000
G1 F2400
G1 X121.833 Y138.881 E271.40108
G1 X121.833 Y139.528 F9000
G1 F2400
G1 X167.692 Y185.387 E273.85816
G1 X167.046 Y185.387 F9000
G1 F2400
G1 X121.833 Y140.174 E276.2806
G1 X121.833 Y140.821 F9000
G1 F2400
G1 X166.399 Y185.387 E278.66841
G1 X165.753 Y185.387 F9000
G1 F2400
G1 X121.833 Y141.467 E281.02158
G1 X121.833 Y142.113 F9000
G1 F2400
G1 X165.107 Y185.387 E283.34013
G1 X164.46 Y185.387 F9000
G1 F2400
G1 X121.833 Y142.76 E285.62404
G1 X121.833 Y143.406 F9000
G1 F2400
G1 X163.814 Y185.387 E287.87331
M73 P8 R46
G1 X163.167 Y185.387 F9000
G1 F2400
G1 X121.833 Y144.053 E290.08795
G1 X121.833 Y144.699 F9000
G1 F2400
G1 X162.521 Y185.387 E292.26796
G1 X161.874 Y185.387 F9000
G1 F2400
G1 X121.833 Y145.346 E294.41334
G1 X121.833 Y145.992 F9000
G1 F2400
G1 X161.228 Y185.387 E296.52408
G1 X160.582 Y185.387 F9000
G1 F2400
G1 X121.833 Y146.638 E298.60019
G1 X121.833 Y147.285 F9000
G1 F2400
G1 X159.935 Y185.387 E300.64166
G1 X159.289 Y185.387 F9000
G1 F2400
G1 X121.833 Y147.931 E302.6485
M73 P9 R46
G1 X121.833 Y148.578 F9000
G1 F2400
G1 X158.642 Y185.387 E304.62071
G1 X157.996 Y185.387 F9000
G1 F2400
G1 X121.833 Y149.224 E306.55829
G1 X121.833 Y149.87 F9000
G1 F2400
G1 X157.35 Y185.387 E308.46123
G1 X156.703 Y185.387 F9000
G1 F2400
G1 X121.833 Y150.517 E310.32953
G1 X121.833 Y151.163 F9000
G1 F2400
G1 X156.057 Y185.387 E312.16321
G1 X155.41 Y185.387 F9000
G1 F2400
G1 X121.833 Y151.81 E313.96225
G1 X121.833 Y152.456 F9000
G1 F2400
G1 X154.764 Y185.387 E315.72666
G1 X154.118 Y185.387 F9000
G1 F2400
G1 X121.833 Y153.102 E317.45643
G1 X121.833 Y153.749 F9000
G1 F2400
G1 X153.471 Y185.387 E319.15157
G1 X152.825 Y185.387 F9000
G1 F2400
G1 X121.833 Y154.395 E320.81208
G1 X121.833 Y155.042 F9000
G1 F2400
G1 X152.178 Y185.387 E322.43795
G1 X151.532 Y185.387 F9000
G1 F2400
G1 X121.833 Y155.688 E324.02919
G1 X121.833 Y156.334 F9000
G1 F2400
G1 X150.886 Y185.387 E325.58579
G1 X150.239 Y185.387 F9000
G1 F2400
G1 X121.833 Y156.981 E327.10777
G1 X121.833 Y157.627 F9000
G1 F2400
G1 X149.593 Y185.387 E328.59511
G1 X148.946 Y185.387 F9000
G1 F2400
G1 X121.833 Y158.274 E330.04781
M73 P9 R45
G1 X121.833 Y158.92 F9000
G1 F2400
G1 X148.3 Y185.387 E331.46588
G1 X147.654 Y185.387 F9000
G1 F2400
G1 X121.833 Y159.566 E332.84932
G1 X121.833 Y160.213 F9000
G1 F2400
G1 X147.007 Y185.387 E334.19813
G1 X146.361 Y185.387 F9000
G1 F2400
G1 X121.833 Y160.859 E335.5123
G1 X121.833 Y161.506 F9000
G1 F2400
G1 X145.714 Y185.387 E336.79184
G1 X145.068 Y185.387 F9000
G1 F2400
G1 X121.833 Y162.152 E338.03675
G1 X121.833 Y162.798 F9000
G1 F2400
G1 X144.422 Y185.387 E339.24702
G1 X143.775 Y185.387 F9000
G1 F2400
G1 X121.833 Y163.445 E340.42265
G1 X121.833 Y164.091 F9000
G1 F2400
G1 X143.129 Y185.387 E341.56366
G1 X142.482 Y185.387 F9000
G1 F2400
G1 X121.833 Y164.738 E342.67003
G1 X121.833 Y165.384 F9000
G1 F2400
G1 X141.836 Y185.387 E343.74177
G1 X141.189 Y185.387 F9000
G1 F2400
G1 X121.833 Y166.031 E344.77887
G1 X121.833 Y166.677 F9000
G1 F2400
G1 X140.543 Y185.387 E345.78134
G1 X139.897 Y185.387 F9000
G1 F2400
G1 X121.833 Y167.323 E346.74918
G1 X121.833 Y167.97 F9000
G1 F2400
G1 X139.25 Y185.387 E347.68238
G1 X138.604 Y185.387 F9000
G1 F2400
G1 X121.833 Y168.616 E348.58096
G1 X121.833 Y169.263 F9000
G1 F2400
G1 X137.957 Y185.387 E349.44489
G1 X137.311 Y185.387 F9000
G1 F2400
G1 X121.833 Y169.909 E350.2742
G1 X121.833 Y170.555 F9000
G1 F2400
G1 X136.665 Y185.387 E351.06887
G1 X136.018 Y185.387 F9000
G1 F2400
G1 X121.833 Y171.202 E351.8289
G1 X121.833 Y171.848 F9000
G1 F2400
G1 X135.372 Y185.387 E352.55431
G1 X134.725 Y185.387 F9000
G1 F2400
G1 X121.833 Y172.495 E353.24507
