
; ### Ellis' Pressure Advance / Linear Advance Calibration Tool ###
;
; Original Marlin linear advance calibration tool by Sineos [https://github.com/Sineos]
; Heavily modified/rewritten by Andrew Ellis [https://github.com/AndrewEllis93]
;
; -------------------------------------------
; Generated: Fri Dec 30 2022 16:47:27 GMT-0800 (Pacific Standard Time)
; -------------------------------------------
;
; Advanced mode: false
;
; Printer:
;  - Firmware: klipper
;  - Bed Shape: Rect
;  - Bed Size X: 310 mm
;  - Bed Size Y: 310 mm
;  - Origin Bed Center: false
;  - Travel Speed: 200 mm/s
;  - Nozzle Diameter: 0.4 mm
;  - Filament Diameter: 1.75 mm
;  - Extrusion Multiplier: 1
;
; Retraction / Z Hop:
;  - Retraction Distance: 0.5 mm
;  - Retract Speed: 50 mm/s
;  - Unretract Speed: 30 mm/s
;  - Z Hop Enable: true
;  - Z Hop Height: 0.1mm
;
; First Layer Settings:
;  - First Layer Height: 0.2 mm
;  - First Layer Printing Speed: 30 mm/s
;  - First Layer Fan Speed: 0%
;  - Anchor Option: anchor_frame
;
; Print Settings:
;  - Layer Height: 0.2 mm
;  - Print Speed: 70 mm/s
;  - Acceleration: 3000 mm/s^2
;  - Fan Speed: 100%
;
; Pressure Advance Stepping:
;  - PA Start Value: 0.04
;  - PA End Value: 0.05
;  - PA Increment: 0.001
;
; Start / End G-code:
;  - Start G-code Type: standalone
;  - Hotend Temp: 200C
;  - Bed Temp: 60C
;
; Calculated Values:
;  - Print Size X: 63.15 mm
;  - Print Size Y: 56.99 mm
;  - Number of Patterns to Print: 11
;  - PA Values: 0.04, 0.041, 0.042, 0.043, 0.044, 0.045, 0.046, 0.047, 0.048, 0.049, 0.05
;
; Prepare printing
;
M190 S60    ; Set & wait for bed temp. !Don't modify/delete, only move!
M109 S200 ; Set & wait for hotend temp. !Don't modify/delete, only move!
START_PRINT T_BED=60 T_EXTRUDER=200
;
; Make sure this macro name matches your own!
; (For example, some may use START_PRINT instead.)
G21 ; Millimeter units
G90 ; Absolute XYZ
M83 ; Relative E
G92 E0 ; Reset extruder distance
;
;  Begin printing
;
M106 S0 ; Set fan speed
SET_VELOCITY_LIMIT ACCEL=3000 ; Set printing acceleration
G1 E-0.5 F3000 ; Retract
G0 Z5 F12000 ; Z raise
G0 X123.4244 Y126.5068 F12000 ; Move to start position
G0 Z0.2 F12000 ; Move to start layer height
G1 E0.5 F1800 ; Un-retract
SET_PRESSURE_ADVANCE ADVANCE=0.04 ; Set pressure advance to start value
M117 PA 0.04
G1 X123.4244 Y168.9332 E1.82414 F1800 ; Draw perimeter (up)
G1 X186.5756 Y168.9332 E2.7152 F1800 ; Draw perimeter (right)
G1 X186.5756 Y126.5068 E1.82414 F1800 ; Draw perimeter (down)
G1 X123.4244 Y126.5068 E2.7152 F1800 ; Draw perimeter (left)
G0 X123.9415 Y127.0239 F12000 ; Step inwards to print next perimeter
G1 X123.9415 Y168.4161 E1.77967 F1800 ; Draw perimeter (up)
G1 X186.0585 Y168.4161 E2.67074 F1800 ; Draw perimeter (right)
G1 X186.0585 Y127.0239 E1.77967 F1800 ; Draw perimeter (down)
G1 X123.9415 Y127.0239 E2.67074 F1800 ; Draw perimeter (left)
G0 X124.4586 Y127.541 F12000 ; Step inwards to print next perimeter
G1 X124.4586 Y167.899 E1.73521 F1800 ; Draw perimeter (up)
G1 X185.5414 Y167.899 E2.62628 F1800 ; Draw perimeter (right)
G1 X185.5414 Y127.541 E1.73521 F1800 ; Draw perimeter (down)
G1 X124.4586 Y127.541 E2.62628 F1800 ; Draw perimeter (left)
G0 X124.9757 Y128.058 F12000 ; Step inwards to print next perimeter
G1 X124.9757 Y167.382 E1.69075 F1800 ; Draw perimeter (up)
G1 X185.0243 Y167.382 E2.58181 F1800 ; Draw perimeter (right)
G1 X185.0243 Y128.058 E1.69075 F1800 ; Draw perimeter (down)
G1 X124.9757 Y128.058 E2.58181 F1800 ; Draw perimeter (left)
G1 E-0.5 F3000 ; Retract
G1 Z0.3 F12000 ; Z hop
G0 X123.4244 Y169.4503 F12000 ; Move to box start
G1 Z0.2 F12000 ; Z hop return
G1 E0.5 F1800 ; Un-retract
G1 X123.4244 Y183.9674 E0.62417 F1800 ; Draw perimeter (up)
G1 X166.0705 Y183.9674 E1.83358 F1800 ; Draw perimeter (right)
G1 X166.0705 Y169.4503 E0.62417 F1800 ; Draw perimeter (down)
G1 X123.4244 Y169.4503 E1.83358 F1800 ; Draw perimeter (left)
G0 X123.9415 Y169.9674 F12000 ; Step inwards to print next perimeter
G1 X123.9415 Y183.4503 E0.5797 F1800 ; Draw perimeter (up)
G1 X165.5535 Y183.4503 E1.78912 F1800 ; Draw perimeter (right)
G1 X165.5535 Y169.9674 E0.5797 F1800 ; Draw perimeter (down)
G1 X123.9415 Y169.9674 E1.78912 F1800 ; Draw perimeter (left)
G0 X124.4586 Y170.4844 F12000 ; Step inwards to print next perimeter
G1 X124.4586 Y182.9332 E0.53524 F1800 ; Draw perimeter (up)
G1 X165.0364 Y182.9332 E1.74466 F1800 ; Draw perimeter (right)
G1 X165.0364 Y170.4844 E0.53524 F1800 ; Draw perimeter (down)
G1 X124.4586 Y170.4844 E1.74466 F1800 ; Draw perimeter (left)
G0 X124.9757 Y171.0015 F12000 ; Step inwards to print next perimeter
G1 X124.9757 Y182.4161 E0.49077 F1800 ; Draw perimeter (up)
G1 X164.5193 Y182.4161 E1.70019 F1800 ; Draw perimeter (right)
G1 X164.5193 Y171.0015 E0.49077 F1800 ; Draw perimeter (down)
G1 X124.9757 Y171.0015 E1.70019 F1800 ; Draw perimeter (left)
G0 X125.349 Y171.3749 F12000 ; Move to fill start
G0 X126.0803 Y171.3749 F12000 ; Move
G1 X125.349 Y172.1061 E0.04446 F1800 ; Fill
G0 X125.349 Y172.8374 F12000 ; Move
G1 X126.8115 Y171.3749 E0.08893 F1800 ; Fill
G0 X127.5428 Y171.3749 F12000 ; Move
G1 X125.349 Y173.5686 E0.13339 F1800 ; Fill
G0 X125.349 Y174.2999 F12000 ; Move
G1 X128.2741 Y171.3749 E0.17786 F1800 ; Fill
G0 X129.0053 Y171.3749 F12000 ; Move
G1 X125.349 Y175.0312 E0.22232 F1800 ; Fill
G0 X125.349 Y175.7624 F12000 ; Move
G1 X129.7366 Y171.3749 E0.26678 F1800 ; Fill
G0 X130.4678 Y171.3749 F12000 ; Move
G1 X125.349 Y176.4937 E0.31125 F1800 ; Fill
G0 X125.349 Y177.2249 F12000 ; Move
G1 X131.1991 Y171.3749 E0.35571 F1800 ; Fill
G0 X131.9304 Y171.3749 F12000 ; Move
G1 X125.349 Y177.9562 E0.40018 F1800 ; Fill
G0 X125.349 Y178.6875 F12000 ; Move
G1 X132.6616 Y171.3749 E0.44464 F1800 ; Fill
G0 X133.3929 Y171.3749 F12000 ; Move
G1 X125.349 Y179.4187 E0.4891 F1800 ; Fill
G0 X125.349 Y180.15 F12000 ; Move
G1 X134.1241 Y171.3749 E0.53357 F1800 ; Fill
G0 X134.8554 Y171.3749 F12000 ; Move
G1 X125.349 Y180.8813 E0.57803 F1800 ; Fill
G0 X125.349 Y181.6125 F12000 ; Move
G1 X135.5867 Y171.3749 E0.6225 F1800 ; Fill
G0 X136.3179 Y171.3749 F12000 ; Move
G1 X125.65 Y182.0428 E0.64866 F1800 ; Fill
G0 X126.3813 Y182.0428 F12000 ; Move
G1 X137.0492 Y171.3749 E0.64866 F1800 ; Fill
G0 X137.7804 Y171.3749 F12000 ; Move
G1 X127.1125 Y182.0428 E0.64866 F1800 ; Fill
G0 X127.8438 Y182.0428 F12000 ; Move
G1 X138.5117 Y171.3749 E0.64866 F1800 ; Fill
G0 X139.243 Y171.3749 F12000 ; Move
G1 X128.575 Y182.0428 E0.64866 F1800 ; Fill
G0 X129.3063 Y182.0428 F12000 ; Move
G1 X139.9742 Y171.3749 E0.64866 F1800 ; Fill
G0 X140.7055 Y171.3749 F12000 ; Move
G1 X130.0376 Y182.0428 E0.64866 F1800 ; Fill
G0 X130.7688 Y182.0428 F12000 ; Move
G1 X141.4368 Y171.3749 E0.64866 F1800 ; Fill
G0 X142.168 Y171.3749 F12000 ; Move
G1 X131.5001 Y182.0428 E0.64866 F1800 ; Fill
G0 X132.2313 Y182.0428 F12000 ; Move
G1 X142.8993 Y171.3749 E0.64866 F1800 ; Fill
G0 X143.6305 Y171.3749 F12000 ; Move
G1 X132.9626 Y182.0428 E0.64866 F1800 ; Fill
G0 X133.6939 Y182.0428 F12000 ; Move
G1 X144.3618 Y171.3749 E0.64866 F1800 ; Fill
G0 X145.0931 Y171.3749 F12000 ; Move
G1 X134.4251 Y182.0428 E0.64866 F1800 ; Fill
G0 X135.1564 Y182.0428 F12000 ; Move
G1 X145.8243 Y171.3749 E0.64866 F1800 ; Fill
G0 X146.5556 Y171.3749 F12000 ; Move
G1 X135.8876 Y182.0428 E0.64866 F1800 ; Fill
G0 X136.6189 Y182.0428 F12000 ; Move
G1 X147.2868 Y171.3749 E0.64866 F1800 ; Fill
G0 X148.0181 Y171.3749 F12000 ; Move
G1 X137.3502 Y182.0428 E0.64866 F1800 ; Fill
G0 X138.0814 Y182.0428 F12000 ; Move
G1 X148.7494 Y171.3749 E0.64866 F1800 ; Fill
G0 X149.4806 Y171.3749 F12000 ; Move
G1 X138.8127 Y182.0428 E0.64866 F1800 ; Fill
G0 X139.544 Y182.0428 F12000 ; Move
G1 X150.2119 Y171.3749 E0.64866 F1800 ; Fill
G0 X150.9431 Y171.3749 F12000 ; Move
G1 X140.2752 Y182.0428 E0.64866 F1800 ; Fill
G0 X141.0065 Y182.0428 F12000 ; Move
G1 X151.6744 Y171.3749 E0.64866 F1800 ; Fill
G0 X152.4057 Y171.3749 F12000 ; Move
G1 X141.7377 Y182.0428 E0.64866 F1800 ; Fill
G0 X142.469 Y182.0428 F12000 ; Move
G1 X153.1369 Y171.3749 E0.64866 F1800 ; Fill
G0 X153.8682 Y171.3749 F12000 ; Move
G1 X143.2003 Y182.0428 E0.64866 F1800 ; Fill
G0 X143.9315 Y182.0428 F12000 ; Move
G1 X154.5995 Y171.3749 E0.64866 F1800 ; Fill
G0 X155.3307 Y171.3749 F12000 ; Move
G1 X144.6628 Y182.0428 E0.64866 F1800 ; Fill
G0 X145.394 Y182.0428 F12000 ; Move
G1 X156.062 Y171.3749 E0.64866 F1800 ; Fill
G0 X156.7932 Y171.3749 F12000 ; Move
G1 X146.1253 Y182.0428 E0.64866 F1800 ; Fill
G0 X146.8566 Y182.0428 F12000 ; Move
G1 X157.5245 Y171.3749 E0.64866 F1800 ; Fill
G0 X158.2558 Y171.3749 F12000 ; Move
G1 X147.5878 Y182.0428 E0.64866 F1800 ; Fill
G0 X148.3191 Y182.0428 F12000 ; Move
G1 X158.987 Y171.3749 E0.64866 F1800 ; Fill
G0 X159.7183 Y171.3749 F12000 ; Move
G1 X149.0503 Y182.0428 E0.64866 F1800 ; Fill
G0 X149.7816 Y182.0428 F12000 ; Move
G1 X160.4495 Y171.3749 E0.64866 F1800 ; Fill
G0 X161.1808 Y171.3749 F12000 ; Move
G1 X150.5129 Y182.0428 E0.64866 F1800 ; Fill
G0 X151.2441 Y182.0428 F12000 ; Move
G1 X161.9121 Y171.3749 E0.64866 F1800 ; Fill
G0 X162.6433 Y171.3749 F12000 ; Move
G1 X151.9754 Y182.0428 E0.64866 F1800 ; Fill
G0 X152.7067 Y182.0428 F12000 ; Move
G1 X163.3746 Y171.3749 E0.64866 F1800 ; Fill
G0 X164.1058 Y171.3749 F12000 ; Move
G1 X153.4379 Y182.0428 E0.64866 F1800 ; Fill
G0 X154.1692 Y182.0428 F12000 ; Move
G1 X164.146 Y172.066 E0.60664 F1800 ; Fill
G0 X164.146 Y172.7973 F12000 ; Move
G1 X154.9004 Y182.0428 E0.56217 F1800 ; Fill
G0 X155.6317 Y182.0428 F12000 ; Move
G1 X164.146 Y173.5285 E0.51771 F1800 ; Fill
G0 X164.146 Y174.2598 F12000 ; Move
G1 X156.363 Y182.0428 E0.47324 F1800 ; Fill
G0 X157.0942 Y182.0428 F12000 ; Move
G1 X164.146 Y174.991 E0.42878 F1800 ; Fill
G0 X164.146 Y175.7223 F12000 ; Move
G1 X157.8255 Y182.0428 E0.38431 F1800 ; Fill
G0 X158.5567 Y182.0428 F12000 ; Move
G1 X164.146 Y176.4536 E0.33985 F1800 ; Fill
G0 X164.146 Y177.1848 F12000 ; Move
G1 X159.288 Y182.0428 E0.29539 F1800 ; Fill
G0 X160.0193 Y182.0428 F12000 ; Move
G1 X164.146 Y177.9161 E0.25092 F1800 ; Fill
G0 X164.146 Y178.6473 F12000 ; Move
G1 X160.7505 Y182.0428 E0.20646 F1800 ; Fill
G0 X161.4818 Y182.0428 F12000 ; Move
G1 X164.146 Y179.3786 E0.16199 F1800 ; Fill
G0 X164.146 Y180.1099 F12000 ; Move
G1 X162.213 Y182.0428 E0.11753 F1800 ; Fill
G0 X162.9443 Y182.0428 F12000 ; Move
G1 X164.146 Y180.8411 E0.07307 F1800 ; Fill
G0 X164.146 Y181.5724 F12000 ; Move
G1 X163.6756 Y182.0428 E0.0286 F1800 ; Fill
G0 Z0.2 F12000 ; Move to layer height
G1 E-0.5 F3000 ; Retract
G1 Z0.3 F12000 ; Z hop
G0 X128.0533 Y128.4314 F12000 ; Move to pattern start

G1 Z0.2 F12000 ; Z hop return
G1 E0.5 F1800 ; Un-retract
SET_PRESSURE_ADVANCE ADVANCE=0.04 ; Set pressure advance
M117 PA 0.04
G1 X147.3419 Y147.72 E0.92334 F1800 ; Print pattern wall
G1 X128.0533 Y167.0086 E0.92334 F1800 ; Print pattern wall
G1 E-0.5 F3000 ; Retract
G1 Z0.3 F12000 ; Z hop
G0 X128.629 Y128.4314 F12000 ; Move to start next pattern wall
G1 Z0.2 F12000 ; Z hop return
G1 E0.5 F1800 ; Un-retract
G1 X147.9176 Y147.72 E0.92334 F1800 ; Print pattern wall
G1 X128.629 Y167.0086 E0.92334 F1800 ; Print pattern wall
G1 E-0.5 F3000 ; Retract
G1 Z0.3 F12000 ; Z hop
G0 X129.2047 Y128.4314 F12000 ; Move to start next pattern wall
G1 Z0.2 F12000 ; Z hop return
G1 E0.5 F1800 ; Un-retract
G1 X148.4933 Y147.72 E0.92334 F1800 ; Print pattern wall
G1 X129.2047 Y167.0086 E0.92334 F1800 ; Print pattern wall
G1 E-0.5 F3000 ; Retract
G1 Z0.3 F12000 ; Z hop
G0 X131.6547 Y128.4314 F12000 ; Move to next pattern
G1 Z0.2 F12000 ; Z hop return
G1 E0.5 F1800 ; Un-retract
SET_PRESSURE_ADVANCE ADVANCE=0.041 ; Set pressure advance
M117 PA 0.041
G1 X150.9433 Y147.72 E0.92334 F1800 ; Print pattern wall
G1 X131.6547 Y167.0086 E0.92334 F1800 ; Print pattern wall
G1 E-0.5 F3000 ; Retract
G1 Z0.3 F12000 ; Z hop
G0 X132.2304 Y128.4314 F12000 ; Move to start next pattern wall
G1 Z0.2 F12000 ; Z hop return
G1 E0.5 F1800 ; Un-retract
G1 X151.519 Y147.72 E0.92334 F1800 ; Print pattern wall
G1 X132.2304 Y167.0086 E0.92334 F1800 ; Print pattern wall
G1 E-0.5 F3000 ; Retract
G1 Z0.3 F12000 ; Z hop
G0 X132.8061 Y128.4314 F12000 ; Move to start next pattern wall
G1 Z0.2 F12000 ; Z hop return
G1 E0.5 F1800 ; Un-retract
G1 X152.0947 Y147.72 E0.92334 F1800 ; Print pattern wall
G1 X132.8061 Y167.0086 E0.92334 F1800 ; Print pattern wall
G1 E-0.5 F3000 ; Retract
G1 Z0.3 F12000 ; Z hop
G0 X135.2561 Y128.4314 F12000 ; Move to next pattern
G1 Z0.2 F12000 ; Z hop return
G1 E0.5 F1800 ; Un-retract
SET_PRESSURE_ADVANCE ADVANCE=0.042 ; Set pressure advance
M117 PA 0.042
G1 X154.5447 Y147.72 E0.92334 F1800 ; Print pattern wall
G1 X135.2561 Y167.0086 E0.92334 F1800 ; Print pattern wall
G1 E-0.5 F3000 ; Retract
G1 Z0.3 F12000 ; Z hop
G0 X135.8318 Y128.4314 F12000 ; Move to start next pattern wall
G1 Z0.2 F12000 ; Z hop return
G1 E0.5 F1800 ; Un-retract
G1 X155.1204 Y147.72 E0.92334 F1800 ; Print pattern wall
G1 X135.8318 Y167.0086 E0.92334 F1800 ; Print pattern wall
G1 E-0.5 F3000 ; Retract
G1 Z0.3 F12000 ; Z hop
G0 X136.4075 Y128.4314 F12000 ; Move to start next pattern wall
G1 Z0.2 F12000 ; Z hop return
G1 E0.5 F1800 ; Un-retract
G1 X155.6961 Y147.72 E0.92334 F1800 ; Print pattern wall
G1 X136.4075 Y167.0086 E0.92334 F1800 ; Print pattern wall
G1 E-0.5 F3000 ; Retract
G1 Z0.3 F12000 ; Z hop
G0 X138.8575 Y128.4314 F12000 ; Move to next pattern
G1 Z0.2 F12000 ; Z hop return
G1 E0.5 F1800 ; Un-retract
SET_PRESSURE_ADVANCE ADVANCE=0.043 ; Set pressure advance
M117 PA 0.043
G1 X158.1461 Y147.72 E0.92334 F1800 ; Print pattern wall
G1 X138.8575 Y167.0086 E0.92334 F1800 ; Print pattern wall
G1 E-0.5 F3000 ; Retract
G1 Z0.3 F12000 ; Z hop
G0 X139.4332 Y128.4314 F12000 ; Move to start next pattern wall
G1 Z0.2 F12000 ; Z hop return
G1 E0.5 F1800 ; Un-retract
G1 X158.7218 Y147.72 E0.92334 F1800 ; Print pattern wall
G1 X139.4332 Y167.0086 E0.92334 F1800 ; Print pattern wall
G1 E-0.5 F3000 ; Retract
G1 Z0.3 F12000 ; Z hop
G0 X140.0089 Y128.4314 F12000 ; Move to start next pattern wall
G1 Z0.2 F12000 ; Z hop return
G1 E0.5 F1800 ; Un-retract
G1 X159.2975 Y147.72 E0.92334 F1800 ; Print pattern wall
G1 X140.0089 Y167.0086 E0.92334 F1800 ; Print pattern wall
G1 E-0.5 F3000 ; Retract
G1 Z0.3 F12000 ; Z hop
G0 X142.4589 Y128.4314 F12000 ; Move to next pattern
G1 Z0.2 F12000 ; Z hop return
G1 E0.5 F1800 ; Un-retract
SET_PRESSURE_ADVANCE ADVANCE=0.044 ; Set pressure advance
M117 PA 0.044
G1 X161.7475 Y147.72 E0.92334 F1800 ; Print pattern wall
G1 X142.4589 Y167.0086 E0.92334 F1800 ; Print pattern wall
G1 E-0.5 F3000 ; Retract
G1 Z0.3 F12000 ; Z hop
G0 X143.0346 Y128.4314 F12000 ; Move to start next pattern wall
G1 Z0.2 F12000 ; Z hop return
G1 E0.5 F1800 ; Un-retract
G1 X162.3232 Y147.72 E0.92334 F1800 ; Print pattern wall
G1 X143.0346 Y167.0086 E0.92334 F1800 ; Print pattern wall
G1 E-0.5 F3000 ; Retract
G1 Z0.3 F12000 ; Z hop
G0 X143.6103 Y128.4314 F12000 ; Move to start next pattern wall
G1 Z0.2 F12000 ; Z hop return
G1 E0.5 F1800 ; Un-retract
G1 X162.8989 Y147.72 E0.92334 F1800 ; Print pattern wall
G1 X143.6103 Y167.0086 E0.92334 F1800 ; Print pattern wall
G1 E-0.5 F3000 ; Retract
G1 Z0.3 F12000 ; Z hop
G0 X146.0603 Y128.4314 F12000 ; Move to next pattern
G1 Z0.2 F12000 ; Z hop return
G1 E0.5 F1800 ; Un-retract
SET_PRESSURE_ADVANCE ADVANCE=0.045 ; Set pressure advance
M117 PA 0.045
G1 X165.3489 Y147.72 E0.92334 F1800 ; Print pattern wall
G1 X146.0603 Y167.0086 E0.92334 F1800 ; Print pattern wall
G1 E-0.5 F3000 ; Retract
G1 Z0.3 F12000 ; Z hop
G0 X146.636 Y128.4314 F12000 ; Move to start next pattern wall
G1 Z0.2 F12000 ; Z hop return
G1 E0.5 F1800 ; Un-retract
G1 X165.9246 Y147.72 E0.92334 F1800 ; Print pattern wall
G1 X146.636 Y167.0086 E0.92334 F1800 ; Print pattern wall
G1 E-0.5 F3000 ; Retract
G1 Z0.3 F12000 ; Z hop
G0 X147.2117 Y128.4314 F12000 ; Move to start next pattern wall
G1 Z0.2 F12000 ; Z hop return
G1 E0.5 F1800 ; Un-retract
G1 X166.5003 Y147.72 E0.92334 F1800 ; Print pattern wall
G1 X147.2117 Y167.0086 E0.92334 F1800 ; Print pattern wall
G1 E-0.5 F3000 ; Retract
G1 Z0.3 F12000 ; Z hop
G0 X149.6617 Y128.4314 F12000 ; Move to next pattern
G1 Z0.2 F12000 ; Z hop return
G1 E0.5 F1800 ; Un-retract
SET_PRESSURE_ADVANCE ADVANCE=0.046 ; Set pressure advance
M117 PA 0.046
G1 X168.9503 Y147.72 E0.92334 F1800 ; Print pattern wall
G1 X149.6617 Y167.0086 E0.92334 F1800 ; Print pattern wall
G1 E-0.5 F3000 ; Retract
G1 Z0.3 F12000 ; Z hop
G0 X150.2374 Y128.4314 F12000 ; Move to start next pattern wall
G1 Z0.2 F12000 ; Z hop return
G1 E0.5 F1800 ; Un-retract
G1 X169.526 Y147.72 E0.92334 F1800 ; Print pattern wall
G1 X150.2374 Y167.0086 E0.92334 F1800 ; Print pattern wall
G1 E-0.5 F3000 ; Retract
G1 Z0.3 F12000 ; Z hop
G0 X150.8131 Y128.4314 F12000 ; Move to start next pattern wall
G1 Z0.2 F12000 ; Z hop return
G1 E0.5 F1800 ; Un-retract
G1 X170.1017 Y147.72 E0.92334 F1800 ; Print pattern wall
G1 X150.8131 Y167.0086 E0.92334 F1800 ; Print pattern wall
G1 E-0.5 F3000 ; Retract
G1 Z0.3 F12000 ; Z hop
G0 X153.2631 Y128.4314 F12000 ; Move to next pattern
G1 Z0.2 F12000 ; Z hop return
G1 E0.5 F1800 ; Un-retract
SET_PRESSURE_ADVANCE ADVANCE=0.047 ; Set pressure advance
M117 PA 0.047
G1 X172.5517 Y147.72 E0.92334 F1800 ; Print pattern wall
G1 X153.2631 Y167.0086 E0.92334 F1800 ; Print pattern wall
G1 E-0.5 F3000 ; Retract
G1 Z0.3 F12000 ; Z hop
G0 X153.8388 Y128.4314 F12000 ; Move to start next pattern wall
G1 Z0.2 F12000 ; Z hop return
G1 E0.5 F1800 ; Un-retract
G1 X173.1274 Y147.72 E0.92334 F1800 ; Print pattern wall
G1 X153.8388 Y167.0086 E0.92334 F1800 ; Print pattern wall
G1 E-0.5 F3000 ; Retract
G1 Z0.3 F12000 ; Z hop
G0 X154.4145 Y128.4314 F12000 ; Move to start next pattern wall
G1 Z0.2 F12000 ; Z hop return
G1 E0.5 F1800 ; Un-retract
G1 X173.7031 Y147.72 E0.92334 F1800 ; Print pattern wall
G1 X154.4145 Y167.0086 E0.92334 F1800 ; Print pattern wall
G1 E-0.5 F3000 ; Retract
G1 Z0.3 F12000 ; Z hop
G0 X156.8645 Y128.4314 F12000 ; Move to next pattern
G1 Z0.2 F12000 ; Z hop return
G1 E0.5 F1800 ; Un-retract
SET_PRESSURE_ADVANCE ADVANCE=0.048 ; Set pressure advance
M117 PA 0.048
G1 X176.1531 Y147.72 E0.92334 F1800 ; Print pattern wall
G1 X156.8645 Y167.0086 E0.92334 F1800 ; Print pattern wall
G1 E-0.5 F3000 ; Retract
G1 Z0.3 F12000 ; Z hop
G0 X157.4402 Y128.4314 F12000 ; Move to start next pattern wall
G1 Z0.2 F12000 ; Z hop return
G1 E0.5 F1800 ; Un-retract
G1 X176.7288 Y147.72 E0.92334 F1800 ; Print pattern wall
G1 X157.4402 Y167.0086 E0.92334 F1800 ; Print pattern wall
G1 E-0.5 F3000 ; Retract
G1 Z0.3 F12000 ; Z hop
G0 X158.0159 Y128.4314 F12000 ; Move to start next pattern wall
G1 Z0.2 F12000 ; Z hop return
G1 E0.5 F1800 ; Un-retract
G1 X177.3045 Y147.72 E0.92334 F1800 ; Print pattern wall
G1 X158.0159 Y167.0086 E0.92334 F1800 ; Print pattern wall
G1 E-0.5 F3000 ; Retract
G1 Z0.3 F12000 ; Z hop
G0 X160.4659 Y128.4314 F12000 ; Move to next pattern
G1 Z0.2 F12000 ; Z hop return
G1 E0.5 F1800 ; Un-retract
SET_PRESSURE_ADVANCE ADVANCE=0.049 ; Set pressure advance
M117 PA 0.049
G1 X179.7545 Y147.72 E0.92334 F1800 ; Print pattern wall
G1 X160.4659 Y167.0086 E0.92334 F1800 ; Print pattern wall
G1 E-0.5 F3000 ; Retract
G1 Z0.3 F12000 ; Z hop
G0 X161.0416 Y128.4314 F12000 ; Move to start next pattern wall
G1 Z0.2 F12000 ; Z hop return
G1 E0.5 F1800 ; Un-retract
G1 X180.3302 Y147.72 E0.92334 F1800 ; Print pattern wall
G1 X161.0416 Y167.0086 E0.92334 F1800 ; Print pattern wall
G1 E-0.5 F3000 ; Retract
G1 Z0.3 F12000 ; Z hop
G0 X161.6173 Y128.4314 F12000 ; Move to start next pattern wall
G1 Z0.2 F12000 ; Z hop return
G1 E0.5 F1800 ; Un-retract
G1 X180.9059 Y147.72 E0.92334 F1800 ; Print pattern wall
G1 X161.6173 Y167.0086 E0.92334 F1800 ; Print pattern wall
G1 E-0.5 F3000 ; Retract
G1 Z0.3 F12000 ; Z hop
G0 X164.0673 Y128.4314 F12000 ; Move to next pattern
G1 Z0.2 F12000 ; Z hop return
G1 E0.5 F1800 ; Un-retract
SET_PRESSURE_ADVANCE ADVANCE=0.05 ; Set pressure advance
M117 PA 0.05
G1 X183.3559 Y147.72 E0.92334 F1800 ; Print pattern wall
G1 X164.0673 Y167.0086 E0.92334 F1800 ; Print pattern wall
G1 E-0.5 F3000 ; Retract
G1 Z0.3 F12000 ; Z hop
G0 X164.643 Y128.4314 F12000 ; Move to start next pattern wall
G1 Z0.2 F12000 ; Z hop return
G1 E0.5 F1800 ; Un-retract
G1 X183.9316 Y147.72 E0.92334 F1800 ; Print pattern wall
G1 X164.643 Y167.0086 E0.92334 F1800 ; Print pattern wall
G1 E-0.5 F3000 ; Retract
G1 Z0.3 F12000 ; Z hop
G0 X165.2187 Y128.4314 F12000 ; Move to start next pattern wall
G1 Z0.2 F12000 ; Z hop return
G1 E0.5 F1800 ; Un-retract
G1 X184.5073 Y147.72 E0.92334 F1800 ; Print pattern wall
G1 X165.2187 Y167.0086 E0.92334 F1800 ; Print pattern wall
G1 E-0.5 F3000 ; Retract
G1 Z0.3 F12000 ; Z hop
G0 X128.0533 Y128.4314 F12000 ; Move back to start position
G1 Z0.2 F12000 ; Z hop return
G1 E0.5 F1800 ; Un-retract
M106 S255 ; Set fan speed
G0 Z0.4 F12000 ; Move to layer height
G1 E-0.5 F3000 ; Retract
G1 Z0.5 F12000 ; Z hop
G0 X124.7044 Y170.3832 F12000 ; Move
G1 Z0.4 F12000 ; Z hop return
G1 E0.5 F1800 ; Un-retract
G1 X126.7044 Y170.3832 E0.0677 F1800 ; Glyph: 0
G1 X128.7044 Y170.3832 E0.0677 F1800 ; Glyph: 0
G1 X128.7044 Y172.3832 E0.0677 F1800 ; Glyph: 0
G1 X126.7044 Y172.3832 E0.0677 F1800 ; Glyph: 0
G1 X124.7044 Y172.3832 E0.0677 F1800 ; Glyph: 0
G1 X124.7044 Y170.3832 E0.0677 F1800 ; Glyph: 0
G1 E-0.5 F3000 ; Retract
G1 Z0.5 F12000 ; Z hop
G0 X128.7044 Y173.3832 F12000 ; Move
G1 Z0.4 F12000 ; Z hop return
G1 E0.5 F1800 ; Un-retract
G1 X127.9544 Y173.3832 E0.02539 F1800 ; Glyph: .
G1 E-0.5 F3000 ; Retract
G1 Z0.5 F12000 ; Z hop
G0 X124.7044 Y174.3832 F12000 ; Move
G1 Z0.4 F12000 ; Z hop return
G1 E0.5 F1800 ; Un-retract
G1 X126.7044 Y174.3832 E0.0677 F1800 ; Glyph: 0
G1 X128.7044 Y174.3832 E0.0677 F1800 ; Glyph: 0
G1 X128.7044 Y176.3832 E0.0677 F1800 ; Glyph: 0
G1 X126.7044 Y176.3832 E0.0677 F1800 ; Glyph: 0
G1 X124.7044 Y176.3832 E0.0677 F1800 ; Glyph: 0
G1 X124.7044 Y174.3832 E0.0677 F1800 ; Glyph: 0
G1 E-0.5 F3000 ; Retract
G1 Z0.5 F12000 ; Z hop
G0 X124.7044 Y179.3832 F12000 ; Move
G1 Z0.4 F12000 ; Z hop return
G1 E0.5 F1800 ; Un-retract
G1 X126.7044 Y179.3832 E0.0677 F1800 ; Glyph: 4
G1 X128.7044 Y179.3832 E0.0677 F1800 ; Glyph: 4
G0 X126.7044 Y179.3832 F12000 ; Move
G1 X126.7044 Y177.3832 E0.0677 F1800 ; Glyph: 4
G1 X124.7044 Y177.3832 E0.0677 F1800 ; Glyph: 4
G1 E-0.5 F3000 ; Retract
G1 Z0.5 F12000 ; Z hop
G0 X131.9072 Y170.3832 F12000 ; Move
G1 Z0.4 F12000 ; Z hop return
G1 E0.5 F1800 ; Un-retract
G1 X133.9072 Y170.3832 E0.0677 F1800 ; Glyph: 0
G1 X135.9072 Y170.3832 E0.0677 F1800 ; Glyph: 0
G1 X135.9072 Y172.3832 E0.0677 F1800 ; Glyph: 0
G1 X133.9072 Y172.3832 E0.0677 F1800 ; Glyph: 0
G1 X131.9072 Y172.3832 E0.0677 F1800 ; Glyph: 0
G1 X131.9072 Y170.3832 E0.0677 F1800 ; Glyph: 0
G1 E-0.5 F3000 ; Retract
G1 Z0.5 F12000 ; Z hop
G0 X135.9072 Y173.3832 F12000 ; Move
G1 Z0.4 F12000 ; Z hop return
G1 E0.5 F1800 ; Un-retract
G1 X135.1572 Y173.3832 E0.02539 F1800 ; Glyph: .
G1 E-0.5 F3000 ; Retract
G1 Z0.5 F12000 ; Z hop
G0 X131.9072 Y174.3832 F12000 ; Move
G1 Z0.4 F12000 ; Z hop return
G1 E0.5 F1800 ; Un-retract
G1 X133.9072 Y174.3832 E0.0677 F1800 ; Glyph: 0
G1 X135.9072 Y174.3832 E0.0677 F1800 ; Glyph: 0
G1 X135.9072 Y176.3832 E0.0677 F1800 ; Glyph: 0
G1 X133.9072 Y176.3832 E0.0677 F1800 ; Glyph: 0
G1 X131.9072 Y176.3832 E0.0677 F1800 ; Glyph: 0
G1 X131.9072 Y174.3832 E0.0677 F1800 ; Glyph: 0
G1 E-0.5 F3000 ; Retract
G1 Z0.5 F12000 ; Z hop
G0 X131.9072 Y179.3832 F12000 ; Move
G1 Z0.4 F12000 ; Z hop return
G1 E0.5 F1800 ; Un-retract
G1 X133.9072 Y179.3832 E0.0677 F1800 ; Glyph: 4
G1 X135.9072 Y179.3832 E0.0677 F1800 ; Glyph: 4
G0 X133.9072 Y179.3832 F12000 ; Move
G1 X133.9072 Y177.3832 E0.0677 F1800 ; Glyph: 4
G1 X131.9072 Y177.3832 E0.0677 F1800 ; Glyph: 4
G1 E-0.5 F3000 ; Retract
G1 Z0.5 F12000 ; Z hop
G0 X131.9072 Y180.3832 F12000 ; Move
G1 Z0.4 F12000 ; Z hop return
G1 E0.5 F1800 ; Un-retract
G1 X131.9072 Y182.3832 E0.0677 F1800 ; Glyph: 2
G1 X133.9072 Y182.3832 E0.0677 F1800 ; Glyph: 2
G1 X133.9072 Y180.3832 E0.0677 F1800 ; Glyph: 2
G1 X135.9072 Y180.3832 E0.0677 F1800 ; Glyph: 2
G1 X135.9072 Y182.3832 E0.0677 F1800 ; Glyph: 2
G1 E-0.5 F3000 ; Retract
G1 Z0.5 F12000 ; Z hop
G0 X139.11 Y170.3832 F12000 ; Move
G1 Z0.4 F12000 ; Z hop return
G1 E0.5 F1800 ; Un-retract
G1 X141.11 Y170.3832 E0.0677 F1800 ; Glyph: 0
G1 X143.11 Y170.3832 E0.0677 F1800 ; Glyph: 0
G1 X143.11 Y172.3832 E0.0677 F1800 ; Glyph: 0
G1 X141.11 Y172.3832 E0.0677 F1800 ; Glyph: 0
G1 X139.11 Y172.3832 E0.0677 F1800 ; Glyph: 0
G1 X139.11 Y170.3832 E0.0677 F1800 ; Glyph: 0
G1 E-0.5 F3000 ; Retract
G1 Z0.5 F12000 ; Z hop
G0 X143.11 Y173.3832 F12000 ; Move
G1 Z0.4 F12000 ; Z hop return
G1 E0.5 F1800 ; Un-retract
G1 X142.36 Y173.3832 E0.02539 F1800 ; Glyph: .
G1 E-0.5 F3000 ; Retract
G1 Z0.5 F12000 ; Z hop
G0 X139.11 Y174.3832 F12000 ; Move
G1 Z0.4 F12000 ; Z hop return
G1 E0.5 F1800 ; Un-retract
G1 X141.11 Y174.3832 E0.0677 F1800 ; Glyph: 0
G1 X143.11 Y174.3832 E0.0677 F1800 ; Glyph: 0
G1 X143.11 Y176.3832 E0.0677 F1800 ; Glyph: 0
G1 X141.11 Y176.3832 E0.0677 F1800 ; Glyph: 0
G1 X139.11 Y176.3832 E0.0677 F1800 ; Glyph: 0
G1 X139.11 Y174.3832 E0.0677 F1800 ; Glyph: 0
G1 E-0.5 F3000 ; Retract
G1 Z0.5 F12000 ; Z hop
G0 X139.11 Y179.3832 F12000 ; Move
G1 Z0.4 F12000 ; Z hop return
G1 E0.5 F1800 ; Un-retract
G1 X141.11 Y179.3832 E0.0677 F1800 ; Glyph: 4
G1 X143.11 Y179.3832 E0.0677 F1800 ; Glyph: 4
G0 X141.11 Y179.3832 F12000 ; Move
G1 X141.11 Y177.3832 E0.0677 F1800 ; Glyph: 4
G1 X139.11 Y177.3832 E0.0677 F1800 ; Glyph: 4
G1 E-0.5 F3000 ; Retract
G1 Z0.5 F12000 ; Z hop
G0 X139.11 Y182.3832 F12000 ; Move
G1 Z0.4 F12000 ; Z hop return
G1 E0.5 F1800 ; Un-retract
G1 X141.11 Y182.3832 E0.0677 F1800 ; Glyph: 4
G1 X143.11 Y182.3832 E0.0677 F1800 ; Glyph: 4
G0 X141.11 Y182.3832 F12000 ; Move
G1 X141.11 Y180.3832 E0.0677 F1800 ; Glyph: 4
G1 X139.11 Y180.3832 E0.0677 F1800 ; Glyph: 4
G1 E-0.5 F3000 ; Retract
G1 Z0.5 F12000 ; Z hop
G0 X146.3128 Y170.3832 F12000 ; Move
G1 Z0.4 F12000 ; Z hop return
G1 E0.5 F1800 ; Un-retract
G1 X148.3128 Y170.3832 E0.0677 F1800 ; Glyph: 0
G1 X150.3128 Y170.3832 E0.0677 F1800 ; Glyph: 0
G1 X150.3128 Y172.3832 E0.0677 F1800 ; Glyph: 0
G1 X148.3128 Y172.3832 E0.0677 F1800 ; Glyph: 0
G1 X146.3128 Y172.3832 E0.0677 F1800 ; Glyph: 0
G1 X146.3128 Y170.3832 E0.0677 F1800 ; Glyph: 0
G1 E-0.5 F3000 ; Retract
G1 Z0.5 F12000 ; Z hop
G0 X150.3128 Y173.3832 F12000 ; Move
G1 Z0.4 F12000 ; Z hop return
G1 E0.5 F1800 ; Un-retract
G1 X149.5628 Y173.3832 E0.02539 F1800 ; Glyph: .
G1 E-0.5 F3000 ; Retract
G1 Z0.5 F12000 ; Z hop
G0 X146.3128 Y174.3832 F12000 ; Move
G1 Z0.4 F12000 ; Z hop return
G1 E0.5 F1800 ; Un-retract
G1 X148.3128 Y174.3832 E0.0677 F1800 ; Glyph: 0
G1 X150.3128 Y174.3832 E0.0677 F1800 ; Glyph: 0
G1 X150.3128 Y176.3832 E0.0677 F1800 ; Glyph: 0
G1 X148.3128 Y176.3832 E0.0677 F1800 ; Glyph: 0
G1 X146.3128 Y176.3832 E0.0677 F1800 ; Glyph: 0
G1 X146.3128 Y174.3832 E0.0677 F1800 ; Glyph: 0
G1 E-0.5 F3000 ; Retract
G1 Z0.5 F12000 ; Z hop
G0 X146.3128 Y179.3832 F12000 ; Move
G1 Z0.4 F12000 ; Z hop return
G1 E0.5 F1800 ; Un-retract
G1 X148.3128 Y179.3832 E0.0677 F1800 ; Glyph: 4
G1 X150.3128 Y179.3832 E0.0677 F1800 ; Glyph: 4
G0 X148.3128 Y179.3832 F12000 ; Move
G1 X148.3128 Y177.3832 E0.0677 F1800 ; Glyph: 4
G1 X146.3128 Y177.3832 E0.0677 F1800 ; Glyph: 4
G1 E-0.5 F3000 ; Retract
G1 Z0.5 F12000 ; Z hop
G0 X146.3128 Y182.3832 F12000 ; Move
G1 Z0.4 F12000 ; Z hop return
G1 E0.5 F1800 ; Un-retract
G1 X146.3128 Y180.3832 E0.0677 F1800 ; Glyph: 6
G1 X148.3128 Y180.3832 E0.0677 F1800 ; Glyph: 6
G1 X150.3128 Y180.3832 E0.0677 F1800 ; Glyph: 6
G1 X150.3128 Y182.3832 E0.0677 F1800 ; Glyph: 6
G1 X148.3128 Y182.3832 E0.0677 F1800 ; Glyph: 6
G1 X148.3128 Y180.3832 E0.0677 F1800 ; Glyph: 6
G1 E-0.5 F3000 ; Retract
G1 Z0.5 F12000 ; Z hop
G0 X153.5156 Y170.3832 F12000 ; Move
G1 Z0.4 F12000 ; Z hop return
G1 E0.5 F1800 ; Un-retract
G1 X155.5156 Y170.3832 E0.0677 F1800 ; Glyph: 0
G1 X157.5156 Y170.3832 E0.0677 F1800 ; Glyph: 0
G1 X157.5156 Y172.3832 E0.0677 F1800 ; Glyph: 0
G1 X155.5156 Y172.3832 E0.0677 F1800 ; Glyph: 0
G1 X153.5156 Y172.3832 E0.0677 F1800 ; Glyph: 0
G1 X153.5156 Y170.3832 E0.0677 F1800 ; Glyph: 0
G1 E-0.5 F3000 ; Retract
G1 Z0.5 F12000 ; Z hop
G0 X157.5156 Y173.3832 F12000 ; Move
G1 Z0.4 F12000 ; Z hop return
G1 E0.5 F1800 ; Un-retract
G1 X156.7656 Y173.3832 E0.02539 F1800 ; Glyph: .
G1 E-0.5 F3000 ; Retract
G1 Z0.5 F12000 ; Z hop
G0 X153.5156 Y174.3832 F12000 ; Move
G1 Z0.4 F12000 ; Z hop return
G1 E0.5 F1800 ; Un-retract
G1 X155.5156 Y174.3832 E0.0677 F1800 ; Glyph: 0
G1 X157.5156 Y174.3832 E0.0677 F1800 ; Glyph: 0
G1 X157.5156 Y176.3832 E0.0677 F1800 ; Glyph: 0
G1 X155.5156 Y176.3832 E0.0677 F1800 ; Glyph: 0
G1 X153.5156 Y176.3832 E0.0677 F1800 ; Glyph: 0
G1 X153.5156 Y174.3832 E0.0677 F1800 ; Glyph: 0
G1 E-0.5 F3000 ; Retract
G1 Z0.5 F12000 ; Z hop
G0 X153.5156 Y179.3832 F12000 ; Move
G1 Z0.4 F12000 ; Z hop return
G1 E0.5 F1800 ; Un-retract
G1 X155.5156 Y179.3832 E0.0677 F1800 ; Glyph: 4
G1 X157.5156 Y179.3832 E0.0677 F1800 ; Glyph: 4
G0 X155.5156 Y179.3832 F12000 ; Move
G1 X155.5156 Y177.3832 E0.0677 F1800 ; Glyph: 4
G1 X153.5156 Y177.3832 E0.0677 F1800 ; Glyph: 4
G1 E-0.5 F3000 ; Retract
G1 Z0.5 F12000 ; Z hop
G0 X153.5156 Y180.3832 F12000 ; Move
G1 Z0.4 F12000 ; Z hop return
G1 E0.5 F1800 ; Un-retract
G1 X155.5156 Y180.3832 E0.0677 F1800 ; Glyph: 8
G1 X157.5156 Y180.3832 E0.0677 F1800 ; Glyph: 8
G1 X157.5156 Y182.3832 E0.0677 F1800 ; Glyph: 8
G1 X155.5156 Y182.3832 E0.0677 F1800 ; Glyph: 8
G1 X153.5156 Y182.3832 E0.0677 F1800 ; Glyph: 8
G1 X153.5156 Y180.3832 E0.0677 F1800 ; Glyph: 8
G0 X155.5156 Y180.3832 F12000 ; Move
G1 X155.5156 Y182.3832 E0.0677 F1800 ; Glyph: 8
G1 E-0.5 F3000 ; Retract
G1 Z0.5 F12000 ; Z hop
G0 X160.7184 Y170.3832 F12000 ; Move
G1 Z0.4 F12000 ; Z hop return
G1 E0.5 F1800 ; Un-retract
G1 X162.7184 Y170.3832 E0.0677 F1800 ; Glyph: 0
G1 X164.7184 Y170.3832 E0.0677 F1800 ; Glyph: 0
G1 X164.7184 Y172.3832 E0.0677 F1800 ; Glyph: 0
G1 X162.7184 Y172.3832 E0.0677 F1800 ; Glyph: 0
G1 X160.7184 Y172.3832 E0.0677 F1800 ; Glyph: 0
G1 X160.7184 Y170.3832 E0.0677 F1800 ; Glyph: 0
G1 E-0.5 F3000 ; Retract
G1 Z0.5 F12000 ; Z hop
G0 X164.7184 Y173.3832 F12000 ; Move
G1 Z0.4 F12000 ; Z hop return
G1 E0.5 F1800 ; Un-retract
G1 X163.9684 Y173.3832 E0.02539 F1800 ; Glyph: .
G1 E-0.5 F3000 ; Retract
G1 Z0.5 F12000 ; Z hop
G0 X160.7184 Y174.3832 F12000 ; Move
G1 Z0.4 F12000 ; Z hop return
G1 E0.5 F1800 ; Un-retract
G1 X162.7184 Y174.3832 E0.0677 F1800 ; Glyph: 0
G1 X164.7184 Y174.3832 E0.0677 F1800 ; Glyph: 0
G1 X164.7184 Y176.3832 E0.0677 F1800 ; Glyph: 0
G1 X162.7184 Y176.3832 E0.0677 F1800 ; Glyph: 0
G1 X160.7184 Y176.3832 E0.0677 F1800 ; Glyph: 0
G1 X160.7184 Y174.3832 E0.0677 F1800 ; Glyph: 0
G1 E-0.5 F3000 ; Retract
G1 Z0.5 F12000 ; Z hop
G0 X160.7184 Y179.3832 F12000 ; Move
G1 Z0.4 F12000 ; Z hop return
G1 E0.5 F1800 ; Un-retract
G1 X160.7184 Y177.3832 E0.0677 F1800 ; Glyph: 5
G1 X162.7184 Y177.3832 E0.0677 F1800 ; Glyph: 5
G1 X162.7184 Y179.3832 E0.0677 F1800 ; Glyph: 5
G1 X164.7184 Y179.3832 E0.0677 F1800 ; Glyph: 5
G1 X164.7184 Y177.3832 E0.0677 F1800 ; Glyph: 5
G1 E-0.5 F3000 ; Retract
G1 Z0.5 F12000 ; Z hop
G0 X126.1287 Y126.5068 F12000 ; Move to pattern start

G1 Z0.4 F12000 ; Z hop return
G1 E0.5 F1800 ; Un-retract
SET_PRESSURE_ADVANCE ADVANCE=0.04 ; Set pressure advance
M117 PA 0.04
G1 X147.3419 Y147.72 E1.01546 F4200 ; Print pattern wall
G1 X126.1287 Y168.9332 E1.01546 F4200 ; Print pattern wall
G1 E-0.5 F3000 ; Retract
G1 Z0.5 F12000 ; Z hop
G0 X126.7044 Y126.5068 F12000 ; Move to start next pattern wall
G1 Z0.4 F12000 ; Z hop return
G1 E0.5 F1800 ; Un-retract
G1 X147.9176 Y147.72 E1.01546 F4200 ; Print pattern wall
G1 X126.7044 Y168.9332 E1.01546 F4200 ; Print pattern wall
G1 E-0.5 F3000 ; Retract
G1 Z0.5 F12000 ; Z hop
G0 X127.2801 Y126.5068 F12000 ; Move to start next pattern wall
G1 Z0.4 F12000 ; Z hop return
G1 E0.5 F1800 ; Un-retract
G1 X148.4933 Y147.72 E1.01546 F4200 ; Print pattern wall
G1 X127.2801 Y168.9332 E1.01546 F4200 ; Print pattern wall
G1 E-0.5 F3000 ; Retract
G1 Z0.5 F12000 ; Z hop
G0 X129.7301 Y126.5068 F12000 ; Move to next pattern
G1 Z0.4 F12000 ; Z hop return
G1 E0.5 F1800 ; Un-retract
SET_PRESSURE_ADVANCE ADVANCE=0.041 ; Set pressure advance
M117 PA 0.041
G1 X150.9433 Y147.72 E1.01546 F4200 ; Print pattern wall
G1 X129.7301 Y168.9332 E1.01546 F4200 ; Print pattern wall
G1 E-0.5 F3000 ; Retract
G1 Z0.5 F12000 ; Z hop
G0 X130.3058 Y126.5068 F12000 ; Move to start next pattern wall
G1 Z0.4 F12000 ; Z hop return
G1 E0.5 F1800 ; Un-retract
G1 X151.519 Y147.72 E1.01546 F4200 ; Print pattern wall
G1 X130.3058 Y168.9332 E1.01546 F4200 ; Print pattern wall
G1 E-0.5 F3000 ; Retract
G1 Z0.5 F12000 ; Z hop
G0 X130.8815 Y126.5068 F12000 ; Move to start next pattern wall
G1 Z0.4 F12000 ; Z hop return
G1 E0.5 F1800 ; Un-retract
G1 X152.0947 Y147.72 E1.01546 F4200 ; Print pattern wall
G1 X130.8815 Y168.9332 E1.01546 F4200 ; Print pattern wall
G1 E-0.5 F3000 ; Retract
G1 Z0.5 F12000 ; Z hop
G0 X133.3315 Y126.5068 F12000 ; Move to next pattern
G1 Z0.4 F12000 ; Z hop return
G1 E0.5 F1800 ; Un-retract
SET_PRESSURE_ADVANCE ADVANCE=0.042 ; Set pressure advance
M117 PA 0.042
G1 X154.5447 Y147.72 E1.01546 F4200 ; Print pattern wall
G1 X133.3315 Y168.9332 E1.01546 F4200 ; Print pattern wall
G1 E-0.5 F3000 ; Retract
G1 Z0.5 F12000 ; Z hop
G0 X133.9072 Y126.5068 F12000 ; Move to start next pattern wall
G1 Z0.4 F12000 ; Z hop return
G1 E0.5 F1800 ; Un-retract
G1 X155.1204 Y147.72 E1.01546 F4200 ; Print pattern wall
G1 X133.9072 Y168.9332 E1.01546 F4200 ; Print pattern wall
G1 E-0.5 F3000 ; Retract
G1 Z0.5 F12000 ; Z hop
G0 X134.4829 Y126.5068 F12000 ; Move to start next pattern wall
G1 Z0.4 F12000 ; Z hop return
G1 E0.5 F1800 ; Un-retract
G1 X155.6961 Y147.72 E1.01546 F4200 ; Print pattern wall
G1 X134.4829 Y168.9332 E1.01546 F4200 ; Print pattern wall
G1 E-0.5 F3000 ; Retract
G1 Z0.5 F12000 ; Z hop
G0 X136.9329 Y126.5068 F12000 ; Move to next pattern
G1 Z0.4 F12000 ; Z hop return
G1 E0.5 F1800 ; Un-retract
SET_PRESSURE_ADVANCE ADVANCE=0.043 ; Set pressure advance
M117 PA 0.043
G1 X158.1461 Y147.72 E1.01546 F4200 ; Print pattern wall
G1 X136.9329 Y168.9332 E1.01546 F4200 ; Print pattern wall
G1 E-0.5 F3000 ; Retract
G1 Z0.5 F12000 ; Z hop
G0 X137.5086 Y126.5068 F12000 ; Move to start next pattern wall
G1 Z0.4 F12000 ; Z hop return
G1 E0.5 F1800 ; Un-retract
G1 X158.7218 Y147.72 E1.01546 F4200 ; Print pattern wall
G1 X137.5086 Y168.9332 E1.01546 F4200 ; Print pattern wall
G1 E-0.5 F3000 ; Retract
G1 Z0.5 F12000 ; Z hop
G0 X138.0843 Y126.5068 F12000 ; Move to start next pattern wall
G1 Z0.4 F12000 ; Z hop return
G1 E0.5 F1800 ; Un-retract
G1 X159.2975 Y147.72 E1.01546 F4200 ; Print pattern wall
G1 X138.0843 Y168.9332 E1.01546 F4200 ; Print pattern wall
G1 E-0.5 F3000 ; Retract
G1 Z0.5 F12000 ; Z hop
G0 X140.5343 Y126.5068 F12000 ; Move to next pattern
G1 Z0.4 F12000 ; Z hop return
G1 E0.5 F1800 ; Un-retract
SET_PRESSURE_ADVANCE ADVANCE=0.044 ; Set pressure advance
M117 PA 0.044
G1 X161.7475 Y147.72 E1.01546 F4200 ; Print pattern wall
G1 X140.5343 Y168.9332 E1.01546 F4200 ; Print pattern wall
G1 E-0.5 F3000 ; Retract
G1 Z0.5 F12000 ; Z hop
G0 X141.11 Y126.5068 F12000 ; Move to start next pattern wall
G1 Z0.4 F12000 ; Z hop return
G1 E0.5 F1800 ; Un-retract
G1 X162.3232 Y147.72 E1.01546 F4200 ; Print pattern wall
G1 X141.11 Y168.9332 E1.01546 F4200 ; Print pattern wall
G1 E-0.5 F3000 ; Retract
G1 Z0.5 F12000 ; Z hop
G0 X141.6857 Y126.5068 F12000 ; Move to start next pattern wall
G1 Z0.4 F12000 ; Z hop return
G1 E0.5 F1800 ; Un-retract
G1 X162.8989 Y147.72 E1.01546 F4200 ; Print pattern wall
G1 X141.6857 Y168.9332 E1.01546 F4200 ; Print pattern wall
G1 E-0.5 F3000 ; Retract
G1 Z0.5 F12000 ; Z hop
G0 X144.1357 Y126.5068 F12000 ; Move to next pattern
G1 Z0.4 F12000 ; Z hop return
G1 E0.5 F1800 ; Un-retract
SET_PRESSURE_ADVANCE ADVANCE=0.045 ; Set pressure advance
M117 PA 0.045
G1 X165.3489 Y147.72 E1.01546 F4200 ; Print pattern wall
G1 X144.1357 Y168.9332 E1.01546 F4200 ; Print pattern wall
G1 E-0.5 F3000 ; Retract
G1 Z0.5 F12000 ; Z hop
G0 X144.7114 Y126.5068 F12000 ; Move to start next pattern wall
G1 Z0.4 F12000 ; Z hop return
G1 E0.5 F1800 ; Un-retract
G1 X165.9246 Y147.72 E1.01546 F4200 ; Print pattern wall
G1 X144.7114 Y168.9332 E1.01546 F4200 ; Print pattern wall
G1 E-0.5 F3000 ; Retract
G1 Z0.5 F12000 ; Z hop
G0 X145.2871 Y126.5068 F12000 ; Move to start next pattern wall
G1 Z0.4 F12000 ; Z hop return
G1 E0.5 F1800 ; Un-retract
G1 X166.5003 Y147.72 E1.01546 F4200 ; Print pattern wall
G1 X145.2871 Y168.9332 E1.01546 F4200 ; Print pattern wall
G1 E-0.5 F3000 ; Retract
G1 Z0.5 F12000 ; Z hop
G0 X147.7371 Y126.5068 F12000 ; Move to next pattern
G1 Z0.4 F12000 ; Z hop return
G1 E0.5 F1800 ; Un-retract
SET_PRESSURE_ADVANCE ADVANCE=0.046 ; Set pressure advance
M117 PA 0.046
G1 X168.9503 Y147.72 E1.01546 F4200 ; Print pattern wall
G1 X147.7371 Y168.9332 E1.01546 F4200 ; Print pattern wall
G1 E-0.5 F3000 ; Retract
G1 Z0.5 F12000 ; Z hop
G0 X148.3128 Y126.5068 F12000 ; Move to start next pattern wall
G1 Z0.4 F12000 ; Z hop return
G1 E0.5 F1800 ; Un-retract
G1 X169.526 Y147.72 E1.01546 F4200 ; Print pattern wall
G1 X148.3128 Y168.9332 E1.01546 F4200 ; Print pattern wall
G1 E-0.5 F3000 ; Retract
G1 Z0.5 F12000 ; Z hop
G0 X148.8885 Y126.5068 F12000 ; Move to start next pattern wall
G1 Z0.4 F12000 ; Z hop return
G1 E0.5 F1800 ; Un-retract
G1 X170.1017 Y147.72 E1.01546 F4200 ; Print pattern wall
G1 X148.8885 Y168.9332 E1.01546 F4200 ; Print pattern wall
G1 E-0.5 F3000 ; Retract
G1 Z0.5 F12000 ; Z hop
G0 X151.3385 Y126.5068 F12000 ; Move to next pattern
G1 Z0.4 F12000 ; Z hop return
G1 E0.5 F1800 ; Un-retract
SET_PRESSURE_ADVANCE ADVANCE=0.047 ; Set pressure advance
M117 PA 0.047
G1 X172.5517 Y147.72 E1.01546 F4200 ; Print pattern wall
G1 X151.3385 Y168.9332 E1.01546 F4200 ; Print pattern wall
G1 E-0.5 F3000 ; Retract
G1 Z0.5 F12000 ; Z hop
G0 X151.9142 Y126.5068 F12000 ; Move to start next pattern wall
G1 Z0.4 F12000 ; Z hop return
G1 E0.5 F1800 ; Un-retract
G1 X173.1274 Y147.72 E1.01546 F4200 ; Print pattern wall
G1 X151.9142 Y168.9332 E1.01546 F4200 ; Print pattern wall
G1 E-0.5 F3000 ; Retract
G1 Z0.5 F12000 ; Z hop
G0 X152.4899 Y126.5068 F12000 ; Move to start next pattern wall
G1 Z0.4 F12000 ; Z hop return
G1 E0.5 F1800 ; Un-retract
G1 X173.7031 Y147.72 E1.01546 F4200 ; Print pattern wall
G1 X152.4899 Y168.9332 E1.01546 F4200 ; Print pattern wall
G1 E-0.5 F3000 ; Retract
G1 Z0.5 F12000 ; Z hop
G0 X154.9399 Y126.5068 F12000 ; Move to next pattern
G1 Z0.4 F12000 ; Z hop return
G1 E0.5 F1800 ; Un-retract
SET_PRESSURE_ADVANCE ADVANCE=0.048 ; Set pressure advance
M117 PA 0.048
G1 X176.1531 Y147.72 E1.01546 F4200 ; Print pattern wall
G1 X154.9399 Y168.9332 E1.01546 F4200 ; Print pattern wall
G1 E-0.5 F3000 ; Retract
G1 Z0.5 F12000 ; Z hop
G0 X155.5156 Y126.5068 F12000 ; Move to start next pattern wall
G1 Z0.4 F12000 ; Z hop return
G1 E0.5 F1800 ; Un-retract
G1 X176.7288 Y147.72 E1.01546 F4200 ; Print pattern wall
G1 X155.5156 Y168.9332 E1.01546 F4200 ; Print pattern wall
G1 E-0.5 F3000 ; Retract
G1 Z0.5 F12000 ; Z hop
G0 X156.0913 Y126.5068 F12000 ; Move to start next pattern wall
G1 Z0.4 F12000 ; Z hop return
G1 E0.5 F1800 ; Un-retract
G1 X177.3045 Y147.72 E1.01546 F4200 ; Print pattern wall
G1 X156.0913 Y168.9332 E1.01546 F4200 ; Print pattern wall
G1 E-0.5 F3000 ; Retract
G1 Z0.5 F12000 ; Z hop
G0 X158.5413 Y126.5068 F12000 ; Move to next pattern
G1 Z0.4 F12000 ; Z hop return
G1 E0.5 F1800 ; Un-retract
SET_PRESSURE_ADVANCE ADVANCE=0.049 ; Set pressure advance
M117 PA 0.049
G1 X179.7545 Y147.72 E1.01546 F4200 ; Print pattern wall
G1 X158.5413 Y168.9332 E1.01546 F4200 ; Print pattern wall
G1 E-0.5 F3000 ; Retract
G1 Z0.5 F12000 ; Z hop
G0 X159.117 Y126.5068 F12000 ; Move to start next pattern wall
G1 Z0.4 F12000 ; Z hop return
G1 E0.5 F1800 ; Un-retract
G1 X180.3302 Y147.72 E1.01546 F4200 ; Print pattern wall
G1 X159.117 Y168.9332 E1.01546 F4200 ; Print pattern wall
G1 E-0.5 F3000 ; Retract
G1 Z0.5 F12000 ; Z hop
G0 X159.6927 Y126.5068 F12000 ; Move to start next pattern wall
G1 Z0.4 F12000 ; Z hop return
G1 E0.5 F1800 ; Un-retract
G1 X180.9059 Y147.72 E1.01546 F4200 ; Print pattern wall
G1 X159.6927 Y168.9332 E1.01546 F4200 ; Print pattern wall
G1 E-0.5 F3000 ; Retract
G1 Z0.5 F12000 ; Z hop
G0 X162.1427 Y126.5068 F12000 ; Move to next pattern
G1 Z0.4 F12000 ; Z hop return
G1 E0.5 F1800 ; Un-retract
SET_PRESSURE_ADVANCE ADVANCE=0.05 ; Set pressure advance
M117 PA 0.05
G1 X183.3559 Y147.72 E1.01546 F4200 ; Print pattern wall
G1 X162.1427 Y168.9332 E1.01546 F4200 ; Print pattern wall
G1 E-0.5 F3000 ; Retract
G1 Z0.5 F12000 ; Z hop
G0 X162.7184 Y126.5068 F12000 ; Move to start next pattern wall
G1 Z0.4 F12000 ; Z hop return
G1 E0.5 F1800 ; Un-retract
G1 X183.9316 Y147.72 E1.01546 F4200 ; Print pattern wall
G1 X162.7184 Y168.9332 E1.01546 F4200 ; Print pattern wall
G1 E-0.5 F3000 ; Retract
G1 Z0.5 F12000 ; Z hop
G0 X163.2941 Y126.5068 F12000 ; Move to start next pattern wall
G1 Z0.4 F12000 ; Z hop return
G1 E0.5 F1800 ; Un-retract
G1 X184.5073 Y147.72 E1.01546 F4200 ; Print pattern wall
G1 X163.2941 Y168.9332 E1.01546 F4200 ; Print pattern wall
G1 E-0.5 F3000 ; Retract
G1 Z0.5 F12000 ; Z hop
G0 X126.1287 Y126.5068 F12000 ; Move back to start position
G1 Z0.4 F12000 ; Z hop return
G1 E0.5 F1800 ; Un-retract
G0 Z0.6 F12000 ; Move to layer height
SET_PRESSURE_ADVANCE ADVANCE=0.04 ; Set pressure advance
M117 PA 0.04
G1 X147.3419 Y147.72 E1.01546 F4200 ; Print pattern wall
G1 X126.1287 Y168.9332 E1.01546 F4200 ; Print pattern wall
G1 E-0.5 F3000 ; Retract
G1 Z0.7 F12000 ; Z hop
G0 X126.7044 Y126.5068 F12000 ; Move to start next pattern wall
G1 Z0.6 F12000 ; Z hop return
G1 E0.5 F1800 ; Un-retract
G1 X147.9176 Y147.72 E1.01546 F4200 ; Print pattern wall
G1 X126.7044 Y168.9332 E1.01546 F4200 ; Print pattern wall
G1 E-0.5 F3000 ; Retract
G1 Z0.7 F12000 ; Z hop
G0 X127.2801 Y126.5068 F12000 ; Move to start next pattern wall
G1 Z0.6 F12000 ; Z hop return
G1 E0.5 F1800 ; Un-retract
G1 X148.4933 Y147.72 E1.01546 F4200 ; Print pattern wall
G1 X127.2801 Y168.9332 E1.01546 F4200 ; Print pattern wall
G1 E-0.5 F3000 ; Retract
G1 Z0.7 F12000 ; Z hop
G0 X129.7301 Y126.5068 F12000 ; Move to next pattern
G1 Z0.6 F12000 ; Z hop return
G1 E0.5 F1800 ; Un-retract
SET_PRESSURE_ADVANCE ADVANCE=0.041 ; Set pressure advance
M117 PA 0.041
G1 X150.9433 Y147.72 E1.01546 F4200 ; Print pattern wall
G1 X129.7301 Y168.9332 E1.01546 F4200 ; Print pattern wall
G1 E-0.5 F3000 ; Retract
G1 Z0.7 F12000 ; Z hop
G0 X130.3058 Y126.5068 F12000 ; Move to start next pattern wall
G1 Z0.6 F12000 ; Z hop return
G1 E0.5 F1800 ; Un-retract
G1 X151.519 Y147.72 E1.01546 F4200 ; Print pattern wall
G1 X130.3058 Y168.9332 E1.01546 F4200 ; Print pattern wall
G1 E-0.5 F3000 ; Retract
G1 Z0.7 F12000 ; Z hop
G0 X130.8815 Y126.5068 F12000 ; Move to start next pattern wall
G1 Z0.6 F12000 ; Z hop return
G1 E0.5 F1800 ; Un-retract
G1 X152.0947 Y147.72 E1.01546 F4200 ; Print pattern wall
G1 X130.8815 Y168.9332 E1.01546 F4200 ; Print pattern wall
G1 E-0.5 F3000 ; Retract
G1 Z0.7 F12000 ; Z hop
G0 X133.3315 Y126.5068 F12000 ; Move to next pattern
G1 Z0.6 F12000 ; Z hop return
G1 E0.5 F1800 ; Un-retract
SET_PRESSURE_ADVANCE ADVANCE=0.042 ; Set pressure advance
M117 PA 0.042
G1 X154.5447 Y147.72 E1.01546 F4200 ; Print pattern wall
G1 X133.3315 Y168.9332 E1.01546 F4200 ; Print pattern wall
G1 E-0.5 F3000 ; Retract
G1 Z0.7 F12000 ; Z hop
G0 X133.9072 Y126.5068 F12000 ; Move to start next pattern wall
G1 Z0.6 F12000 ; Z hop return
G1 E0.5 F1800 ; Un-retract
G1 X155.1204 Y147.72 E1.01546 F4200 ; Print pattern wall
G1 X133.9072 Y168.9332 E1.01546 F4200 ; Print pattern wall
G1 E-0.5 F3000 ; Retract
G1 Z0.7 F12000 ; Z hop
G0 X134.4829 Y126.5068 F12000 ; Move to start next pattern wall
G1 Z0.6 F12000 ; Z hop return
G1 E0.5 F1800 ; Un-retract
G1 X155.6961 Y147.72 E1.01546 F4200 ; Print pattern wall
G1 X134.4829 Y168.9332 E1.01546 F4200 ; Print pattern wall
G1 E-0.5 F3000 ; Retract
G1 Z0.7 F12000 ; Z hop
G0 X136.9329 Y126.5068 F12000 ; Move to next pattern
G1 Z0.6 F12000 ; Z hop return
G1 E0.5 F1800 ; Un-retract
SET_PRESSURE_ADVANCE ADVANCE=0.043 ; Set pressure advance
M117 PA 0.043
G1 X158.1461 Y147.72 E1.01546 F4200 ; Print pattern wall
G1 X136.9329 Y168.9332 E1.01546 F4200 ; Print pattern wall
G1 E-0.5 F3000 ; Retract
G1 Z0.7 F12000 ; Z hop
G0 X137.5086 Y126.5068 F12000 ; Move to start next pattern wall
G1 Z0.6 F12000 ; Z hop return
G1 E0.5 F1800 ; Un-retract
G1 X158.7218 Y147.72 E1.01546 F4200 ; Print pattern wall
G1 X137.5086 Y168.9332 E1.01546 F4200 ; Print pattern wall
G1 E-0.5 F3000 ; Retract
G1 Z0.7 F12000 ; Z hop
G0 X138.0843 Y126.5068 F12000 ; Move to start next pattern wall
G1 Z0.6 F12000 ; Z hop return
G1 E0.5 F1800 ; Un-retract
G1 X159.2975 Y147.72 E1.01546 F4200 ; Print pattern wall
G1 X138.0843 Y168.9332 E1.01546 F4200 ; Print pattern wall
G1 E-0.5 F3000 ; Retract
G1 Z0.7 F12000 ; Z hop
G0 X140.5343 Y126.5068 F12000 ; Move to next pattern
G1 Z0.6 F12000 ; Z hop return
G1 E0.5 F1800 ; Un-retract
SET_PRESSURE_ADVANCE ADVANCE=0.044 ; Set pressure advance
M117 PA 0.044
G1 X161.7475 Y147.72 E1.01546 F4200 ; Print pattern wall
G1 X140.5343 Y168.9332 E1.01546 F4200 ; Print pattern wall
G1 E-0.5 F3000 ; Retract
G1 Z0.7 F12000 ; Z hop
G0 X141.11 Y126.5068 F12000 ; Move to start next pattern wall
G1 Z0.6 F12000 ; Z hop return
G1 E0.5 F1800 ; Un-retract
G1 X162.3232 Y147.72 E1.01546 F4200 ; Print pattern wall
G1 X141.11 Y168.9332 E1.01546 F4200 ; Print pattern wall
G1 E-0.5 F3000 ; Retract
G1 Z0.7 F12000 ; Z hop
G0 X141.6857 Y126.5068 F12000 ; Move to start next pattern wall
G1 Z0.6 F12000 ; Z hop return
G1 E0.5 F1800 ; Un-retract
G1 X162.8989 Y147.72 E1.01546 F4200 ; Print pattern wall
G1 X141.6857 Y168.9332 E1.01546 F4200 ; Print pattern wall
G1 E-0.5 F3000 ; Retract
G1 Z0.7 F12000 ; Z hop
G0 X144.1357 Y126.5068 F12000 ; Move to next pattern
G1 Z0.6 F12000 ; Z hop return
G1 E0.5 F1800 ; Un-retract
SET_PRESSURE_ADVANCE ADVANCE=0.045 ; Set pressure advance
M117 PA 0.045
G1 X165.3489 Y147.72 E1.01546 F4200 ; Print pattern wall
G1 X144.1357 Y168.9332 E1.01546 F4200 ; Print pattern wall
G1 E-0.5 F3000 ; Retract
G1 Z0.7 F12000 ; Z hop
G0 X144.7114 Y126.5068 F12000 ; Move to start next pattern wall
G1 Z0.6 F12000 ; Z hop return
G1 E0.5 F1800 ; Un-retract
G1 X165.9246 Y147.72 E1.01546 F4200 ; Print pattern wall
G1 X144.7114 Y168.9332 E1.01546 F4200 ; Print pattern wall
G1 E-0.5 F3000 ; Retract
G1 Z0.7 F12000 ; Z hop
G0 X145.2871 Y126.5068 F12000 ; Move to start next pattern wall
G1 Z0.6 F12000 ; Z hop return
G1 E0.5 F1800 ; Un-retract
G1 X166.5003 Y147.72 E1.01546 F4200 ; Print pattern wall
G1 X145.2871 Y168.9332 E1.01546 F4200 ; Print pattern wall
G1 E-0.5 F3000 ; Retract
G1 Z0.7 F12000 ; Z hop
G0 X147.7371 Y126.5068 F12000 ; Move to next pattern
G1 Z0.6 F12000 ; Z hop return
G1 E0.5 F1800 ; Un-retract
SET_PRESSURE_ADVANCE ADVANCE=0.046 ; Set pressure advance
M117 PA 0.046
G1 X168.9503 Y147.72 E1.01546 F4200 ; Print pattern wall
G1 X147.7371 Y168.9332 E1.01546 F4200 ; Print pattern wall
G1 E-0.5 F3000 ; Retract
G1 Z0.7 F12000 ; Z hop
G0 X148.3128 Y126.5068 F12000 ; Move to start next pattern wall
G1 Z0.6 F12000 ; Z hop return
G1 E0.5 F1800 ; Un-retract
G1 X169.526 Y147.72 E1.01546 F4200 ; Print pattern wall
G1 X148.3128 Y168.9332 E1.01546 F4200 ; Print pattern wall
G1 E-0.5 F3000 ; Retract
G1 Z0.7 F12000 ; Z hop
G0 X148.8885 Y126.5068 F12000 ; Move to start next pattern wall
G1 Z0.6 F12000 ; Z hop return
G1 E0.5 F1800 ; Un-retract
G1 X170.1017 Y147.72 E1.01546 F4200 ; Print pattern wall
G1 X148.8885 Y168.9332 E1.01546 F4200 ; Print pattern wall
G1 E-0.5 F3000 ; Retract
G1 Z0.7 F12000 ; Z hop
G0 X151.3385 Y126.5068 F12000 ; Move to next pattern
G1 Z0.6 F12000 ; Z hop return
G1 E0.5 F1800 ; Un-retract
SET_PRESSURE_ADVANCE ADVANCE=0.047 ; Set pressure advance
M117 PA 0.047
G1 X172.5517 Y147.72 E1.01546 F4200 ; Print pattern wall
G1 X151.3385 Y168.9332 E1.01546 F4200 ; Print pattern wall
G1 E-0.5 F3000 ; Retract
G1 Z0.7 F12000 ; Z hop
G0 X151.9142 Y126.5068 F12000 ; Move to start next pattern wall
G1 Z0.6 F12000 ; Z hop return
G1 E0.5 F1800 ; Un-retract
G1 X173.1274 Y147.72 E1.01546 F4200 ; Print pattern wall
G1 X151.9142 Y168.9332 E1.01546 F4200 ; Print pattern wall
G1 E-0.5 F3000 ; Retract
G1 Z0.7 F12000 ; Z hop
G0 X152.4899 Y126.5068 F12000 ; Move to start next pattern wall
G1 Z0.6 F12000 ; Z hop return
G1 E0.5 F1800 ; Un-retract
G1 X173.7031 Y147.72 E1.01546 F4200 ; Print pattern wall
G1 X152.4899 Y168.9332 E1.01546 F4200 ; Print pattern wall
G1 E-0.5 F3000 ; Retract
G1 Z0.7 F12000 ; Z hop
G0 X154.9399 Y126.5068 F12000 ; Move to next pattern
G1 Z0.6 F12000 ; Z hop return
G1 E0.5 F1800 ; Un-retract
SET_PRESSURE_ADVANCE ADVANCE=0.048 ; Set pressure advance
M117 PA 0.048
G1 X176.1531 Y147.72 E1.01546 F4200 ; Print pattern wall
G1 X154.9399 Y168.9332 E1.01546 F4200 ; Print pattern wall
G1 E-0.5 F3000 ; Retract
G1 Z0.7 F12000 ; Z hop
G0 X155.5156 Y126.5068 F12000 ; Move to start next pattern wall
G1 Z0.6 F12000 ; Z hop return
G1 E0.5 F1800 ; Un-retract
G1 X176.7288 Y147.72 E1.01546 F4200 ; Print pattern wall
G1 X155.5156 Y168.9332 E1.01546 F4200 ; Print pattern wall
G1 E-0.5 F3000 ; Retract
G1 Z0.7 F12000 ; Z hop
G0 X156.0913 Y126.5068 F12000 ; Move to start next pattern wall
G1 Z0.6 F12000 ; Z hop return
G1 E0.5 F1800 ; Un-retract
G1 X177.3045 Y147.72 E1.01546 F4200 ; Print pattern wall
G1 X156.0913 Y168.9332 E1.01546 F4200 ; Print pattern wall
G1 E-0.5 F3000 ; Retract
G1 Z0.7 F12000 ; Z hop
G0 X158.5413 Y126.5068 F12000 ; Move to next pattern
G1 Z0.6 F12000 ; Z hop return
G1 E0.5 F1800 ; Un-retract
SET_PRESSURE_ADVANCE ADVANCE=0.049 ; Set pressure advance
M117 PA 0.049
G1 X179.7545 Y147.72 E1.01546 F4200 ; Print pattern wall
G1 X158.5413 Y168.9332 E1.01546 F4200 ; Print pattern wall
G1 E-0.5 F3000 ; Retract
G1 Z0.7 F12000 ; Z hop
G0 X159.117 Y126.5068 F12000 ; Move to start next pattern wall
G1 Z0.6 F12000 ; Z hop return
G1 E0.5 F1800 ; Un-retract
G1 X180.3302 Y147.72 E1.01546 F4200 ; Print pattern wall
G1 X159.117 Y168.9332 E1.01546 F4200 ; Print pattern wall
G1 E-0.5 F3000 ; Retract
G1 Z0.7 F12000 ; Z hop
G0 X159.6927 Y126.5068 F12000 ; Move to start next pattern wall
G1 Z0.6 F12000 ; Z hop return
G1 E0.5 F1800 ; Un-retract
G1 X180.9059 Y147.72 E1.01546 F4200 ; Print pattern wall
G1 X159.6927 Y168.9332 E1.01546 F4200 ; Print pattern wall
G1 E-0.5 F3000 ; Retract
G1 Z0.7 F12000 ; Z hop
G0 X162.1427 Y126.5068 F12000 ; Move to next pattern
G1 Z0.6 F12000 ; Z hop return
G1 E0.5 F1800 ; Un-retract
SET_PRESSURE_ADVANCE ADVANCE=0.05 ; Set pressure advance
M117 PA 0.05
G1 X183.3559 Y147.72 E1.01546 F4200 ; Print pattern wall
G1 X162.1427 Y168.9332 E1.01546 F4200 ; Print pattern wall
G1 E-0.5 F3000 ; Retract
G1 Z0.7 F12000 ; Z hop
G0 X162.7184 Y126.5068 F12000 ; Move to start next pattern wall
G1 Z0.6 F12000 ; Z hop return
G1 E0.5 F1800 ; Un-retract
G1 X183.9316 Y147.72 E1.01546 F4200 ; Print pattern wall
G1 X162.7184 Y168.9332 E1.01546 F4200 ; Print pattern wall
G1 E-0.5 F3000 ; Retract
G1 Z0.7 F12000 ; Z hop
G0 X163.2941 Y126.5068 F12000 ; Move to start next pattern wall
G1 Z0.6 F12000 ; Z hop return
G1 E0.5 F1800 ; Un-retract
G1 X184.5073 Y147.72 E1.01546 F4200 ; Print pattern wall
G1 X163.2941 Y168.9332 E1.01546 F4200 ; Print pattern wall
G1 E-0.5 F3000 ; Retract
G1 Z0.7 F12000 ; Z hop
G0 X126.1287 Y126.5068 F12000 ; Move back to start position
G1 Z0.6 F12000 ; Z hop return
G1 E0.5 F1800 ; Un-retract
G0 Z0.8 F12000 ; Move to layer height
SET_PRESSURE_ADVANCE ADVANCE=0.04 ; Set pressure advance
M117 PA 0.04
G1 X147.3419 Y147.72 E1.01546 F4200 ; Print pattern wall
G1 X126.1287 Y168.9332 E1.01546 F4200 ; Print pattern wall
G1 E-0.5 F3000 ; Retract
G1 Z0.9 F12000 ; Z hop
G0 X126.7044 Y126.5068 F12000 ; Move to start next pattern wall
G1 Z0.8 F12000 ; Z hop return
G1 E0.5 F1800 ; Un-retract
G1 X147.9176 Y147.72 E1.01546 F4200 ; Print pattern wall
G1 X126.7044 Y168.9332 E1.01546 F4200 ; Print pattern wall
G1 E-0.5 F3000 ; Retract
G1 Z0.9 F12000 ; Z hop
G0 X127.2801 Y126.5068 F12000 ; Move to start next pattern wall
G1 Z0.8 F12000 ; Z hop return
G1 E0.5 F1800 ; Un-retract
G1 X148.4933 Y147.72 E1.01546 F4200 ; Print pattern wall
G1 X127.2801 Y168.9332 E1.01546 F4200 ; Print pattern wall
G1 E-0.5 F3000 ; Retract
G1 Z0.9 F12000 ; Z hop
G0 X129.7301 Y126.5068 F12000 ; Move to next pattern
G1 Z0.8 F12000 ; Z hop return
G1 E0.5 F1800 ; Un-retract
SET_PRESSURE_ADVANCE ADVANCE=0.041 ; Set pressure advance
M117 PA 0.041
G1 X150.9433 Y147.72 E1.01546 F4200 ; Print pattern wall
G1 X129.7301 Y168.9332 E1.01546 F4200 ; Print pattern wall
G1 E-0.5 F3000 ; Retract
G1 Z0.9 F12000 ; Z hop
G0 X130.3058 Y126.5068 F12000 ; Move to start next pattern wall
G1 Z0.8 F12000 ; Z hop return
G1 E0.5 F1800 ; Un-retract
G1 X151.519 Y147.72 E1.01546 F4200 ; Print pattern wall
G1 X130.3058 Y168.9332 E1.01546 F4200 ; Print pattern wall
G1 E-0.5 F3000 ; Retract
G1 Z0.9 F12000 ; Z hop
G0 X130.8815 Y126.5068 F12000 ; Move to start next pattern wall
G1 Z0.8 F12000 ; Z hop return
G1 E0.5 F1800 ; Un-retract
G1 X152.0947 Y147.72 E1.01546 F4200 ; Print pattern wall
G1 X130.8815 Y168.9332 E1.01546 F4200 ; Print pattern wall
G1 E-0.5 F3000 ; Retract
G1 Z0.9 F12000 ; Z hop
G0 X133.3315 Y126.5068 F12000 ; Move to next pattern
G1 Z0.8 F12000 ; Z hop return
G1 E0.5 F1800 ; Un-retract
SET_PRESSURE_ADVANCE ADVANCE=0.042 ; Set pressure advance
M117 PA 0.042
G1 X154.5447 Y147.72 E1.01546 F4200 ; Print pattern wall
G1 X133.3315 Y168.9332 E1.01546 F4200 ; Print pattern wall
G1 E-0.5 F3000 ; Retract
G1 Z0.9 F12000 ; Z hop
G0 X133.9072 Y126.5068 F12000 ; Move to start next pattern wall
G1 Z0.8 F12000 ; Z hop return
G1 E0.5 F1800 ; Un-retract
G1 X155.1204 Y147.72 E1.01546 F4200 ; Print pattern wall
G1 X133.9072 Y168.9332 E1.01546 F4200 ; Print pattern wall
G1 E-0.5 F3000 ; Retract
G1 Z0.9 F12000 ; Z hop
G0 X134.4829 Y126.5068 F12000 ; Move to start next pattern wall
G1 Z0.8 F12000 ; Z hop return
G1 E0.5 F1800 ; Un-retract
G1 X155.6961 Y147.72 E1.01546 F4200 ; Print pattern wall
G1 X134.4829 Y168.9332 E1.01546 F4200 ; Print pattern wall
G1 E-0.5 F3000 ; Retract
G1 Z0.9 F12000 ; Z hop
G0 X136.9329 Y126.5068 F12000 ; Move to next pattern
G1 Z0.8 F12000 ; Z hop return
G1 E0.5 F1800 ; Un-retract
SET_PRESSURE_ADVANCE ADVANCE=0.043 ; Set pressure advance
M117 PA 0.043
G1 X158.1461 Y147.72 E1.01546 F4200 ; Print pattern wall
G1 X136.9329 Y168.9332 E1.01546 F4200 ; Print pattern wall
G1 E-0.5 F3000 ; Retract
G1 Z0.9 F12000 ; Z hop
G0 X137.5086 Y126.5068 F12000 ; Move to start next pattern wall
G1 Z0.8 F12000 ; Z hop return
G1 E0.5 F1800 ; Un-retract
G1 X158.7218 Y147.72 E1.01546 F4200 ; Print pattern wall
G1 X137.5086 Y168.9332 E1.01546 F4200 ; Print pattern wall
G1 E-0.5 F3000 ; Retract
G1 Z0.9 F12000 ; Z hop
G0 X138.0843 Y126.5068 F12000 ; Move to start next pattern wall
G1 Z0.8 F12000 ; Z hop return
G1 E0.5 F1800 ; Un-retract
G1 X159.2975 Y147.72 E1.01546 F4200 ; Print pattern wall
G1 X138.0843 Y168.9332 E1.01546 F4200 ; Print pattern wall
G1 E-0.5 F3000 ; Retract
G1 Z0.9 F12000 ; Z hop
G0 X140.5343 Y126.5068 F12000 ; Move to next pattern
G1 Z0.8 F12000 ; Z hop return
G1 E0.5 F1800 ; Un-retract
SET_PRESSURE_ADVANCE ADVANCE=0.044 ; Set pressure advance
M117 PA 0.044
G1 X161.7475 Y147.72 E1.01546 F4200 ; Print pattern wall
G1 X140.5343 Y168.9332 E1.01546 F4200 ; Print pattern wall
G1 E-0.5 F3000 ; Retract
G1 Z0.9 F12000 ; Z hop
G0 X141.11 Y126.5068 F12000 ; Move to start next pattern wall
G1 Z0.8 F12000 ; Z hop return
G1 E0.5 F1800 ; Un-retract
G1 X162.3232 Y147.72 E1.01546 F4200 ; Print pattern wall
G1 X141.11 Y168.9332 E1.01546 F4200 ; Print pattern wall
G1 E-0.5 F3000 ; Retract
G1 Z0.9 F12000 ; Z hop
G0 X141.6857 Y126.5068 F12000 ; Move to start next pattern wall
G1 Z0.8 F12000 ; Z hop return
G1 E0.5 F1800 ; Un-retract
G1 X162.8989 Y147.72 E1.01546 F4200 ; Print pattern wall
G1 X141.6857 Y168.9332 E1.01546 F4200 ; Print pattern wall
G1 E-0.5 F3000 ; Retract
G1 Z0.9 F12000 ; Z hop
G0 X144.1357 Y126.5068 F12000 ; Move to next pattern
G1 Z0.8 F12000 ; Z hop return
G1 E0.5 F1800 ; Un-retract
SET_PRESSURE_ADVANCE ADVANCE=0.045 ; Set pressure advance
M117 PA 0.045
G1 X165.3489 Y147.72 E1.01546 F4200 ; Print pattern wall
G1 X144.1357 Y168.9332 E1.01546 F4200 ; Print pattern wall
G1 E-0.5 F3000 ; Retract
G1 Z0.9 F12000 ; Z hop
G0 X144.7114 Y126.5068 F12000 ; Move to start next pattern wall
G1 Z0.8 F12000 ; Z hop return
G1 E0.5 F1800 ; Un-retract
G1 X165.9246 Y147.72 E1.01546 F4200 ; Print pattern wall
G1 X144.7114 Y168.9332 E1.01546 F4200 ; Print pattern wall
G1 E-0.5 F3000 ; Retract
G1 Z0.9 F12000 ; Z hop
G0 X145.2871 Y126.5068 F12000 ; Move to start next pattern wall
G1 Z0.8 F12000 ; Z hop return
G1 E0.5 F1800 ; Un-retract
G1 X166.5003 Y147.72 E1.01546 F4200 ; Print pattern wall
G1 X145.2871 Y168.9332 E1.01546 F4200 ; Print pattern wall
G1 E-0.5 F3000 ; Retract
G1 Z0.9 F12000 ; Z hop
G0 X147.7371 Y126.5068 F12000 ; Move to next pattern
G1 Z0.8 F12000 ; Z hop return
G1 E0.5 F1800 ; Un-retract
SET_PRESSURE_ADVANCE ADVANCE=0.046 ; Set pressure advance
M117 PA 0.046
G1 X168.9503 Y147.72 E1.01546 F4200 ; Print pattern wall
G1 X147.7371 Y168.9332 E1.01546 F4200 ; Print pattern wall
G1 E-0.5 F3000 ; Retract
G1 Z0.9 F12000 ; Z hop
G0 X148.3128 Y126.5068 F12000 ; Move to start next pattern wall
G1 Z0.8 F12000 ; Z hop return
G1 E0.5 F1800 ; Un-retract
G1 X169.526 Y147.72 E1.01546 F4200 ; Print pattern wall
G1 X148.3128 Y168.9332 E1.01546 F4200 ; Print pattern wall
G1 E-0.5 F3000 ; Retract
G1 Z0.9 F12000 ; Z hop
G0 X148.8885 Y126.5068 F12000 ; Move to start next pattern wall
G1 Z0.8 F12000 ; Z hop return
G1 E0.5 F1800 ; Un-retract
G1 X170.1017 Y147.72 E1.01546 F4200 ; Print pattern wall
G1 X148.8885 Y168.9332 E1.01546 F4200 ; Print pattern wall
G1 E-0.5 F3000 ; Retract
G1 Z0.9 F12000 ; Z hop
G0 X151.3385 Y126.5068 F12000 ; Move to next pattern
G1 Z0.8 F12000 ; Z hop return
G1 E0.5 F1800 ; Un-retract
SET_PRESSURE_ADVANCE ADVANCE=0.047 ; Set pressure advance
M117 PA 0.047
G1 X172.5517 Y147.72 E1.01546 F4200 ; Print pattern wall
G1 X151.3385 Y168.9332 E1.01546 F4200 ; Print pattern wall
G1 E-0.5 F3000 ; Retract
G1 Z0.9 F12000 ; Z hop
G0 X151.9142 Y126.5068 F12000 ; Move to start next pattern wall
G1 Z0.8 F12000 ; Z hop return
G1 E0.5 F1800 ; Un-retract
G1 X173.1274 Y147.72 E1.01546 F4200 ; Print pattern wall
G1 X151.9142 Y168.9332 E1.01546 F4200 ; Print pattern wall
G1 E-0.5 F3000 ; Retract
G1 Z0.9 F12000 ; Z hop
G0 X152.4899 Y126.5068 F12000 ; Move to start next pattern wall
G1 Z0.8 F12000 ; Z hop return
G1 E0.5 F1800 ; Un-retract
G1 X173.7031 Y147.72 E1.01546 F4200 ; Print pattern wall
G1 X152.4899 Y168.9332 E1.01546 F4200 ; Print pattern wall
G1 E-0.5 F3000 ; Retract
G1 Z0.9 F12000 ; Z hop
G0 X154.9399 Y126.5068 F12000 ; Move to next pattern
G1 Z0.8 F12000 ; Z hop return
G1 E0.5 F1800 ; Un-retract
SET_PRESSURE_ADVANCE ADVANCE=0.048 ; Set pressure advance
M117 PA 0.048
G1 X176.1531 Y147.72 E1.01546 F4200 ; Print pattern wall
G1 X154.9399 Y168.9332 E1.01546 F4200 ; Print pattern wall
G1 E-0.5 F3000 ; Retract
G1 Z0.9 F12000 ; Z hop
G0 X155.5156 Y126.5068 F12000 ; Move to start next pattern wall
G1 Z0.8 F12000 ; Z hop return
G1 E0.5 F1800 ; Un-retract
G1 X176.7288 Y147.72 E1.01546 F4200 ; Print pattern wall
G1 X155.5156 Y168.9332 E1.01546 F4200 ; Print pattern wall
G1 E-0.5 F3000 ; Retract
G1 Z0.9 F12000 ; Z hop
G0 X156.0913 Y126.5068 F12000 ; Move to start next pattern wall
G1 Z0.8 F12000 ; Z hop return
G1 E0.5 F1800 ; Un-retract
G1 X177.3045 Y147.72 E1.01546 F4200 ; Print pattern wall
G1 X156.0913 Y168.9332 E1.01546 F4200 ; Print pattern wall
G1 E-0.5 F3000 ; Retract
G1 Z0.9 F12000 ; Z hop
G0 X158.5413 Y126.5068 F12000 ; Move to next pattern
G1 Z0.8 F12000 ; Z hop return
G1 E0.5 F1800 ; Un-retract
SET_PRESSURE_ADVANCE ADVANCE=0.049 ; Set pressure advance
M117 PA 0.049
G1 X179.7545 Y147.72 E1.01546 F4200 ; Print pattern wall
G1 X158.5413 Y168.9332 E1.01546 F4200 ; Print pattern wall
G1 E-0.5 F3000 ; Retract
G1 Z0.9 F12000 ; Z hop
G0 X159.117 Y126.5068 F12000 ; Move to start next pattern wall
G1 Z0.8 F12000 ; Z hop return
G1 E0.5 F1800 ; Un-retract
G1 X180.3302 Y147.72 E1.01546 F4200 ; Print pattern wall
G1 X159.117 Y168.9332 E1.01546 F4200 ; Print pattern wall
G1 E-0.5 F3000 ; Retract
G1 Z0.9 F12000 ; Z hop
G0 X159.6927 Y126.5068 F12000 ; Move to start next pattern wall
G1 Z0.8 F12000 ; Z hop return
G1 E0.5 F1800 ; Un-retract
G1 X180.9059 Y147.72 E1.01546 F4200 ; Print pattern wall
G1 X159.6927 Y168.9332 E1.01546 F4200 ; Print pattern wall
G1 E-0.5 F3000 ; Retract
G1 Z0.9 F12000 ; Z hop
G0 X162.1427 Y126.5068 F12000 ; Move to next pattern
G1 Z0.8 F12000 ; Z hop return
G1 E0.5 F1800 ; Un-retract
SET_PRESSURE_ADVANCE ADVANCE=0.05 ; Set pressure advance
M117 PA 0.05
G1 X183.3559 Y147.72 E1.01546 F4200 ; Print pattern wall
G1 X162.1427 Y168.9332 E1.01546 F4200 ; Print pattern wall
G1 E-0.5 F3000 ; Retract
G1 Z0.9 F12000 ; Z hop
G0 X162.7184 Y126.5068 F12000 ; Move to start next pattern wall
G1 Z0.8 F12000 ; Z hop return
G1 E0.5 F1800 ; Un-retract
G1 X183.9316 Y147.72 E1.01546 F4200 ; Print pattern wall
G1 X162.7184 Y168.9332 E1.01546 F4200 ; Print pattern wall
G1 E-0.5 F3000 ; Retract
G1 Z0.9 F12000 ; Z hop
G0 X163.2941 Y126.5068 F12000 ; Move to start next pattern wall
G1 Z0.8 F12000 ; Z hop return
G1 E0.5 F1800 ; Un-retract
G1 X184.5073 Y147.72 E1.01546 F4200 ; Print pattern wall
G1 X163.2941 Y168.9332 E1.01546 F4200 ; Print pattern wall
SET_PRESSURE_ADVANCE ADVANCE=0.04 ; Set pressure advance back to start value
M117 PA 0.04
G1 E-0.5 F3000 ; Retract
G1 Z0.9 F12000 ; Z hop
G0 Z5.8 F12000 ; Z raise
M104 S0 ; Turn off hotend
M140 S0 ; Turn off bed
M107    ; Turn off fan
;
; End G-code
;
END_PRINT
;
; FINISH
;
