
; ### Ellis' Pressure Advance / Linear Advance Calibration Tool ###
;
; Original Marlin linear advance calibration tool by Sineos [https://github.com/Sineos]
; Heavily modified/rewritten by Andrew Ellis [https://github.com/AndrewEllis93]
;
; -------------------------------------------
; Generated: Fri Dec 30 2022 14:47:36 GMT-0800 (Pacific Standard Time)
; -------------------------------------------
;
; Advanced mode: false
;
; Printer:
;  - Firmware: klipper
;  - Bed Shape: Rect
;  - Bed Size X: 310 mm
;  - Bed Size Y: 310 mm
;  - Origin Bed Center: false
;  - Travel Speed: 200 mm/s
;  - Nozzle Diameter: 0.4 mm
;  - Filament Diameter: 1.75 mm
;  - Extrusion Multiplier: 1
;
; Retraction / Z Hop:
;  - Retraction Distance: 1 mm
;  - Retract Speed: 50 mm/s
;  - Unretract Speed: 30 mm/s
;  - Z Hop Enable: true
;  - Z Hop Height: 0.1mm
;
; First Layer Settings:
;  - First Layer Height: 0.2 mm
;  - First Layer Printing Speed: 30 mm/s
;  - First Layer Fan Speed: 0%
;  - Anchor Option: anchor_frame
;
; Print Settings:
;  - Layer Height: 0.2 mm
;  - Print Speed: 70 mm/s
;  - Acceleration: 3000 mm/s^2
;  - Fan Speed: 100%
;
; Pressure Advance Stepping:
;  - PA Start Value: 0
;  - PA End Value: 0.08
;  - PA Increment: 0.005
;
; Start / End G-code:
;  - Start G-code Type: standalone
;  - Hotend Temp: 200C
;  - Bed Temp: 60C
;
; Calculated Values:
;  - Print Size X: 84.76 mm
;  - Print Size Y: 53.99 mm
;  - Number of Patterns to Print: 17
;  - PA Values: 0, 0.005, 0.01, 0.015, 0.02, 0.025, 0.03, 0.035, 0.04, 0.045, 0.05, 0.055, 0.06, 0.065, 0.07, 0.075, 0.08
;
; Prepare printing
;
M190 S60    ; Set & wait for bed temp. !Don't modify/delete, only move!
M109 S200 ; Set & wait for hotend temp. !Don't modify/delete, only move!
START_PRINT T_BED=60 T_EXTRUDER=200
;
; Make sure this macro name matches your own!
; (For example, some may use START_PRINT instead.)
G21 ; Millimeter units
G90 ; Absolute XYZ
M83 ; Relative E
G92 E0 ; Reset extruder distance
;
;  Begin printing
;
M106 S0 ; Set fan speed
SET_VELOCITY_LIMIT ACCEL=3000 ; Set printing acceleration
G1 E-1 F3000 ; Retract
G0 Z5 F12000 ; Z raise
G0 X112.6202 Y128.0068 F12000 ; Move to start position
G0 Z0.2 F12000 ; Move to start layer height
G1 E1 F1800 ; Un-retract
SET_PRESSURE_ADVANCE ADVANCE=0 ; Set pressure advance to start value
M117 PA 0
G1 X112.6202 Y170.4332 E1.82414 F1800 ; Draw perimeter (up)
G1 X197.3798 Y170.4332 E3.64426 F1800 ; Draw perimeter (right)
G1 X197.3798 Y128.0068 E1.82414 F1800 ; Draw perimeter (down)
G1 X112.6202 Y128.0068 E3.64426 F1800 ; Draw perimeter (left)
G0 X113.1373 Y128.5239 F12000 ; Step inwards to print next perimeter
G1 X113.1373 Y169.9161 E1.77967 F1800 ; Draw perimeter (up)
G1 X196.8627 Y169.9161 E3.5998 F1800 ; Draw perimeter (right)
G1 X196.8627 Y128.5239 E1.77967 F1800 ; Draw perimeter (down)
G1 X113.1373 Y128.5239 E3.5998 F1800 ; Draw perimeter (left)
G0 X113.6544 Y129.041 F12000 ; Step inwards to print next perimeter
G1 X113.6544 Y169.399 E1.73521 F1800 ; Draw perimeter (up)
G1 X196.3456 Y169.399 E3.55534 F1800 ; Draw perimeter (right)
G1 X196.3456 Y129.041 E1.73521 F1800 ; Draw perimeter (down)
G1 X113.6544 Y129.041 E3.55534 F1800 ; Draw perimeter (left)
G0 X114.1715 Y129.558 F12000 ; Step inwards to print next perimeter
G1 X114.1715 Y168.882 E1.69075 F1800 ; Draw perimeter (up)
G1 X195.8285 Y168.882 E3.51087 F1800 ; Draw perimeter (right)
G1 X195.8285 Y129.558 E1.69075 F1800 ; Draw perimeter (down)
G1 X114.1715 Y129.558 E3.51087 F1800 ; Draw perimeter (left)
G1 E-1 F3000 ; Retract
G1 Z0.3 F12000 ; Z hop
G0 X112.6202 Y170.9503 F12000 ; Move to box start
G1 Z0.2 F12000 ; Z hop return
G1 E1 F1800 ; Un-retract
G1 X112.6202 Y182.4674 E0.49518 F1800 ; Draw perimeter (up)
G1 X176.8747 Y182.4674 E2.76264 F1800 ; Draw perimeter (right)
G1 X176.8747 Y170.9503 E0.49518 F1800 ; Draw perimeter (down)
G1 X112.6202 Y170.9503 E2.76264 F1800 ; Draw perimeter (left)
G0 X113.1373 Y171.4674 F12000 ; Step inwards to print next perimeter
G1 X113.1373 Y181.9503 E0.45072 F1800 ; Draw perimeter (up)
G1 X176.3576 Y181.9503 E2.71818 F1800 ; Draw perimeter (right)
G1 X176.3576 Y171.4674 E0.45072 F1800 ; Draw perimeter (down)
G1 X113.1373 Y171.4674 E2.71818 F1800 ; Draw perimeter (left)
G0 X113.6544 Y171.9844 F12000 ; Step inwards to print next perimeter
G1 X113.6544 Y181.4332 E0.40625 F1800 ; Draw perimeter (up)
G1 X175.8406 Y181.4332 E2.67372 F1800 ; Draw perimeter (right)
G1 X175.8406 Y171.9844 E0.40625 F1800 ; Draw perimeter (down)
G1 X113.6544 Y171.9844 E2.67372 F1800 ; Draw perimeter (left)
G0 X114.1715 Y172.5015 F12000 ; Step inwards to print next perimeter
G1 X114.1715 Y180.9161 E0.36179 F1800 ; Draw perimeter (up)
G1 X175.3235 Y180.9161 E2.62925 F1800 ; Draw perimeter (right)
G1 X175.3235 Y172.5015 E0.36179 F1800 ; Draw perimeter (down)
G1 X114.1715 Y172.5015 E2.62925 F1800 ; Draw perimeter (left)
G0 X114.5448 Y172.8749 F12000 ; Move to fill start
G0 X115.2761 Y172.8749 F12000 ; Move
G1 X114.5448 Y173.6061 E0.04446 F1800 ; Fill
G0 X114.5448 Y174.3374 F12000 ; Move
G1 X116.0073 Y172.8749 E0.08893 F1800 ; Fill
G0 X116.7386 Y172.8749 F12000 ; Move
G1 X114.5448 Y175.0686 E0.13339 F1800 ; Fill
G0 X114.5448 Y175.7999 F12000 ; Move
G1 X117.4699 Y172.8749 E0.17786 F1800 ; Fill
G0 X118.2011 Y172.8749 F12000 ; Move
G1 X114.5448 Y176.5312 E0.22232 F1800 ; Fill
G0 X114.5448 Y177.2624 F12000 ; Move
G1 X118.9324 Y172.8749 E0.26678 F1800 ; Fill
G0 X119.6636 Y172.8749 F12000 ; Move
G1 X114.5448 Y177.9937 E0.31125 F1800 ; Fill
G0 X114.5448 Y178.7249 F12000 ; Move
G1 X120.3949 Y172.8749 E0.35571 F1800 ; Fill
G0 X121.1262 Y172.8749 F12000 ; Move
G1 X114.5448 Y179.4562 E0.40018 F1800 ; Fill
G0 X114.5448 Y180.1875 F12000 ; Move
G1 X121.8574 Y172.8749 E0.44464 F1800 ; Fill
G0 X122.5887 Y172.8749 F12000 ; Move
G1 X114.9207 Y180.5428 E0.46625 F1800 ; Fill
G0 X115.652 Y180.5428 F12000 ; Move
G1 X123.3199 Y172.8749 E0.46625 F1800 ; Fill
G0 X124.0512 Y172.8749 F12000 ; Move
G1 X116.3833 Y180.5428 E0.46625 F1800 ; Fill
G0 X117.1145 Y180.5428 F12000 ; Move
G1 X124.7825 Y172.8749 E0.46625 F1800 ; Fill
G0 X125.5137 Y172.8749 F12000 ; Move
G1 X117.8458 Y180.5428 E0.46625 F1800 ; Fill
G0 X118.5771 Y180.5428 F12000 ; Move
G1 X126.245 Y172.8749 E0.46625 F1800 ; Fill
G0 X126.9762 Y172.8749 F12000 ; Move
G1 X119.3083 Y180.5428 E0.46625 F1800 ; Fill
G0 X120.0396 Y180.5428 F12000 ; Move
G1 X127.7075 Y172.8749 E0.46625 F1800 ; Fill
G0 X128.4388 Y172.8749 F12000 ; Move
G1 X120.7708 Y180.5428 E0.46625 F1800 ; Fill
G0 X121.5021 Y180.5428 F12000 ; Move
G1 X129.17 Y172.8749 E0.46625 F1800 ; Fill
G0 X129.9013 Y172.8749 F12000 ; Move
G1 X122.2334 Y180.5428 E0.46625 F1800 ; Fill
G0 X122.9646 Y180.5428 F12000 ; Move
G1 X130.6326 Y172.8749 E0.46625 F1800 ; Fill
G0 X131.3638 Y172.8749 F12000 ; Move
G1 X123.6959 Y180.5428 E0.46625 F1800 ; Fill
G0 X124.4271 Y180.5428 F12000 ; Move
G1 X132.0951 Y172.8749 E0.46625 F1800 ; Fill
G0 X132.8263 Y172.8749 F12000 ; Move
G1 X125.1584 Y180.5428 E0.46625 F1800 ; Fill
G0 X125.8897 Y180.5428 F12000 ; Move
G1 X133.5576 Y172.8749 E0.46625 F1800 ; Fill
G0 X134.2889 Y172.8749 F12000 ; Move
G1 X126.6209 Y180.5428 E0.46625 F1800 ; Fill
G0 X127.3522 Y180.5428 F12000 ; Move
G1 X135.0201 Y172.8749 E0.46625 F1800 ; Fill
G0 X135.7514 Y172.8749 F12000 ; Move
G1 X128.0834 Y180.5428 E0.46625 F1800 ; Fill
G0 X128.8147 Y180.5428 F12000 ; Move
G1 X136.4826 Y172.8749 E0.46625 F1800 ; Fill
G0 X137.2139 Y172.8749 F12000 ; Move
G1 X129.546 Y180.5428 E0.46625 F1800 ; Fill
G0 X130.2772 Y180.5428 F12000 ; Move
G1 X137.9452 Y172.8749 E0.46625 F1800 ; Fill
G0 X138.6764 Y172.8749 F12000 ; Move
G1 X131.0085 Y180.5428 E0.46625 F1800 ; Fill
G0 X131.7398 Y180.5428 F12000 ; Move
G1 X139.4077 Y172.8749 E0.46625 F1800 ; Fill
G0 X140.1389 Y172.8749 F12000 ; Move
G1 X132.471 Y180.5428 E0.46625 F1800 ; Fill
G0 X133.2023 Y180.5428 F12000 ; Move
G1 X140.8702 Y172.8749 E0.46625 F1800 ; Fill
G0 X141.6015 Y172.8749 F12000 ; Move
G1 X133.9335 Y180.5428 E0.46625 F1800 ; Fill
G0 X134.6648 Y180.5428 F12000 ; Move
G1 X142.3327 Y172.8749 E0.46625 F1800 ; Fill
G0 X143.064 Y172.8749 F12000 ; Move
G1 X135.3961 Y180.5428 E0.46625 F1800 ; Fill
G0 X136.1273 Y180.5428 F12000 ; Move
G1 X143.7953 Y172.8749 E0.46625 F1800 ; Fill
G0 X144.5265 Y172.8749 F12000 ; Move
G1 X136.8586 Y180.5428 E0.46625 F1800 ; Fill
G0 X137.5898 Y180.5428 F12000 ; Move
G1 X145.2578 Y172.8749 E0.46625 F1800 ; Fill
G0 X145.989 Y172.8749 F12000 ; Move
G1 X138.3211 Y180.5428 E0.46625 F1800 ; Fill
G0 X139.0524 Y180.5428 F12000 ; Move
G1 X146.7203 Y172.8749 E0.46625 F1800 ; Fill
G0 X147.4516 Y172.8749 F12000 ; Move
G1 X139.7836 Y180.5428 E0.46625 F1800 ; Fill
G0 X140.5149 Y180.5428 F12000 ; Move
G1 X148.1828 Y172.8749 E0.46625 F1800 ; Fill
G0 X148.9141 Y172.8749 F12000 ; Move
G1 X141.2461 Y180.5428 E0.46625 F1800 ; Fill
G0 X141.9774 Y180.5428 F12000 ; Move
G1 X149.6453 Y172.8749 E0.46625 F1800 ; Fill
G0 X150.3766 Y172.8749 F12000 ; Move
G1 X142.7087 Y180.5428 E0.46625 F1800 ; Fill
G0 X143.4399 Y180.5428 F12000 ; Move
G1 X151.1079 Y172.8749 E0.46625 F1800 ; Fill
G0 X151.8391 Y172.8749 F12000 ; Move
G1 X144.1712 Y180.5428 E0.46625 F1800 ; Fill
G0 X144.9025 Y180.5428 F12000 ; Move
G1 X152.5704 Y172.8749 E0.46625 F1800 ; Fill
G0 X153.3016 Y172.8749 F12000 ; Move
G1 X145.6337 Y180.5428 E0.46625 F1800 ; Fill
G0 X146.365 Y180.5428 F12000 ; Move
G1 X154.0329 Y172.8749 E0.46625 F1800 ; Fill
G0 X154.7642 Y172.8749 F12000 ; Move
G1 X147.0962 Y180.5428 E0.46625 F1800 ; Fill
G0 X147.8275 Y180.5428 F12000 ; Move
G1 X155.4954 Y172.8749 E0.46625 F1800 ; Fill
G0 X156.2267 Y172.8749 F12000 ; Move
G1 X148.5588 Y180.5428 E0.46625 F1800 ; Fill
G0 X149.29 Y180.5428 F12000 ; Move
G1 X156.958 Y172.8749 E0.46625 F1800 ; Fill
G0 X157.6892 Y172.8749 F12000 ; Move
G1 X150.0213 Y180.5428 E0.46625 F1800 ; Fill
G0 X150.7525 Y180.5428 F12000 ; Move
G1 X158.4205 Y172.8749 E0.46625 F1800 ; Fill
G0 X159.1517 Y172.8749 F12000 ; Move
G1 X151.4838 Y180.5428 E0.46625 F1800 ; Fill
G0 X152.2151 Y180.5428 F12000 ; Move
G1 X159.883 Y172.8749 E0.46625 F1800 ; Fill
G0 X160.6143 Y172.8749 F12000 ; Move
G1 X152.9463 Y180.5428 E0.46625 F1800 ; Fill
G0 X153.6776 Y180.5428 F12000 ; Move
G1 X161.3455 Y172.8749 E0.46625 F1800 ; Fill
G0 X162.0768 Y172.8749 F12000 ; Move
G1 X154.4088 Y180.5428 E0.46625 F1800 ; Fill
G0 X155.1401 Y180.5428 F12000 ; Move
G1 X162.808 Y172.8749 E0.46625 F1800 ; Fill
G0 X163.5393 Y172.8749 F12000 ; Move
G1 X155.8714 Y180.5428 E0.46625 F1800 ; Fill
G0 X156.6026 Y180.5428 F12000 ; Move
G1 X164.2706 Y172.8749 E0.46625 F1800 ; Fill
G0 X165.0018 Y172.8749 F12000 ; Move
G1 X157.3339 Y180.5428 E0.46625 F1800 ; Fill
G0 X158.0651 Y180.5428 F12000 ; Move
G1 X165.7331 Y172.8749 E0.46625 F1800 ; Fill
G0 X166.4643 Y172.8749 F12000 ; Move
G1 X158.7964 Y180.5428 E0.46625 F1800 ; Fill
G0 X159.5277 Y180.5428 F12000 ; Move
G1 X167.1956 Y172.8749 E0.46625 F1800 ; Fill
G0 X167.9269 Y172.8749 F12000 ; Move
G1 X160.2589 Y180.5428 E0.46625 F1800 ; Fill
G0 X160.9902 Y180.5428 F12000 ; Move
G1 X168.6581 Y172.8749 E0.46625 F1800 ; Fill
G0 X169.3894 Y172.8749 F12000 ; Move
G1 X161.7215 Y180.5428 E0.46625 F1800 ; Fill
G0 X162.4527 Y180.5428 F12000 ; Move
G1 X170.1206 Y172.8749 E0.46625 F1800 ; Fill
G0 X170.8519 Y172.8749 F12000 ; Move
G1 X163.184 Y180.5428 E0.46625 F1800 ; Fill
G0 X163.9152 Y180.5428 F12000 ; Move
G1 X171.5832 Y172.8749 E0.46625 F1800 ; Fill
G0 X172.3144 Y172.8749 F12000 ; Move
G1 X164.6465 Y180.5428 E0.46625 F1800 ; Fill
G0 X165.3778 Y180.5428 F12000 ; Move
G1 X173.0457 Y172.8749 E0.46625 F1800 ; Fill
G0 X173.777 Y172.8749 F12000 ; Move
G1 X166.109 Y180.5428 E0.46625 F1800 ; Fill
G0 X166.8403 Y180.5428 F12000 ; Move
G1 X174.5082 Y172.8749 E0.46625 F1800 ; Fill
G0 X174.9501 Y173.1642 F12000 ; Move
G1 X167.5715 Y180.5428 E0.44865 F1800 ; Fill
G0 X168.3028 Y180.5428 F12000 ; Move
G1 X174.9501 Y173.8955 E0.40419 F1800 ; Fill
G0 X174.9501 Y174.6267 F12000 ; Move
G1 X169.0341 Y180.5428 E0.35972 F1800 ; Fill
G0 X169.7653 Y180.5428 F12000 ; Move
G1 X174.9501 Y175.358 E0.31526 F1800 ; Fill
G0 X174.9501 Y176.0892 F12000 ; Move
G1 X170.4966 Y180.5428 E0.2708 F1800 ; Fill
G0 X171.2278 Y180.5428 F12000 ; Move
G1 X174.9501 Y176.8205 E0.22633 F1800 ; Fill
G0 X174.9501 Y177.5518 F12000 ; Move
G1 X171.9591 Y180.5428 E0.18187 F1800 ; Fill
G0 X172.6904 Y180.5428 F12000 ; Move
G1 X174.9501 Y178.283 E0.1374 F1800 ; Fill
G0 X174.9501 Y179.0143 F12000 ; Move
G1 X173.4216 Y180.5428 E0.09294 F1800 ; Fill
G0 X174.1529 Y180.5428 F12000 ; Move
G1 X174.9501 Y179.7455 E0.04848 F1800 ; Fill
G0 X174.9501 Y180.4768 F12000 ; Move
G1 X174.8842 Y180.5428 E0.00401 F1800 ; Fill
G0 Z0.2 F12000 ; Move to layer height
G1 E-1 F3000 ; Retract
G1 Z0.3 F12000 ; Z hop
G0 X117.2491 Y129.9314 F12000 ; Move to pattern start

G1 Z0.2 F12000 ; Z hop return
G1 E1 F1800 ; Un-retract
SET_PRESSURE_ADVANCE ADVANCE=0 ; Set pressure advance
M117 PA 0
G1 X136.5377 Y149.22 E0.92334 F1800 ; Print pattern wall
G1 X117.2491 Y168.5086 E0.92334 F1800 ; Print pattern wall
G1 E-1 F3000 ; Retract
G1 Z0.3 F12000 ; Z hop
G0 X117.8248 Y129.9314 F12000 ; Move to start next pattern wall
G1 Z0.2 F12000 ; Z hop return
G1 E1 F1800 ; Un-retract
G1 X137.1134 Y149.22 E0.92334 F1800 ; Print pattern wall
G1 X117.8248 Y168.5086 E0.92334 F1800 ; Print pattern wall
G1 E-1 F3000 ; Retract
G1 Z0.3 F12000 ; Z hop
G0 X118.4005 Y129.9314 F12000 ; Move to start next pattern wall
G1 Z0.2 F12000 ; Z hop return
G1 E1 F1800 ; Un-retract
G1 X137.6891 Y149.22 E0.92334 F1800 ; Print pattern wall
G1 X118.4005 Y168.5086 E0.92334 F1800 ; Print pattern wall
G1 E-1 F3000 ; Retract
G1 Z0.3 F12000 ; Z hop
G0 X120.8505 Y129.9314 F12000 ; Move to next pattern
G1 Z0.2 F12000 ; Z hop return
G1 E1 F1800 ; Un-retract
SET_PRESSURE_ADVANCE ADVANCE=0.005 ; Set pressure advance
M117 PA 0.005
G1 X140.1391 Y149.22 E0.92334 F1800 ; Print pattern wall
G1 X120.8505 Y168.5086 E0.92334 F1800 ; Print pattern wall
G1 E-1 F3000 ; Retract
G1 Z0.3 F12000 ; Z hop
G0 X121.4262 Y129.9314 F12000 ; Move to start next pattern wall
G1 Z0.2 F12000 ; Z hop return
G1 E1 F1800 ; Un-retract
G1 X140.7148 Y149.22 E0.92334 F1800 ; Print pattern wall
G1 X121.4262 Y168.5086 E0.92334 F1800 ; Print pattern wall
G1 E-1 F3000 ; Retract
G1 Z0.3 F12000 ; Z hop
G0 X122.0019 Y129.9314 F12000 ; Move to start next pattern wall
G1 Z0.2 F12000 ; Z hop return
G1 E1 F1800 ; Un-retract
G1 X141.2905 Y149.22 E0.92334 F1800 ; Print pattern wall
G1 X122.0019 Y168.5086 E0.92334 F1800 ; Print pattern wall
G1 E-1 F3000 ; Retract
G1 Z0.3 F12000 ; Z hop
G0 X124.4519 Y129.9314 F12000 ; Move to next pattern
G1 Z0.2 F12000 ; Z hop return
G1 E1 F1800 ; Un-retract
SET_PRESSURE_ADVANCE ADVANCE=0.01 ; Set pressure advance
M117 PA 0.01
G1 X143.7405 Y149.22 E0.92334 F1800 ; Print pattern wall
G1 X124.4519 Y168.5086 E0.92334 F1800 ; Print pattern wall
G1 E-1 F3000 ; Retract
G1 Z0.3 F12000 ; Z hop
G0 X125.0276 Y129.9314 F12000 ; Move to start next pattern wall
G1 Z0.2 F12000 ; Z hop return
G1 E1 F1800 ; Un-retract
G1 X144.3162 Y149.22 E0.92334 F1800 ; Print pattern wall
G1 X125.0276 Y168.5086 E0.92334 F1800 ; Print pattern wall
G1 E-1 F3000 ; Retract
G1 Z0.3 F12000 ; Z hop
G0 X125.6033 Y129.9314 F12000 ; Move to start next pattern wall
G1 Z0.2 F12000 ; Z hop return
G1 E1 F1800 ; Un-retract
G1 X144.8919 Y149.22 E0.92334 F1800 ; Print pattern wall
G1 X125.6033 Y168.5086 E0.92334 F1800 ; Print pattern wall
G1 E-1 F3000 ; Retract
G1 Z0.3 F12000 ; Z hop
G0 X128.0533 Y129.9314 F12000 ; Move to next pattern
G1 Z0.2 F12000 ; Z hop return
G1 E1 F1800 ; Un-retract
SET_PRESSURE_ADVANCE ADVANCE=0.015 ; Set pressure advance
M117 PA 0.015
G1 X147.3419 Y149.22 E0.92334 F1800 ; Print pattern wall
G1 X128.0533 Y168.5086 E0.92334 F1800 ; Print pattern wall
G1 E-1 F3000 ; Retract
G1 Z0.3 F12000 ; Z hop
G0 X128.629 Y129.9314 F12000 ; Move to start next pattern wall
G1 Z0.2 F12000 ; Z hop return
G1 E1 F1800 ; Un-retract
G1 X147.9176 Y149.22 E0.92334 F1800 ; Print pattern wall
G1 X128.629 Y168.5086 E0.92334 F1800 ; Print pattern wall
G1 E-1 F3000 ; Retract
G1 Z0.3 F12000 ; Z hop
G0 X129.2047 Y129.9314 F12000 ; Move to start next pattern wall
G1 Z0.2 F12000 ; Z hop return
G1 E1 F1800 ; Un-retract
G1 X148.4933 Y149.22 E0.92334 F1800 ; Print pattern wall
G1 X129.2047 Y168.5086 E0.92334 F1800 ; Print pattern wall
G1 E-1 F3000 ; Retract
G1 Z0.3 F12000 ; Z hop
G0 X131.6547 Y129.9314 F12000 ; Move to next pattern
G1 Z0.2 F12000 ; Z hop return
G1 E1 F1800 ; Un-retract
SET_PRESSURE_ADVANCE ADVANCE=0.02 ; Set pressure advance
M117 PA 0.02
G1 X150.9433 Y149.22 E0.92334 F1800 ; Print pattern wall
G1 X131.6547 Y168.5086 E0.92334 F1800 ; Print pattern wall
G1 E-1 F3000 ; Retract
G1 Z0.3 F12000 ; Z hop
G0 X132.2304 Y129.9314 F12000 ; Move to start next pattern wall
G1 Z0.2 F12000 ; Z hop return
G1 E1 F1800 ; Un-retract
G1 X151.519 Y149.22 E0.92334 F1800 ; Print pattern wall
G1 X132.2304 Y168.5086 E0.92334 F1800 ; Print pattern wall
G1 E-1 F3000 ; Retract
G1 Z0.3 F12000 ; Z hop
G0 X132.8061 Y129.9314 F12000 ; Move to start next pattern wall
G1 Z0.2 F12000 ; Z hop return
G1 E1 F1800 ; Un-retract
G1 X152.0947 Y149.22 E0.92334 F1800 ; Print pattern wall
G1 X132.8061 Y168.5086 E0.92334 F1800 ; Print pattern wall
G1 E-1 F3000 ; Retract
G1 Z0.3 F12000 ; Z hop
G0 X135.2561 Y129.9314 F12000 ; Move to next pattern
G1 Z0.2 F12000 ; Z hop return
G1 E1 F1800 ; Un-retract
SET_PRESSURE_ADVANCE ADVANCE=0.025 ; Set pressure advance
M117 PA 0.025
G1 X154.5447 Y149.22 E0.92334 F1800 ; Print pattern wall
G1 X135.2561 Y168.5086 E0.92334 F1800 ; Print pattern wall
G1 E-1 F3000 ; Retract
G1 Z0.3 F12000 ; Z hop
G0 X135.8318 Y129.9314 F12000 ; Move to start next pattern wall
G1 Z0.2 F12000 ; Z hop return
G1 E1 F1800 ; Un-retract
G1 X155.1204 Y149.22 E0.92334 F1800 ; Print pattern wall
G1 X135.8318 Y168.5086 E0.92334 F1800 ; Print pattern wall
G1 E-1 F3000 ; Retract
G1 Z0.3 F12000 ; Z hop
G0 X136.4075 Y129.9314 F12000 ; Move to start next pattern wall
G1 Z0.2 F12000 ; Z hop return
G1 E1 F1800 ; Un-retract
G1 X155.6961 Y149.22 E0.92334 F1800 ; Print pattern wall
G1 X136.4075 Y168.5086 E0.92334 F1800 ; Print pattern wall
G1 E-1 F3000 ; Retract
G1 Z0.3 F12000 ; Z hop
G0 X138.8575 Y129.9314 F12000 ; Move to next pattern
G1 Z0.2 F12000 ; Z hop return
G1 E1 F1800 ; Un-retract
SET_PRESSURE_ADVANCE ADVANCE=0.03 ; Set pressure advance
M117 PA 0.03
G1 X158.1461 Y149.22 E0.92334 F1800 ; Print pattern wall
G1 X138.8575 Y168.5086 E0.92334 F1800 ; Print pattern wall
G1 E-1 F3000 ; Retract
G1 Z0.3 F12000 ; Z hop
G0 X139.4332 Y129.9314 F12000 ; Move to start next pattern wall
G1 Z0.2 F12000 ; Z hop return
G1 E1 F1800 ; Un-retract
G1 X158.7218 Y149.22 E0.92334 F1800 ; Print pattern wall
G1 X139.4332 Y168.5086 E0.92334 F1800 ; Print pattern wall
G1 E-1 F3000 ; Retract
G1 Z0.3 F12000 ; Z hop
G0 X140.0089 Y129.9314 F12000 ; Move to start next pattern wall
G1 Z0.2 F12000 ; Z hop return
G1 E1 F1800 ; Un-retract
G1 X159.2975 Y149.22 E0.92334 F1800 ; Print pattern wall
G1 X140.0089 Y168.5086 E0.92334 F1800 ; Print pattern wall
G1 E-1 F3000 ; Retract
G1 Z0.3 F12000 ; Z hop
G0 X142.4589 Y129.9314 F12000 ; Move to next pattern
G1 Z0.2 F12000 ; Z hop return
G1 E1 F1800 ; Un-retract
SET_PRESSURE_ADVANCE ADVANCE=0.035 ; Set pressure advance
M117 PA 0.035
G1 X161.7475 Y149.22 E0.92334 F1800 ; Print pattern wall
G1 X142.4589 Y168.5086 E0.92334 F1800 ; Print pattern wall
G1 E-1 F3000 ; Retract
G1 Z0.3 F12000 ; Z hop
G0 X143.0346 Y129.9314 F12000 ; Move to start next pattern wall
G1 Z0.2 F12000 ; Z hop return
G1 E1 F1800 ; Un-retract
G1 X162.3232 Y149.22 E0.92334 F1800 ; Print pattern wall
G1 X143.0346 Y168.5086 E0.92334 F1800 ; Print pattern wall
G1 E-1 F3000 ; Retract
G1 Z0.3 F12000 ; Z hop
G0 X143.6103 Y129.9314 F12000 ; Move to start next pattern wall
G1 Z0.2 F12000 ; Z hop return
G1 E1 F1800 ; Un-retract
G1 X162.8989 Y149.22 E0.92334 F1800 ; Print pattern wall
G1 X143.6103 Y168.5086 E0.92334 F1800 ; Print pattern wall
G1 E-1 F3000 ; Retract
G1 Z0.3 F12000 ; Z hop
G0 X146.0603 Y129.9314 F12000 ; Move to next pattern
G1 Z0.2 F12000 ; Z hop return
G1 E1 F1800 ; Un-retract
SET_PRESSURE_ADVANCE ADVANCE=0.04 ; Set pressure advance
M117 PA 0.04
G1 X165.3489 Y149.22 E0.92334 F1800 ; Print pattern wall
G1 X146.0603 Y168.5086 E0.92334 F1800 ; Print pattern wall
G1 E-1 F3000 ; Retract
G1 Z0.3 F12000 ; Z hop
G0 X146.636 Y129.9314 F12000 ; Move to start next pattern wall
G1 Z0.2 F12000 ; Z hop return
G1 E1 F1800 ; Un-retract
G1 X165.9246 Y149.22 E0.92334 F1800 ; Print pattern wall
G1 X146.636 Y168.5086 E0.92334 F1800 ; Print pattern wall
G1 E-1 F3000 ; Retract
G1 Z0.3 F12000 ; Z hop
G0 X147.2117 Y129.9314 F12000 ; Move to start next pattern wall
G1 Z0.2 F12000 ; Z hop return
G1 E1 F1800 ; Un-retract
G1 X166.5003 Y149.22 E0.92334 F1800 ; Print pattern wall
G1 X147.2117 Y168.5086 E0.92334 F1800 ; Print pattern wall
G1 E-1 F3000 ; Retract
G1 Z0.3 F12000 ; Z hop
G0 X149.6617 Y129.9314 F12000 ; Move to next pattern
G1 Z0.2 F12000 ; Z hop return
G1 E1 F1800 ; Un-retract
SET_PRESSURE_ADVANCE ADVANCE=0.045 ; Set pressure advance
M117 PA 0.045
G1 X168.9503 Y149.22 E0.92334 F1800 ; Print pattern wall
G1 X149.6617 Y168.5086 E0.92334 F1800 ; Print pattern wall
G1 E-1 F3000 ; Retract
G1 Z0.3 F12000 ; Z hop
G0 X150.2374 Y129.9314 F12000 ; Move to start next pattern wall
G1 Z0.2 F12000 ; Z hop return
G1 E1 F1800 ; Un-retract
G1 X169.526 Y149.22 E0.92334 F1800 ; Print pattern wall
G1 X150.2374 Y168.5086 E0.92334 F1800 ; Print pattern wall
G1 E-1 F3000 ; Retract
G1 Z0.3 F12000 ; Z hop
G0 X150.8131 Y129.9314 F12000 ; Move to start next pattern wall
G1 Z0.2 F12000 ; Z hop return
G1 E1 F1800 ; Un-retract
G1 X170.1017 Y149.22 E0.92334 F1800 ; Print pattern wall
G1 X150.8131 Y168.5086 E0.92334 F1800 ; Print pattern wall
G1 E-1 F3000 ; Retract
G1 Z0.3 F12000 ; Z hop
G0 X153.2631 Y129.9314 F12000 ; Move to next pattern
G1 Z0.2 F12000 ; Z hop return
G1 E1 F1800 ; Un-retract
SET_PRESSURE_ADVANCE ADVANCE=0.05 ; Set pressure advance
M117 PA 0.05
G1 X172.5517 Y149.22 E0.92334 F1800 ; Print pattern wall
G1 X153.2631 Y168.5086 E0.92334 F1800 ; Print pattern wall
G1 E-1 F3000 ; Retract
G1 Z0.3 F12000 ; Z hop
G0 X153.8388 Y129.9314 F12000 ; Move to start next pattern wall
G1 Z0.2 F12000 ; Z hop return
G1 E1 F1800 ; Un-retract
G1 X173.1274 Y149.22 E0.92334 F1800 ; Print pattern wall
G1 X153.8388 Y168.5086 E0.92334 F1800 ; Print pattern wall
G1 E-1 F3000 ; Retract
G1 Z0.3 F12000 ; Z hop
G0 X154.4145 Y129.9314 F12000 ; Move to start next pattern wall
G1 Z0.2 F12000 ; Z hop return
G1 E1 F1800 ; Un-retract
G1 X173.7031 Y149.22 E0.92334 F1800 ; Print pattern wall
G1 X154.4145 Y168.5086 E0.92334 F1800 ; Print pattern wall
G1 E-1 F3000 ; Retract
G1 Z0.3 F12000 ; Z hop
G0 X156.8645 Y129.9314 F12000 ; Move to next pattern
G1 Z0.2 F12000 ; Z hop return
G1 E1 F1800 ; Un-retract
SET_PRESSURE_ADVANCE ADVANCE=0.055 ; Set pressure advance
M117 PA 0.055
G1 X176.1531 Y149.22 E0.92334 F1800 ; Print pattern wall
G1 X156.8645 Y168.5086 E0.92334 F1800 ; Print pattern wall
G1 E-1 F3000 ; Retract
G1 Z0.3 F12000 ; Z hop
G0 X157.4402 Y129.9314 F12000 ; Move to start next pattern wall
G1 Z0.2 F12000 ; Z hop return
G1 E1 F1800 ; Un-retract
G1 X176.7288 Y149.22 E0.92334 F1800 ; Print pattern wall
G1 X157.4402 Y168.5086 E0.92334 F1800 ; Print pattern wall
G1 E-1 F3000 ; Retract
G1 Z0.3 F12000 ; Z hop
G0 X158.0159 Y129.9314 F12000 ; Move to start next pattern wall
G1 Z0.2 F12000 ; Z hop return
G1 E1 F1800 ; Un-retract
G1 X177.3045 Y149.22 E0.92334 F1800 ; Print pattern wall
G1 X158.0159 Y168.5086 E0.92334 F1800 ; Print pattern wall
G1 E-1 F3000 ; Retract
G1 Z0.3 F12000 ; Z hop
G0 X160.4659 Y129.9314 F12000 ; Move to next pattern
G1 Z0.2 F12000 ; Z hop return
G1 E1 F1800 ; Un-retract
SET_PRESSURE_ADVANCE ADVANCE=0.06 ; Set pressure advance
M117 PA 0.06
G1 X179.7545 Y149.22 E0.92334 F1800 ; Print pattern wall
G1 X160.4659 Y168.5086 E0.92334 F1800 ; Print pattern wall
G1 E-1 F3000 ; Retract
G1 Z0.3 F12000 ; Z hop
G0 X161.0416 Y129.9314 F12000 ; Move to start next pattern wall
G1 Z0.2 F12000 ; Z hop return
G1 E1 F1800 ; Un-retract
G1 X180.3302 Y149.22 E0.92334 F1800 ; Print pattern wall
G1 X161.0416 Y168.5086 E0.92334 F1800 ; Print pattern wall
G1 E-1 F3000 ; Retract
G1 Z0.3 F12000 ; Z hop
G0 X161.6173 Y129.9314 F12000 ; Move to start next pattern wall
G1 Z0.2 F12000 ; Z hop return
G1 E1 F1800 ; Un-retract
G1 X180.9059 Y149.22 E0.92334 F1800 ; Print pattern wall
G1 X161.6173 Y168.5086 E0.92334 F1800 ; Print pattern wall
G1 E-1 F3000 ; Retract
G1 Z0.3 F12000 ; Z hop
G0 X164.0673 Y129.9314 F12000 ; Move to next pattern
G1 Z0.2 F12000 ; Z hop return
G1 E1 F1800 ; Un-retract
SET_PRESSURE_ADVANCE ADVANCE=0.065 ; Set pressure advance
M117 PA 0.065
G1 X183.3559 Y149.22 E0.92334 F1800 ; Print pattern wall
G1 X164.0673 Y168.5086 E0.92334 F1800 ; Print pattern wall
G1 E-1 F3000 ; Retract
G1 Z0.3 F12000 ; Z hop
G0 X164.6429 Y129.9314 F12000 ; Move to start next pattern wall
G1 Z0.2 F12000 ; Z hop return
G1 E1 F1800 ; Un-retract
G1 X183.9316 Y149.22 E0.92334 F1800 ; Print pattern wall
G1 X164.6429 Y168.5086 E0.92334 F1800 ; Print pattern wall
G1 E-1 F3000 ; Retract
G1 Z0.3 F12000 ; Z hop
G0 X165.2186 Y129.9314 F12000 ; Move to start next pattern wall
G1 Z0.2 F12000 ; Z hop return
G1 E1 F1800 ; Un-retract
G1 X184.5073 Y149.22 E0.92334 F1800 ; Print pattern wall
G1 X165.2186 Y168.5086 E0.92334 F1800 ; Print pattern wall
G1 E-1 F3000 ; Retract
G1 Z0.3 F12000 ; Z hop
G0 X167.6686 Y129.9314 F12000 ; Move to next pattern
G1 Z0.2 F12000 ; Z hop return
G1 E1 F1800 ; Un-retract
SET_PRESSURE_ADVANCE ADVANCE=0.07 ; Set pressure advance
M117 PA 0.07
G1 X186.9573 Y149.22 E0.92334 F1800 ; Print pattern wall
G1 X167.6686 Y168.5086 E0.92334 F1800 ; Print pattern wall
G1 E-1 F3000 ; Retract
G1 Z0.3 F12000 ; Z hop
G0 X168.2443 Y129.9314 F12000 ; Move to start next pattern wall
G1 Z0.2 F12000 ; Z hop return
G1 E1 F1800 ; Un-retract
G1 X187.533 Y149.22 E0.92334 F1800 ; Print pattern wall
G1 X168.2443 Y168.5086 E0.92334 F1800 ; Print pattern wall
G1 E-1 F3000 ; Retract
G1 Z0.3 F12000 ; Z hop
G0 X168.82 Y129.9314 F12000 ; Move to start next pattern wall
G1 Z0.2 F12000 ; Z hop return
G1 E1 F1800 ; Un-retract
G1 X188.1087 Y149.22 E0.92334 F1800 ; Print pattern wall
G1 X168.82 Y168.5086 E0.92334 F1800 ; Print pattern wall
G1 E-1 F3000 ; Retract
G1 Z0.3 F12000 ; Z hop
G0 X171.27 Y129.9314 F12000 ; Move to next pattern
G1 Z0.2 F12000 ; Z hop return
G1 E1 F1800 ; Un-retract
SET_PRESSURE_ADVANCE ADVANCE=0.075 ; Set pressure advance
M117 PA 0.075
G1 X190.5587 Y149.22 E0.92334 F1800 ; Print pattern wall
G1 X171.27 Y168.5086 E0.92334 F1800 ; Print pattern wall
G1 E-1 F3000 ; Retract
G1 Z0.3 F12000 ; Z hop
G0 X171.8457 Y129.9314 F12000 ; Move to start next pattern wall
G1 Z0.2 F12000 ; Z hop return
G1 E1 F1800 ; Un-retract
G1 X191.1344 Y149.22 E0.92334 F1800 ; Print pattern wall
G1 X171.8457 Y168.5086 E0.92334 F1800 ; Print pattern wall
G1 E-1 F3000 ; Retract
G1 Z0.3 F12000 ; Z hop
G0 X172.4214 Y129.9314 F12000 ; Move to start next pattern wall
G1 Z0.2 F12000 ; Z hop return
G1 E1 F1800 ; Un-retract
G1 X191.7101 Y149.22 E0.92334 F1800 ; Print pattern wall
G1 X172.4214 Y168.5086 E0.92334 F1800 ; Print pattern wall
G1 E-1 F3000 ; Retract
G1 Z0.3 F12000 ; Z hop
G0 X174.8714 Y129.9314 F12000 ; Move to next pattern
G1 Z0.2 F12000 ; Z hop return
G1 E1 F1800 ; Un-retract
SET_PRESSURE_ADVANCE ADVANCE=0.08 ; Set pressure advance
M117 PA 0.08
G1 X194.1601 Y149.22 E0.92334 F1800 ; Print pattern wall
G1 X174.8714 Y168.5086 E0.92334 F1800 ; Print pattern wall
G1 E-1 F3000 ; Retract
G1 Z0.3 F12000 ; Z hop
G0 X175.4471 Y129.9314 F12000 ; Move to start next pattern wall
G1 Z0.2 F12000 ; Z hop return
G1 E1 F1800 ; Un-retract
G1 X194.7358 Y149.22 E0.92334 F1800 ; Print pattern wall
G1 X175.4471 Y168.5086 E0.92334 F1800 ; Print pattern wall
G1 E-1 F3000 ; Retract
G1 Z0.3 F12000 ; Z hop
G0 X176.0228 Y129.9314 F12000 ; Move to start next pattern wall
G1 Z0.2 F12000 ; Z hop return
G1 E1 F1800 ; Un-retract
G1 X195.3115 Y149.22 E0.92334 F1800 ; Print pattern wall
G1 X176.0228 Y168.5086 E0.92334 F1800 ; Print pattern wall
G1 E-1 F3000 ; Retract
G1 Z0.3 F12000 ; Z hop
G0 X117.2491 Y129.9314 F12000 ; Move back to start position
G1 Z0.2 F12000 ; Z hop return
G1 E1 F1800 ; Un-retract
M106 S255 ; Set fan speed
G0 Z0.4 F12000 ; Move to layer height
G1 E-1 F3000 ; Retract
G1 Z0.5 F12000 ; Z hop
G0 X113.9002 Y171.8832 F12000 ; Move
G1 Z0.4 F12000 ; Z hop return
G1 E1 F1800 ; Un-retract
G1 X115.9002 Y171.8832 E0.0677 F1800 ; Glyph: 0
G1 X117.9002 Y171.8832 E0.0677 F1800 ; Glyph: 0
G1 X117.9002 Y173.8832 E0.0677 F1800 ; Glyph: 0
G1 X115.9002 Y173.8832 E0.0677 F1800 ; Glyph: 0
G1 X113.9002 Y173.8832 E0.0677 F1800 ; Glyph: 0
G1 X113.9002 Y171.8832 E0.0677 F1800 ; Glyph: 0
G1 E-1 F3000 ; Retract
G1 Z0.5 F12000 ; Z hop
G0 X121.103 Y171.8832 F12000 ; Move
G1 Z0.4 F12000 ; Z hop return
G1 E1 F1800 ; Un-retract
G1 X123.103 Y171.8832 E0.0677 F1800 ; Glyph: 0
G1 X125.103 Y171.8832 E0.0677 F1800 ; Glyph: 0
G1 X125.103 Y173.8832 E0.0677 F1800 ; Glyph: 0
G1 X123.103 Y173.8832 E0.0677 F1800 ; Glyph: 0
G1 X121.103 Y173.8832 E0.0677 F1800 ; Glyph: 0
G1 X121.103 Y171.8832 E0.0677 F1800 ; Glyph: 0
G1 E-1 F3000 ; Retract
G1 Z0.5 F12000 ; Z hop
G0 X125.103 Y174.8832 F12000 ; Move
G1 Z0.4 F12000 ; Z hop return
G1 E1 F1800 ; Un-retract
G1 X124.353 Y174.8832 E0.02539 F1800 ; Glyph: .
G1 E-1 F3000 ; Retract
G1 Z0.5 F12000 ; Z hop
G0 X121.103 Y175.8832 F12000 ; Move
G1 Z0.4 F12000 ; Z hop return
G1 E1 F1800 ; Un-retract
G1 X123.103 Y175.8832 E0.0677 F1800 ; Glyph: 0
G1 X125.103 Y175.8832 E0.0677 F1800 ; Glyph: 0
G1 X125.103 Y177.8832 E0.0677 F1800 ; Glyph: 0
G1 X123.103 Y177.8832 E0.0677 F1800 ; Glyph: 0
G1 X121.103 Y177.8832 E0.0677 F1800 ; Glyph: 0
G1 X121.103 Y175.8832 E0.0677 F1800 ; Glyph: 0
G1 E-1 F3000 ; Retract
G1 Z0.5 F12000 ; Z hop
G0 X121.103 Y178.8832 F12000 ; Move
G1 Z0.4 F12000 ; Z hop return
G1 E1 F1800 ; Un-retract
G1 X123.103 Y178.8832 E0.0677 F1800 ; Glyph: 1
G1 X125.103 Y178.8832 E0.0677 F1800 ; Glyph: 1
G1 E-1 F3000 ; Retract
G1 Z0.5 F12000 ; Z hop
G0 X128.3058 Y171.8832 F12000 ; Move
G1 Z0.4 F12000 ; Z hop return
G1 E1 F1800 ; Un-retract
G1 X130.3058 Y171.8832 E0.0677 F1800 ; Glyph: 0
G1 X132.3058 Y171.8832 E0.0677 F1800 ; Glyph: 0
G1 X132.3058 Y173.8832 E0.0677 F1800 ; Glyph: 0
G1 X130.3058 Y173.8832 E0.0677 F1800 ; Glyph: 0
G1 X128.3058 Y173.8832 E0.0677 F1800 ; Glyph: 0
G1 X128.3058 Y171.8832 E0.0677 F1800 ; Glyph: 0
G1 E-1 F3000 ; Retract
G1 Z0.5 F12000 ; Z hop
G0 X132.3058 Y174.8832 F12000 ; Move
G1 Z0.4 F12000 ; Z hop return
G1 E1 F1800 ; Un-retract
G1 X131.5558 Y174.8832 E0.02539 F1800 ; Glyph: .
G1 E-1 F3000 ; Retract
G1 Z0.5 F12000 ; Z hop
G0 X128.3058 Y175.8832 F12000 ; Move
G1 Z0.4 F12000 ; Z hop return
G1 E1 F1800 ; Un-retract
G1 X130.3058 Y175.8832 E0.0677 F1800 ; Glyph: 0
G1 X132.3058 Y175.8832 E0.0677 F1800 ; Glyph: 0
G1 X132.3058 Y177.8832 E0.0677 F1800 ; Glyph: 0
G1 X130.3058 Y177.8832 E0.0677 F1800 ; Glyph: 0
G1 X128.3058 Y177.8832 E0.0677 F1800 ; Glyph: 0
G1 X128.3058 Y175.8832 E0.0677 F1800 ; Glyph: 0
G1 E-1 F3000 ; Retract
G1 Z0.5 F12000 ; Z hop
G0 X128.3058 Y178.8832 F12000 ; Move
G1 Z0.4 F12000 ; Z hop return
G1 E1 F1800 ; Un-retract
G1 X128.3058 Y180.8832 E0.0677 F1800 ; Glyph: 2
G1 X130.3058 Y180.8832 E0.0677 F1800 ; Glyph: 2
G1 X130.3058 Y178.8832 E0.0677 F1800 ; Glyph: 2
G1 X132.3058 Y178.8832 E0.0677 F1800 ; Glyph: 2
G1 X132.3058 Y180.8832 E0.0677 F1800 ; Glyph: 2
G1 E-1 F3000 ; Retract
G1 Z0.5 F12000 ; Z hop
G0 X135.5086 Y171.8832 F12000 ; Move
G1 Z0.4 F12000 ; Z hop return
G1 E1 F1800 ; Un-retract
G1 X137.5086 Y171.8832 E0.0677 F1800 ; Glyph: 0
G1 X139.5086 Y171.8832 E0.0677 F1800 ; Glyph: 0
G1 X139.5086 Y173.8832 E0.0677 F1800 ; Glyph: 0
G1 X137.5086 Y173.8832 E0.0677 F1800 ; Glyph: 0
G1 X135.5086 Y173.8832 E0.0677 F1800 ; Glyph: 0
G1 X135.5086 Y171.8832 E0.0677 F1800 ; Glyph: 0
G1 E-1 F3000 ; Retract
G1 Z0.5 F12000 ; Z hop
G0 X139.5086 Y174.8832 F12000 ; Move
G1 Z0.4 F12000 ; Z hop return
G1 E1 F1800 ; Un-retract
G1 X138.7586 Y174.8832 E0.02539 F1800 ; Glyph: .
G1 E-1 F3000 ; Retract
G1 Z0.5 F12000 ; Z hop
G0 X135.5086 Y175.8832 F12000 ; Move
G1 Z0.4 F12000 ; Z hop return
G1 E1 F1800 ; Un-retract
G1 X137.5086 Y175.8832 E0.0677 F1800 ; Glyph: 0
G1 X139.5086 Y175.8832 E0.0677 F1800 ; Glyph: 0
G1 X139.5086 Y177.8832 E0.0677 F1800 ; Glyph: 0
G1 X137.5086 Y177.8832 E0.0677 F1800 ; Glyph: 0
G1 X135.5086 Y177.8832 E0.0677 F1800 ; Glyph: 0
G1 X135.5086 Y175.8832 E0.0677 F1800 ; Glyph: 0
G1 E-1 F3000 ; Retract
G1 Z0.5 F12000 ; Z hop
G0 X135.5086 Y178.8832 F12000 ; Move
G1 Z0.4 F12000 ; Z hop return
G1 E1 F1800 ; Un-retract
G1 X135.5086 Y180.8832 E0.0677 F1800 ; Glyph: 3
G1 X137.5086 Y180.8832 E0.0677 F1800 ; Glyph: 3
G1 X137.5086 Y178.8832 E0.0677 F1800 ; Glyph: 3
G0 X137.5086 Y180.8832 F12000 ; Move
G1 X139.5086 Y180.8832 E0.0677 F1800 ; Glyph: 3
G1 X139.5086 Y178.8832 E0.0677 F1800 ; Glyph: 3
G1 E-1 F3000 ; Retract
G1 Z0.5 F12000 ; Z hop
G0 X142.7114 Y171.8832 F12000 ; Move
G1 Z0.4 F12000 ; Z hop return
G1 E1 F1800 ; Un-retract
G1 X144.7114 Y171.8832 E0.0677 F1800 ; Glyph: 0
G1 X146.7114 Y171.8832 E0.0677 F1800 ; Glyph: 0
G1 X146.7114 Y173.8832 E0.0677 F1800 ; Glyph: 0
G1 X144.7114 Y173.8832 E0.0677 F1800 ; Glyph: 0
G1 X142.7114 Y173.8832 E0.0677 F1800 ; Glyph: 0
G1 X142.7114 Y171.8832 E0.0677 F1800 ; Glyph: 0
G1 E-1 F3000 ; Retract
G1 Z0.5 F12000 ; Z hop
G0 X146.7114 Y174.8832 F12000 ; Move
G1 Z0.4 F12000 ; Z hop return
G1 E1 F1800 ; Un-retract
G1 X145.9614 Y174.8832 E0.02539 F1800 ; Glyph: .
G1 E-1 F3000 ; Retract
G1 Z0.5 F12000 ; Z hop
G0 X142.7114 Y175.8832 F12000 ; Move
G1 Z0.4 F12000 ; Z hop return
G1 E1 F1800 ; Un-retract
G1 X144.7114 Y175.8832 E0.0677 F1800 ; Glyph: 0
G1 X146.7114 Y175.8832 E0.0677 F1800 ; Glyph: 0
G1 X146.7114 Y177.8832 E0.0677 F1800 ; Glyph: 0
G1 X144.7114 Y177.8832 E0.0677 F1800 ; Glyph: 0
G1 X142.7114 Y177.8832 E0.0677 F1800 ; Glyph: 0
G1 X142.7114 Y175.8832 E0.0677 F1800 ; Glyph: 0
G1 E-1 F3000 ; Retract
G1 Z0.5 F12000 ; Z hop
G0 X142.7114 Y180.8832 F12000 ; Move
G1 Z0.4 F12000 ; Z hop return
G1 E1 F1800 ; Un-retract
G1 X144.7114 Y180.8832 E0.0677 F1800 ; Glyph: 4
G1 X146.7114 Y180.8832 E0.0677 F1800 ; Glyph: 4
G0 X144.7114 Y180.8832 F12000 ; Move
G1 X144.7114 Y178.8832 E0.0677 F1800 ; Glyph: 4
G1 X142.7114 Y178.8832 E0.0677 F1800 ; Glyph: 4
G1 E-1 F3000 ; Retract
G1 Z0.5 F12000 ; Z hop
G0 X149.9142 Y171.8832 F12000 ; Move
G1 Z0.4 F12000 ; Z hop return
G1 E1 F1800 ; Un-retract
G1 X151.9142 Y171.8832 E0.0677 F1800 ; Glyph: 0
G1 X153.9142 Y171.8832 E0.0677 F1800 ; Glyph: 0
G1 X153.9142 Y173.8832 E0.0677 F1800 ; Glyph: 0
G1 X151.9142 Y173.8832 E0.0677 F1800 ; Glyph: 0
G1 X149.9142 Y173.8832 E0.0677 F1800 ; Glyph: 0
G1 X149.9142 Y171.8832 E0.0677 F1800 ; Glyph: 0
G1 E-1 F3000 ; Retract
G1 Z0.5 F12000 ; Z hop
G0 X153.9142 Y174.8832 F12000 ; Move
G1 Z0.4 F12000 ; Z hop return
G1 E1 F1800 ; Un-retract
G1 X153.1642 Y174.8832 E0.02539 F1800 ; Glyph: .
G1 E-1 F3000 ; Retract
G1 Z0.5 F12000 ; Z hop
G0 X149.9142 Y175.8832 F12000 ; Move
G1 Z0.4 F12000 ; Z hop return
G1 E1 F1800 ; Un-retract
G1 X151.9142 Y175.8832 E0.0677 F1800 ; Glyph: 0
G1 X153.9142 Y175.8832 E0.0677 F1800 ; Glyph: 0
G1 X153.9142 Y177.8832 E0.0677 F1800 ; Glyph: 0
G1 X151.9142 Y177.8832 E0.0677 F1800 ; Glyph: 0
G1 X149.9142 Y177.8832 E0.0677 F1800 ; Glyph: 0
G1 X149.9142 Y175.8832 E0.0677 F1800 ; Glyph: 0
G1 E-1 F3000 ; Retract
G1 Z0.5 F12000 ; Z hop
G0 X149.9142 Y180.8832 F12000 ; Move
G1 Z0.4 F12000 ; Z hop return
G1 E1 F1800 ; Un-retract
G1 X149.9142 Y178.8832 E0.0677 F1800 ; Glyph: 5
G1 X151.9142 Y178.8832 E0.0677 F1800 ; Glyph: 5
G1 X151.9142 Y180.8832 E0.0677 F1800 ; Glyph: 5
G1 X153.9142 Y180.8832 E0.0677 F1800 ; Glyph: 5
G1 X153.9142 Y178.8832 E0.0677 F1800 ; Glyph: 5
G1 E-1 F3000 ; Retract
G1 Z0.5 F12000 ; Z hop
G0 X157.117 Y171.8832 F12000 ; Move
G1 Z0.4 F12000 ; Z hop return
G1 E1 F1800 ; Un-retract
G1 X159.117 Y171.8832 E0.0677 F1800 ; Glyph: 0
G1 X161.117 Y171.8832 E0.0677 F1800 ; Glyph: 0
G1 X161.117 Y173.8832 E0.0677 F1800 ; Glyph: 0
G1 X159.117 Y173.8832 E0.0677 F1800 ; Glyph: 0
G1 X157.117 Y173.8832 E0.0677 F1800 ; Glyph: 0
G1 X157.117 Y171.8832 E0.0677 F1800 ; Glyph: 0
G1 E-1 F3000 ; Retract
G1 Z0.5 F12000 ; Z hop
G0 X161.117 Y174.8832 F12000 ; Move
G1 Z0.4 F12000 ; Z hop return
G1 E1 F1800 ; Un-retract
G1 X160.367 Y174.8832 E0.02539 F1800 ; Glyph: .
G1 E-1 F3000 ; Retract
G1 Z0.5 F12000 ; Z hop
G0 X157.117 Y175.8832 F12000 ; Move
G1 Z0.4 F12000 ; Z hop return
G1 E1 F1800 ; Un-retract
G1 X159.117 Y175.8832 E0.0677 F1800 ; Glyph: 0
G1 X161.117 Y175.8832 E0.0677 F1800 ; Glyph: 0
G1 X161.117 Y177.8832 E0.0677 F1800 ; Glyph: 0
G1 X159.117 Y177.8832 E0.0677 F1800 ; Glyph: 0
G1 X157.117 Y177.8832 E0.0677 F1800 ; Glyph: 0
G1 X157.117 Y175.8832 E0.0677 F1800 ; Glyph: 0
G1 E-1 F3000 ; Retract
G1 Z0.5 F12000 ; Z hop
G0 X157.117 Y180.8832 F12000 ; Move
G1 Z0.4 F12000 ; Z hop return
G1 E1 F1800 ; Un-retract
G1 X157.117 Y178.8832 E0.0677 F1800 ; Glyph: 6
G1 X159.117 Y178.8832 E0.0677 F1800 ; Glyph: 6
G1 X161.117 Y178.8832 E0.0677 F1800 ; Glyph: 6
G1 X161.117 Y180.8832 E0.0677 F1800 ; Glyph: 6
G1 X159.117 Y180.8832 E0.0677 F1800 ; Glyph: 6
G1 X159.117 Y178.8832 E0.0677 F1800 ; Glyph: 6
G1 E-1 F3000 ; Retract
G1 Z0.5 F12000 ; Z hop
G0 X164.3198 Y171.8832 F12000 ; Move
G1 Z0.4 F12000 ; Z hop return
G1 E1 F1800 ; Un-retract
G1 X166.3198 Y171.8832 E0.0677 F1800 ; Glyph: 0
G1 X168.3198 Y171.8832 E0.0677 F1800 ; Glyph: 0
G1 X168.3198 Y173.8832 E0.0677 F1800 ; Glyph: 0
G1 X166.3198 Y173.8832 E0.0677 F1800 ; Glyph: 0
G1 X164.3198 Y173.8832 E0.0677 F1800 ; Glyph: 0
G1 X164.3198 Y171.8832 E0.0677 F1800 ; Glyph: 0
G1 E-1 F3000 ; Retract
G1 Z0.5 F12000 ; Z hop
G0 X168.3198 Y174.8832 F12000 ; Move
G1 Z0.4 F12000 ; Z hop return
G1 E1 F1800 ; Un-retract
G1 X167.5698 Y174.8832 E0.02539 F1800 ; Glyph: .
G1 E-1 F3000 ; Retract
G1 Z0.5 F12000 ; Z hop
G0 X164.3198 Y175.8832 F12000 ; Move
G1 Z0.4 F12000 ; Z hop return
G1 E1 F1800 ; Un-retract
G1 X166.3198 Y175.8832 E0.0677 F1800 ; Glyph: 0
G1 X168.3198 Y175.8832 E0.0677 F1800 ; Glyph: 0
G1 X168.3198 Y177.8832 E0.0677 F1800 ; Glyph: 0
G1 X166.3198 Y177.8832 E0.0677 F1800 ; Glyph: 0
G1 X164.3198 Y177.8832 E0.0677 F1800 ; Glyph: 0
G1 X164.3198 Y175.8832 E0.0677 F1800 ; Glyph: 0
G1 E-1 F3000 ; Retract
G1 Z0.5 F12000 ; Z hop
G0 X164.3198 Y178.8832 F12000 ; Move
G1 Z0.4 F12000 ; Z hop return
G1 E1 F1800 ; Un-retract
G1 X164.3198 Y180.8832 E0.0677 F1800 ; Glyph: 7
G1 X166.3198 Y180.8832 E0.0677 F1800 ; Glyph: 7
G1 X168.3198 Y180.8832 E0.0677 F1800 ; Glyph: 7
G1 E-1 F3000 ; Retract
G1 Z0.5 F12000 ; Z hop
G0 X171.5226 Y171.8832 F12000 ; Move
G1 Z0.4 F12000 ; Z hop return
G1 E1 F1800 ; Un-retract
G1 X173.5226 Y171.8832 E0.0677 F1800 ; Glyph: 0
G1 X175.5226 Y171.8832 E0.0677 F1800 ; Glyph: 0
G1 X175.5226 Y173.8832 E0.0677 F1800 ; Glyph: 0
G1 X173.5226 Y173.8832 E0.0677 F1800 ; Glyph: 0
G1 X171.5226 Y173.8832 E0.0677 F1800 ; Glyph: 0
G1 X171.5226 Y171.8832 E0.0677 F1800 ; Glyph: 0
G1 E-1 F3000 ; Retract
G1 Z0.5 F12000 ; Z hop
G0 X175.5226 Y174.8832 F12000 ; Move
G1 Z0.4 F12000 ; Z hop return
G1 E1 F1800 ; Un-retract
G1 X174.7726 Y174.8832 E0.02539 F1800 ; Glyph: .
G1 E-1 F3000 ; Retract
G1 Z0.5 F12000 ; Z hop
G0 X171.5226 Y175.8832 F12000 ; Move
G1 Z0.4 F12000 ; Z hop return
G1 E1 F1800 ; Un-retract
G1 X173.5226 Y175.8832 E0.0677 F1800 ; Glyph: 0
G1 X175.5226 Y175.8832 E0.0677 F1800 ; Glyph: 0
G1 X175.5226 Y177.8832 E0.0677 F1800 ; Glyph: 0
G1 X173.5226 Y177.8832 E0.0677 F1800 ; Glyph: 0
G1 X171.5226 Y177.8832 E0.0677 F1800 ; Glyph: 0
G1 X171.5226 Y175.8832 E0.0677 F1800 ; Glyph: 0
G1 E-1 F3000 ; Retract
G1 Z0.5 F12000 ; Z hop
G0 X171.5226 Y178.8832 F12000 ; Move
G1 Z0.4 F12000 ; Z hop return
G1 E1 F1800 ; Un-retract
G1 X173.5226 Y178.8832 E0.0677 F1800 ; Glyph: 8
G1 X175.5226 Y178.8832 E0.0677 F1800 ; Glyph: 8
G1 X175.5226 Y180.8832 E0.0677 F1800 ; Glyph: 8
G1 X173.5226 Y180.8832 E0.0677 F1800 ; Glyph: 8
G1 X171.5226 Y180.8832 E0.0677 F1800 ; Glyph: 8
G1 X171.5226 Y178.8832 E0.0677 F1800 ; Glyph: 8
G0 X173.5226 Y178.8832 F12000 ; Move
G1 X173.5226 Y180.8832 E0.0677 F1800 ; Glyph: 8
G1 E-1 F3000 ; Retract
G1 Z0.5 F12000 ; Z hop
G0 X115.3245 Y128.0068 F12000 ; Move to pattern start

G1 Z0.4 F12000 ; Z hop return
G1 E1 F1800 ; Un-retract
SET_PRESSURE_ADVANCE ADVANCE=0 ; Set pressure advance
M117 PA 0
G1 X136.5377 Y149.22 E1.01546 F4200 ; Print pattern wall
G1 X115.3245 Y170.4332 E1.01546 F4200 ; Print pattern wall
G1 E-1 F3000 ; Retract
G1 Z0.5 F12000 ; Z hop
G0 X115.9002 Y128.0068 F12000 ; Move to start next pattern wall
G1 Z0.4 F12000 ; Z hop return
G1 E1 F1800 ; Un-retract
G1 X137.1134 Y149.22 E1.01546 F4200 ; Print pattern wall
G1 X115.9002 Y170.4332 E1.01546 F4200 ; Print pattern wall
G1 E-1 F3000 ; Retract
G1 Z0.5 F12000 ; Z hop
G0 X116.4759 Y128.0068 F12000 ; Move to start next pattern wall
G1 Z0.4 F12000 ; Z hop return
G1 E1 F1800 ; Un-retract
G1 X137.6891 Y149.22 E1.01546 F4200 ; Print pattern wall
G1 X116.4759 Y170.4332 E1.01546 F4200 ; Print pattern wall
G1 E-1 F3000 ; Retract
G1 Z0.5 F12000 ; Z hop
G0 X118.9259 Y128.0068 F12000 ; Move to next pattern
G1 Z0.4 F12000 ; Z hop return
G1 E1 F1800 ; Un-retract
SET_PRESSURE_ADVANCE ADVANCE=0.005 ; Set pressure advance
M117 PA 0.005
G1 X140.1391 Y149.22 E1.01546 F4200 ; Print pattern wall
G1 X118.9259 Y170.4332 E1.01546 F4200 ; Print pattern wall
G1 E-1 F3000 ; Retract
G1 Z0.5 F12000 ; Z hop
G0 X119.5016 Y128.0068 F12000 ; Move to start next pattern wall
G1 Z0.4 F12000 ; Z hop return
G1 E1 F1800 ; Un-retract
G1 X140.7148 Y149.22 E1.01546 F4200 ; Print pattern wall
G1 X119.5016 Y170.4332 E1.01546 F4200 ; Print pattern wall
G1 E-1 F3000 ; Retract
G1 Z0.5 F12000 ; Z hop
G0 X120.0773 Y128.0068 F12000 ; Move to start next pattern wall
G1 Z0.4 F12000 ; Z hop return
G1 E1 F1800 ; Un-retract
G1 X141.2905 Y149.22 E1.01546 F4200 ; Print pattern wall
G1 X120.0773 Y170.4332 E1.01546 F4200 ; Print pattern wall
G1 E-1 F3000 ; Retract
G1 Z0.5 F12000 ; Z hop
G0 X122.5273 Y128.0068 F12000 ; Move to next pattern
G1 Z0.4 F12000 ; Z hop return
G1 E1 F1800 ; Un-retract
SET_PRESSURE_ADVANCE ADVANCE=0.01 ; Set pressure advance
M117 PA 0.01
G1 X143.7405 Y149.22 E1.01546 F4200 ; Print pattern wall
G1 X122.5273 Y170.4332 E1.01546 F4200 ; Print pattern wall
G1 E-1 F3000 ; Retract
G1 Z0.5 F12000 ; Z hop
G0 X123.103 Y128.0068 F12000 ; Move to start next pattern wall
G1 Z0.4 F12000 ; Z hop return
G1 E1 F1800 ; Un-retract
G1 X144.3162 Y149.22 E1.01546 F4200 ; Print pattern wall
G1 X123.103 Y170.4332 E1.01546 F4200 ; Print pattern wall
G1 E-1 F3000 ; Retract
G1 Z0.5 F12000 ; Z hop
G0 X123.6787 Y128.0068 F12000 ; Move to start next pattern wall
G1 Z0.4 F12000 ; Z hop return
G1 E1 F1800 ; Un-retract
G1 X144.8919 Y149.22 E1.01546 F4200 ; Print pattern wall
G1 X123.6787 Y170.4332 E1.01546 F4200 ; Print pattern wall
G1 E-1 F3000 ; Retract
G1 Z0.5 F12000 ; Z hop
G0 X126.1287 Y128.0068 F12000 ; Move to next pattern
G1 Z0.4 F12000 ; Z hop return
G1 E1 F1800 ; Un-retract
SET_PRESSURE_ADVANCE ADVANCE=0.015 ; Set pressure advance
M117 PA 0.015
G1 X147.3419 Y149.22 E1.01546 F4200 ; Print pattern wall
G1 X126.1287 Y170.4332 E1.01546 F4200 ; Print pattern wall
G1 E-1 F3000 ; Retract
G1 Z0.5 F12000 ; Z hop
G0 X126.7044 Y128.0068 F12000 ; Move to start next pattern wall
G1 Z0.4 F12000 ; Z hop return
G1 E1 F1800 ; Un-retract
G1 X147.9176 Y149.22 E1.01546 F4200 ; Print pattern wall
G1 X126.7044 Y170.4332 E1.01546 F4200 ; Print pattern wall
G1 E-1 F3000 ; Retract
G1 Z0.5 F12000 ; Z hop
G0 X127.2801 Y128.0068 F12000 ; Move to start next pattern wall
G1 Z0.4 F12000 ; Z hop return
G1 E1 F1800 ; Un-retract
G1 X148.4933 Y149.22 E1.01546 F4200 ; Print pattern wall
G1 X127.2801 Y170.4332 E1.01546 F4200 ; Print pattern wall
G1 E-1 F3000 ; Retract
G1 Z0.5 F12000 ; Z hop
G0 X129.7301 Y128.0068 F12000 ; Move to next pattern
G1 Z0.4 F12000 ; Z hop return
G1 E1 F1800 ; Un-retract
SET_PRESSURE_ADVANCE ADVANCE=0.02 ; Set pressure advance
M117 PA 0.02
G1 X150.9433 Y149.22 E1.01546 F4200 ; Print pattern wall
G1 X129.7301 Y170.4332 E1.01546 F4200 ; Print pattern wall
G1 E-1 F3000 ; Retract
G1 Z0.5 F12000 ; Z hop
G0 X130.3058 Y128.0068 F12000 ; Move to start next pattern wall
G1 Z0.4 F12000 ; Z hop return
G1 E1 F1800 ; Un-retract
G1 X151.519 Y149.22 E1.01546 F4200 ; Print pattern wall
G1 X130.3058 Y170.4332 E1.01546 F4200 ; Print pattern wall
G1 E-1 F3000 ; Retract
G1 Z0.5 F12000 ; Z hop
G0 X130.8815 Y128.0068 F12000 ; Move to start next pattern wall
G1 Z0.4 F12000 ; Z hop return
G1 E1 F1800 ; Un-retract
G1 X152.0947 Y149.22 E1.01546 F4200 ; Print pattern wall
G1 X130.8815 Y170.4332 E1.01546 F4200 ; Print pattern wall
G1 E-1 F3000 ; Retract
G1 Z0.5 F12000 ; Z hop
G0 X133.3315 Y128.0068 F12000 ; Move to next pattern
G1 Z0.4 F12000 ; Z hop return
G1 E1 F1800 ; Un-retract
SET_PRESSURE_ADVANCE ADVANCE=0.025 ; Set pressure advance
M117 PA 0.025
G1 X154.5447 Y149.22 E1.01546 F4200 ; Print pattern wall
G1 X133.3315 Y170.4332 E1.01546 F4200 ; Print pattern wall
G1 E-1 F3000 ; Retract
G1 Z0.5 F12000 ; Z hop
G0 X133.9072 Y128.0068 F12000 ; Move to start next pattern wall
G1 Z0.4 F12000 ; Z hop return
G1 E1 F1800 ; Un-retract
G1 X155.1204 Y149.22 E1.01546 F4200 ; Print pattern wall
G1 X133.9072 Y170.4332 E1.01546 F4200 ; Print pattern wall
G1 E-1 F3000 ; Retract
G1 Z0.5 F12000 ; Z hop
G0 X134.4829 Y128.0068 F12000 ; Move to start next pattern wall
G1 Z0.4 F12000 ; Z hop return
G1 E1 F1800 ; Un-retract
G1 X155.6961 Y149.22 E1.01546 F4200 ; Print pattern wall
G1 X134.4829 Y170.4332 E1.01546 F4200 ; Print pattern wall
G1 E-1 F3000 ; Retract
G1 Z0.5 F12000 ; Z hop
G0 X136.9329 Y128.0068 F12000 ; Move to next pattern
G1 Z0.4 F12000 ; Z hop return
G1 E1 F1800 ; Un-retract
SET_PRESSURE_ADVANCE ADVANCE=0.03 ; Set pressure advance
M117 PA 0.03
G1 X158.1461 Y149.22 E1.01546 F4200 ; Print pattern wall
G1 X136.9329 Y170.4332 E1.01546 F4200 ; Print pattern wall
G1 E-1 F3000 ; Retract
G1 Z0.5 F12000 ; Z hop
G0 X137.5086 Y128.0068 F12000 ; Move to start next pattern wall
G1 Z0.4 F12000 ; Z hop return
G1 E1 F1800 ; Un-retract
G1 X158.7218 Y149.22 E1.01546 F4200 ; Print pattern wall
G1 X137.5086 Y170.4332 E1.01546 F4200 ; Print pattern wall
G1 E-1 F3000 ; Retract
G1 Z0.5 F12000 ; Z hop
G0 X138.0843 Y128.0068 F12000 ; Move to start next pattern wall
G1 Z0.4 F12000 ; Z hop return
G1 E1 F1800 ; Un-retract
G1 X159.2975 Y149.22 E1.01546 F4200 ; Print pattern wall
G1 X138.0843 Y170.4332 E1.01546 F4200 ; Print pattern wall
G1 E-1 F3000 ; Retract
G1 Z0.5 F12000 ; Z hop
G0 X140.5343 Y128.0068 F12000 ; Move to next pattern
G1 Z0.4 F12000 ; Z hop return
G1 E1 F1800 ; Un-retract
SET_PRESSURE_ADVANCE ADVANCE=0.035 ; Set pressure advance
M117 PA 0.035
G1 X161.7475 Y149.22 E1.01546 F4200 ; Print pattern wall
G1 X140.5343 Y170.4332 E1.01546 F4200 ; Print pattern wall
G1 E-1 F3000 ; Retract
G1 Z0.5 F12000 ; Z hop
G0 X141.11 Y128.0068 F12000 ; Move to start next pattern wall
G1 Z0.4 F12000 ; Z hop return
G1 E1 F1800 ; Un-retract
G1 X162.3232 Y149.22 E1.01546 F4200 ; Print pattern wall
G1 X141.11 Y170.4332 E1.01546 F4200 ; Print pattern wall
G1 E-1 F3000 ; Retract
G1 Z0.5 F12000 ; Z hop
G0 X141.6857 Y128.0068 F12000 ; Move to start next pattern wall
G1 Z0.4 F12000 ; Z hop return
G1 E1 F1800 ; Un-retract
G1 X162.8989 Y149.22 E1.01546 F4200 ; Print pattern wall
G1 X141.6857 Y170.4332 E1.01546 F4200 ; Print pattern wall
G1 E-1 F3000 ; Retract
G1 Z0.5 F12000 ; Z hop
G0 X144.1357 Y128.0068 F12000 ; Move to next pattern
G1 Z0.4 F12000 ; Z hop return
G1 E1 F1800 ; Un-retract
SET_PRESSURE_ADVANCE ADVANCE=0.04 ; Set pressure advance
M117 PA 0.04
G1 X165.3489 Y149.22 E1.01546 F4200 ; Print pattern wall
G1 X144.1357 Y170.4332 E1.01546 F4200 ; Print pattern wall
G1 E-1 F3000 ; Retract
G1 Z0.5 F12000 ; Z hop
G0 X144.7114 Y128.0068 F12000 ; Move to start next pattern wall
G1 Z0.4 F12000 ; Z hop return
G1 E1 F1800 ; Un-retract
G1 X165.9246 Y149.22 E1.01546 F4200 ; Print pattern wall
G1 X144.7114 Y170.4332 E1.01546 F4200 ; Print pattern wall
G1 E-1 F3000 ; Retract
G1 Z0.5 F12000 ; Z hop
G0 X145.2871 Y128.0068 F12000 ; Move to start next pattern wall
G1 Z0.4 F12000 ; Z hop return
G1 E1 F1800 ; Un-retract
G1 X166.5003 Y149.22 E1.01546 F4200 ; Print pattern wall
G1 X145.2871 Y170.4332 E1.01546 F4200 ; Print pattern wall
G1 E-1 F3000 ; Retract
G1 Z0.5 F12000 ; Z hop
G0 X147.7371 Y128.0068 F12000 ; Move to next pattern
G1 Z0.4 F12000 ; Z hop return
G1 E1 F1800 ; Un-retract
SET_PRESSURE_ADVANCE ADVANCE=0.045 ; Set pressure advance
M117 PA 0.045
G1 X168.9503 Y149.22 E1.01546 F4200 ; Print pattern wall
G1 X147.7371 Y170.4332 E1.01546 F4200 ; Print pattern wall
G1 E-1 F3000 ; Retract
G1 Z0.5 F12000 ; Z hop
G0 X148.3128 Y128.0068 F12000 ; Move to start next pattern wall
G1 Z0.4 F12000 ; Z hop return
G1 E1 F1800 ; Un-retract
G1 X169.526 Y149.22 E1.01546 F4200 ; Print pattern wall
G1 X148.3128 Y170.4332 E1.01546 F4200 ; Print pattern wall
G1 E-1 F3000 ; Retract
G1 Z0.5 F12000 ; Z hop
G0 X148.8885 Y128.0068 F12000 ; Move to start next pattern wall
G1 Z0.4 F12000 ; Z hop return
G1 E1 F1800 ; Un-retract
G1 X170.1017 Y149.22 E1.01546 F4200 ; Print pattern wall
G1 X148.8885 Y170.4332 E1.01546 F4200 ; Print pattern wall
G1 E-1 F3000 ; Retract
G1 Z0.5 F12000 ; Z hop
G0 X151.3385 Y128.0068 F12000 ; Move to next pattern
G1 Z0.4 F12000 ; Z hop return
G1 E1 F1800 ; Un-retract
SET_PRESSURE_ADVANCE ADVANCE=0.05 ; Set pressure advance
M117 PA 0.05
G1 X172.5517 Y149.22 E1.01546 F4200 ; Print pattern wall
G1 X151.3385 Y170.4332 E1.01546 F4200 ; Print pattern wall
G1 E-1 F3000 ; Retract
G1 Z0.5 F12000 ; Z hop
G0 X151.9142 Y128.0068 F12000 ; Move to start next pattern wall
G1 Z0.4 F12000 ; Z hop return
G1 E1 F1800 ; Un-retract
G1 X173.1274 Y149.22 E1.01546 F4200 ; Print pattern wall
G1 X151.9142 Y170.4332 E1.01546 F4200 ; Print pattern wall
G1 E-1 F3000 ; Retract
G1 Z0.5 F12000 ; Z hop
G0 X152.4899 Y128.0068 F12000 ; Move to start next pattern wall
G1 Z0.4 F12000 ; Z hop return
G1 E1 F1800 ; Un-retract
G1 X173.7031 Y149.22 E1.01546 F4200 ; Print pattern wall
G1 X152.4899 Y170.4332 E1.01546 F4200 ; Print pattern wall
G1 E-1 F3000 ; Retract
G1 Z0.5 F12000 ; Z hop
G0 X154.9399 Y128.0068 F12000 ; Move to next pattern
G1 Z0.4 F12000 ; Z hop return
G1 E1 F1800 ; Un-retract
SET_PRESSURE_ADVANCE ADVANCE=0.055 ; Set pressure advance
M117 PA 0.055
G1 X176.1531 Y149.22 E1.01546 F4200 ; Print pattern wall
G1 X154.9399 Y170.4332 E1.01546 F4200 ; Print pattern wall
G1 E-1 F3000 ; Retract
G1 Z0.5 F12000 ; Z hop
G0 X155.5156 Y128.0068 F12000 ; Move to start next pattern wall
G1 Z0.4 F12000 ; Z hop return
G1 E1 F1800 ; Un-retract
G1 X176.7288 Y149.22 E1.01546 F4200 ; Print pattern wall
G1 X155.5156 Y170.4332 E1.01546 F4200 ; Print pattern wall
G1 E-1 F3000 ; Retract
G1 Z0.5 F12000 ; Z hop
G0 X156.0913 Y128.0068 F12000 ; Move to start next pattern wall
G1 Z0.4 F12000 ; Z hop return
G1 E1 F1800 ; Un-retract
G1 X177.3045 Y149.22 E1.01546 F4200 ; Print pattern wall
G1 X156.0913 Y170.4332 E1.01546 F4200 ; Print pattern wall
G1 E-1 F3000 ; Retract
G1 Z0.5 F12000 ; Z hop
G0 X158.5413 Y128.0068 F12000 ; Move to next pattern
G1 Z0.4 F12000 ; Z hop return
G1 E1 F1800 ; Un-retract
SET_PRESSURE_ADVANCE ADVANCE=0.06 ; Set pressure advance
M117 PA 0.06
G1 X179.7545 Y149.22 E1.01546 F4200 ; Print pattern wall
G1 X158.5413 Y170.4332 E1.01546 F4200 ; Print pattern wall
G1 E-1 F3000 ; Retract
G1 Z0.5 F12000 ; Z hop
G0 X159.117 Y128.0068 F12000 ; Move to start next pattern wall
G1 Z0.4 F12000 ; Z hop return
G1 E1 F1800 ; Un-retract
G1 X180.3302 Y149.22 E1.01546 F4200 ; Print pattern wall
G1 X159.117 Y170.4332 E1.01546 F4200 ; Print pattern wall
G1 E-1 F3000 ; Retract
G1 Z0.5 F12000 ; Z hop
G0 X159.6927 Y128.0068 F12000 ; Move to start next pattern wall
G1 Z0.4 F12000 ; Z hop return
G1 E1 F1800 ; Un-retract
G1 X180.9059 Y149.22 E1.01546 F4200 ; Print pattern wall
G1 X159.6927 Y170.4332 E1.01546 F4200 ; Print pattern wall
G1 E-1 F3000 ; Retract
G1 Z0.5 F12000 ; Z hop
G0 X162.1427 Y128.0068 F12000 ; Move to next pattern
G1 Z0.4 F12000 ; Z hop return
G1 E1 F1800 ; Un-retract
SET_PRESSURE_ADVANCE ADVANCE=0.065 ; Set pressure advance
M117 PA 0.065
G1 X183.3559 Y149.22 E1.01546 F4200 ; Print pattern wall
G1 X162.1427 Y170.4332 E1.01546 F4200 ; Print pattern wall
G1 E-1 F3000 ; Retract
G1 Z0.5 F12000 ; Z hop
G0 X162.7184 Y128.0068 F12000 ; Move to start next pattern wall
G1 Z0.4 F12000 ; Z hop return
G1 E1 F1800 ; Un-retract
G1 X183.9316 Y149.22 E1.01546 F4200 ; Print pattern wall
G1 X162.7184 Y170.4332 E1.01546 F4200 ; Print pattern wall
G1 E-1 F3000 ; Retract
G1 Z0.5 F12000 ; Z hop
G0 X163.2941 Y128.0068 F12000 ; Move to start next pattern wall
G1 Z0.4 F12000 ; Z hop return
G1 E1 F1800 ; Un-retract
G1 X184.5073 Y149.22 E1.01546 F4200 ; Print pattern wall
G1 X163.2941 Y170.4332 E1.01546 F4200 ; Print pattern wall
G1 E-1 F3000 ; Retract
G1 Z0.5 F12000 ; Z hop
G0 X165.7441 Y128.0068 F12000 ; Move to next pattern
G1 Z0.4 F12000 ; Z hop return
G1 E1 F1800 ; Un-retract
SET_PRESSURE_ADVANCE ADVANCE=0.07 ; Set pressure advance
M117 PA 0.07
G1 X186.9573 Y149.22 E1.01546 F4200 ; Print pattern wall
G1 X165.7441 Y170.4332 E1.01546 F4200 ; Print pattern wall
G1 E-1 F3000 ; Retract
G1 Z0.5 F12000 ; Z hop
G0 X166.3198 Y128.0068 F12000 ; Move to start next pattern wall
G1 Z0.4 F12000 ; Z hop return
G1 E1 F1800 ; Un-retract
G1 X187.533 Y149.22 E1.01546 F4200 ; Print pattern wall
G1 X166.3198 Y170.4332 E1.01546 F4200 ; Print pattern wall
G1 E-1 F3000 ; Retract
G1 Z0.5 F12000 ; Z hop
G0 X166.8955 Y128.0068 F12000 ; Move to start next pattern wall
G1 Z0.4 F12000 ; Z hop return
G1 E1 F1800 ; Un-retract
G1 X188.1087 Y149.22 E1.01546 F4200 ; Print pattern wall
G1 X166.8955 Y170.4332 E1.01546 F4200 ; Print pattern wall
G1 E-1 F3000 ; Retract
G1 Z0.5 F12000 ; Z hop
G0 X169.3455 Y128.0068 F12000 ; Move to next pattern
G1 Z0.4 F12000 ; Z hop return
G1 E1 F1800 ; Un-retract
SET_PRESSURE_ADVANCE ADVANCE=0.075 ; Set pressure advance
M117 PA 0.075
G1 X190.5587 Y149.22 E1.01546 F4200 ; Print pattern wall
G1 X169.3455 Y170.4332 E1.01546 F4200 ; Print pattern wall
G1 E-1 F3000 ; Retract
G1 Z0.5 F12000 ; Z hop
G0 X169.9212 Y128.0068 F12000 ; Move to start next pattern wall
G1 Z0.4 F12000 ; Z hop return
G1 E1 F1800 ; Un-retract
G1 X191.1344 Y149.22 E1.01546 F4200 ; Print pattern wall
G1 X169.9212 Y170.4332 E1.01546 F4200 ; Print pattern wall
G1 E-1 F3000 ; Retract
G1 Z0.5 F12000 ; Z hop
G0 X170.4969 Y128.0068 F12000 ; Move to start next pattern wall
G1 Z0.4 F12000 ; Z hop return
G1 E1 F1800 ; Un-retract
G1 X191.7101 Y149.22 E1.01546 F4200 ; Print pattern wall
G1 X170.4969 Y170.4332 E1.01546 F4200 ; Print pattern wall
G1 E-1 F3000 ; Retract
G1 Z0.5 F12000 ; Z hop
G0 X172.9469 Y128.0068 F12000 ; Move to next pattern
G1 Z0.4 F12000 ; Z hop return
G1 E1 F1800 ; Un-retract
SET_PRESSURE_ADVANCE ADVANCE=0.08 ; Set pressure advance
M117 PA 0.08
G1 X194.1601 Y149.22 E1.01546 F4200 ; Print pattern wall
G1 X172.9469 Y170.4332 E1.01546 F4200 ; Print pattern wall
G1 E-1 F3000 ; Retract
G1 Z0.5 F12000 ; Z hop
G0 X173.5226 Y128.0068 F12000 ; Move to start next pattern wall
G1 Z0.4 F12000 ; Z hop return
G1 E1 F1800 ; Un-retract
G1 X194.7358 Y149.22 E1.01546 F4200 ; Print pattern wall
G1 X173.5226 Y170.4332 E1.01546 F4200 ; Print pattern wall
G1 E-1 F3000 ; Retract
G1 Z0.5 F12000 ; Z hop
G0 X174.0983 Y128.0068 F12000 ; Move to start next pattern wall
G1 Z0.4 F12000 ; Z hop return
G1 E1 F1800 ; Un-retract
G1 X195.3115 Y149.22 E1.01546 F4200 ; Print pattern wall
G1 X174.0983 Y170.4332 E1.01546 F4200 ; Print pattern wall
G1 E-1 F3000 ; Retract
G1 Z0.5 F12000 ; Z hop
G0 X115.3245 Y128.0068 F12000 ; Move back to start position
G1 Z0.4 F12000 ; Z hop return
G1 E1 F1800 ; Un-retract
G0 Z0.6 F12000 ; Move to layer height
SET_PRESSURE_ADVANCE ADVANCE=0 ; Set pressure advance
M117 PA 0
G1 X136.5377 Y149.22 E1.01546 F4200 ; Print pattern wall
G1 X115.3245 Y170.4332 E1.01546 F4200 ; Print pattern wall
G1 E-1 F3000 ; Retract
G1 Z0.7 F12000 ; Z hop
G0 X115.9002 Y128.0068 F12000 ; Move to start next pattern wall
G1 Z0.6 F12000 ; Z hop return
G1 E1 F1800 ; Un-retract
G1 X137.1134 Y149.22 E1.01546 F4200 ; Print pattern wall
G1 X115.9002 Y170.4332 E1.01546 F4200 ; Print pattern wall
G1 E-1 F3000 ; Retract
G1 Z0.7 F12000 ; Z hop
G0 X116.4759 Y128.0068 F12000 ; Move to start next pattern wall
G1 Z0.6 F12000 ; Z hop return
G1 E1 F1800 ; Un-retract
G1 X137.6891 Y149.22 E1.01546 F4200 ; Print pattern wall
G1 X116.4759 Y170.4332 E1.01546 F4200 ; Print pattern wall
G1 E-1 F3000 ; Retract
G1 Z0.7 F12000 ; Z hop
G0 X118.9259 Y128.0068 F12000 ; Move to next pattern
G1 Z0.6 F12000 ; Z hop return
G1 E1 F1800 ; Un-retract
SET_PRESSURE_ADVANCE ADVANCE=0.005 ; Set pressure advance
M117 PA 0.005
G1 X140.1391 Y149.22 E1.01546 F4200 ; Print pattern wall
G1 X118.9259 Y170.4332 E1.01546 F4200 ; Print pattern wall
G1 E-1 F3000 ; Retract
G1 Z0.7 F12000 ; Z hop
G0 X119.5016 Y128.0068 F12000 ; Move to start next pattern wall
G1 Z0.6 F12000 ; Z hop return
G1 E1 F1800 ; Un-retract
G1 X140.7148 Y149.22 E1.01546 F4200 ; Print pattern wall
G1 X119.5016 Y170.4332 E1.01546 F4200 ; Print pattern wall
G1 E-1 F3000 ; Retract
G1 Z0.7 F12000 ; Z hop
G0 X120.0773 Y128.0068 F12000 ; Move to start next pattern wall
G1 Z0.6 F12000 ; Z hop return
G1 E1 F1800 ; Un-retract
G1 X141.2905 Y149.22 E1.01546 F4200 ; Print pattern wall
G1 X120.0773 Y170.4332 E1.01546 F4200 ; Print pattern wall
G1 E-1 F3000 ; Retract
G1 Z0.7 F12000 ; Z hop
G0 X122.5273 Y128.0068 F12000 ; Move to next pattern
G1 Z0.6 F12000 ; Z hop return
G1 E1 F1800 ; Un-retract
SET_PRESSURE_ADVANCE ADVANCE=0.01 ; Set pressure advance
M117 PA 0.01
G1 X143.7405 Y149.22 E1.01546 F4200 ; Print pattern wall
G1 X122.5273 Y170.4332 E1.01546 F4200 ; Print pattern wall
G1 E-1 F3000 ; Retract
G1 Z0.7 F12000 ; Z hop
G0 X123.103 Y128.0068 F12000 ; Move to start next pattern wall
G1 Z0.6 F12000 ; Z hop return
G1 E1 F1800 ; Un-retract
G1 X144.3162 Y149.22 E1.01546 F4200 ; Print pattern wall
G1 X123.103 Y170.4332 E1.01546 F4200 ; Print pattern wall
G1 E-1 F3000 ; Retract
G1 Z0.7 F12000 ; Z hop
G0 X123.6787 Y128.0068 F12000 ; Move to start next pattern wall
G1 Z0.6 F12000 ; Z hop return
G1 E1 F1800 ; Un-retract
G1 X144.8919 Y149.22 E1.01546 F4200 ; Print pattern wall
G1 X123.6787 Y170.4332 E1.01546 F4200 ; Print pattern wall
G1 E-1 F3000 ; Retract
G1 Z0.7 F12000 ; Z hop
G0 X126.1287 Y128.0068 F12000 ; Move to next pattern
G1 Z0.6 F12000 ; Z hop return
G1 E1 F1800 ; Un-retract
SET_PRESSURE_ADVANCE ADVANCE=0.015 ; Set pressure advance
M117 PA 0.015
G1 X147.3419 Y149.22 E1.01546 F4200 ; Print pattern wall
G1 X126.1287 Y170.4332 E1.01546 F4200 ; Print pattern wall
G1 E-1 F3000 ; Retract
G1 Z0.7 F12000 ; Z hop
G0 X126.7044 Y128.0068 F12000 ; Move to start next pattern wall
G1 Z0.6 F12000 ; Z hop return
G1 E1 F1800 ; Un-retract
G1 X147.9176 Y149.22 E1.01546 F4200 ; Print pattern wall
G1 X126.7044 Y170.4332 E1.01546 F4200 ; Print pattern wall
G1 E-1 F3000 ; Retract
G1 Z0.7 F12000 ; Z hop
G0 X127.2801 Y128.0068 F12000 ; Move to start next pattern wall
G1 Z0.6 F12000 ; Z hop return
G1 E1 F1800 ; Un-retract
G1 X148.4933 Y149.22 E1.01546 F4200 ; Print pattern wall
G1 X127.2801 Y170.4332 E1.01546 F4200 ; Print pattern wall
G1 E-1 F3000 ; Retract
G1 Z0.7 F12000 ; Z hop
G0 X129.7301 Y128.0068 F12000 ; Move to next pattern
G1 Z0.6 F12000 ; Z hop return
G1 E1 F1800 ; Un-retract
SET_PRESSURE_ADVANCE ADVANCE=0.02 ; Set pressure advance
M117 PA 0.02
G1 X150.9433 Y149.22 E1.01546 F4200 ; Print pattern wall
G1 X129.7301 Y170.4332 E1.01546 F4200 ; Print pattern wall
G1 E-1 F3000 ; Retract
G1 Z0.7 F12000 ; Z hop
G0 X130.3058 Y128.0068 F12000 ; Move to start next pattern wall
G1 Z0.6 F12000 ; Z hop return
G1 E1 F1800 ; Un-retract
G1 X151.519 Y149.22 E1.01546 F4200 ; Print pattern wall
G1 X130.3058 Y170.4332 E1.01546 F4200 ; Print pattern wall
G1 E-1 F3000 ; Retract
G1 Z0.7 F12000 ; Z hop
G0 X130.8815 Y128.0068 F12000 ; Move to start next pattern wall
G1 Z0.6 F12000 ; Z hop return
G1 E1 F1800 ; Un-retract
G1 X152.0947 Y149.22 E1.01546 F4200 ; Print pattern wall
G1 X130.8815 Y170.4332 E1.01546 F4200 ; Print pattern wall
G1 E-1 F3000 ; Retract
G1 Z0.7 F12000 ; Z hop
G0 X133.3315 Y128.0068 F12000 ; Move to next pattern
G1 Z0.6 F12000 ; Z hop return
G1 E1 F1800 ; Un-retract
SET_PRESSURE_ADVANCE ADVANCE=0.025 ; Set pressure advance
M117 PA 0.025
G1 X154.5447 Y149.22 E1.01546 F4200 ; Print pattern wall
G1 X133.3315 Y170.4332 E1.01546 F4200 ; Print pattern wall
G1 E-1 F3000 ; Retract
G1 Z0.7 F12000 ; Z hop
G0 X133.9072 Y128.0068 F12000 ; Move to start next pattern wall
G1 Z0.6 F12000 ; Z hop return
G1 E1 F1800 ; Un-retract
G1 X155.1204 Y149.22 E1.01546 F4200 ; Print pattern wall
G1 X133.9072 Y170.4332 E1.01546 F4200 ; Print pattern wall
G1 E-1 F3000 ; Retract
G1 Z0.7 F12000 ; Z hop
G0 X134.4829 Y128.0068 F12000 ; Move to start next pattern wall
G1 Z0.6 F12000 ; Z hop return
G1 E1 F1800 ; Un-retract
G1 X155.6961 Y149.22 E1.01546 F4200 ; Print pattern wall
G1 X134.4829 Y170.4332 E1.01546 F4200 ; Print pattern wall
G1 E-1 F3000 ; Retract
G1 Z0.7 F12000 ; Z hop
G0 X136.9329 Y128.0068 F12000 ; Move to next pattern
G1 Z0.6 F12000 ; Z hop return
G1 E1 F1800 ; Un-retract
SET_PRESSURE_ADVANCE ADVANCE=0.03 ; Set pressure advance
M117 PA 0.03
G1 X158.1461 Y149.22 E1.01546 F4200 ; Print pattern wall
G1 X136.9329 Y170.4332 E1.01546 F4200 ; Print pattern wall
G1 E-1 F3000 ; Retract
G1 Z0.7 F12000 ; Z hop
G0 X137.5086 Y128.0068 F12000 ; Move to start next pattern wall
G1 Z0.6 F12000 ; Z hop return
G1 E1 F1800 ; Un-retract
G1 X158.7218 Y149.22 E1.01546 F4200 ; Print pattern wall
G1 X137.5086 Y170.4332 E1.01546 F4200 ; Print pattern wall
G1 E-1 F3000 ; Retract
G1 Z0.7 F12000 ; Z hop
G0 X138.0843 Y128.0068 F12000 ; Move to start next pattern wall
G1 Z0.6 F12000 ; Z hop return
G1 E1 F1800 ; Un-retract
G1 X159.2975 Y149.22 E1.01546 F4200 ; Print pattern wall
G1 X138.0843 Y170.4332 E1.01546 F4200 ; Print pattern wall
G1 E-1 F3000 ; Retract
G1 Z0.7 F12000 ; Z hop
G0 X140.5343 Y128.0068 F12000 ; Move to next pattern
G1 Z0.6 F12000 ; Z hop return
G1 E1 F1800 ; Un-retract
SET_PRESSURE_ADVANCE ADVANCE=0.035 ; Set pressure advance
M117 PA 0.035
G1 X161.7475 Y149.22 E1.01546 F4200 ; Print pattern wall
G1 X140.5343 Y170.4332 E1.01546 F4200 ; Print pattern wall
G1 E-1 F3000 ; Retract
G1 Z0.7 F12000 ; Z hop
G0 X141.11 Y128.0068 F12000 ; Move to start next pattern wall
G1 Z0.6 F12000 ; Z hop return
G1 E1 F1800 ; Un-retract
G1 X162.3232 Y149.22 E1.01546 F4200 ; Print pattern wall
G1 X141.11 Y170.4332 E1.01546 F4200 ; Print pattern wall
G1 E-1 F3000 ; Retract
G1 Z0.7 F12000 ; Z hop
G0 X141.6857 Y128.0068 F12000 ; Move to start next pattern wall
G1 Z0.6 F12000 ; Z hop return
G1 E1 F1800 ; Un-retract
G1 X162.8989 Y149.22 E1.01546 F4200 ; Print pattern wall
G1 X141.6857 Y170.4332 E1.01546 F4200 ; Print pattern wall
G1 E-1 F3000 ; Retract
G1 Z0.7 F12000 ; Z hop
G0 X144.1357 Y128.0068 F12000 ; Move to next pattern
G1 Z0.6 F12000 ; Z hop return
G1 E1 F1800 ; Un-retract
SET_PRESSURE_ADVANCE ADVANCE=0.04 ; Set pressure advance
M117 PA 0.04
G1 X165.3489 Y149.22 E1.01546 F4200 ; Print pattern wall
G1 X144.1357 Y170.4332 E1.01546 F4200 ; Print pattern wall
G1 E-1 F3000 ; Retract
G1 Z0.7 F12000 ; Z hop
G0 X144.7114 Y128.0068 F12000 ; Move to start next pattern wall
G1 Z0.6 F12000 ; Z hop return
G1 E1 F1800 ; Un-retract
G1 X165.9246 Y149.22 E1.01546 F4200 ; Print pattern wall
G1 X144.7114 Y170.4332 E1.01546 F4200 ; Print pattern wall
G1 E-1 F3000 ; Retract
G1 Z0.7 F12000 ; Z hop
G0 X145.2871 Y128.0068 F12000 ; Move to start next pattern wall
G1 Z0.6 F12000 ; Z hop return
G1 E1 F1800 ; Un-retract
G1 X166.5003 Y149.22 E1.01546 F4200 ; Print pattern wall
G1 X145.2871 Y170.4332 E1.01546 F4200 ; Print pattern wall
G1 E-1 F3000 ; Retract
G1 Z0.7 F12000 ; Z hop
G0 X147.7371 Y128.0068 F12000 ; Move to next pattern
G1 Z0.6 F12000 ; Z hop return
G1 E1 F1800 ; Un-retract
SET_PRESSURE_ADVANCE ADVANCE=0.045 ; Set pressure advance
M117 PA 0.045
G1 X168.9503 Y149.22 E1.01546 F4200 ; Print pattern wall
G1 X147.7371 Y170.4332 E1.01546 F4200 ; Print pattern wall
G1 E-1 F3000 ; Retract
G1 Z0.7 F12000 ; Z hop
G0 X148.3128 Y128.0068 F12000 ; Move to start next pattern wall
G1 Z0.6 F12000 ; Z hop return
G1 E1 F1800 ; Un-retract
G1 X169.526 Y149.22 E1.01546 F4200 ; Print pattern wall
G1 X148.3128 Y170.4332 E1.01546 F4200 ; Print pattern wall
G1 E-1 F3000 ; Retract
G1 Z0.7 F12000 ; Z hop
G0 X148.8885 Y128.0068 F12000 ; Move to start next pattern wall
G1 Z0.6 F12000 ; Z hop return
G1 E1 F1800 ; Un-retract
G1 X170.1017 Y149.22 E1.01546 F4200 ; Print pattern wall
G1 X148.8885 Y170.4332 E1.01546 F4200 ; Print pattern wall
G1 E-1 F3000 ; Retract
G1 Z0.7 F12000 ; Z hop
G0 X151.3385 Y128.0068 F12000 ; Move to next pattern
G1 Z0.6 F12000 ; Z hop return
G1 E1 F1800 ; Un-retract
SET_PRESSURE_ADVANCE ADVANCE=0.05 ; Set pressure advance
M117 PA 0.05
G1 X172.5517 Y149.22 E1.01546 F4200 ; Print pattern wall
G1 X151.3385 Y170.4332 E1.01546 F4200 ; Print pattern wall
G1 E-1 F3000 ; Retract
G1 Z0.7 F12000 ; Z hop
G0 X151.9142 Y128.0068 F12000 ; Move to start next pattern wall
G1 Z0.6 F12000 ; Z hop return
G1 E1 F1800 ; Un-retract
G1 X173.1274 Y149.22 E1.01546 F4200 ; Print pattern wall
G1 X151.9142 Y170.4332 E1.01546 F4200 ; Print pattern wall
G1 E-1 F3000 ; Retract
G1 Z0.7 F12000 ; Z hop
G0 X152.4899 Y128.0068 F12000 ; Move to start next pattern wall
G1 Z0.6 F12000 ; Z hop return
G1 E1 F1800 ; Un-retract
G1 X173.7031 Y149.22 E1.01546 F4200 ; Print pattern wall
G1 X152.4899 Y170.4332 E1.01546 F4200 ; Print pattern wall
G1 E-1 F3000 ; Retract
G1 Z0.7 F12000 ; Z hop
G0 X154.9399 Y128.0068 F12000 ; Move to next pattern
G1 Z0.6 F12000 ; Z hop return
G1 E1 F1800 ; Un-retract
SET_PRESSURE_ADVANCE ADVANCE=0.055 ; Set pressure advance
M117 PA 0.055
G1 X176.1531 Y149.22 E1.01546 F4200 ; Print pattern wall
G1 X154.9399 Y170.4332 E1.01546 F4200 ; Print pattern wall
G1 E-1 F3000 ; Retract
G1 Z0.7 F12000 ; Z hop
G0 X155.5156 Y128.0068 F12000 ; Move to start next pattern wall
G1 Z0.6 F12000 ; Z hop return
G1 E1 F1800 ; Un-retract
G1 X176.7288 Y149.22 E1.01546 F4200 ; Print pattern wall
G1 X155.5156 Y170.4332 E1.01546 F4200 ; Print pattern wall
G1 E-1 F3000 ; Retract
G1 Z0.7 F12000 ; Z hop
G0 X156.0913 Y128.0068 F12000 ; Move to start next pattern wall
G1 Z0.6 F12000 ; Z hop return
G1 E1 F1800 ; Un-retract
G1 X177.3045 Y149.22 E1.01546 F4200 ; Print pattern wall
G1 X156.0913 Y170.4332 E1.01546 F4200 ; Print pattern wall
G1 E-1 F3000 ; Retract
G1 Z0.7 F12000 ; Z hop
G0 X158.5413 Y128.0068 F12000 ; Move to next pattern
G1 Z0.6 F12000 ; Z hop return
G1 E1 F1800 ; Un-retract
SET_PRESSURE_ADVANCE ADVANCE=0.06 ; Set pressure advance
M117 PA 0.06
G1 X179.7545 Y149.22 E1.01546 F4200 ; Print pattern wall
G1 X158.5413 Y170.4332 E1.01546 F4200 ; Print pattern wall
G1 E-1 F3000 ; Retract
G1 Z0.7 F12000 ; Z hop
G0 X159.117 Y128.0068 F12000 ; Move to start next pattern wall
G1 Z0.6 F12000 ; Z hop return
G1 E1 F1800 ; Un-retract
G1 X180.3302 Y149.22 E1.01546 F4200 ; Print pattern wall
G1 X159.117 Y170.4332 E1.01546 F4200 ; Print pattern wall
G1 E-1 F3000 ; Retract
G1 Z0.7 F12000 ; Z hop
G0 X159.6927 Y128.0068 F12000 ; Move to start next pattern wall
G1 Z0.6 F12000 ; Z hop return
G1 E1 F1800 ; Un-retract
G1 X180.9059 Y149.22 E1.01546 F4200 ; Print pattern wall
G1 X159.6927 Y170.4332 E1.01546 F4200 ; Print pattern wall
G1 E-1 F3000 ; Retract
G1 Z0.7 F12000 ; Z hop
G0 X162.1427 Y128.0068 F12000 ; Move to next pattern
G1 Z0.6 F12000 ; Z hop return
G1 E1 F1800 ; Un-retract
SET_PRESSURE_ADVANCE ADVANCE=0.065 ; Set pressure advance
M117 PA 0.065
G1 X183.3559 Y149.22 E1.01546 F4200 ; Print pattern wall
G1 X162.1427 Y170.4332 E1.01546 F4200 ; Print pattern wall
G1 E-1 F3000 ; Retract
G1 Z0.7 F12000 ; Z hop
G0 X162.7184 Y128.0068 F12000 ; Move to start next pattern wall
G1 Z0.6 F12000 ; Z hop return
G1 E1 F1800 ; Un-retract
G1 X183.9316 Y149.22 E1.01546 F4200 ; Print pattern wall
G1 X162.7184 Y170.4332 E1.01546 F4200 ; Print pattern wall
G1 E-1 F3000 ; Retract
G1 Z0.7 F12000 ; Z hop
G0 X163.2941 Y128.0068 F12000 ; Move to start next pattern wall
G1 Z0.6 F12000 ; Z hop return
G1 E1 F1800 ; Un-retract
G1 X184.5073 Y149.22 E1.01546 F4200 ; Print pattern wall
G1 X163.2941 Y170.4332 E1.01546 F4200 ; Print pattern wall
G1 E-1 F3000 ; Retract
G1 Z0.7 F12000 ; Z hop
G0 X165.7441 Y128.0068 F12000 ; Move to next pattern
G1 Z0.6 F12000 ; Z hop return
G1 E1 F1800 ; Un-retract
SET_PRESSURE_ADVANCE ADVANCE=0.07 ; Set pressure advance
M117 PA 0.07
G1 X186.9573 Y149.22 E1.01546 F4200 ; Print pattern wall
G1 X165.7441 Y170.4332 E1.01546 F4200 ; Print pattern wall
G1 E-1 F3000 ; Retract
G1 Z0.7 F12000 ; Z hop
G0 X166.3198 Y128.0068 F12000 ; Move to start next pattern wall
G1 Z0.6 F12000 ; Z hop return
G1 E1 F1800 ; Un-retract
G1 X187.533 Y149.22 E1.01546 F4200 ; Print pattern wall
G1 X166.3198 Y170.4332 E1.01546 F4200 ; Print pattern wall
G1 E-1 F3000 ; Retract
G1 Z0.7 F12000 ; Z hop
G0 X166.8955 Y128.0068 F12000 ; Move to start next pattern wall
G1 Z0.6 F12000 ; Z hop return
G1 E1 F1800 ; Un-retract
G1 X188.1087 Y149.22 E1.01546 F4200 ; Print pattern wall
G1 X166.8955 Y170.4332 E1.01546 F4200 ; Print pattern wall
G1 E-1 F3000 ; Retract
G1 Z0.7 F12000 ; Z hop
G0 X169.3455 Y128.0068 F12000 ; Move to next pattern
G1 Z0.6 F12000 ; Z hop return
G1 E1 F1800 ; Un-retract
SET_PRESSURE_ADVANCE ADVANCE=0.075 ; Set pressure advance
M117 PA 0.075
G1 X190.5587 Y149.22 E1.01546 F4200 ; Print pattern wall
G1 X169.3455 Y170.4332 E1.01546 F4200 ; Print pattern wall
G1 E-1 F3000 ; Retract
G1 Z0.7 F12000 ; Z hop
G0 X169.9212 Y128.0068 F12000 ; Move to start next pattern wall
G1 Z0.6 F12000 ; Z hop return
G1 E1 F1800 ; Un-retract
G1 X191.1344 Y149.22 E1.01546 F4200 ; Print pattern wall
G1 X169.9212 Y170.4332 E1.01546 F4200 ; Print pattern wall
G1 E-1 F3000 ; Retract
G1 Z0.7 F12000 ; Z hop
G0 X170.4969 Y128.0068 F12000 ; Move to start next pattern wall
G1 Z0.6 F12000 ; Z hop return
G1 E1 F1800 ; Un-retract
G1 X191.7101 Y149.22 E1.01546 F4200 ; Print pattern wall
G1 X170.4969 Y170.4332 E1.01546 F4200 ; Print pattern wall
G1 E-1 F3000 ; Retract
G1 Z0.7 F12000 ; Z hop
G0 X172.9469 Y128.0068 F12000 ; Move to next pattern
G1 Z0.6 F12000 ; Z hop return
G1 E1 F1800 ; Un-retract
SET_PRESSURE_ADVANCE ADVANCE=0.08 ; Set pressure advance
M117 PA 0.08
G1 X194.1601 Y149.22 E1.01546 F4200 ; Print pattern wall
G1 X172.9469 Y170.4332 E1.01546 F4200 ; Print pattern wall
G1 E-1 F3000 ; Retract
G1 Z0.7 F12000 ; Z hop
G0 X173.5226 Y128.0068 F12000 ; Move to start next pattern wall
G1 Z0.6 F12000 ; Z hop return
G1 E1 F1800 ; Un-retract
G1 X194.7358 Y149.22 E1.01546 F4200 ; Print pattern wall
G1 X173.5226 Y170.4332 E1.01546 F4200 ; Print pattern wall
G1 E-1 F3000 ; Retract
G1 Z0.7 F12000 ; Z hop
G0 X174.0983 Y128.0068 F12000 ; Move to start next pattern wall
G1 Z0.6 F12000 ; Z hop return
G1 E1 F1800 ; Un-retract
G1 X195.3115 Y149.22 E1.01546 F4200 ; Print pattern wall
G1 X174.0983 Y170.4332 E1.01546 F4200 ; Print pattern wall
G1 E-1 F3000 ; Retract
G1 Z0.7 F12000 ; Z hop
G0 X115.3245 Y128.0068 F12000 ; Move back to start position
G1 Z0.6 F12000 ; Z hop return
G1 E1 F1800 ; Un-retract
G0 Z0.8 F12000 ; Move to layer height
SET_PRESSURE_ADVANCE ADVANCE=0 ; Set pressure advance
M117 PA 0
G1 X136.5377 Y149.22 E1.01546 F4200 ; Print pattern wall
G1 X115.3245 Y170.4332 E1.01546 F4200 ; Print pattern wall
G1 E-1 F3000 ; Retract
G1 Z0.9 F12000 ; Z hop
G0 X115.9002 Y128.0068 F12000 ; Move to start next pattern wall
G1 Z0.8 F12000 ; Z hop return
G1 E1 F1800 ; Un-retract
G1 X137.1134 Y149.22 E1.01546 F4200 ; Print pattern wall
G1 X115.9002 Y170.4332 E1.01546 F4200 ; Print pattern wall
G1 E-1 F3000 ; Retract
G1 Z0.9 F12000 ; Z hop
G0 X116.4759 Y128.0068 F12000 ; Move to start next pattern wall
G1 Z0.8 F12000 ; Z hop return
G1 E1 F1800 ; Un-retract
G1 X137.6891 Y149.22 E1.01546 F4200 ; Print pattern wall
G1 X116.4759 Y170.4332 E1.01546 F4200 ; Print pattern wall
G1 E-1 F3000 ; Retract
G1 Z0.9 F12000 ; Z hop
G0 X118.9259 Y128.0068 F12000 ; Move to next pattern
G1 Z0.8 F12000 ; Z hop return
G1 E1 F1800 ; Un-retract
SET_PRESSURE_ADVANCE ADVANCE=0.005 ; Set pressure advance
M117 PA 0.005
G1 X140.1391 Y149.22 E1.01546 F4200 ; Print pattern wall
G1 X118.9259 Y170.4332 E1.01546 F4200 ; Print pattern wall
G1 E-1 F3000 ; Retract
G1 Z0.9 F12000 ; Z hop
G0 X119.5016 Y128.0068 F12000 ; Move to start next pattern wall
G1 Z0.8 F12000 ; Z hop return
G1 E1 F1800 ; Un-retract
G1 X140.7148 Y149.22 E1.01546 F4200 ; Print pattern wall
G1 X119.5016 Y170.4332 E1.01546 F4200 ; Print pattern wall
G1 E-1 F3000 ; Retract
G1 Z0.9 F12000 ; Z hop
G0 X120.0773 Y128.0068 F12000 ; Move to start next pattern wall
G1 Z0.8 F12000 ; Z hop return
G1 E1 F1800 ; Un-retract
G1 X141.2905 Y149.22 E1.01546 F4200 ; Print pattern wall
G1 X120.0773 Y170.4332 E1.01546 F4200 ; Print pattern wall
G1 E-1 F3000 ; Retract
G1 Z0.9 F12000 ; Z hop
G0 X122.5273 Y128.0068 F12000 ; Move to next pattern
G1 Z0.8 F12000 ; Z hop return
G1 E1 F1800 ; Un-retract
SET_PRESSURE_ADVANCE ADVANCE=0.01 ; Set pressure advance
M117 PA 0.01
G1 X143.7405 Y149.22 E1.01546 F4200 ; Print pattern wall
G1 X122.5273 Y170.4332 E1.01546 F4200 ; Print pattern wall
G1 E-1 F3000 ; Retract
G1 Z0.9 F12000 ; Z hop
G0 X123.103 Y128.0068 F12000 ; Move to start next pattern wall
G1 Z0.8 F12000 ; Z hop return
G1 E1 F1800 ; Un-retract
G1 X144.3162 Y149.22 E1.01546 F4200 ; Print pattern wall
G1 X123.103 Y170.4332 E1.01546 F4200 ; Print pattern wall
G1 E-1 F3000 ; Retract
G1 Z0.9 F12000 ; Z hop
G0 X123.6787 Y128.0068 F12000 ; Move to start next pattern wall
G1 Z0.8 F12000 ; Z hop return
G1 E1 F1800 ; Un-retract
G1 X144.8919 Y149.22 E1.01546 F4200 ; Print pattern wall
G1 X123.6787 Y170.4332 E1.01546 F4200 ; Print pattern wall
G1 E-1 F3000 ; Retract
G1 Z0.9 F12000 ; Z hop
G0 X126.1287 Y128.0068 F12000 ; Move to next pattern
G1 Z0.8 F12000 ; Z hop return
G1 E1 F1800 ; Un-retract
SET_PRESSURE_ADVANCE ADVANCE=0.015 ; Set pressure advance
M117 PA 0.015
G1 X147.3419 Y149.22 E1.01546 F4200 ; Print pattern wall
G1 X126.1287 Y170.4332 E1.01546 F4200 ; Print pattern wall
G1 E-1 F3000 ; Retract
G1 Z0.9 F12000 ; Z hop
G0 X126.7044 Y128.0068 F12000 ; Move to start next pattern wall
G1 Z0.8 F12000 ; Z hop return
G1 E1 F1800 ; Un-retract
G1 X147.9176 Y149.22 E1.01546 F4200 ; Print pattern wall
G1 X126.7044 Y170.4332 E1.01546 F4200 ; Print pattern wall
G1 E-1 F3000 ; Retract
G1 Z0.9 F12000 ; Z hop
G0 X127.2801 Y128.0068 F12000 ; Move to start next pattern wall
G1 Z0.8 F12000 ; Z hop return
G1 E1 F1800 ; Un-retract
G1 X148.4933 Y149.22 E1.01546 F4200 ; Print pattern wall
G1 X127.2801 Y170.4332 E1.01546 F4200 ; Print pattern wall
G1 E-1 F3000 ; Retract
G1 Z0.9 F12000 ; Z hop
G0 X129.7301 Y128.0068 F12000 ; Move to next pattern
G1 Z0.8 F12000 ; Z hop return
G1 E1 F1800 ; Un-retract
SET_PRESSURE_ADVANCE ADVANCE=0.02 ; Set pressure advance
M117 PA 0.02
G1 X150.9433 Y149.22 E1.01546 F4200 ; Print pattern wall
G1 X129.7301 Y170.4332 E1.01546 F4200 ; Print pattern wall
G1 E-1 F3000 ; Retract
G1 Z0.9 F12000 ; Z hop
G0 X130.3058 Y128.0068 F12000 ; Move to start next pattern wall
G1 Z0.8 F12000 ; Z hop return
G1 E1 F1800 ; Un-retract
G1 X151.519 Y149.22 E1.01546 F4200 ; Print pattern wall
G1 X130.3058 Y170.4332 E1.01546 F4200 ; Print pattern wall
G1 E-1 F3000 ; Retract
G1 Z0.9 F12000 ; Z hop
G0 X130.8815 Y128.0068 F12000 ; Move to start next pattern wall
G1 Z0.8 F12000 ; Z hop return
G1 E1 F1800 ; Un-retract
G1 X152.0947 Y149.22 E1.01546 F4200 ; Print pattern wall
G1 X130.8815 Y170.4332 E1.01546 F4200 ; Print pattern wall
G1 E-1 F3000 ; Retract
G1 Z0.9 F12000 ; Z hop
G0 X133.3315 Y128.0068 F12000 ; Move to next pattern
G1 Z0.8 F12000 ; Z hop return
G1 E1 F1800 ; Un-retract
SET_PRESSURE_ADVANCE ADVANCE=0.025 ; Set pressure advance
M117 PA 0.025
G1 X154.5447 Y149.22 E1.01546 F4200 ; Print pattern wall
G1 X133.3315 Y170.4332 E1.01546 F4200 ; Print pattern wall
G1 E-1 F3000 ; Retract
G1 Z0.9 F12000 ; Z hop
G0 X133.9072 Y128.0068 F12000 ; Move to start next pattern wall
G1 Z0.8 F12000 ; Z hop return
G1 E1 F1800 ; Un-retract
G1 X155.1204 Y149.22 E1.01546 F4200 ; Print pattern wall
G1 X133.9072 Y170.4332 E1.01546 F4200 ; Print pattern wall
G1 E-1 F3000 ; Retract
G1 Z0.9 F12000 ; Z hop
G0 X134.4829 Y128.0068 F12000 ; Move to start next pattern wall
G1 Z0.8 F12000 ; Z hop return
G1 E1 F1800 ; Un-retract
G1 X155.6961 Y149.22 E1.01546 F4200 ; Print pattern wall
G1 X134.4829 Y170.4332 E1.01546 F4200 ; Print pattern wall
G1 E-1 F3000 ; Retract
G1 Z0.9 F12000 ; Z hop
G0 X136.9329 Y128.0068 F12000 ; Move to next pattern
G1 Z0.8 F12000 ; Z hop return
G1 E1 F1800 ; Un-retract
SET_PRESSURE_ADVANCE ADVANCE=0.03 ; Set pressure advance
M117 PA 0.03
G1 X158.1461 Y149.22 E1.01546 F4200 ; Print pattern wall
G1 X136.9329 Y170.4332 E1.01546 F4200 ; Print pattern wall
G1 E-1 F3000 ; Retract
G1 Z0.9 F12000 ; Z hop
G0 X137.5086 Y128.0068 F12000 ; Move to start next pattern wall
G1 Z0.8 F12000 ; Z hop return
G1 E1 F1800 ; Un-retract
G1 X158.7218 Y149.22 E1.01546 F4200 ; Print pattern wall
G1 X137.5086 Y170.4332 E1.01546 F4200 ; Print pattern wall
G1 E-1 F3000 ; Retract
G1 Z0.9 F12000 ; Z hop
G0 X138.0843 Y128.0068 F12000 ; Move to start next pattern wall
G1 Z0.8 F12000 ; Z hop return
G1 E1 F1800 ; Un-retract
G1 X159.2975 Y149.22 E1.01546 F4200 ; Print pattern wall
G1 X138.0843 Y170.4332 E1.01546 F4200 ; Print pattern wall
G1 E-1 F3000 ; Retract
G1 Z0.9 F12000 ; Z hop
G0 X140.5343 Y128.0068 F12000 ; Move to next pattern
G1 Z0.8 F12000 ; Z hop return
G1 E1 F1800 ; Un-retract
SET_PRESSURE_ADVANCE ADVANCE=0.035 ; Set pressure advance
M117 PA 0.035
G1 X161.7475 Y149.22 E1.01546 F4200 ; Print pattern wall
G1 X140.5343 Y170.4332 E1.01546 F4200 ; Print pattern wall
G1 E-1 F3000 ; Retract
G1 Z0.9 F12000 ; Z hop
G0 X141.11 Y128.0068 F12000 ; Move to start next pattern wall
G1 Z0.8 F12000 ; Z hop return
G1 E1 F1800 ; Un-retract
G1 X162.3232 Y149.22 E1.01546 F4200 ; Print pattern wall
G1 X141.11 Y170.4332 E1.01546 F4200 ; Print pattern wall
G1 E-1 F3000 ; Retract
G1 Z0.9 F12000 ; Z hop
G0 X141.6857 Y128.0068 F12000 ; Move to start next pattern wall
G1 Z0.8 F12000 ; Z hop return
G1 E1 F1800 ; Un-retract
G1 X162.8989 Y149.22 E1.01546 F4200 ; Print pattern wall
G1 X141.6857 Y170.4332 E1.01546 F4200 ; Print pattern wall
G1 E-1 F3000 ; Retract
G1 Z0.9 F12000 ; Z hop
G0 X144.1357 Y128.0068 F12000 ; Move to next pattern
G1 Z0.8 F12000 ; Z hop return
G1 E1 F1800 ; Un-retract
SET_PRESSURE_ADVANCE ADVANCE=0.04 ; Set pressure advance
M117 PA 0.04
G1 X165.3489 Y149.22 E1.01546 F4200 ; Print pattern wall
G1 X144.1357 Y170.4332 E1.01546 F4200 ; Print pattern wall
G1 E-1 F3000 ; Retract
G1 Z0.9 F12000 ; Z hop
G0 X144.7114 Y128.0068 F12000 ; Move to start next pattern wall
G1 Z0.8 F12000 ; Z hop return
G1 E1 F1800 ; Un-retract
G1 X165.9246 Y149.22 E1.01546 F4200 ; Print pattern wall
G1 X144.7114 Y170.4332 E1.01546 F4200 ; Print pattern wall
G1 E-1 F3000 ; Retract
G1 Z0.9 F12000 ; Z hop
G0 X145.2871 Y128.0068 F12000 ; Move to start next pattern wall
G1 Z0.8 F12000 ; Z hop return
G1 E1 F1800 ; Un-retract
G1 X166.5003 Y149.22 E1.01546 F4200 ; Print pattern wall
G1 X145.2871 Y170.4332 E1.01546 F4200 ; Print pattern wall
G1 E-1 F3000 ; Retract
G1 Z0.9 F12000 ; Z hop
G0 X147.7371 Y128.0068 F12000 ; Move to next pattern
G1 Z0.8 F12000 ; Z hop return
G1 E1 F1800 ; Un-retract
SET_PRESSURE_ADVANCE ADVANCE=0.045 ; Set pressure advance
M117 PA 0.045
G1 X168.9503 Y149.22 E1.01546 F4200 ; Print pattern wall
G1 X147.7371 Y170.4332 E1.01546 F4200 ; Print pattern wall
G1 E-1 F3000 ; Retract
G1 Z0.9 F12000 ; Z hop
G0 X148.3128 Y128.0068 F12000 ; Move to start next pattern wall
G1 Z0.8 F12000 ; Z hop return
G1 E1 F1800 ; Un-retract
G1 X169.526 Y149.22 E1.01546 F4200 ; Print pattern wall
G1 X148.3128 Y170.4332 E1.01546 F4200 ; Print pattern wall
G1 E-1 F3000 ; Retract
G1 Z0.9 F12000 ; Z hop
G0 X148.8885 Y128.0068 F12000 ; Move to start next pattern wall
G1 Z0.8 F12000 ; Z hop return
G1 E1 F1800 ; Un-retract
G1 X170.1017 Y149.22 E1.01546 F4200 ; Print pattern wall
G1 X148.8885 Y170.4332 E1.01546 F4200 ; Print pattern wall
G1 E-1 F3000 ; Retract
G1 Z0.9 F12000 ; Z hop
G0 X151.3385 Y128.0068 F12000 ; Move to next pattern
G1 Z0.8 F12000 ; Z hop return
G1 E1 F1800 ; Un-retract
SET_PRESSURE_ADVANCE ADVANCE=0.05 ; Set pressure advance
M117 PA 0.05
G1 X172.5517 Y149.22 E1.01546 F4200 ; Print pattern wall
G1 X151.3385 Y170.4332 E1.01546 F4200 ; Print pattern wall
G1 E-1 F3000 ; Retract
G1 Z0.9 F12000 ; Z hop
G0 X151.9142 Y128.0068 F12000 ; Move to start next pattern wall
G1 Z0.8 F12000 ; Z hop return
G1 E1 F1800 ; Un-retract
G1 X173.1274 Y149.22 E1.01546 F4200 ; Print pattern wall
G1 X151.9142 Y170.4332 E1.01546 F4200 ; Print pattern wall
G1 E-1 F3000 ; Retract
G1 Z0.9 F12000 ; Z hop
G0 X152.4899 Y128.0068 F12000 ; Move to start next pattern wall
G1 Z0.8 F12000 ; Z hop return
G1 E1 F1800 ; Un-retract
G1 X173.7031 Y149.22 E1.01546 F4200 ; Print pattern wall
G1 X152.4899 Y170.4332 E1.01546 F4200 ; Print pattern wall
G1 E-1 F3000 ; Retract
G1 Z0.9 F12000 ; Z hop
G0 X154.9399 Y128.0068 F12000 ; Move to next pattern
G1 Z0.8 F12000 ; Z hop return
G1 E1 F1800 ; Un-retract
SET_PRESSURE_ADVANCE ADVANCE=0.055 ; Set pressure advance
M117 PA 0.055
G1 X176.1531 Y149.22 E1.01546 F4200 ; Print pattern wall
G1 X154.9399 Y170.4332 E1.01546 F4200 ; Print pattern wall
G1 E-1 F3000 ; Retract
G1 Z0.9 F12000 ; Z hop
G0 X155.5156 Y128.0068 F12000 ; Move to start next pattern wall
G1 Z0.8 F12000 ; Z hop return
G1 E1 F1800 ; Un-retract
G1 X176.7288 Y149.22 E1.01546 F4200 ; Print pattern wall
G1 X155.5156 Y170.4332 E1.01546 F4200 ; Print pattern wall
G1 E-1 F3000 ; Retract
G1 Z0.9 F12000 ; Z hop
G0 X156.0913 Y128.0068 F12000 ; Move to start next pattern wall
G1 Z0.8 F12000 ; Z hop return
G1 E1 F1800 ; Un-retract
G1 X177.3045 Y149.22 E1.01546 F4200 ; Print pattern wall
G1 X156.0913 Y170.4332 E1.01546 F4200 ; Print pattern wall
G1 E-1 F3000 ; Retract
G1 Z0.9 F12000 ; Z hop
G0 X158.5413 Y128.0068 F12000 ; Move to next pattern
G1 Z0.8 F12000 ; Z hop return
G1 E1 F1800 ; Un-retract
SET_PRESSURE_ADVANCE ADVANCE=0.06 ; Set pressure advance
M117 PA 0.06
G1 X179.7545 Y149.22 E1.01546 F4200 ; Print pattern wall
G1 X158.5413 Y170.4332 E1.01546 F4200 ; Print pattern wall
G1 E-1 F3000 ; Retract
G1 Z0.9 F12000 ; Z hop
G0 X159.117 Y128.0068 F12000 ; Move to start next pattern wall
G1 Z0.8 F12000 ; Z hop return
G1 E1 F1800 ; Un-retract
G1 X180.3302 Y149.22 E1.01546 F4200 ; Print pattern wall
G1 X159.117 Y170.4332 E1.01546 F4200 ; Print pattern wall
G1 E-1 F3000 ; Retract
G1 Z0.9 F12000 ; Z hop
G0 X159.6927 Y128.0068 F12000 ; Move to start next pattern wall
G1 Z0.8 F12000 ; Z hop return
G1 E1 F1800 ; Un-retract
G1 X180.9059 Y149.22 E1.01546 F4200 ; Print pattern wall
G1 X159.6927 Y170.4332 E1.01546 F4200 ; Print pattern wall
G1 E-1 F3000 ; Retract
G1 Z0.9 F12000 ; Z hop
G0 X162.1427 Y128.0068 F12000 ; Move to next pattern
G1 Z0.8 F12000 ; Z hop return
G1 E1 F1800 ; Un-retract
SET_PRESSURE_ADVANCE ADVANCE=0.065 ; Set pressure advance
M117 PA 0.065
G1 X183.3559 Y149.22 E1.01546 F4200 ; Print pattern wall
G1 X162.1427 Y170.4332 E1.01546 F4200 ; Print pattern wall
G1 E-1 F3000 ; Retract
G1 Z0.9 F12000 ; Z hop
G0 X162.7184 Y128.0068 F12000 ; Move to start next pattern wall
G1 Z0.8 F12000 ; Z hop return
G1 E1 F1800 ; Un-retract
G1 X183.9316 Y149.22 E1.01546 F4200 ; Print pattern wall
G1 X162.7184 Y170.4332 E1.01546 F4200 ; Print pattern wall
G1 E-1 F3000 ; Retract
G1 Z0.9 F12000 ; Z hop
G0 X163.2941 Y128.0068 F12000 ; Move to start next pattern wall
G1 Z0.8 F12000 ; Z hop return
G1 E1 F1800 ; Un-retract
G1 X184.5073 Y149.22 E1.01546 F4200 ; Print pattern wall
G1 X163.2941 Y170.4332 E1.01546 F4200 ; Print pattern wall
G1 E-1 F3000 ; Retract
G1 Z0.9 F12000 ; Z hop
G0 X165.7441 Y128.0068 F12000 ; Move to next pattern
G1 Z0.8 F12000 ; Z hop return
G1 E1 F1800 ; Un-retract
SET_PRESSURE_ADVANCE ADVANCE=0.07 ; Set pressure advance
M117 PA 0.07
G1 X186.9573 Y149.22 E1.01546 F4200 ; Print pattern wall
G1 X165.7441 Y170.4332 E1.01546 F4200 ; Print pattern wall
G1 E-1 F3000 ; Retract
G1 Z0.9 F12000 ; Z hop
G0 X166.3198 Y128.0068 F12000 ; Move to start next pattern wall
G1 Z0.8 F12000 ; Z hop return
G1 E1 F1800 ; Un-retract
G1 X187.533 Y149.22 E1.01546 F4200 ; Print pattern wall
G1 X166.3198 Y170.4332 E1.01546 F4200 ; Print pattern wall
G1 E-1 F3000 ; Retract
G1 Z0.9 F12000 ; Z hop
G0 X166.8955 Y128.0068 F12000 ; Move to start next pattern wall
G1 Z0.8 F12000 ; Z hop return
G1 E1 F1800 ; Un-retract
G1 X188.1087 Y149.22 E1.01546 F4200 ; Print pattern wall
G1 X166.8955 Y170.4332 E1.01546 F4200 ; Print pattern wall
G1 E-1 F3000 ; Retract
G1 Z0.9 F12000 ; Z hop
G0 X169.3455 Y128.0068 F12000 ; Move to next pattern
G1 Z0.8 F12000 ; Z hop return
G1 E1 F1800 ; Un-retract
SET_PRESSURE_ADVANCE ADVANCE=0.075 ; Set pressure advance
M117 PA 0.075
G1 X190.5587 Y149.22 E1.01546 F4200 ; Print pattern wall
G1 X169.3455 Y170.4332 E1.01546 F4200 ; Print pattern wall
G1 E-1 F3000 ; Retract
G1 Z0.9 F12000 ; Z hop
G0 X169.9212 Y128.0068 F12000 ; Move to start next pattern wall
G1 Z0.8 F12000 ; Z hop return
G1 E1 F1800 ; Un-retract
G1 X191.1344 Y149.22 E1.01546 F4200 ; Print pattern wall
G1 X169.9212 Y170.4332 E1.01546 F4200 ; Print pattern wall
G1 E-1 F3000 ; Retract
G1 Z0.9 F12000 ; Z hop
G0 X170.4969 Y128.0068 F12000 ; Move to start next pattern wall
G1 Z0.8 F12000 ; Z hop return
G1 E1 F1800 ; Un-retract
G1 X191.7101 Y149.22 E1.01546 F4200 ; Print pattern wall
G1 X170.4969 Y170.4332 E1.01546 F4200 ; Print pattern wall
G1 E-1 F3000 ; Retract
G1 Z0.9 F12000 ; Z hop
G0 X172.9469 Y128.0068 F12000 ; Move to next pattern
G1 Z0.8 F12000 ; Z hop return
G1 E1 F1800 ; Un-retract
SET_PRESSURE_ADVANCE ADVANCE=0.08 ; Set pressure advance
M117 PA 0.08
G1 X194.1601 Y149.22 E1.01546 F4200 ; Print pattern wall
G1 X172.9469 Y170.4332 E1.01546 F4200 ; Print pattern wall
G1 E-1 F3000 ; Retract
G1 Z0.9 F12000 ; Z hop
G0 X173.5226 Y128.0068 F12000 ; Move to start next pattern wall
G1 Z0.8 F12000 ; Z hop return
G1 E1 F1800 ; Un-retract
G1 X194.7358 Y149.22 E1.01546 F4200 ; Print pattern wall
G1 X173.5226 Y170.4332 E1.01546 F4200 ; Print pattern wall
G1 E-1 F3000 ; Retract
G1 Z0.9 F12000 ; Z hop
G0 X174.0983 Y128.0068 F12000 ; Move to start next pattern wall
G1 Z0.8 F12000 ; Z hop return
G1 E1 F1800 ; Un-retract
G1 X195.3115 Y149.22 E1.01546 F4200 ; Print pattern wall
G1 X174.0983 Y170.4332 E1.01546 F4200 ; Print pattern wall
SET_PRESSURE_ADVANCE ADVANCE=0 ; Set pressure advance back to start value
M117 PA 0
G1 E-1 F3000 ; Retract
G1 Z0.9 F12000 ; Z hop
G0 Z5.8 F12000 ; Z raise
M104 S0 ; Turn off hotend
M140 S0 ; Turn off bed
M107    ; Turn off fan
;
; End G-code
;
END_PRINT
;
; FINISH
;
