
; ### Ellis' Pressure Advance / Linear Advance Calibration Tool ###
;
; Original Marlin linear advance calibration tool by Sineos [https://github.com/Sineos]
; Heavily modified/rewritten by Andrew Ellis [https://github.com/AndrewEllis93]
;
; -------------------------------------------
; Generated: Fri Dec 30 2022 17:40:59 GMT-0800 (Pacific Standard Time)
; -------------------------------------------
;
; Advanced mode: false
;
; Printer:
;  - Firmware: klipper
;  - Bed Shape: Rect
;  - Bed Size X: 310 mm
;  - Bed Size Y: 310 mm
;  - Origin Bed Center: false
;  - Travel Speed: 200 mm/s
;  - Nozzle Diameter: 0.4 mm
;  - Filament Diameter: 1.75 mm
;  - Extrusion Multiplier: 1
;
; Retraction / Z Hop:
;  - Retraction Distance: 1 mm
;  - Retract Speed: 50 mm/s
;  - Unretract Speed: 30 mm/s
;  - Z Hop Enable: true
;  - Z Hop Height: 0.1mm
;
; First Layer Settings:
;  - First Layer Height: 0.2 mm
;  - First Layer Printing Speed: 30 mm/s
;  - First Layer Fan Speed: 0%
;  - Anchor Option: anchor_frame
;
; Print Settings:
;  - Layer Height: 0.2 mm
;  - Print Speed: 70 mm/s
;  - Acceleration: 3000 mm/s^2
;  - Fan Speed: 100%
;
; Pressure Advance Stepping:
;  - PA Start Value: 0.06
;  - PA End Value: 0.08
;  - PA Increment: 0.001
;
; Start / End G-code:
;  - Start G-code Type: standalone
;  - Hotend Temp: 235C
;  - Bed Temp: 70C
;
; Calculated Values:
;  - Print Size X: 99.17 mm
;  - Print Size Y: 56.99 mm
;  - Number of Patterns to Print: 21
;  - PA Values: 0.06, 0.061, 0.062, 0.063, 0.064, 0.065, 0.066, 0.067, 0.068, 0.069, 0.07, 0.071, 0.072, 0.073, 0.074, 0.075, 0.076, 0.077, 0.078, 0.079, 0.08
;
; Prepare printing
;
M190 S70    ; Set & wait for bed temp. !Don't modify/delete, only move!
M109 S235 ; Set & wait for hotend temp. !Don't modify/delete, only move!
START_PRINT T_BED=70 T_EXTRUDER=235
;
; Make sure this macro name matches your own!
; (For example, some may use START_PRINT instead.)
G21 ; Millimeter units
G90 ; Absolute XYZ
M83 ; Relative E
G92 E0 ; Reset extruder distance
;
;  Begin printing
;
M106 S0 ; Set fan speed
SET_VELOCITY_LIMIT ACCEL=3000 ; Set printing acceleration
G1 E-1 F3000 ; Retract
G0 Z5 F12000 ; Z raise
G0 X105.4174 Y126.5068 F12000 ; Move to start position
G0 Z0.2 F12000 ; Move to start layer height
G1 E1 F1800 ; Un-retract
SET_PRESSURE_ADVANCE ADVANCE=0.06 ; Set pressure advance to start value
M117 PA 0.06
G1 X105.4174 Y168.9332 E1.82414 F1800 ; Draw perimeter (up)
G1 X204.5826 Y168.9332 E4.26364 F1800 ; Draw perimeter (right)
G1 X204.5826 Y126.5068 E1.82414 F1800 ; Draw perimeter (down)
G1 X105.4174 Y126.5068 E4.26364 F1800 ; Draw perimeter (left)
G0 X105.9345 Y127.0239 F12000 ; Step inwards to print next perimeter
G1 X105.9345 Y168.4161 E1.77967 F1800 ; Draw perimeter (up)
G1 X204.0655 Y168.4161 E4.21917 F1800 ; Draw perimeter (right)
G1 X204.0655 Y127.0239 E1.77967 F1800 ; Draw perimeter (down)
G1 X105.9345 Y127.0239 E4.21917 F1800 ; Draw perimeter (left)
G0 X106.4516 Y127.541 F12000 ; Step inwards to print next perimeter
G1 X106.4516 Y167.899 E1.73521 F1800 ; Draw perimeter (up)
G1 X203.5484 Y167.899 E4.17471 F1800 ; Draw perimeter (right)
G1 X203.5484 Y127.541 E1.73521 F1800 ; Draw perimeter (down)
G1 X106.4516 Y127.541 E4.17471 F1800 ; Draw perimeter (left)
G0 X106.9687 Y128.058 F12000 ; Step inwards to print next perimeter
G1 X106.9687 Y167.382 E1.69075 F1800 ; Draw perimeter (up)
G1 X203.0313 Y167.382 E4.13025 F1800 ; Draw perimeter (right)
G1 X203.0313 Y128.058 E1.69075 F1800 ; Draw perimeter (down)
G1 X106.9687 Y128.058 E4.13025 F1800 ; Draw perimeter (left)
G1 E-1 F3000 ; Retract
G1 Z0.3 F12000 ; Z hop
G0 X105.4174 Y169.4503 F12000 ; Move to box start
G1 Z0.2 F12000 ; Z hop return
G1 E1 F1800 ; Un-retract
G1 X105.4174 Y183.9674 E0.62417 F1800 ; Draw perimeter (up)
G1 X184.0775 Y183.9674 E3.38202 F1800 ; Draw perimeter (right)
G1 X184.0775 Y169.4503 E0.62417 F1800 ; Draw perimeter (down)
G1 X105.4174 Y169.4503 E3.38202 F1800 ; Draw perimeter (left)
G0 X105.9345 Y169.9674 F12000 ; Step inwards to print next perimeter
G1 X105.9345 Y183.4503 E0.5797 F1800 ; Draw perimeter (up)
G1 X183.5604 Y183.4503 E3.33755 F1800 ; Draw perimeter (right)
G1 X183.5604 Y169.9674 E0.5797 F1800 ; Draw perimeter (down)
G1 X105.9345 Y169.9674 E3.33755 F1800 ; Draw perimeter (left)
G0 X106.4516 Y170.4844 F12000 ; Step inwards to print next perimeter
G1 X106.4516 Y182.9332 E0.53524 F1800 ; Draw perimeter (up)
G1 X183.0433 Y182.9332 E3.29309 F1800 ; Draw perimeter (right)
G1 X183.0433 Y170.4844 E0.53524 F1800 ; Draw perimeter (down)
G1 X106.4516 Y170.4844 E3.29309 F1800 ; Draw perimeter (left)
G0 X106.9687 Y171.0015 F12000 ; Step inwards to print next perimeter
G1 X106.9687 Y182.4161 E0.49077 F1800 ; Draw perimeter (up)
G1 X182.5263 Y182.4161 E3.24862 F1800 ; Draw perimeter (right)
G1 X182.5263 Y171.0015 E0.49077 F1800 ; Draw perimeter (down)
G1 X106.9687 Y171.0015 E3.24862 F1800 ; Draw perimeter (left)
G0 X107.342 Y171.3749 F12000 ; Move to fill start
G0 X108.0733 Y171.3749 F12000 ; Move
G1 X107.342 Y172.1061 E0.04446 F1800 ; Fill
G0 X107.342 Y172.8374 F12000 ; Move
G1 X108.8045 Y171.3749 E0.08893 F1800 ; Fill
G0 X109.5358 Y171.3749 F12000 ; Move
G1 X107.342 Y173.5686 E0.13339 F1800 ; Fill
G0 X107.342 Y174.2999 F12000 ; Move
G1 X110.2671 Y171.3749 E0.17786 F1800 ; Fill
G0 X110.9983 Y171.3749 F12000 ; Move
G1 X107.342 Y175.0312 E0.22232 F1800 ; Fill
G0 X107.342 Y175.7624 F12000 ; Move
G1 X111.7296 Y171.3749 E0.26678 F1800 ; Fill
G0 X112.4608 Y171.3749 F12000 ; Move
G1 X107.342 Y176.4937 E0.31125 F1800 ; Fill
G0 X107.342 Y177.2249 F12000 ; Move
G1 X113.1921 Y171.3749 E0.35571 F1800 ; Fill
G0 X113.9234 Y171.3749 F12000 ; Move
G1 X107.342 Y177.9562 E0.40018 F1800 ; Fill
G0 X107.342 Y178.6875 F12000 ; Move
G1 X114.6546 Y171.3749 E0.44464 F1800 ; Fill
G0 X115.3859 Y171.3749 F12000 ; Move
G1 X107.342 Y179.4187 E0.4891 F1800 ; Fill
G0 X107.342 Y180.15 F12000 ; Move
G1 X116.1171 Y171.3749 E0.53357 F1800 ; Fill
G0 X116.8484 Y171.3749 F12000 ; Move
G1 X107.342 Y180.8813 E0.57803 F1800 ; Fill
G0 X107.342 Y181.6125 F12000 ; Move
G1 X117.5797 Y171.3749 E0.6225 F1800 ; Fill
G0 X118.3109 Y171.3749 F12000 ; Move
G1 X107.643 Y182.0428 E0.64866 F1800 ; Fill
G0 X108.3743 Y182.0428 F12000 ; Move
G1 X119.0422 Y171.3749 E0.64866 F1800 ; Fill
G0 X119.7734 Y171.3749 F12000 ; Move
G1 X109.1055 Y182.0428 E0.64866 F1800 ; Fill
G0 X109.8368 Y182.0428 F12000 ; Move
G1 X120.5047 Y171.3749 E0.64866 F1800 ; Fill
G0 X121.236 Y171.3749 F12000 ; Move
G1 X110.568 Y182.0428 E0.64866 F1800 ; Fill
G0 X111.2993 Y182.0428 F12000 ; Move
G1 X121.9672 Y171.3749 E0.64866 F1800 ; Fill
G0 X122.6985 Y171.3749 F12000 ; Move
G1 X112.0306 Y182.0428 E0.64866 F1800 ; Fill
G0 X112.7618 Y182.0428 F12000 ; Move
G1 X123.4298 Y171.3749 E0.64866 F1800 ; Fill
G0 X124.161 Y171.3749 F12000 ; Move
G1 X113.4931 Y182.0428 E0.64866 F1800 ; Fill
G0 X114.2243 Y182.0428 F12000 ; Move
G1 X124.8923 Y171.3749 E0.64866 F1800 ; Fill
G0 X125.6235 Y171.3749 F12000 ; Move
G1 X114.9556 Y182.0428 E0.64866 F1800 ; Fill
G0 X115.6869 Y182.0428 F12000 ; Move
G1 X126.3548 Y171.3749 E0.64866 F1800 ; Fill
G0 X127.0861 Y171.3749 F12000 ; Move
G1 X116.4181 Y182.0428 E0.64866 F1800 ; Fill
G0 X117.1494 Y182.0428 F12000 ; Move
G1 X127.8173 Y171.3749 E0.64866 F1800 ; Fill
G0 X128.5486 Y171.3749 F12000 ; Move
G1 X117.8806 Y182.0428 E0.64866 F1800 ; Fill
G0 X118.6119 Y182.0428 F12000 ; Move
G1 X129.2798 Y171.3749 E0.64866 F1800 ; Fill
G0 X130.0111 Y171.3749 F12000 ; Move
G1 X119.3432 Y182.0428 E0.64866 F1800 ; Fill
G0 X120.0744 Y182.0428 F12000 ; Move
G1 X130.7424 Y171.3749 E0.64866 F1800 ; Fill
G0 X131.4736 Y171.3749 F12000 ; Move
G1 X120.8057 Y182.0428 E0.64866 F1800 ; Fill
G0 X121.537 Y182.0428 F12000 ; Move
G1 X132.2049 Y171.3749 E0.64866 F1800 ; Fill
G0 X132.9361 Y171.3749 F12000 ; Move
G1 X122.2682 Y182.0428 E0.64866 F1800 ; Fill
G0 X122.9995 Y182.0428 F12000 ; Move
G1 X133.6674 Y171.3749 E0.64866 F1800 ; Fill
G0 X134.3987 Y171.3749 F12000 ; Move
G1 X123.7307 Y182.0428 E0.64866 F1800 ; Fill
G0 X124.462 Y182.0428 F12000 ; Move
G1 X135.1299 Y171.3749 E0.64866 F1800 ; Fill
G0 X135.8612 Y171.3749 F12000 ; Move
G1 X125.1933 Y182.0428 E0.64866 F1800 ; Fill
G0 X125.9245 Y182.0428 F12000 ; Move
G1 X136.5925 Y171.3749 E0.64866 F1800 ; Fill
G0 X137.3237 Y171.3749 F12000 ; Move
G1 X126.6558 Y182.0428 E0.64866 F1800 ; Fill
G0 X127.387 Y182.0428 F12000 ; Move
G1 X138.055 Y171.3749 E0.64866 F1800 ; Fill
G0 X138.7862 Y171.3749 F12000 ; Move
G1 X128.1183 Y182.0428 E0.64866 F1800 ; Fill
G0 X128.8496 Y182.0428 F12000 ; Move
G1 X139.5175 Y171.3749 E0.64866 F1800 ; Fill
G0 X140.2488 Y171.3749 F12000 ; Move
G1 X129.5808 Y182.0428 E0.64866 F1800 ; Fill
G0 X130.3121 Y182.0428 F12000 ; Move
G1 X140.98 Y171.3749 E0.64866 F1800 ; Fill
G0 X141.7113 Y171.3749 F12000 ; Move
G1 X131.0433 Y182.0428 E0.64866 F1800 ; Fill
G0 X131.7746 Y182.0428 F12000 ; Move
G1 X142.4425 Y171.3749 E0.64866 F1800 ; Fill
G0 X143.1738 Y171.3749 F12000 ; Move
G1 X132.5059 Y182.0428 E0.64866 F1800 ; Fill
G0 X133.2371 Y182.0428 F12000 ; Move
G1 X143.9051 Y171.3749 E0.64866 F1800 ; Fill
G0 X144.6363 Y171.3749 F12000 ; Move
G1 X133.9684 Y182.0428 E0.64866 F1800 ; Fill
G0 X134.6997 Y182.0428 F12000 ; Move
G1 X145.3676 Y171.3749 E0.64866 F1800 ; Fill
G0 X146.0988 Y171.3749 F12000 ; Move
G1 X135.4309 Y182.0428 E0.64866 F1800 ; Fill
G0 X136.1622 Y182.0428 F12000 ; Move
G1 X146.8301 Y171.3749 E0.64866 F1800 ; Fill
G0 X147.5614 Y171.3749 F12000 ; Move
G1 X136.8934 Y182.0428 E0.64866 F1800 ; Fill
G0 X137.6247 Y182.0428 F12000 ; Move
G1 X148.2926 Y171.3749 E0.64866 F1800 ; Fill
G0 X149.0239 Y171.3749 F12000 ; Move
G1 X138.356 Y182.0428 E0.64866 F1800 ; Fill
G0 X139.0872 Y182.0428 F12000 ; Move
G1 X149.7552 Y171.3749 E0.64866 F1800 ; Fill
G0 X150.4864 Y171.3749 F12000 ; Move
G1 X139.8185 Y182.0428 E0.64866 F1800 ; Fill
G0 X140.5497 Y182.0428 F12000 ; Move
G1 X151.2177 Y171.3749 E0.64866 F1800 ; Fill
G0 X151.9489 Y171.3749 F12000 ; Move
G1 X141.281 Y182.0428 E0.64866 F1800 ; Fill
G0 X142.0123 Y182.0428 F12000 ; Move
G1 X152.6802 Y171.3749 E0.64866 F1800 ; Fill
G0 X153.4115 Y171.3749 F12000 ; Move
G1 X142.7435 Y182.0428 E0.64866 F1800 ; Fill
G0 X143.4748 Y182.0428 F12000 ; Move
G1 X154.1427 Y171.3749 E0.64866 F1800 ; Fill
G0 X154.874 Y171.3749 F12000 ; Move
G1 X144.206 Y182.0428 E0.64866 F1800 ; Fill
G0 X144.9373 Y182.0428 F12000 ; Move
G1 X155.6052 Y171.3749 E0.64866 F1800 ; Fill
G0 X156.3365 Y171.3749 F12000 ; Move
G1 X145.6686 Y182.0428 E0.64866 F1800 ; Fill
G0 X146.3998 Y182.0428 F12000 ; Move
G1 X157.0678 Y171.3749 E0.64866 F1800 ; Fill
G0 X157.799 Y171.3749 F12000 ; Move
G1 X147.1311 Y182.0428 E0.64866 F1800 ; Fill
G0 X147.8623 Y182.0428 F12000 ; Move
G1 X158.5303 Y171.3749 E0.64866 F1800 ; Fill
G0 X159.2615 Y171.3749 F12000 ; Move
G1 X148.5936 Y182.0428 E0.64866 F1800 ; Fill
G0 X149.3249 Y182.0428 F12000 ; Move
G1 X159.9928 Y171.3749 E0.64866 F1800 ; Fill
G0 X160.7241 Y171.3749 F12000 ; Move
G1 X150.0561 Y182.0428 E0.64866 F1800 ; Fill
G0 X150.7874 Y182.0428 F12000 ; Move
G1 X161.4553 Y171.3749 E0.64866 F1800 ; Fill
G0 X162.1866 Y171.3749 F12000 ; Move
G1 X151.5187 Y182.0428 E0.64866 F1800 ; Fill
G0 X152.2499 Y182.0428 F12000 ; Move
G1 X162.9178 Y171.3749 E0.64866 F1800 ; Fill
G0 X163.6491 Y171.3749 F12000 ; Move
G1 X152.9812 Y182.0428 E0.64866 F1800 ; Fill
G0 X153.7124 Y182.0428 F12000 ; Move
G1 X164.3804 Y171.3749 E0.64866 F1800 ; Fill
G0 X165.1116 Y171.3749 F12000 ; Move
G1 X154.4437 Y182.0428 E0.64866 F1800 ; Fill
G0 X155.175 Y182.0428 F12000 ; Move
G1 X165.8429 Y171.3749 E0.64866 F1800 ; Fill
G0 X166.5742 Y171.3749 F12000 ; Move
G1 X155.9062 Y182.0428 E0.64866 F1800 ; Fill
G0 X156.6375 Y182.0428 F12000 ; Move
G1 X167.3054 Y171.3749 E0.64866 F1800 ; Fill
G0 X168.0367 Y171.3749 F12000 ; Move
G1 X157.3687 Y182.0428 E0.64866 F1800 ; Fill
G0 X158.1 Y182.0428 F12000 ; Move
G1 X168.7679 Y171.3749 E0.64866 F1800 ; Fill
G0 X169.4992 Y171.3749 F12000 ; Move
G1 X158.8313 Y182.0428 E0.64866 F1800 ; Fill
G0 X159.5625 Y182.0428 F12000 ; Move
G1 X170.2305 Y171.3749 E0.64866 F1800 ; Fill
G0 X170.9617 Y171.3749 F12000 ; Move
G1 X160.2938 Y182.0428 E0.64866 F1800 ; Fill
G0 X161.025 Y182.0428 F12000 ; Move
G1 X171.693 Y171.3749 E0.64866 F1800 ; Fill
G0 X172.4242 Y171.3749 F12000 ; Move
G1 X161.7563 Y182.0428 E0.64866 F1800 ; Fill
G0 X162.4876 Y182.0428 F12000 ; Move
G1 X173.1555 Y171.3749 E0.64866 F1800 ; Fill
G0 X173.8868 Y171.3749 F12000 ; Move
G1 X163.2188 Y182.0428 E0.64866 F1800 ; Fill
G0 X163.9501 Y182.0428 F12000 ; Move
G1 X174.618 Y171.3749 E0.64866 F1800 ; Fill
G0 X175.3493 Y171.3749 F12000 ; Move
G1 X164.6814 Y182.0428 E0.64866 F1800 ; Fill
G0 X165.4126 Y182.0428 F12000 ; Move
G1 X176.0805 Y171.3749 E0.64866 F1800 ; Fill
G0 X176.8118 Y171.3749 F12000 ; Move
G1 X166.1439 Y182.0428 E0.64866 F1800 ; Fill
G0 X166.8751 Y182.0428 F12000 ; Move
G1 X177.5431 Y171.3749 E0.64866 F1800 ; Fill
G0 X178.2743 Y171.3749 F12000 ; Move
G1 X167.6064 Y182.0428 E0.64866 F1800 ; Fill
G0 X168.3377 Y182.0428 F12000 ; Move
G1 X179.0056 Y171.3749 E0.64866 F1800 ; Fill
G0 X179.7369 Y171.3749 F12000 ; Move
G1 X169.0689 Y182.0428 E0.64866 F1800 ; Fill
G0 X169.8002 Y182.0428 F12000 ; Move
G1 X180.4681 Y171.3749 E0.64866 F1800 ; Fill
G0 X181.1994 Y171.3749 F12000 ; Move
G1 X170.5314 Y182.0428 E0.64866 F1800 ; Fill
G0 X171.2627 Y182.0428 F12000 ; Move
G1 X181.9306 Y171.3749 E0.64866 F1800 ; Fill
G0 X182.1529 Y171.8838 F12000 ; Move
G1 X171.994 Y182.0428 E0.61771 F1800 ; Fill
G0 X172.7252 Y182.0428 F12000 ; Move
G1 X182.1529 Y172.6151 E0.57325 F1800 ; Fill
G0 X182.1529 Y173.3464 F12000 ; Move
G1 X173.4565 Y182.0428 E0.52878 F1800 ; Fill
G0 X174.1877 Y182.0428 F12000 ; Move
G1 X182.1529 Y174.0776 E0.48432 F1800 ; Fill
G0 X182.1529 Y174.8089 F12000 ; Move
G1 X174.919 Y182.0428 E0.43986 F1800 ; Fill
G0 X175.6503 Y182.0428 F12000 ; Move
G1 X182.1529 Y175.5401 E0.39539 F1800 ; Fill
G0 X182.1529 Y176.2714 F12000 ; Move
G1 X176.3815 Y182.0428 E0.35093 F1800 ; Fill
G0 X177.1128 Y182.0428 F12000 ; Move
G1 X182.1529 Y177.0027 E0.30646 F1800 ; Fill
G0 X182.1529 Y177.7339 F12000 ; Move
G1 X177.8441 Y182.0428 E0.262 F1800 ; Fill
G0 X178.5753 Y182.0428 F12000 ; Move
G1 X182.1529 Y178.4652 E0.21754 F1800 ; Fill
G0 X182.1529 Y179.1964 F12000 ; Move
G1 X179.3066 Y182.0428 E0.17307 F1800 ; Fill
G0 X180.0378 Y182.0428 F12000 ; Move
G1 X182.1529 Y179.9277 E0.12861 F1800 ; Fill
G0 X182.1529 Y180.659 F12000 ; Move
G1 X180.7691 Y182.0428 E0.08414 F1800 ; Fill
G0 X181.5004 Y182.0428 F12000 ; Move
G1 X182.1529 Y181.3902 E0.03968 F1800 ; Fill
G0 Z0.2 F12000 ; Move to layer height
G1 E-1 F3000 ; Retract
G1 Z0.3 F12000 ; Z hop
G0 X110.0463 Y128.4314 F12000 ; Move to pattern start

G1 Z0.2 F12000 ; Z hop return
G1 E1 F1800 ; Un-retract
SET_PRESSURE_ADVANCE ADVANCE=0.06 ; Set pressure advance
M117 PA 0.06
G1 X129.3349 Y147.72 E0.92334 F1800 ; Print pattern wall
G1 X110.0463 Y167.0086 E0.92334 F1800 ; Print pattern wall
G1 E-1 F3000 ; Retract
G1 Z0.3 F12000 ; Z hop
G0 X110.622 Y128.4314 F12000 ; Move to start next pattern wall
G1 Z0.2 F12000 ; Z hop return
G1 E1 F1800 ; Un-retract
G1 X129.9106 Y147.72 E0.92334 F1800 ; Print pattern wall
G1 X110.622 Y167.0086 E0.92334 F1800 ; Print pattern wall
G1 E-1 F3000 ; Retract
G1 Z0.3 F12000 ; Z hop
G0 X111.1977 Y128.4314 F12000 ; Move to start next pattern wall
G1 Z0.2 F12000 ; Z hop return
G1 E1 F1800 ; Un-retract
G1 X130.4863 Y147.72 E0.92334 F1800 ; Print pattern wall
G1 X111.1977 Y167.0086 E0.92334 F1800 ; Print pattern wall
G1 E-1 F3000 ; Retract
G1 Z0.3 F12000 ; Z hop
G0 X113.6477 Y128.4314 F12000 ; Move to next pattern
G1 Z0.2 F12000 ; Z hop return
G1 E1 F1800 ; Un-retract
SET_PRESSURE_ADVANCE ADVANCE=0.061 ; Set pressure advance
M117 PA 0.061
G1 X132.9363 Y147.72 E0.92334 F1800 ; Print pattern wall
G1 X113.6477 Y167.0086 E0.92334 F1800 ; Print pattern wall
G1 E-1 F3000 ; Retract
G1 Z0.3 F12000 ; Z hop
G0 X114.2234 Y128.4314 F12000 ; Move to start next pattern wall
G1 Z0.2 F12000 ; Z hop return
G1 E1 F1800 ; Un-retract
G1 X133.512 Y147.72 E0.92334 F1800 ; Print pattern wall
G1 X114.2234 Y167.0086 E0.92334 F1800 ; Print pattern wall
G1 E-1 F3000 ; Retract
G1 Z0.3 F12000 ; Z hop
G0 X114.7991 Y128.4314 F12000 ; Move to start next pattern wall
G1 Z0.2 F12000 ; Z hop return
G1 E1 F1800 ; Un-retract
G1 X134.0877 Y147.72 E0.92334 F1800 ; Print pattern wall
G1 X114.7991 Y167.0086 E0.92334 F1800 ; Print pattern wall
G1 E-1 F3000 ; Retract
G1 Z0.3 F12000 ; Z hop
G0 X117.2491 Y128.4314 F12000 ; Move to next pattern
G1 Z0.2 F12000 ; Z hop return
G1 E1 F1800 ; Un-retract
SET_PRESSURE_ADVANCE ADVANCE=0.062 ; Set pressure advance
M117 PA 0.062
G1 X136.5377 Y147.72 E0.92334 F1800 ; Print pattern wall
G1 X117.2491 Y167.0086 E0.92334 F1800 ; Print pattern wall
G1 E-1 F3000 ; Retract
G1 Z0.3 F12000 ; Z hop
G0 X117.8248 Y128.4314 F12000 ; Move to start next pattern wall
G1 Z0.2 F12000 ; Z hop return
G1 E1 F1800 ; Un-retract
G1 X137.1134 Y147.72 E0.92334 F1800 ; Print pattern wall
G1 X117.8248 Y167.0086 E0.92334 F1800 ; Print pattern wall
G1 E-1 F3000 ; Retract
G1 Z0.3 F12000 ; Z hop
G0 X118.4005 Y128.4314 F12000 ; Move to start next pattern wall
G1 Z0.2 F12000 ; Z hop return
G1 E1 F1800 ; Un-retract
G1 X137.6891 Y147.72 E0.92334 F1800 ; Print pattern wall
G1 X118.4005 Y167.0086 E0.92334 F1800 ; Print pattern wall
G1 E-1 F3000 ; Retract
G1 Z0.3 F12000 ; Z hop
G0 X120.8505 Y128.4314 F12000 ; Move to next pattern
G1 Z0.2 F12000 ; Z hop return
G1 E1 F1800 ; Un-retract
SET_PRESSURE_ADVANCE ADVANCE=0.063 ; Set pressure advance
M117 PA 0.063
G1 X140.1391 Y147.72 E0.92334 F1800 ; Print pattern wall
G1 X120.8505 Y167.0086 E0.92334 F1800 ; Print pattern wall
G1 E-1 F3000 ; Retract
G1 Z0.3 F12000 ; Z hop
G0 X121.4262 Y128.4314 F12000 ; Move to start next pattern wall
G1 Z0.2 F12000 ; Z hop return
G1 E1 F1800 ; Un-retract
G1 X140.7148 Y147.72 E0.92334 F1800 ; Print pattern wall
G1 X121.4262 Y167.0086 E0.92334 F1800 ; Print pattern wall
G1 E-1 F3000 ; Retract
G1 Z0.3 F12000 ; Z hop
G0 X122.0019 Y128.4314 F12000 ; Move to start next pattern wall
G1 Z0.2 F12000 ; Z hop return
G1 E1 F1800 ; Un-retract
G1 X141.2905 Y147.72 E0.92334 F1800 ; Print pattern wall
G1 X122.0019 Y167.0086 E0.92334 F1800 ; Print pattern wall
G1 E-1 F3000 ; Retract
G1 Z0.3 F12000 ; Z hop
G0 X124.4519 Y128.4314 F12000 ; Move to next pattern
G1 Z0.2 F12000 ; Z hop return
G1 E1 F1800 ; Un-retract
SET_PRESSURE_ADVANCE ADVANCE=0.064 ; Set pressure advance
M117 PA 0.064
G1 X143.7405 Y147.72 E0.92334 F1800 ; Print pattern wall
G1 X124.4519 Y167.0086 E0.92334 F1800 ; Print pattern wall
G1 E-1 F3000 ; Retract
G1 Z0.3 F12000 ; Z hop
G0 X125.0276 Y128.4314 F12000 ; Move to start next pattern wall
G1 Z0.2 F12000 ; Z hop return
G1 E1 F1800 ; Un-retract
G1 X144.3162 Y147.72 E0.92334 F1800 ; Print pattern wall
G1 X125.0276 Y167.0086 E0.92334 F1800 ; Print pattern wall
G1 E-1 F3000 ; Retract
G1 Z0.3 F12000 ; Z hop
G0 X125.6033 Y128.4314 F12000 ; Move to start next pattern wall
G1 Z0.2 F12000 ; Z hop return
G1 E1 F1800 ; Un-retract
G1 X144.8919 Y147.72 E0.92334 F1800 ; Print pattern wall
G1 X125.6033 Y167.0086 E0.92334 F1800 ; Print pattern wall
G1 E-1 F3000 ; Retract
G1 Z0.3 F12000 ; Z hop
G0 X128.0533 Y128.4314 F12000 ; Move to next pattern
G1 Z0.2 F12000 ; Z hop return
G1 E1 F1800 ; Un-retract
SET_PRESSURE_ADVANCE ADVANCE=0.065 ; Set pressure advance
M117 PA 0.065
G1 X147.3419 Y147.72 E0.92334 F1800 ; Print pattern wall
G1 X128.0533 Y167.0086 E0.92334 F1800 ; Print pattern wall
G1 E-1 F3000 ; Retract
G1 Z0.3 F12000 ; Z hop
G0 X128.629 Y128.4314 F12000 ; Move to start next pattern wall
G1 Z0.2 F12000 ; Z hop return
G1 E1 F1800 ; Un-retract
G1 X147.9176 Y147.72 E0.92334 F1800 ; Print pattern wall
G1 X128.629 Y167.0086 E0.92334 F1800 ; Print pattern wall
G1 E-1 F3000 ; Retract
G1 Z0.3 F12000 ; Z hop
G0 X129.2047 Y128.4314 F12000 ; Move to start next pattern wall
G1 Z0.2 F12000 ; Z hop return
G1 E1 F1800 ; Un-retract
G1 X148.4933 Y147.72 E0.92334 F1800 ; Print pattern wall
G1 X129.2047 Y167.0086 E0.92334 F1800 ; Print pattern wall
G1 E-1 F3000 ; Retract
G1 Z0.3 F12000 ; Z hop
G0 X131.6547 Y128.4314 F12000 ; Move to next pattern
G1 Z0.2 F12000 ; Z hop return
G1 E1 F1800 ; Un-retract
SET_PRESSURE_ADVANCE ADVANCE=0.066 ; Set pressure advance
M117 PA 0.066
G1 X150.9433 Y147.72 E0.92334 F1800 ; Print pattern wall
G1 X131.6547 Y167.0086 E0.92334 F1800 ; Print pattern wall
G1 E-1 F3000 ; Retract
G1 Z0.3 F12000 ; Z hop
G0 X132.2304 Y128.4314 F12000 ; Move to start next pattern wall
G1 Z0.2 F12000 ; Z hop return
G1 E1 F1800 ; Un-retract
G1 X151.519 Y147.72 E0.92334 F1800 ; Print pattern wall
G1 X132.2304 Y167.0086 E0.92334 F1800 ; Print pattern wall
G1 E-1 F3000 ; Retract
G1 Z0.3 F12000 ; Z hop
G0 X132.8061 Y128.4314 F12000 ; Move to start next pattern wall
G1 Z0.2 F12000 ; Z hop return
G1 E1 F1800 ; Un-retract
G1 X152.0947 Y147.72 E0.92334 F1800 ; Print pattern wall
G1 X132.8061 Y167.0086 E0.92334 F1800 ; Print pattern wall
G1 E-1 F3000 ; Retract
G1 Z0.3 F12000 ; Z hop
G0 X135.2561 Y128.4314 F12000 ; Move to next pattern
G1 Z0.2 F12000 ; Z hop return
G1 E1 F1800 ; Un-retract
SET_PRESSURE_ADVANCE ADVANCE=0.067 ; Set pressure advance
M117 PA 0.067
G1 X154.5447 Y147.72 E0.92334 F1800 ; Print pattern wall
G1 X135.2561 Y167.0086 E0.92334 F1800 ; Print pattern wall
G1 E-1 F3000 ; Retract
G1 Z0.3 F12000 ; Z hop
G0 X135.8318 Y128.4314 F12000 ; Move to start next pattern wall
G1 Z0.2 F12000 ; Z hop return
G1 E1 F1800 ; Un-retract
G1 X155.1204 Y147.72 E0.92334 F1800 ; Print pattern wall
G1 X135.8318 Y167.0086 E0.92334 F1800 ; Print pattern wall
G1 E-1 F3000 ; Retract
G1 Z0.3 F12000 ; Z hop
G0 X136.4075 Y128.4314 F12000 ; Move to start next pattern wall
G1 Z0.2 F12000 ; Z hop return
G1 E1 F1800 ; Un-retract
G1 X155.6961 Y147.72 E0.92334 F1800 ; Print pattern wall
G1 X136.4075 Y167.0086 E0.92334 F1800 ; Print pattern wall
G1 E-1 F3000 ; Retract
G1 Z0.3 F12000 ; Z hop
G0 X138.8575 Y128.4314 F12000 ; Move to next pattern
G1 Z0.2 F12000 ; Z hop return
G1 E1 F1800 ; Un-retract
SET_PRESSURE_ADVANCE ADVANCE=0.068 ; Set pressure advance
M117 PA 0.068
G1 X158.1461 Y147.72 E0.92334 F1800 ; Print pattern wall
G1 X138.8575 Y167.0086 E0.92334 F1800 ; Print pattern wall
G1 E-1 F3000 ; Retract
G1 Z0.3 F12000 ; Z hop
G0 X139.4332 Y128.4314 F12000 ; Move to start next pattern wall
G1 Z0.2 F12000 ; Z hop return
G1 E1 F1800 ; Un-retract
G1 X158.7218 Y147.72 E0.92334 F1800 ; Print pattern wall
G1 X139.4332 Y167.0086 E0.92334 F1800 ; Print pattern wall
G1 E-1 F3000 ; Retract
G1 Z0.3 F12000 ; Z hop
G0 X140.0089 Y128.4314 F12000 ; Move to start next pattern wall
G1 Z0.2 F12000 ; Z hop return
G1 E1 F1800 ; Un-retract
G1 X159.2975 Y147.72 E0.92334 F1800 ; Print pattern wall
G1 X140.0089 Y167.0086 E0.92334 F1800 ; Print pattern wall
G1 E-1 F3000 ; Retract
G1 Z0.3 F12000 ; Z hop
G0 X142.4589 Y128.4314 F12000 ; Move to next pattern
G1 Z0.2 F12000 ; Z hop return
G1 E1 F1800 ; Un-retract
SET_PRESSURE_ADVANCE ADVANCE=0.069 ; Set pressure advance
M117 PA 0.069
G1 X161.7475 Y147.72 E0.92334 F1800 ; Print pattern wall
G1 X142.4589 Y167.0086 E0.92334 F1800 ; Print pattern wall
G1 E-1 F3000 ; Retract
G1 Z0.3 F12000 ; Z hop
G0 X143.0346 Y128.4314 F12000 ; Move to start next pattern wall
G1 Z0.2 F12000 ; Z hop return
G1 E1 F1800 ; Un-retract
G1 X162.3232 Y147.72 E0.92334 F1800 ; Print pattern wall
G1 X143.0346 Y167.0086 E0.92334 F1800 ; Print pattern wall
G1 E-1 F3000 ; Retract
G1 Z0.3 F12000 ; Z hop
G0 X143.6103 Y128.4314 F12000 ; Move to start next pattern wall
G1 Z0.2 F12000 ; Z hop return
G1 E1 F1800 ; Un-retract
G1 X162.8989 Y147.72 E0.92334 F1800 ; Print pattern wall
G1 X143.6103 Y167.0086 E0.92334 F1800 ; Print pattern wall
G1 E-1 F3000 ; Retract
G1 Z0.3 F12000 ; Z hop
G0 X146.0603 Y128.4314 F12000 ; Move to next pattern
G1 Z0.2 F12000 ; Z hop return
G1 E1 F1800 ; Un-retract
SET_PRESSURE_ADVANCE ADVANCE=0.07 ; Set pressure advance
M117 PA 0.07
G1 X165.3489 Y147.72 E0.92334 F1800 ; Print pattern wall
G1 X146.0603 Y167.0086 E0.92334 F1800 ; Print pattern wall
G1 E-1 F3000 ; Retract
G1 Z0.3 F12000 ; Z hop
G0 X146.636 Y128.4314 F12000 ; Move to start next pattern wall
G1 Z0.2 F12000 ; Z hop return
G1 E1 F1800 ; Un-retract
G1 X165.9246 Y147.72 E0.92334 F1800 ; Print pattern wall
G1 X146.636 Y167.0086 E0.92334 F1800 ; Print pattern wall
G1 E-1 F3000 ; Retract
G1 Z0.3 F12000 ; Z hop
G0 X147.2117 Y128.4314 F12000 ; Move to start next pattern wall
G1 Z0.2 F12000 ; Z hop return
G1 E1 F1800 ; Un-retract
G1 X166.5003 Y147.72 E0.92334 F1800 ; Print pattern wall
G1 X147.2117 Y167.0086 E0.92334 F1800 ; Print pattern wall
G1 E-1 F3000 ; Retract
G1 Z0.3 F12000 ; Z hop
G0 X149.6617 Y128.4314 F12000 ; Move to next pattern
G1 Z0.2 F12000 ; Z hop return
G1 E1 F1800 ; Un-retract
SET_PRESSURE_ADVANCE ADVANCE=0.071 ; Set pressure advance
M117 PA 0.071
G1 X168.9503 Y147.72 E0.92334 F1800 ; Print pattern wall
G1 X149.6617 Y167.0086 E0.92334 F1800 ; Print pattern wall
G1 E-1 F3000 ; Retract
G1 Z0.3 F12000 ; Z hop
G0 X150.2374 Y128.4314 F12000 ; Move to start next pattern wall
G1 Z0.2 F12000 ; Z hop return
G1 E1 F1800 ; Un-retract
G1 X169.526 Y147.72 E0.92334 F1800 ; Print pattern wall
G1 X150.2374 Y167.0086 E0.92334 F1800 ; Print pattern wall
G1 E-1 F3000 ; Retract
G1 Z0.3 F12000 ; Z hop
G0 X150.8131 Y128.4314 F12000 ; Move to start next pattern wall
G1 Z0.2 F12000 ; Z hop return
G1 E1 F1800 ; Un-retract
G1 X170.1017 Y147.72 E0.92334 F1800 ; Print pattern wall
G1 X150.8131 Y167.0086 E0.92334 F1800 ; Print pattern wall
G1 E-1 F3000 ; Retract
G1 Z0.3 F12000 ; Z hop
G0 X153.2631 Y128.4314 F12000 ; Move to next pattern
G1 Z0.2 F12000 ; Z hop return
G1 E1 F1800 ; Un-retract
SET_PRESSURE_ADVANCE ADVANCE=0.072 ; Set pressure advance
M117 PA 0.072
G1 X172.5517 Y147.72 E0.92334 F1800 ; Print pattern wall
G1 X153.2631 Y167.0086 E0.92334 F1800 ; Print pattern wall
G1 E-1 F3000 ; Retract
G1 Z0.3 F12000 ; Z hop
G0 X153.8388 Y128.4314 F12000 ; Move to start next pattern wall
G1 Z0.2 F12000 ; Z hop return
G1 E1 F1800 ; Un-retract
G1 X173.1274 Y147.72 E0.92334 F1800 ; Print pattern wall
G1 X153.8388 Y167.0086 E0.92334 F1800 ; Print pattern wall
G1 E-1 F3000 ; Retract
G1 Z0.3 F12000 ; Z hop
G0 X154.4145 Y128.4314 F12000 ; Move to start next pattern wall
G1 Z0.2 F12000 ; Z hop return
G1 E1 F1800 ; Un-retract
G1 X173.7031 Y147.72 E0.92334 F1800 ; Print pattern wall
G1 X154.4145 Y167.0086 E0.92334 F1800 ; Print pattern wall
G1 E-1 F3000 ; Retract
G1 Z0.3 F12000 ; Z hop
G0 X156.8645 Y128.4314 F12000 ; Move to next pattern
G1 Z0.2 F12000 ; Z hop return
G1 E1 F1800 ; Un-retract
SET_PRESSURE_ADVANCE ADVANCE=0.073 ; Set pressure advance
M117 PA 0.073
G1 X176.1531 Y147.72 E0.92334 F1800 ; Print pattern wall
G1 X156.8645 Y167.0086 E0.92334 F1800 ; Print pattern wall
G1 E-1 F3000 ; Retract
G1 Z0.3 F12000 ; Z hop
G0 X157.4401 Y128.4314 F12000 ; Move to start next pattern wall
G1 Z0.2 F12000 ; Z hop return
G1 E1 F1800 ; Un-retract
G1 X176.7288 Y147.72 E0.92334 F1800 ; Print pattern wall
G1 X157.4401 Y167.0086 E0.92334 F1800 ; Print pattern wall
G1 E-1 F3000 ; Retract
G1 Z0.3 F12000 ; Z hop
G0 X158.0158 Y128.4314 F12000 ; Move to start next pattern wall
G1 Z0.2 F12000 ; Z hop return
G1 E1 F1800 ; Un-retract
G1 X177.3045 Y147.72 E0.92334 F1800 ; Print pattern wall
G1 X158.0158 Y167.0086 E0.92334 F1800 ; Print pattern wall
G1 E-1 F3000 ; Retract
G1 Z0.3 F12000 ; Z hop
G0 X160.4658 Y128.4314 F12000 ; Move to next pattern
G1 Z0.2 F12000 ; Z hop return
G1 E1 F1800 ; Un-retract
SET_PRESSURE_ADVANCE ADVANCE=0.074 ; Set pressure advance
M117 PA 0.074
G1 X179.7545 Y147.72 E0.92334 F1800 ; Print pattern wall
G1 X160.4658 Y167.0086 E0.92334 F1800 ; Print pattern wall
G1 E-1 F3000 ; Retract
G1 Z0.3 F12000 ; Z hop
G0 X161.0415 Y128.4314 F12000 ; Move to start next pattern wall
G1 Z0.2 F12000 ; Z hop return
G1 E1 F1800 ; Un-retract
G1 X180.3302 Y147.72 E0.92334 F1800 ; Print pattern wall
G1 X161.0415 Y167.0086 E0.92334 F1800 ; Print pattern wall
G1 E-1 F3000 ; Retract
G1 Z0.3 F12000 ; Z hop
G0 X161.6172 Y128.4314 F12000 ; Move to start next pattern wall
G1 Z0.2 F12000 ; Z hop return
G1 E1 F1800 ; Un-retract
G1 X180.9059 Y147.72 E0.92334 F1800 ; Print pattern wall
G1 X161.6172 Y167.0086 E0.92334 F1800 ; Print pattern wall
G1 E-1 F3000 ; Retract
G1 Z0.3 F12000 ; Z hop
G0 X164.0672 Y128.4314 F12000 ; Move to next pattern
G1 Z0.2 F12000 ; Z hop return
G1 E1 F1800 ; Un-retract
SET_PRESSURE_ADVANCE ADVANCE=0.075 ; Set pressure advance
M117 PA 0.075
G1 X183.3559 Y147.72 E0.92334 F1800 ; Print pattern wall
G1 X164.0672 Y167.0086 E0.92334 F1800 ; Print pattern wall
G1 E-1 F3000 ; Retract
G1 Z0.3 F12000 ; Z hop
G0 X164.6429 Y128.4314 F12000 ; Move to start next pattern wall
G1 Z0.2 F12000 ; Z hop return
G1 E1 F1800 ; Un-retract
G1 X183.9316 Y147.72 E0.92334 F1800 ; Print pattern wall
G1 X164.6429 Y167.0086 E0.92334 F1800 ; Print pattern wall
G1 E-1 F3000 ; Retract
G1 Z0.3 F12000 ; Z hop
G0 X165.2186 Y128.4314 F12000 ; Move to start next pattern wall
G1 Z0.2 F12000 ; Z hop return
G1 E1 F1800 ; Un-retract
G1 X184.5073 Y147.72 E0.92334 F1800 ; Print pattern wall
G1 X165.2186 Y167.0086 E0.92334 F1800 ; Print pattern wall
G1 E-1 F3000 ; Retract
G1 Z0.3 F12000 ; Z hop
G0 X167.6686 Y128.4314 F12000 ; Move to next pattern
G1 Z0.2 F12000 ; Z hop return
G1 E1 F1800 ; Un-retract
SET_PRESSURE_ADVANCE ADVANCE=0.076 ; Set pressure advance
M117 PA 0.076
G1 X186.9573 Y147.72 E0.92334 F1800 ; Print pattern wall
G1 X167.6686 Y167.0086 E0.92334 F1800 ; Print pattern wall
G1 E-1 F3000 ; Retract
G1 Z0.3 F12000 ; Z hop
G0 X168.2443 Y128.4314 F12000 ; Move to start next pattern wall
G1 Z0.2 F12000 ; Z hop return
G1 E1 F1800 ; Un-retract
G1 X187.533 Y147.72 E0.92334 F1800 ; Print pattern wall
G1 X168.2443 Y167.0086 E0.92334 F1800 ; Print pattern wall
G1 E-1 F3000 ; Retract
G1 Z0.3 F12000 ; Z hop
G0 X168.82 Y128.4314 F12000 ; Move to start next pattern wall
G1 Z0.2 F12000 ; Z hop return
G1 E1 F1800 ; Un-retract
G1 X188.1087 Y147.72 E0.92334 F1800 ; Print pattern wall
G1 X168.82 Y167.0086 E0.92334 F1800 ; Print pattern wall
G1 E-1 F3000 ; Retract
G1 Z0.3 F12000 ; Z hop
G0 X171.27 Y128.4314 F12000 ; Move to next pattern
G1 Z0.2 F12000 ; Z hop return
G1 E1 F1800 ; Un-retract
SET_PRESSURE_ADVANCE ADVANCE=0.077 ; Set pressure advance
M117 PA 0.077
G1 X190.5587 Y147.72 E0.92334 F1800 ; Print pattern wall
G1 X171.27 Y167.0086 E0.92334 F1800 ; Print pattern wall
G1 E-1 F3000 ; Retract
G1 Z0.3 F12000 ; Z hop
G0 X171.8457 Y128.4314 F12000 ; Move to start next pattern wall
G1 Z0.2 F12000 ; Z hop return
G1 E1 F1800 ; Un-retract
G1 X191.1344 Y147.72 E0.92334 F1800 ; Print pattern wall
G1 X171.8457 Y167.0086 E0.92334 F1800 ; Print pattern wall
G1 E-1 F3000 ; Retract
G1 Z0.3 F12000 ; Z hop
G0 X172.4214 Y128.4314 F12000 ; Move to start next pattern wall
G1 Z0.2 F12000 ; Z hop return
G1 E1 F1800 ; Un-retract
G1 X191.7101 Y147.72 E0.92334 F1800 ; Print pattern wall
G1 X172.4214 Y167.0086 E0.92334 F1800 ; Print pattern wall
G1 E-1 F3000 ; Retract
G1 Z0.3 F12000 ; Z hop
G0 X174.8714 Y128.4314 F12000 ; Move to next pattern
G1 Z0.2 F12000 ; Z hop return
G1 E1 F1800 ; Un-retract
SET_PRESSURE_ADVANCE ADVANCE=0.078 ; Set pressure advance
M117 PA 0.078
G1 X194.1601 Y147.72 E0.92334 F1800 ; Print pattern wall
G1 X174.8714 Y167.0086 E0.92334 F1800 ; Print pattern wall
G1 E-1 F3000 ; Retract
G1 Z0.3 F12000 ; Z hop
G0 X175.4471 Y128.4314 F12000 ; Move to start next pattern wall
G1 Z0.2 F12000 ; Z hop return
G1 E1 F1800 ; Un-retract
G1 X194.7358 Y147.72 E0.92334 F1800 ; Print pattern wall
G1 X175.4471 Y167.0086 E0.92334 F1800 ; Print pattern wall
G1 E-1 F3000 ; Retract
G1 Z0.3 F12000 ; Z hop
G0 X176.0228 Y128.4314 F12000 ; Move to start next pattern wall
G1 Z0.2 F12000 ; Z hop return
G1 E1 F1800 ; Un-retract
G1 X195.3115 Y147.72 E0.92334 F1800 ; Print pattern wall
G1 X176.0228 Y167.0086 E0.92334 F1800 ; Print pattern wall
G1 E-1 F3000 ; Retract
G1 Z0.3 F12000 ; Z hop
G0 X178.4728 Y128.4314 F12000 ; Move to next pattern
G1 Z0.2 F12000 ; Z hop return
G1 E1 F1800 ; Un-retract
SET_PRESSURE_ADVANCE ADVANCE=0.079 ; Set pressure advance
M117 PA 0.079
G1 X197.7615 Y147.72 E0.92334 F1800 ; Print pattern wall
G1 X178.4728 Y167.0086 E0.92334 F1800 ; Print pattern wall
G1 E-1 F3000 ; Retract
G1 Z0.3 F12000 ; Z hop
G0 X179.0485 Y128.4314 F12000 ; Move to start next pattern wall
G1 Z0.2 F12000 ; Z hop return
G1 E1 F1800 ; Un-retract
G1 X198.3371 Y147.72 E0.92334 F1800 ; Print pattern wall
G1 X179.0485 Y167.0086 E0.92334 F1800 ; Print pattern wall
G1 E-1 F3000 ; Retract
G1 Z0.3 F12000 ; Z hop
G0 X179.6242 Y128.4314 F12000 ; Move to start next pattern wall
G1 Z0.2 F12000 ; Z hop return
G1 E1 F1800 ; Un-retract
G1 X198.9128 Y147.72 E0.92334 F1800 ; Print pattern wall
G1 X179.6242 Y167.0086 E0.92334 F1800 ; Print pattern wall
G1 E-1 F3000 ; Retract
G1 Z0.3 F12000 ; Z hop
G0 X182.0742 Y128.4314 F12000 ; Move to next pattern
G1 Z0.2 F12000 ; Z hop return
G1 E1 F1800 ; Un-retract
SET_PRESSURE_ADVANCE ADVANCE=0.08 ; Set pressure advance
M117 PA 0.08
G1 X201.3628 Y147.72 E0.92334 F1800 ; Print pattern wall
G1 X182.0742 Y167.0086 E0.92334 F1800 ; Print pattern wall
G1 E-1 F3000 ; Retract
G1 Z0.3 F12000 ; Z hop
G0 X182.6499 Y128.4314 F12000 ; Move to start next pattern wall
G1 Z0.2 F12000 ; Z hop return
G1 E1 F1800 ; Un-retract
G1 X201.9385 Y147.72 E0.92334 F1800 ; Print pattern wall
G1 X182.6499 Y167.0086 E0.92334 F1800 ; Print pattern wall
G1 E-1 F3000 ; Retract
G1 Z0.3 F12000 ; Z hop
G0 X183.2256 Y128.4314 F12000 ; Move to start next pattern wall
G1 Z0.2 F12000 ; Z hop return
G1 E1 F1800 ; Un-retract
G1 X202.5142 Y147.72 E0.92334 F1800 ; Print pattern wall
G1 X183.2256 Y167.0086 E0.92334 F1800 ; Print pattern wall
G1 E-1 F3000 ; Retract
G1 Z0.3 F12000 ; Z hop
G0 X110.0463 Y128.4314 F12000 ; Move back to start position
G1 Z0.2 F12000 ; Z hop return
G1 E1 F1800 ; Un-retract
M106 S255 ; Set fan speed
G0 Z0.4 F12000 ; Move to layer height
G1 E-1 F3000 ; Retract
G1 Z0.5 F12000 ; Z hop
G0 X106.6974 Y170.3832 F12000 ; Move
G1 Z0.4 F12000 ; Z hop return
G1 E1 F1800 ; Un-retract
G1 X108.6974 Y170.3832 E0.0677 F1800 ; Glyph: 0
G1 X110.6974 Y170.3832 E0.0677 F1800 ; Glyph: 0
G1 X110.6974 Y172.3832 E0.0677 F1800 ; Glyph: 0
G1 X108.6974 Y172.3832 E0.0677 F1800 ; Glyph: 0
G1 X106.6974 Y172.3832 E0.0677 F1800 ; Glyph: 0
G1 X106.6974 Y170.3832 E0.0677 F1800 ; Glyph: 0
G1 E-1 F3000 ; Retract
G1 Z0.5 F12000 ; Z hop
G0 X110.6974 Y173.3832 F12000 ; Move
G1 Z0.4 F12000 ; Z hop return
G1 E1 F1800 ; Un-retract
G1 X109.9474 Y173.3832 E0.02539 F1800 ; Glyph: .
G1 E-1 F3000 ; Retract
G1 Z0.5 F12000 ; Z hop
G0 X106.6974 Y174.3832 F12000 ; Move
G1 Z0.4 F12000 ; Z hop return
G1 E1 F1800 ; Un-retract
G1 X108.6974 Y174.3832 E0.0677 F1800 ; Glyph: 0
G1 X110.6974 Y174.3832 E0.0677 F1800 ; Glyph: 0
G1 X110.6974 Y176.3832 E0.0677 F1800 ; Glyph: 0
G1 X108.6974 Y176.3832 E0.0677 F1800 ; Glyph: 0
G1 X106.6974 Y176.3832 E0.0677 F1800 ; Glyph: 0
G1 X106.6974 Y174.3832 E0.0677 F1800 ; Glyph: 0
G1 E-1 F3000 ; Retract
G1 Z0.5 F12000 ; Z hop
G0 X106.6974 Y179.3832 F12000 ; Move
G1 Z0.4 F12000 ; Z hop return
G1 E1 F1800 ; Un-retract
G1 X106.6974 Y177.3832 E0.0677 F1800 ; Glyph: 6
G1 X108.6974 Y177.3832 E0.0677 F1800 ; Glyph: 6
G1 X110.6974 Y177.3832 E0.0677 F1800 ; Glyph: 6
G1 X110.6974 Y179.3832 E0.0677 F1800 ; Glyph: 6
G1 X108.6974 Y179.3832 E0.0677 F1800 ; Glyph: 6
G1 X108.6974 Y177.3832 E0.0677 F1800 ; Glyph: 6
G1 E-1 F3000 ; Retract
G1 Z0.5 F12000 ; Z hop
G0 X113.9002 Y170.3832 F12000 ; Move
G1 Z0.4 F12000 ; Z hop return
G1 E1 F1800 ; Un-retract
G1 X115.9002 Y170.3832 E0.0677 F1800 ; Glyph: 0
G1 X117.9002 Y170.3832 E0.0677 F1800 ; Glyph: 0
G1 X117.9002 Y172.3832 E0.0677 F1800 ; Glyph: 0
G1 X115.9002 Y172.3832 E0.0677 F1800 ; Glyph: 0
G1 X113.9002 Y172.3832 E0.0677 F1800 ; Glyph: 0
G1 X113.9002 Y170.3832 E0.0677 F1800 ; Glyph: 0
G1 E-1 F3000 ; Retract
G1 Z0.5 F12000 ; Z hop
G0 X117.9002 Y173.3832 F12000 ; Move
G1 Z0.4 F12000 ; Z hop return
G1 E1 F1800 ; Un-retract
G1 X117.1502 Y173.3832 E0.02539 F1800 ; Glyph: .
G1 E-1 F3000 ; Retract
G1 Z0.5 F12000 ; Z hop
G0 X113.9002 Y174.3832 F12000 ; Move
G1 Z0.4 F12000 ; Z hop return
G1 E1 F1800 ; Un-retract
G1 X115.9002 Y174.3832 E0.0677 F1800 ; Glyph: 0
G1 X117.9002 Y174.3832 E0.0677 F1800 ; Glyph: 0
G1 X117.9002 Y176.3832 E0.0677 F1800 ; Glyph: 0
G1 X115.9002 Y176.3832 E0.0677 F1800 ; Glyph: 0
G1 X113.9002 Y176.3832 E0.0677 F1800 ; Glyph: 0
G1 X113.9002 Y174.3832 E0.0677 F1800 ; Glyph: 0
G1 E-1 F3000 ; Retract
G1 Z0.5 F12000 ; Z hop
G0 X113.9002 Y179.3832 F12000 ; Move
G1 Z0.4 F12000 ; Z hop return
G1 E1 F1800 ; Un-retract
G1 X113.9002 Y177.3832 E0.0677 F1800 ; Glyph: 6
G1 X115.9002 Y177.3832 E0.0677 F1800 ; Glyph: 6
G1 X117.9002 Y177.3832 E0.0677 F1800 ; Glyph: 6
G1 X117.9002 Y179.3832 E0.0677 F1800 ; Glyph: 6
G1 X115.9002 Y179.3832 E0.0677 F1800 ; Glyph: 6
G1 X115.9002 Y177.3832 E0.0677 F1800 ; Glyph: 6
G1 E-1 F3000 ; Retract
G1 Z0.5 F12000 ; Z hop
G0 X113.9002 Y180.3832 F12000 ; Move
G1 Z0.4 F12000 ; Z hop return
G1 E1 F1800 ; Un-retract
G1 X113.9002 Y182.3832 E0.0677 F1800 ; Glyph: 2
G1 X115.9002 Y182.3832 E0.0677 F1800 ; Glyph: 2
G1 X115.9002 Y180.3832 E0.0677 F1800 ; Glyph: 2
G1 X117.9002 Y180.3832 E0.0677 F1800 ; Glyph: 2
G1 X117.9002 Y182.3832 E0.0677 F1800 ; Glyph: 2
G1 E-1 F3000 ; Retract
G1 Z0.5 F12000 ; Z hop
G0 X121.103 Y170.3832 F12000 ; Move
G1 Z0.4 F12000 ; Z hop return
G1 E1 F1800 ; Un-retract
G1 X123.103 Y170.3832 E0.0677 F1800 ; Glyph: 0
G1 X125.103 Y170.3832 E0.0677 F1800 ; Glyph: 0
G1 X125.103 Y172.3832 E0.0677 F1800 ; Glyph: 0
G1 X123.103 Y172.3832 E0.0677 F1800 ; Glyph: 0
G1 X121.103 Y172.3832 E0.0677 F1800 ; Glyph: 0
G1 X121.103 Y170.3832 E0.0677 F1800 ; Glyph: 0
G1 E-1 F3000 ; Retract
G1 Z0.5 F12000 ; Z hop
G0 X125.103 Y173.3832 F12000 ; Move
G1 Z0.4 F12000 ; Z hop return
G1 E1 F1800 ; Un-retract
G1 X124.353 Y173.3832 E0.02539 F1800 ; Glyph: .
G1 E-1 F3000 ; Retract
G1 Z0.5 F12000 ; Z hop
G0 X121.103 Y174.3832 F12000 ; Move
G1 Z0.4 F12000 ; Z hop return
G1 E1 F1800 ; Un-retract
G1 X123.103 Y174.3832 E0.0677 F1800 ; Glyph: 0
G1 X125.103 Y174.3832 E0.0677 F1800 ; Glyph: 0
G1 X125.103 Y176.3832 E0.0677 F1800 ; Glyph: 0
G1 X123.103 Y176.3832 E0.0677 F1800 ; Glyph: 0
G1 X121.103 Y176.3832 E0.0677 F1800 ; Glyph: 0
G1 X121.103 Y174.3832 E0.0677 F1800 ; Glyph: 0
G1 E-1 F3000 ; Retract
G1 Z0.5 F12000 ; Z hop
G0 X121.103 Y179.3832 F12000 ; Move
G1 Z0.4 F12000 ; Z hop return
G1 E1 F1800 ; Un-retract
G1 X121.103 Y177.3832 E0.0677 F1800 ; Glyph: 6
G1 X123.103 Y177.3832 E0.0677 F1800 ; Glyph: 6
G1 X125.103 Y177.3832 E0.0677 F1800 ; Glyph: 6
G1 X125.103 Y179.3832 E0.0677 F1800 ; Glyph: 6
G1 X123.103 Y179.3832 E0.0677 F1800 ; Glyph: 6
G1 X123.103 Y177.3832 E0.0677 F1800 ; Glyph: 6
G1 E-1 F3000 ; Retract
G1 Z0.5 F12000 ; Z hop
G0 X121.103 Y182.3832 F12000 ; Move
G1 Z0.4 F12000 ; Z hop return
G1 E1 F1800 ; Un-retract
G1 X123.103 Y182.3832 E0.0677 F1800 ; Glyph: 4
G1 X125.103 Y182.3832 E0.0677 F1800 ; Glyph: 4
G0 X123.103 Y182.3832 F12000 ; Move
G1 X123.103 Y180.3832 E0.0677 F1800 ; Glyph: 4
G1 X121.103 Y180.3832 E0.0677 F1800 ; Glyph: 4
G1 E-1 F3000 ; Retract
G1 Z0.5 F12000 ; Z hop
G0 X128.3058 Y170.3832 F12000 ; Move
G1 Z0.4 F12000 ; Z hop return
G1 E1 F1800 ; Un-retract
G1 X130.3058 Y170.3832 E0.0677 F1800 ; Glyph: 0
G1 X132.3058 Y170.3832 E0.0677 F1800 ; Glyph: 0
G1 X132.3058 Y172.3832 E0.0677 F1800 ; Glyph: 0
G1 X130.3058 Y172.3832 E0.0677 F1800 ; Glyph: 0
G1 X128.3058 Y172.3832 E0.0677 F1800 ; Glyph: 0
G1 X128.3058 Y170.3832 E0.0677 F1800 ; Glyph: 0
G1 E-1 F3000 ; Retract
G1 Z0.5 F12000 ; Z hop
G0 X132.3058 Y173.3832 F12000 ; Move
G1 Z0.4 F12000 ; Z hop return
G1 E1 F1800 ; Un-retract
G1 X131.5558 Y173.3832 E0.02539 F1800 ; Glyph: .
G1 E-1 F3000 ; Retract
G1 Z0.5 F12000 ; Z hop
G0 X128.3058 Y174.3832 F12000 ; Move
G1 Z0.4 F12000 ; Z hop return
G1 E1 F1800 ; Un-retract
G1 X130.3058 Y174.3832 E0.0677 F1800 ; Glyph: 0
G1 X132.3058 Y174.3832 E0.0677 F1800 ; Glyph: 0
G1 X132.3058 Y176.3832 E0.0677 F1800 ; Glyph: 0
G1 X130.3058 Y176.3832 E0.0677 F1800 ; Glyph: 0
G1 X128.3058 Y176.3832 E0.0677 F1800 ; Glyph: 0
G1 X128.3058 Y174.3832 E0.0677 F1800 ; Glyph: 0
G1 E-1 F3000 ; Retract
G1 Z0.5 F12000 ; Z hop
G0 X128.3058 Y179.3832 F12000 ; Move
G1 Z0.4 F12000 ; Z hop return
G1 E1 F1800 ; Un-retract
G1 X128.3058 Y177.3832 E0.0677 F1800 ; Glyph: 6
G1 X130.3058 Y177.3832 E0.0677 F1800 ; Glyph: 6
G1 X132.3058 Y177.3832 E0.0677 F1800 ; Glyph: 6
G1 X132.3058 Y179.3832 E0.0677 F1800 ; Glyph: 6
G1 X130.3058 Y179.3832 E0.0677 F1800 ; Glyph: 6
G1 X130.3058 Y177.3832 E0.0677 F1800 ; Glyph: 6
G1 E-1 F3000 ; Retract
G1 Z0.5 F12000 ; Z hop
G0 X128.3058 Y182.3832 F12000 ; Move
G1 Z0.4 F12000 ; Z hop return
G1 E1 F1800 ; Un-retract
G1 X128.3058 Y180.3832 E0.0677 F1800 ; Glyph: 6
G1 X130.3058 Y180.3832 E0.0677 F1800 ; Glyph: 6
G1 X132.3058 Y180.3832 E0.0677 F1800 ; Glyph: 6
G1 X132.3058 Y182.3832 E0.0677 F1800 ; Glyph: 6
G1 X130.3058 Y182.3832 E0.0677 F1800 ; Glyph: 6
G1 X130.3058 Y180.3832 E0.0677 F1800 ; Glyph: 6
G1 E-1 F3000 ; Retract
G1 Z0.5 F12000 ; Z hop
G0 X135.5086 Y170.3832 F12000 ; Move
G1 Z0.4 F12000 ; Z hop return
G1 E1 F1800 ; Un-retract
G1 X137.5086 Y170.3832 E0.0677 F1800 ; Glyph: 0
G1 X139.5086 Y170.3832 E0.0677 F1800 ; Glyph: 0
G1 X139.5086 Y172.3832 E0.0677 F1800 ; Glyph: 0
G1 X137.5086 Y172.3832 E0.0677 F1800 ; Glyph: 0
G1 X135.5086 Y172.3832 E0.0677 F1800 ; Glyph: 0
G1 X135.5086 Y170.3832 E0.0677 F1800 ; Glyph: 0
G1 E-1 F3000 ; Retract
G1 Z0.5 F12000 ; Z hop
G0 X139.5086 Y173.3832 F12000 ; Move
G1 Z0.4 F12000 ; Z hop return
G1 E1 F1800 ; Un-retract
G1 X138.7586 Y173.3832 E0.02539 F1800 ; Glyph: .
G1 E-1 F3000 ; Retract
G1 Z0.5 F12000 ; Z hop
G0 X135.5086 Y174.3832 F12000 ; Move
G1 Z0.4 F12000 ; Z hop return
G1 E1 F1800 ; Un-retract
G1 X137.5086 Y174.3832 E0.0677 F1800 ; Glyph: 0
G1 X139.5086 Y174.3832 E0.0677 F1800 ; Glyph: 0
G1 X139.5086 Y176.3832 E0.0677 F1800 ; Glyph: 0
G1 X137.5086 Y176.3832 E0.0677 F1800 ; Glyph: 0
G1 X135.5086 Y176.3832 E0.0677 F1800 ; Glyph: 0
G1 X135.5086 Y174.3832 E0.0677 F1800 ; Glyph: 0
G1 E-1 F3000 ; Retract
G1 Z0.5 F12000 ; Z hop
G0 X135.5086 Y179.3832 F12000 ; Move
G1 Z0.4 F12000 ; Z hop return
G1 E1 F1800 ; Un-retract
G1 X135.5086 Y177.3832 E0.0677 F1800 ; Glyph: 6
G1 X137.5086 Y177.3832 E0.0677 F1800 ; Glyph: 6
G1 X139.5086 Y177.3832 E0.0677 F1800 ; Glyph: 6
G1 X139.5086 Y179.3832 E0.0677 F1800 ; Glyph: 6
G1 X137.5086 Y179.3832 E0.0677 F1800 ; Glyph: 6
G1 X137.5086 Y177.3832 E0.0677 F1800 ; Glyph: 6
G1 E-1 F3000 ; Retract
G1 Z0.5 F12000 ; Z hop
G0 X135.5086 Y180.3832 F12000 ; Move
G1 Z0.4 F12000 ; Z hop return
G1 E1 F1800 ; Un-retract
G1 X137.5086 Y180.3832 E0.0677 F1800 ; Glyph: 8
G1 X139.5086 Y180.3832 E0.0677 F1800 ; Glyph: 8
G1 X139.5086 Y182.3832 E0.0677 F1800 ; Glyph: 8
G1 X137.5086 Y182.3832 E0.0677 F1800 ; Glyph: 8
G1 X135.5086 Y182.3832 E0.0677 F1800 ; Glyph: 8
G1 X135.5086 Y180.3832 E0.0677 F1800 ; Glyph: 8
G0 X137.5086 Y180.3832 F12000 ; Move
G1 X137.5086 Y182.3832 E0.0677 F1800 ; Glyph: 8
G1 E-1 F3000 ; Retract
G1 Z0.5 F12000 ; Z hop
G0 X142.7114 Y170.3832 F12000 ; Move
G1 Z0.4 F12000 ; Z hop return
G1 E1 F1800 ; Un-retract
G1 X144.7114 Y170.3832 E0.0677 F1800 ; Glyph: 0
G1 X146.7114 Y170.3832 E0.0677 F1800 ; Glyph: 0
G1 X146.7114 Y172.3832 E0.0677 F1800 ; Glyph: 0
G1 X144.7114 Y172.3832 E0.0677 F1800 ; Glyph: 0
G1 X142.7114 Y172.3832 E0.0677 F1800 ; Glyph: 0
G1 X142.7114 Y170.3832 E0.0677 F1800 ; Glyph: 0
G1 E-1 F3000 ; Retract
G1 Z0.5 F12000 ; Z hop
G0 X146.7114 Y173.3832 F12000 ; Move
G1 Z0.4 F12000 ; Z hop return
G1 E1 F1800 ; Un-retract
G1 X145.9614 Y173.3832 E0.02539 F1800 ; Glyph: .
G1 E-1 F3000 ; Retract
G1 Z0.5 F12000 ; Z hop
G0 X142.7114 Y174.3832 F12000 ; Move
G1 Z0.4 F12000 ; Z hop return
G1 E1 F1800 ; Un-retract
G1 X144.7114 Y174.3832 E0.0677 F1800 ; Glyph: 0
G1 X146.7114 Y174.3832 E0.0677 F1800 ; Glyph: 0
G1 X146.7114 Y176.3832 E0.0677 F1800 ; Glyph: 0
G1 X144.7114 Y176.3832 E0.0677 F1800 ; Glyph: 0
G1 X142.7114 Y176.3832 E0.0677 F1800 ; Glyph: 0
G1 X142.7114 Y174.3832 E0.0677 F1800 ; Glyph: 0
G1 E-1 F3000 ; Retract
G1 Z0.5 F12000 ; Z hop
G0 X142.7114 Y177.3832 F12000 ; Move
G1 Z0.4 F12000 ; Z hop return
G1 E1 F1800 ; Un-retract
G1 X142.7114 Y179.3832 E0.0677 F1800 ; Glyph: 7
G1 X144.7114 Y179.3832 E0.0677 F1800 ; Glyph: 7
G1 X146.7114 Y179.3832 E0.0677 F1800 ; Glyph: 7
G1 E-1 F3000 ; Retract
G1 Z0.5 F12000 ; Z hop
G0 X149.9142 Y170.3832 F12000 ; Move
G1 Z0.4 F12000 ; Z hop return
G1 E1 F1800 ; Un-retract
G1 X151.9142 Y170.3832 E0.0677 F1800 ; Glyph: 0
G1 X153.9142 Y170.3832 E0.0677 F1800 ; Glyph: 0
G1 X153.9142 Y172.3832 E0.0677 F1800 ; Glyph: 0
G1 X151.9142 Y172.3832 E0.0677 F1800 ; Glyph: 0
G1 X149.9142 Y172.3832 E0.0677 F1800 ; Glyph: 0
G1 X149.9142 Y170.3832 E0.0677 F1800 ; Glyph: 0
G1 E-1 F3000 ; Retract
G1 Z0.5 F12000 ; Z hop
G0 X153.9142 Y173.3832 F12000 ; Move
G1 Z0.4 F12000 ; Z hop return
G1 E1 F1800 ; Un-retract
G1 X153.1642 Y173.3832 E0.02539 F1800 ; Glyph: .
G1 E-1 F3000 ; Retract
G1 Z0.5 F12000 ; Z hop
G0 X149.9142 Y174.3832 F12000 ; Move
G1 Z0.4 F12000 ; Z hop return
G1 E1 F1800 ; Un-retract
G1 X151.9142 Y174.3832 E0.0677 F1800 ; Glyph: 0
G1 X153.9142 Y174.3832 E0.0677 F1800 ; Glyph: 0
G1 X153.9142 Y176.3832 E0.0677 F1800 ; Glyph: 0
G1 X151.9142 Y176.3832 E0.0677 F1800 ; Glyph: 0
G1 X149.9142 Y176.3832 E0.0677 F1800 ; Glyph: 0
G1 X149.9142 Y174.3832 E0.0677 F1800 ; Glyph: 0
G1 E-1 F3000 ; Retract
G1 Z0.5 F12000 ; Z hop
G0 X149.9142 Y177.3832 F12000 ; Move
G1 Z0.4 F12000 ; Z hop return
G1 E1 F1800 ; Un-retract
G1 X149.9142 Y179.3832 E0.0677 F1800 ; Glyph: 7
G1 X151.9142 Y179.3832 E0.0677 F1800 ; Glyph: 7
G1 X153.9142 Y179.3832 E0.0677 F1800 ; Glyph: 7
G1 E-1 F3000 ; Retract
G1 Z0.5 F12000 ; Z hop
G0 X149.9142 Y180.3832 F12000 ; Move
G1 Z0.4 F12000 ; Z hop return
G1 E1 F1800 ; Un-retract
G1 X149.9142 Y182.3832 E0.0677 F1800 ; Glyph: 2
G1 X151.9142 Y182.3832 E0.0677 F1800 ; Glyph: 2
G1 X151.9142 Y180.3832 E0.0677 F1800 ; Glyph: 2
G1 X153.9142 Y180.3832 E0.0677 F1800 ; Glyph: 2
G1 X153.9142 Y182.3832 E0.0677 F1800 ; Glyph: 2
G1 E-1 F3000 ; Retract
G1 Z0.5 F12000 ; Z hop
G0 X157.117 Y170.3832 F12000 ; Move
G1 Z0.4 F12000 ; Z hop return
G1 E1 F1800 ; Un-retract
G1 X159.117 Y170.3832 E0.0677 F1800 ; Glyph: 0
G1 X161.117 Y170.3832 E0.0677 F1800 ; Glyph: 0
G1 X161.117 Y172.3832 E0.0677 F1800 ; Glyph: 0
G1 X159.117 Y172.3832 E0.0677 F1800 ; Glyph: 0
G1 X157.117 Y172.3832 E0.0677 F1800 ; Glyph: 0
G1 X157.117 Y170.3832 E0.0677 F1800 ; Glyph: 0
G1 E-1 F3000 ; Retract
G1 Z0.5 F12000 ; Z hop
G0 X161.117 Y173.3832 F12000 ; Move
G1 Z0.4 F12000 ; Z hop return
G1 E1 F1800 ; Un-retract
G1 X160.367 Y173.3832 E0.02539 F1800 ; Glyph: .
G1 E-1 F3000 ; Retract
G1 Z0.5 F12000 ; Z hop
G0 X157.117 Y174.3832 F12000 ; Move
G1 Z0.4 F12000 ; Z hop return
G1 E1 F1800 ; Un-retract
G1 X159.117 Y174.3832 E0.0677 F1800 ; Glyph: 0
G1 X161.117 Y174.3832 E0.0677 F1800 ; Glyph: 0
G1 X161.117 Y176.3832 E0.0677 F1800 ; Glyph: 0
G1 X159.117 Y176.3832 E0.0677 F1800 ; Glyph: 0
G1 X157.117 Y176.3832 E0.0677 F1800 ; Glyph: 0
G1 X157.117 Y174.3832 E0.0677 F1800 ; Glyph: 0
G1 E-1 F3000 ; Retract
G1 Z0.5 F12000 ; Z hop
G0 X157.117 Y177.3832 F12000 ; Move
G1 Z0.4 F12000 ; Z hop return
G1 E1 F1800 ; Un-retract
G1 X157.117 Y179.3832 E0.0677 F1800 ; Glyph: 7
G1 X159.117 Y179.3832 E0.0677 F1800 ; Glyph: 7
G1 X161.117 Y179.3832 E0.0677 F1800 ; Glyph: 7
G1 E-1 F3000 ; Retract
G1 Z0.5 F12000 ; Z hop
G0 X157.117 Y182.3832 F12000 ; Move
G1 Z0.4 F12000 ; Z hop return
G1 E1 F1800 ; Un-retract
G1 X159.117 Y182.3832 E0.0677 F1800 ; Glyph: 4
G1 X161.117 Y182.3832 E0.0677 F1800 ; Glyph: 4
G0 X159.117 Y182.3832 F12000 ; Move
G1 X159.117 Y180.3832 E0.0677 F1800 ; Glyph: 4
G1 X157.117 Y180.3832 E0.0677 F1800 ; Glyph: 4
G1 E-1 F3000 ; Retract
G1 Z0.5 F12000 ; Z hop
G0 X164.3198 Y170.3832 F12000 ; Move
G1 Z0.4 F12000 ; Z hop return
G1 E1 F1800 ; Un-retract
G1 X166.3198 Y170.3832 E0.0677 F1800 ; Glyph: 0
G1 X168.3198 Y170.3832 E0.0677 F1800 ; Glyph: 0
G1 X168.3198 Y172.3832 E0.0677 F1800 ; Glyph: 0
G1 X166.3198 Y172.3832 E0.0677 F1800 ; Glyph: 0
G1 X164.3198 Y172.3832 E0.0677 F1800 ; Glyph: 0
G1 X164.3198 Y170.3832 E0.0677 F1800 ; Glyph: 0
G1 E-1 F3000 ; Retract
G1 Z0.5 F12000 ; Z hop
G0 X168.3198 Y173.3832 F12000 ; Move
G1 Z0.4 F12000 ; Z hop return
G1 E1 F1800 ; Un-retract
G1 X167.5698 Y173.3832 E0.02539 F1800 ; Glyph: .
G1 E-1 F3000 ; Retract
G1 Z0.5 F12000 ; Z hop
G0 X164.3198 Y174.3832 F12000 ; Move
G1 Z0.4 F12000 ; Z hop return
G1 E1 F1800 ; Un-retract
G1 X166.3198 Y174.3832 E0.0677 F1800 ; Glyph: 0
G1 X168.3198 Y174.3832 E0.0677 F1800 ; Glyph: 0
G1 X168.3198 Y176.3832 E0.0677 F1800 ; Glyph: 0
G1 X166.3198 Y176.3832 E0.0677 F1800 ; Glyph: 0
G1 X164.3198 Y176.3832 E0.0677 F1800 ; Glyph: 0
G1 X164.3198 Y174.3832 E0.0677 F1800 ; Glyph: 0
G1 E-1 F3000 ; Retract
G1 Z0.5 F12000 ; Z hop
G0 X164.3198 Y177.3832 F12000 ; Move
G1 Z0.4 F12000 ; Z hop return
G1 E1 F1800 ; Un-retract
G1 X164.3198 Y179.3832 E0.0677 F1800 ; Glyph: 7
G1 X166.3198 Y179.3832 E0.0677 F1800 ; Glyph: 7
G1 X168.3198 Y179.3832 E0.0677 F1800 ; Glyph: 7
G1 E-1 F3000 ; Retract
G1 Z0.5 F12000 ; Z hop
G0 X164.3198 Y182.3832 F12000 ; Move
G1 Z0.4 F12000 ; Z hop return
G1 E1 F1800 ; Un-retract
G1 X164.3198 Y180.3832 E0.0677 F1800 ; Glyph: 6
G1 X166.3198 Y180.3832 E0.0677 F1800 ; Glyph: 6
G1 X168.3198 Y180.3832 E0.0677 F1800 ; Glyph: 6
G1 X168.3198 Y182.3832 E0.0677 F1800 ; Glyph: 6
G1 X166.3198 Y182.3832 E0.0677 F1800 ; Glyph: 6
G1 X166.3198 Y180.3832 E0.0677 F1800 ; Glyph: 6
G1 E-1 F3000 ; Retract
G1 Z0.5 F12000 ; Z hop
G0 X171.5226 Y170.3832 F12000 ; Move
G1 Z0.4 F12000 ; Z hop return
G1 E1 F1800 ; Un-retract
G1 X173.5226 Y170.3832 E0.0677 F1800 ; Glyph: 0
G1 X175.5226 Y170.3832 E0.0677 F1800 ; Glyph: 0
G1 X175.5226 Y172.3832 E0.0677 F1800 ; Glyph: 0
G1 X173.5226 Y172.3832 E0.0677 F1800 ; Glyph: 0
G1 X171.5226 Y172.3832 E0.0677 F1800 ; Glyph: 0
G1 X171.5226 Y170.3832 E0.0677 F1800 ; Glyph: 0
G1 E-1 F3000 ; Retract
G1 Z0.5 F12000 ; Z hop
G0 X175.5226 Y173.3832 F12000 ; Move
G1 Z0.4 F12000 ; Z hop return
G1 E1 F1800 ; Un-retract
G1 X174.7726 Y173.3832 E0.02539 F1800 ; Glyph: .
G1 E-1 F3000 ; Retract
G1 Z0.5 F12000 ; Z hop
G0 X171.5226 Y174.3832 F12000 ; Move
G1 Z0.4 F12000 ; Z hop return
G1 E1 F1800 ; Un-retract
G1 X173.5226 Y174.3832 E0.0677 F1800 ; Glyph: 0
G1 X175.5226 Y174.3832 E0.0677 F1800 ; Glyph: 0
G1 X175.5226 Y176.3832 E0.0677 F1800 ; Glyph: 0
G1 X173.5226 Y176.3832 E0.0677 F1800 ; Glyph: 0
G1 X171.5226 Y176.3832 E0.0677 F1800 ; Glyph: 0
G1 X171.5226 Y174.3832 E0.0677 F1800 ; Glyph: 0
G1 E-1 F3000 ; Retract
G1 Z0.5 F12000 ; Z hop
G0 X171.5226 Y177.3832 F12000 ; Move
G1 Z0.4 F12000 ; Z hop return
G1 E1 F1800 ; Un-retract
G1 X171.5226 Y179.3832 E0.0677 F1800 ; Glyph: 7
G1 X173.5226 Y179.3832 E0.0677 F1800 ; Glyph: 7
G1 X175.5226 Y179.3832 E0.0677 F1800 ; Glyph: 7
G1 E-1 F3000 ; Retract
G1 Z0.5 F12000 ; Z hop
G0 X171.5226 Y180.3832 F12000 ; Move
G1 Z0.4 F12000 ; Z hop return
G1 E1 F1800 ; Un-retract
G1 X173.5226 Y180.3832 E0.0677 F1800 ; Glyph: 8
G1 X175.5226 Y180.3832 E0.0677 F1800 ; Glyph: 8
G1 X175.5226 Y182.3832 E0.0677 F1800 ; Glyph: 8
G1 X173.5226 Y182.3832 E0.0677 F1800 ; Glyph: 8
G1 X171.5226 Y182.3832 E0.0677 F1800 ; Glyph: 8
G1 X171.5226 Y180.3832 E0.0677 F1800 ; Glyph: 8
G0 X173.5226 Y180.3832 F12000 ; Move
G1 X173.5226 Y182.3832 E0.0677 F1800 ; Glyph: 8
G1 E-1 F3000 ; Retract
G1 Z0.5 F12000 ; Z hop
G0 X178.7253 Y170.3832 F12000 ; Move
G1 Z0.4 F12000 ; Z hop return
G1 E1 F1800 ; Un-retract
G1 X180.7253 Y170.3832 E0.0677 F1800 ; Glyph: 0
G1 X182.7253 Y170.3832 E0.0677 F1800 ; Glyph: 0
G1 X182.7253 Y172.3832 E0.0677 F1800 ; Glyph: 0
G1 X180.7253 Y172.3832 E0.0677 F1800 ; Glyph: 0
G1 X178.7253 Y172.3832 E0.0677 F1800 ; Glyph: 0
G1 X178.7253 Y170.3832 E0.0677 F1800 ; Glyph: 0
G1 E-1 F3000 ; Retract
G1 Z0.5 F12000 ; Z hop
G0 X182.7253 Y173.3832 F12000 ; Move
G1 Z0.4 F12000 ; Z hop return
G1 E1 F1800 ; Un-retract
G1 X181.9753 Y173.3832 E0.02539 F1800 ; Glyph: .
G1 E-1 F3000 ; Retract
G1 Z0.5 F12000 ; Z hop
G0 X178.7253 Y174.3832 F12000 ; Move
G1 Z0.4 F12000 ; Z hop return
G1 E1 F1800 ; Un-retract
G1 X180.7253 Y174.3832 E0.0677 F1800 ; Glyph: 0
G1 X182.7253 Y174.3832 E0.0677 F1800 ; Glyph: 0
G1 X182.7253 Y176.3832 E0.0677 F1800 ; Glyph: 0
G1 X180.7253 Y176.3832 E0.0677 F1800 ; Glyph: 0
G1 X178.7253 Y176.3832 E0.0677 F1800 ; Glyph: 0
G1 X178.7253 Y174.3832 E0.0677 F1800 ; Glyph: 0
G1 E-1 F3000 ; Retract
G1 Z0.5 F12000 ; Z hop
G0 X178.7253 Y177.3832 F12000 ; Move
G1 Z0.4 F12000 ; Z hop return
G1 E1 F1800 ; Un-retract
G1 X180.7253 Y177.3832 E0.0677 F1800 ; Glyph: 8
G1 X182.7253 Y177.3832 E0.0677 F1800 ; Glyph: 8
G1 X182.7253 Y179.3832 E0.0677 F1800 ; Glyph: 8
G1 X180.7253 Y179.3832 E0.0677 F1800 ; Glyph: 8
G1 X178.7253 Y179.3832 E0.0677 F1800 ; Glyph: 8
G1 X178.7253 Y177.3832 E0.0677 F1800 ; Glyph: 8
G0 X180.7253 Y177.3832 F12000 ; Move
G1 X180.7253 Y179.3832 E0.0677 F1800 ; Glyph: 8
G1 E-1 F3000 ; Retract
G1 Z0.5 F12000 ; Z hop
G0 X108.1217 Y126.5068 F12000 ; Move to pattern start

G1 Z0.4 F12000 ; Z hop return
G1 E1 F1800 ; Un-retract
SET_PRESSURE_ADVANCE ADVANCE=0.06 ; Set pressure advance
M117 PA 0.06
G1 X129.3349 Y147.72 E1.01546 F4200 ; Print pattern wall
G1 X108.1217 Y168.9332 E1.01546 F4200 ; Print pattern wall
G1 E-1 F3000 ; Retract
G1 Z0.5 F12000 ; Z hop
G0 X108.6974 Y126.5068 F12000 ; Move to start next pattern wall
G1 Z0.4 F12000 ; Z hop return
G1 E1 F1800 ; Un-retract
G1 X129.9106 Y147.72 E1.01546 F4200 ; Print pattern wall
G1 X108.6974 Y168.9332 E1.01546 F4200 ; Print pattern wall
G1 E-1 F3000 ; Retract
G1 Z0.5 F12000 ; Z hop
G0 X109.2731 Y126.5068 F12000 ; Move to start next pattern wall
G1 Z0.4 F12000 ; Z hop return
G1 E1 F1800 ; Un-retract
G1 X130.4863 Y147.72 E1.01546 F4200 ; Print pattern wall
G1 X109.2731 Y168.9332 E1.01546 F4200 ; Print pattern wall
G1 E-1 F3000 ; Retract
G1 Z0.5 F12000 ; Z hop
G0 X111.7231 Y126.5068 F12000 ; Move to next pattern
G1 Z0.4 F12000 ; Z hop return
G1 E1 F1800 ; Un-retract
SET_PRESSURE_ADVANCE ADVANCE=0.061 ; Set pressure advance
M117 PA 0.061
G1 X132.9363 Y147.72 E1.01546 F4200 ; Print pattern wall
G1 X111.7231 Y168.9332 E1.01546 F4200 ; Print pattern wall
G1 E-1 F3000 ; Retract
G1 Z0.5 F12000 ; Z hop
G0 X112.2988 Y126.5068 F12000 ; Move to start next pattern wall
G1 Z0.4 F12000 ; Z hop return
G1 E1 F1800 ; Un-retract
G1 X133.512 Y147.72 E1.01546 F4200 ; Print pattern wall
G1 X112.2988 Y168.9332 E1.01546 F4200 ; Print pattern wall
G1 E-1 F3000 ; Retract
G1 Z0.5 F12000 ; Z hop
G0 X112.8745 Y126.5068 F12000 ; Move to start next pattern wall
G1 Z0.4 F12000 ; Z hop return
G1 E1 F1800 ; Un-retract
G1 X134.0877 Y147.72 E1.01546 F4200 ; Print pattern wall
G1 X112.8745 Y168.9332 E1.01546 F4200 ; Print pattern wall
G1 E-1 F3000 ; Retract
G1 Z0.5 F12000 ; Z hop
G0 X115.3245 Y126.5068 F12000 ; Move to next pattern
G1 Z0.4 F12000 ; Z hop return
G1 E1 F1800 ; Un-retract
SET_PRESSURE_ADVANCE ADVANCE=0.062 ; Set pressure advance
M117 PA 0.062
G1 X136.5377 Y147.72 E1.01546 F4200 ; Print pattern wall
G1 X115.3245 Y168.9332 E1.01546 F4200 ; Print pattern wall
G1 E-1 F3000 ; Retract
G1 Z0.5 F12000 ; Z hop
G0 X115.9002 Y126.5068 F12000 ; Move to start next pattern wall
G1 Z0.4 F12000 ; Z hop return
G1 E1 F1800 ; Un-retract
G1 X137.1134 Y147.72 E1.01546 F4200 ; Print pattern wall
G1 X115.9002 Y168.9332 E1.01546 F4200 ; Print pattern wall
G1 E-1 F3000 ; Retract
G1 Z0.5 F12000 ; Z hop
G0 X116.4759 Y126.5068 F12000 ; Move to start next pattern wall
G1 Z0.4 F12000 ; Z hop return
G1 E1 F1800 ; Un-retract
G1 X137.6891 Y147.72 E1.01546 F4200 ; Print pattern wall
G1 X116.4759 Y168.9332 E1.01546 F4200 ; Print pattern wall
G1 E-1 F3000 ; Retract
G1 Z0.5 F12000 ; Z hop
G0 X118.9259 Y126.5068 F12000 ; Move to next pattern
G1 Z0.4 F12000 ; Z hop return
G1 E1 F1800 ; Un-retract
SET_PRESSURE_ADVANCE ADVANCE=0.063 ; Set pressure advance
M117 PA 0.063
G1 X140.1391 Y147.72 E1.01546 F4200 ; Print pattern wall
G1 X118.9259 Y168.9332 E1.01546 F4200 ; Print pattern wall
G1 E-1 F3000 ; Retract
G1 Z0.5 F12000 ; Z hop
G0 X119.5016 Y126.5068 F12000 ; Move to start next pattern wall
G1 Z0.4 F12000 ; Z hop return
G1 E1 F1800 ; Un-retract
G1 X140.7148 Y147.72 E1.01546 F4200 ; Print pattern wall
G1 X119.5016 Y168.9332 E1.01546 F4200 ; Print pattern wall
G1 E-1 F3000 ; Retract
G1 Z0.5 F12000 ; Z hop
G0 X120.0773 Y126.5068 F12000 ; Move to start next pattern wall
G1 Z0.4 F12000 ; Z hop return
G1 E1 F1800 ; Un-retract
G1 X141.2905 Y147.72 E1.01546 F4200 ; Print pattern wall
G1 X120.0773 Y168.9332 E1.01546 F4200 ; Print pattern wall
G1 E-1 F3000 ; Retract
G1 Z0.5 F12000 ; Z hop
G0 X122.5273 Y126.5068 F12000 ; Move to next pattern
G1 Z0.4 F12000 ; Z hop return
G1 E1 F1800 ; Un-retract
SET_PRESSURE_ADVANCE ADVANCE=0.064 ; Set pressure advance
M117 PA 0.064
G1 X143.7405 Y147.72 E1.01546 F4200 ; Print pattern wall
G1 X122.5273 Y168.9332 E1.01546 F4200 ; Print pattern wall
G1 E-1 F3000 ; Retract
G1 Z0.5 F12000 ; Z hop
G0 X123.103 Y126.5068 F12000 ; Move to start next pattern wall
G1 Z0.4 F12000 ; Z hop return
G1 E1 F1800 ; Un-retract
G1 X144.3162 Y147.72 E1.01546 F4200 ; Print pattern wall
G1 X123.103 Y168.9332 E1.01546 F4200 ; Print pattern wall
G1 E-1 F3000 ; Retract
G1 Z0.5 F12000 ; Z hop
G0 X123.6787 Y126.5068 F12000 ; Move to start next pattern wall
G1 Z0.4 F12000 ; Z hop return
G1 E1 F1800 ; Un-retract
G1 X144.8919 Y147.72 E1.01546 F4200 ; Print pattern wall
G1 X123.6787 Y168.9332 E1.01546 F4200 ; Print pattern wall
G1 E-1 F3000 ; Retract
G1 Z0.5 F12000 ; Z hop
G0 X126.1287 Y126.5068 F12000 ; Move to next pattern
G1 Z0.4 F12000 ; Z hop return
G1 E1 F1800 ; Un-retract
SET_PRESSURE_ADVANCE ADVANCE=0.065 ; Set pressure advance
M117 PA 0.065
G1 X147.3419 Y147.72 E1.01546 F4200 ; Print pattern wall
G1 X126.1287 Y168.9332 E1.01546 F4200 ; Print pattern wall
G1 E-1 F3000 ; Retract
G1 Z0.5 F12000 ; Z hop
G0 X126.7044 Y126.5068 F12000 ; Move to start next pattern wall
G1 Z0.4 F12000 ; Z hop return
G1 E1 F1800 ; Un-retract
G1 X147.9176 Y147.72 E1.01546 F4200 ; Print pattern wall
G1 X126.7044 Y168.9332 E1.01546 F4200 ; Print pattern wall
G1 E-1 F3000 ; Retract
G1 Z0.5 F12000 ; Z hop
G0 X127.2801 Y126.5068 F12000 ; Move to start next pattern wall
G1 Z0.4 F12000 ; Z hop return
G1 E1 F1800 ; Un-retract
G1 X148.4933 Y147.72 E1.01546 F4200 ; Print pattern wall
G1 X127.2801 Y168.9332 E1.01546 F4200 ; Print pattern wall
G1 E-1 F3000 ; Retract
G1 Z0.5 F12000 ; Z hop
G0 X129.7301 Y126.5068 F12000 ; Move to next pattern
G1 Z0.4 F12000 ; Z hop return
G1 E1 F1800 ; Un-retract
SET_PRESSURE_ADVANCE ADVANCE=0.066 ; Set pressure advance
M117 PA 0.066
G1 X150.9433 Y147.72 E1.01546 F4200 ; Print pattern wall
G1 X129.7301 Y168.9332 E1.01546 F4200 ; Print pattern wall
G1 E-1 F3000 ; Retract
G1 Z0.5 F12000 ; Z hop
G0 X130.3058 Y126.5068 F12000 ; Move to start next pattern wall
G1 Z0.4 F12000 ; Z hop return
G1 E1 F1800 ; Un-retract
G1 X151.519 Y147.72 E1.01546 F4200 ; Print pattern wall
G1 X130.3058 Y168.9332 E1.01546 F4200 ; Print pattern wall
G1 E-1 F3000 ; Retract
G1 Z0.5 F12000 ; Z hop
G0 X130.8815 Y126.5068 F12000 ; Move to start next pattern wall
G1 Z0.4 F12000 ; Z hop return
G1 E1 F1800 ; Un-retract
G1 X152.0947 Y147.72 E1.01546 F4200 ; Print pattern wall
G1 X130.8815 Y168.9332 E1.01546 F4200 ; Print pattern wall
G1 E-1 F3000 ; Retract
G1 Z0.5 F12000 ; Z hop
G0 X133.3315 Y126.5068 F12000 ; Move to next pattern
G1 Z0.4 F12000 ; Z hop return
G1 E1 F1800 ; Un-retract
SET_PRESSURE_ADVANCE ADVANCE=0.067 ; Set pressure advance
M117 PA 0.067
G1 X154.5447 Y147.72 E1.01546 F4200 ; Print pattern wall
G1 X133.3315 Y168.9332 E1.01546 F4200 ; Print pattern wall
G1 E-1 F3000 ; Retract
G1 Z0.5 F12000 ; Z hop
G0 X133.9072 Y126.5068 F12000 ; Move to start next pattern wall
G1 Z0.4 F12000 ; Z hop return
G1 E1 F1800 ; Un-retract
G1 X155.1204 Y147.72 E1.01546 F4200 ; Print pattern wall
G1 X133.9072 Y168.9332 E1.01546 F4200 ; Print pattern wall
G1 E-1 F3000 ; Retract
G1 Z0.5 F12000 ; Z hop
G0 X134.4829 Y126.5068 F12000 ; Move to start next pattern wall
G1 Z0.4 F12000 ; Z hop return
G1 E1 F1800 ; Un-retract
G1 X155.6961 Y147.72 E1.01546 F4200 ; Print pattern wall
G1 X134.4829 Y168.9332 E1.01546 F4200 ; Print pattern wall
G1 E-1 F3000 ; Retract
G1 Z0.5 F12000 ; Z hop
G0 X136.9329 Y126.5068 F12000 ; Move to next pattern
G1 Z0.4 F12000 ; Z hop return
G1 E1 F1800 ; Un-retract
SET_PRESSURE_ADVANCE ADVANCE=0.068 ; Set pressure advance
M117 PA 0.068
G1 X158.1461 Y147.72 E1.01546 F4200 ; Print pattern wall
G1 X136.9329 Y168.9332 E1.01546 F4200 ; Print pattern wall
G1 E-1 F3000 ; Retract
G1 Z0.5 F12000 ; Z hop
G0 X137.5086 Y126.5068 F12000 ; Move to start next pattern wall
G1 Z0.4 F12000 ; Z hop return
G1 E1 F1800 ; Un-retract
G1 X158.7218 Y147.72 E1.01546 F4200 ; Print pattern wall
G1 X137.5086 Y168.9332 E1.01546 F4200 ; Print pattern wall
G1 E-1 F3000 ; Retract
G1 Z0.5 F12000 ; Z hop
G0 X138.0843 Y126.5068 F12000 ; Move to start next pattern wall
G1 Z0.4 F12000 ; Z hop return
G1 E1 F1800 ; Un-retract
G1 X159.2975 Y147.72 E1.01546 F4200 ; Print pattern wall
G1 X138.0843 Y168.9332 E1.01546 F4200 ; Print pattern wall
G1 E-1 F3000 ; Retract
G1 Z0.5 F12000 ; Z hop
G0 X140.5343 Y126.5068 F12000 ; Move to next pattern
G1 Z0.4 F12000 ; Z hop return
G1 E1 F1800 ; Un-retract
SET_PRESSURE_ADVANCE ADVANCE=0.069 ; Set pressure advance
M117 PA 0.069
G1 X161.7475 Y147.72 E1.01546 F4200 ; Print pattern wall
G1 X140.5343 Y168.9332 E1.01546 F4200 ; Print pattern wall
G1 E-1 F3000 ; Retract
G1 Z0.5 F12000 ; Z hop
G0 X141.11 Y126.5068 F12000 ; Move to start next pattern wall
G1 Z0.4 F12000 ; Z hop return
G1 E1 F1800 ; Un-retract
G1 X162.3232 Y147.72 E1.01546 F4200 ; Print pattern wall
G1 X141.11 Y168.9332 E1.01546 F4200 ; Print pattern wall
G1 E-1 F3000 ; Retract
G1 Z0.5 F12000 ; Z hop
G0 X141.6857 Y126.5068 F12000 ; Move to start next pattern wall
G1 Z0.4 F12000 ; Z hop return
G1 E1 F1800 ; Un-retract
G1 X162.8989 Y147.72 E1.01546 F4200 ; Print pattern wall
G1 X141.6857 Y168.9332 E1.01546 F4200 ; Print pattern wall
G1 E-1 F3000 ; Retract
G1 Z0.5 F12000 ; Z hop
G0 X144.1357 Y126.5068 F12000 ; Move to next pattern
G1 Z0.4 F12000 ; Z hop return
G1 E1 F1800 ; Un-retract
SET_PRESSURE_ADVANCE ADVANCE=0.07 ; Set pressure advance
M117 PA 0.07
G1 X165.3489 Y147.72 E1.01546 F4200 ; Print pattern wall
G1 X144.1357 Y168.9332 E1.01546 F4200 ; Print pattern wall
G1 E-1 F3000 ; Retract
G1 Z0.5 F12000 ; Z hop
G0 X144.7114 Y126.5068 F12000 ; Move to start next pattern wall
G1 Z0.4 F12000 ; Z hop return
G1 E1 F1800 ; Un-retract
G1 X165.9246 Y147.72 E1.01546 F4200 ; Print pattern wall
G1 X144.7114 Y168.9332 E1.01546 F4200 ; Print pattern wall
G1 E-1 F3000 ; Retract
G1 Z0.5 F12000 ; Z hop
G0 X145.2871 Y126.5068 F12000 ; Move to start next pattern wall
G1 Z0.4 F12000 ; Z hop return
G1 E1 F1800 ; Un-retract
G1 X166.5003 Y147.72 E1.01546 F4200 ; Print pattern wall
G1 X145.2871 Y168.9332 E1.01546 F4200 ; Print pattern wall
G1 E-1 F3000 ; Retract
G1 Z0.5 F12000 ; Z hop
G0 X147.7371 Y126.5068 F12000 ; Move to next pattern
G1 Z0.4 F12000 ; Z hop return
G1 E1 F1800 ; Un-retract
SET_PRESSURE_ADVANCE ADVANCE=0.071 ; Set pressure advance
M117 PA 0.071
G1 X168.9503 Y147.72 E1.01546 F4200 ; Print pattern wall
G1 X147.7371 Y168.9332 E1.01546 F4200 ; Print pattern wall
G1 E-1 F3000 ; Retract
G1 Z0.5 F12000 ; Z hop
G0 X148.3128 Y126.5068 F12000 ; Move to start next pattern wall
G1 Z0.4 F12000 ; Z hop return
G1 E1 F1800 ; Un-retract
G1 X169.526 Y147.72 E1.01546 F4200 ; Print pattern wall
G1 X148.3128 Y168.9332 E1.01546 F4200 ; Print pattern wall
G1 E-1 F3000 ; Retract
G1 Z0.5 F12000 ; Z hop
G0 X148.8885 Y126.5068 F12000 ; Move to start next pattern wall
G1 Z0.4 F12000 ; Z hop return
G1 E1 F1800 ; Un-retract
G1 X170.1017 Y147.72 E1.01546 F4200 ; Print pattern wall
G1 X148.8885 Y168.9332 E1.01546 F4200 ; Print pattern wall
G1 E-1 F3000 ; Retract
G1 Z0.5 F12000 ; Z hop
G0 X151.3385 Y126.5068 F12000 ; Move to next pattern
G1 Z0.4 F12000 ; Z hop return
G1 E1 F1800 ; Un-retract
SET_PRESSURE_ADVANCE ADVANCE=0.072 ; Set pressure advance
M117 PA 0.072
G1 X172.5517 Y147.72 E1.01546 F4200 ; Print pattern wall
G1 X151.3385 Y168.9332 E1.01546 F4200 ; Print pattern wall
G1 E-1 F3000 ; Retract
G1 Z0.5 F12000 ; Z hop
G0 X151.9142 Y126.5068 F12000 ; Move to start next pattern wall
G1 Z0.4 F12000 ; Z hop return
G1 E1 F1800 ; Un-retract
G1 X173.1274 Y147.72 E1.01546 F4200 ; Print pattern wall
G1 X151.9142 Y168.9332 E1.01546 F4200 ; Print pattern wall
G1 E-1 F3000 ; Retract
G1 Z0.5 F12000 ; Z hop
G0 X152.4899 Y126.5068 F12000 ; Move to start next pattern wall
G1 Z0.4 F12000 ; Z hop return
G1 E1 F1800 ; Un-retract
G1 X173.7031 Y147.72 E1.01546 F4200 ; Print pattern wall
G1 X152.4899 Y168.9332 E1.01546 F4200 ; Print pattern wall
G1 E-1 F3000 ; Retract
G1 Z0.5 F12000 ; Z hop
G0 X154.9399 Y126.5068 F12000 ; Move to next pattern
G1 Z0.4 F12000 ; Z hop return
G1 E1 F1800 ; Un-retract
SET_PRESSURE_ADVANCE ADVANCE=0.073 ; Set pressure advance
M117 PA 0.073
G1 X176.1531 Y147.72 E1.01546 F4200 ; Print pattern wall
G1 X154.9399 Y168.9332 E1.01546 F4200 ; Print pattern wall
G1 E-1 F3000 ; Retract
G1 Z0.5 F12000 ; Z hop
G0 X155.5156 Y126.5068 F12000 ; Move to start next pattern wall
G1 Z0.4 F12000 ; Z hop return
G1 E1 F1800 ; Un-retract
G1 X176.7288 Y147.72 E1.01546 F4200 ; Print pattern wall
G1 X155.5156 Y168.9332 E1.01546 F4200 ; Print pattern wall
G1 E-1 F3000 ; Retract
G1 Z0.5 F12000 ; Z hop
G0 X156.0913 Y126.5068 F12000 ; Move to start next pattern wall
G1 Z0.4 F12000 ; Z hop return
G1 E1 F1800 ; Un-retract
G1 X177.3045 Y147.72 E1.01546 F4200 ; Print pattern wall
G1 X156.0913 Y168.9332 E1.01546 F4200 ; Print pattern wall
G1 E-1 F3000 ; Retract
G1 Z0.5 F12000 ; Z hop
G0 X158.5413 Y126.5068 F12000 ; Move to next pattern
G1 Z0.4 F12000 ; Z hop return
G1 E1 F1800 ; Un-retract
SET_PRESSURE_ADVANCE ADVANCE=0.074 ; Set pressure advance
M117 PA 0.074
G1 X179.7545 Y147.72 E1.01546 F4200 ; Print pattern wall
G1 X158.5413 Y168.9332 E1.01546 F4200 ; Print pattern wall
G1 E-1 F3000 ; Retract
G1 Z0.5 F12000 ; Z hop
G0 X159.117 Y126.5068 F12000 ; Move to start next pattern wall
G1 Z0.4 F12000 ; Z hop return
G1 E1 F1800 ; Un-retract
G1 X180.3302 Y147.72 E1.01546 F4200 ; Print pattern wall
G1 X159.117 Y168.9332 E1.01546 F4200 ; Print pattern wall
G1 E-1 F3000 ; Retract
G1 Z0.5 F12000 ; Z hop
G0 X159.6927 Y126.5068 F12000 ; Move to start next pattern wall
G1 Z0.4 F12000 ; Z hop return
G1 E1 F1800 ; Un-retract
G1 X180.9059 Y147.72 E1.01546 F4200 ; Print pattern wall
G1 X159.6927 Y168.9332 E1.01546 F4200 ; Print pattern wall
G1 E-1 F3000 ; Retract
G1 Z0.5 F12000 ; Z hop
G0 X162.1427 Y126.5068 F12000 ; Move to next pattern
G1 Z0.4 F12000 ; Z hop return
G1 E1 F1800 ; Un-retract
SET_PRESSURE_ADVANCE ADVANCE=0.075 ; Set pressure advance
M117 PA 0.075
G1 X183.3559 Y147.72 E1.01546 F4200 ; Print pattern wall
G1 X162.1427 Y168.9332 E1.01546 F4200 ; Print pattern wall
G1 E-1 F3000 ; Retract
G1 Z0.5 F12000 ; Z hop
G0 X162.7184 Y126.5068 F12000 ; Move to start next pattern wall
G1 Z0.4 F12000 ; Z hop return
G1 E1 F1800 ; Un-retract
G1 X183.9316 Y147.72 E1.01546 F4200 ; Print pattern wall
G1 X162.7184 Y168.9332 E1.01546 F4200 ; Print pattern wall
G1 E-1 F3000 ; Retract
G1 Z0.5 F12000 ; Z hop
G0 X163.2941 Y126.5068 F12000 ; Move to start next pattern wall
G1 Z0.4 F12000 ; Z hop return
G1 E1 F1800 ; Un-retract
G1 X184.5073 Y147.72 E1.01546 F4200 ; Print pattern wall
G1 X163.2941 Y168.9332 E1.01546 F4200 ; Print pattern wall
G1 E-1 F3000 ; Retract
G1 Z0.5 F12000 ; Z hop
G0 X165.7441 Y126.5068 F12000 ; Move to next pattern
G1 Z0.4 F12000 ; Z hop return
G1 E1 F1800 ; Un-retract
SET_PRESSURE_ADVANCE ADVANCE=0.076 ; Set pressure advance
M117 PA 0.076
G1 X186.9573 Y147.72 E1.01546 F4200 ; Print pattern wall
G1 X165.7441 Y168.9332 E1.01546 F4200 ; Print pattern wall
G1 E-1 F3000 ; Retract
G1 Z0.5 F12000 ; Z hop
G0 X166.3198 Y126.5068 F12000 ; Move to start next pattern wall
G1 Z0.4 F12000 ; Z hop return
G1 E1 F1800 ; Un-retract
G1 X187.533 Y147.72 E1.01546 F4200 ; Print pattern wall
G1 X166.3198 Y168.9332 E1.01546 F4200 ; Print pattern wall
G1 E-1 F3000 ; Retract
G1 Z0.5 F12000 ; Z hop
G0 X166.8955 Y126.5068 F12000 ; Move to start next pattern wall
G1 Z0.4 F12000 ; Z hop return
G1 E1 F1800 ; Un-retract
G1 X188.1087 Y147.72 E1.01546 F4200 ; Print pattern wall
G1 X166.8955 Y168.9332 E1.01546 F4200 ; Print pattern wall
G1 E-1 F3000 ; Retract
G1 Z0.5 F12000 ; Z hop
G0 X169.3455 Y126.5068 F12000 ; Move to next pattern
G1 Z0.4 F12000 ; Z hop return
G1 E1 F1800 ; Un-retract
SET_PRESSURE_ADVANCE ADVANCE=0.077 ; Set pressure advance
M117 PA 0.077
G1 X190.5587 Y147.72 E1.01546 F4200 ; Print pattern wall
G1 X169.3455 Y168.9332 E1.01546 F4200 ; Print pattern wall
G1 E-1 F3000 ; Retract
G1 Z0.5 F12000 ; Z hop
G0 X169.9212 Y126.5068 F12000 ; Move to start next pattern wall
G1 Z0.4 F12000 ; Z hop return
G1 E1 F1800 ; Un-retract
G1 X191.1344 Y147.72 E1.01546 F4200 ; Print pattern wall
G1 X169.9212 Y168.9332 E1.01546 F4200 ; Print pattern wall
G1 E-1 F3000 ; Retract
G1 Z0.5 F12000 ; Z hop
G0 X170.4969 Y126.5068 F12000 ; Move to start next pattern wall
G1 Z0.4 F12000 ; Z hop return
G1 E1 F1800 ; Un-retract
G1 X191.7101 Y147.72 E1.01546 F4200 ; Print pattern wall
G1 X170.4969 Y168.9332 E1.01546 F4200 ; Print pattern wall
G1 E-1 F3000 ; Retract
G1 Z0.5 F12000 ; Z hop
G0 X172.9469 Y126.5068 F12000 ; Move to next pattern
G1 Z0.4 F12000 ; Z hop return
G1 E1 F1800 ; Un-retract
SET_PRESSURE_ADVANCE ADVANCE=0.078 ; Set pressure advance
M117 PA 0.078
G1 X194.1601 Y147.72 E1.01546 F4200 ; Print pattern wall
G1 X172.9469 Y168.9332 E1.01546 F4200 ; Print pattern wall
G1 E-1 F3000 ; Retract
G1 Z0.5 F12000 ; Z hop
G0 X173.5226 Y126.5068 F12000 ; Move to start next pattern wall
G1 Z0.4 F12000 ; Z hop return
G1 E1 F1800 ; Un-retract
G1 X194.7358 Y147.72 E1.01546 F4200 ; Print pattern wall
G1 X173.5226 Y168.9332 E1.01546 F4200 ; Print pattern wall
G1 E-1 F3000 ; Retract
G1 Z0.5 F12000 ; Z hop
G0 X174.0982 Y126.5068 F12000 ; Move to start next pattern wall
G1 Z0.4 F12000 ; Z hop return
G1 E1 F1800 ; Un-retract
G1 X195.3115 Y147.72 E1.01546 F4200 ; Print pattern wall
G1 X174.0982 Y168.9332 E1.01546 F4200 ; Print pattern wall
G1 E-1 F3000 ; Retract
G1 Z0.5 F12000 ; Z hop
G0 X176.5482 Y126.5068 F12000 ; Move to next pattern
G1 Z0.4 F12000 ; Z hop return
G1 E1 F1800 ; Un-retract
SET_PRESSURE_ADVANCE ADVANCE=0.079 ; Set pressure advance
M117 PA 0.079
G1 X197.7615 Y147.72 E1.01546 F4200 ; Print pattern wall
G1 X176.5482 Y168.9332 E1.01546 F4200 ; Print pattern wall
G1 E-1 F3000 ; Retract
G1 Z0.5 F12000 ; Z hop
G0 X177.1239 Y126.5068 F12000 ; Move to start next pattern wall
G1 Z0.4 F12000 ; Z hop return
G1 E1 F1800 ; Un-retract
G1 X198.3371 Y147.72 E1.01546 F4200 ; Print pattern wall
G1 X177.1239 Y168.9332 E1.01546 F4200 ; Print pattern wall
G1 E-1 F3000 ; Retract
G1 Z0.5 F12000 ; Z hop
G0 X177.6996 Y126.5068 F12000 ; Move to start next pattern wall
G1 Z0.4 F12000 ; Z hop return
G1 E1 F1800 ; Un-retract
G1 X198.9128 Y147.72 E1.01546 F4200 ; Print pattern wall
G1 X177.6996 Y168.9332 E1.01546 F4200 ; Print pattern wall
G1 E-1 F3000 ; Retract
G1 Z0.5 F12000 ; Z hop
G0 X180.1496 Y126.5068 F12000 ; Move to next pattern
G1 Z0.4 F12000 ; Z hop return
G1 E1 F1800 ; Un-retract
SET_PRESSURE_ADVANCE ADVANCE=0.08 ; Set pressure advance
M117 PA 0.08
G1 X201.3628 Y147.72 E1.01546 F4200 ; Print pattern wall
G1 X180.1496 Y168.9332 E1.01546 F4200 ; Print pattern wall
G1 E-1 F3000 ; Retract
G1 Z0.5 F12000 ; Z hop
G0 X180.7253 Y126.5068 F12000 ; Move to start next pattern wall
G1 Z0.4 F12000 ; Z hop return
G1 E1 F1800 ; Un-retract
G1 X201.9385 Y147.72 E1.01546 F4200 ; Print pattern wall
G1 X180.7253 Y168.9332 E1.01546 F4200 ; Print pattern wall
G1 E-1 F3000 ; Retract
G1 Z0.5 F12000 ; Z hop
G0 X181.301 Y126.5068 F12000 ; Move to start next pattern wall
G1 Z0.4 F12000 ; Z hop return
G1 E1 F1800 ; Un-retract
G1 X202.5142 Y147.72 E1.01546 F4200 ; Print pattern wall
G1 X181.301 Y168.9332 E1.01546 F4200 ; Print pattern wall
G1 E-1 F3000 ; Retract
G1 Z0.5 F12000 ; Z hop
G0 X108.1217 Y126.5068 F12000 ; Move back to start position
G1 Z0.4 F12000 ; Z hop return
G1 E1 F1800 ; Un-retract
G0 Z0.6 F12000 ; Move to layer height
SET_PRESSURE_ADVANCE ADVANCE=0.06 ; Set pressure advance
M117 PA 0.06
G1 X129.3349 Y147.72 E1.01546 F4200 ; Print pattern wall
G1 X108.1217 Y168.9332 E1.01546 F4200 ; Print pattern wall
G1 E-1 F3000 ; Retract
G1 Z0.7 F12000 ; Z hop
G0 X108.6974 Y126.5068 F12000 ; Move to start next pattern wall
G1 Z0.6 F12000 ; Z hop return
G1 E1 F1800 ; Un-retract
G1 X129.9106 Y147.72 E1.01546 F4200 ; Print pattern wall
G1 X108.6974 Y168.9332 E1.01546 F4200 ; Print pattern wall
G1 E-1 F3000 ; Retract
G1 Z0.7 F12000 ; Z hop
G0 X109.2731 Y126.5068 F12000 ; Move to start next pattern wall
G1 Z0.6 F12000 ; Z hop return
G1 E1 F1800 ; Un-retract
G1 X130.4863 Y147.72 E1.01546 F4200 ; Print pattern wall
G1 X109.2731 Y168.9332 E1.01546 F4200 ; Print pattern wall
G1 E-1 F3000 ; Retract
G1 Z0.7 F12000 ; Z hop
G0 X111.7231 Y126.5068 F12000 ; Move to next pattern
G1 Z0.6 F12000 ; Z hop return
G1 E1 F1800 ; Un-retract
SET_PRESSURE_ADVANCE ADVANCE=0.061 ; Set pressure advance
M117 PA 0.061
G1 X132.9363 Y147.72 E1.01546 F4200 ; Print pattern wall
G1 X111.7231 Y168.9332 E1.01546 F4200 ; Print pattern wall
G1 E-1 F3000 ; Retract
G1 Z0.7 F12000 ; Z hop
G0 X112.2988 Y126.5068 F12000 ; Move to start next pattern wall
G1 Z0.6 F12000 ; Z hop return
G1 E1 F1800 ; Un-retract
G1 X133.512 Y147.72 E1.01546 F4200 ; Print pattern wall
G1 X112.2988 Y168.9332 E1.01546 F4200 ; Print pattern wall
G1 E-1 F3000 ; Retract
G1 Z0.7 F12000 ; Z hop
G0 X112.8745 Y126.5068 F12000 ; Move to start next pattern wall
G1 Z0.6 F12000 ; Z hop return
G1 E1 F1800 ; Un-retract
G1 X134.0877 Y147.72 E1.01546 F4200 ; Print pattern wall
G1 X112.8745 Y168.9332 E1.01546 F4200 ; Print pattern wall
G1 E-1 F3000 ; Retract
G1 Z0.7 F12000 ; Z hop
G0 X115.3245 Y126.5068 F12000 ; Move to next pattern
G1 Z0.6 F12000 ; Z hop return
G1 E1 F1800 ; Un-retract
SET_PRESSURE_ADVANCE ADVANCE=0.062 ; Set pressure advance
M117 PA 0.062
G1 X136.5377 Y147.72 E1.01546 F4200 ; Print pattern wall
G1 X115.3245 Y168.9332 E1.01546 F4200 ; Print pattern wall
G1 E-1 F3000 ; Retract
G1 Z0.7 F12000 ; Z hop
G0 X115.9002 Y126.5068 F12000 ; Move to start next pattern wall
G1 Z0.6 F12000 ; Z hop return
G1 E1 F1800 ; Un-retract
G1 X137.1134 Y147.72 E1.01546 F4200 ; Print pattern wall
G1 X115.9002 Y168.9332 E1.01546 F4200 ; Print pattern wall
G1 E-1 F3000 ; Retract
G1 Z0.7 F12000 ; Z hop
G0 X116.4759 Y126.5068 F12000 ; Move to start next pattern wall
G1 Z0.6 F12000 ; Z hop return
G1 E1 F1800 ; Un-retract
G1 X137.6891 Y147.72 E1.01546 F4200 ; Print pattern wall
G1 X116.4759 Y168.9332 E1.01546 F4200 ; Print pattern wall
G1 E-1 F3000 ; Retract
G1 Z0.7 F12000 ; Z hop
G0 X118.9259 Y126.5068 F12000 ; Move to next pattern
G1 Z0.6 F12000 ; Z hop return
G1 E1 F1800 ; Un-retract
SET_PRESSURE_ADVANCE ADVANCE=0.063 ; Set pressure advance
M117 PA 0.063
G1 X140.1391 Y147.72 E1.01546 F4200 ; Print pattern wall
G1 X118.9259 Y168.9332 E1.01546 F4200 ; Print pattern wall
G1 E-1 F3000 ; Retract
G1 Z0.7 F12000 ; Z hop
G0 X119.5016 Y126.5068 F12000 ; Move to start next pattern wall
G1 Z0.6 F12000 ; Z hop return
G1 E1 F1800 ; Un-retract
G1 X140.7148 Y147.72 E1.01546 F4200 ; Print pattern wall
G1 X119.5016 Y168.9332 E1.01546 F4200 ; Print pattern wall
G1 E-1 F3000 ; Retract
G1 Z0.7 F12000 ; Z hop
G0 X120.0773 Y126.5068 F12000 ; Move to start next pattern wall
G1 Z0.6 F12000 ; Z hop return
G1 E1 F1800 ; Un-retract
G1 X141.2905 Y147.72 E1.01546 F4200 ; Print pattern wall
G1 X120.0773 Y168.9332 E1.01546 F4200 ; Print pattern wall
G1 E-1 F3000 ; Retract
G1 Z0.7 F12000 ; Z hop
G0 X122.5273 Y126.5068 F12000 ; Move to next pattern
G1 Z0.6 F12000 ; Z hop return
G1 E1 F1800 ; Un-retract
SET_PRESSURE_ADVANCE ADVANCE=0.064 ; Set pressure advance
M117 PA 0.064
G1 X143.7405 Y147.72 E1.01546 F4200 ; Print pattern wall
G1 X122.5273 Y168.9332 E1.01546 F4200 ; Print pattern wall
G1 E-1 F3000 ; Retract
G1 Z0.7 F12000 ; Z hop
G0 X123.103 Y126.5068 F12000 ; Move to start next pattern wall
G1 Z0.6 F12000 ; Z hop return
G1 E1 F1800 ; Un-retract
G1 X144.3162 Y147.72 E1.01546 F4200 ; Print pattern wall
G1 X123.103 Y168.9332 E1.01546 F4200 ; Print pattern wall
G1 E-1 F3000 ; Retract
G1 Z0.7 F12000 ; Z hop
G0 X123.6787 Y126.5068 F12000 ; Move to start next pattern wall
G1 Z0.6 F12000 ; Z hop return
G1 E1 F1800 ; Un-retract
G1 X144.8919 Y147.72 E1.01546 F4200 ; Print pattern wall
G1 X123.6787 Y168.9332 E1.01546 F4200 ; Print pattern wall
G1 E-1 F3000 ; Retract
G1 Z0.7 F12000 ; Z hop
G0 X126.1287 Y126.5068 F12000 ; Move to next pattern
G1 Z0.6 F12000 ; Z hop return
G1 E1 F1800 ; Un-retract
SET_PRESSURE_ADVANCE ADVANCE=0.065 ; Set pressure advance
M117 PA 0.065
G1 X147.3419 Y147.72 E1.01546 F4200 ; Print pattern wall
G1 X126.1287 Y168.9332 E1.01546 F4200 ; Print pattern wall
G1 E-1 F3000 ; Retract
G1 Z0.7 F12000 ; Z hop
G0 X126.7044 Y126.5068 F12000 ; Move to start next pattern wall
G1 Z0.6 F12000 ; Z hop return
G1 E1 F1800 ; Un-retract
G1 X147.9176 Y147.72 E1.01546 F4200 ; Print pattern wall
G1 X126.7044 Y168.9332 E1.01546 F4200 ; Print pattern wall
G1 E-1 F3000 ; Retract
G1 Z0.7 F12000 ; Z hop
G0 X127.2801 Y126.5068 F12000 ; Move to start next pattern wall
G1 Z0.6 F12000 ; Z hop return
G1 E1 F1800 ; Un-retract
G1 X148.4933 Y147.72 E1.01546 F4200 ; Print pattern wall
G1 X127.2801 Y168.9332 E1.01546 F4200 ; Print pattern wall
G1 E-1 F3000 ; Retract
G1 Z0.7 F12000 ; Z hop
G0 X129.7301 Y126.5068 F12000 ; Move to next pattern
G1 Z0.6 F12000 ; Z hop return
G1 E1 F1800 ; Un-retract
SET_PRESSURE_ADVANCE ADVANCE=0.066 ; Set pressure advance
M117 PA 0.066
G1 X150.9433 Y147.72 E1.01546 F4200 ; Print pattern wall
G1 X129.7301 Y168.9332 E1.01546 F4200 ; Print pattern wall
G1 E-1 F3000 ; Retract
G1 Z0.7 F12000 ; Z hop
G0 X130.3058 Y126.5068 F12000 ; Move to start next pattern wall
G1 Z0.6 F12000 ; Z hop return
G1 E1 F1800 ; Un-retract
G1 X151.519 Y147.72 E1.01546 F4200 ; Print pattern wall
G1 X130.3058 Y168.9332 E1.01546 F4200 ; Print pattern wall
G1 E-1 F3000 ; Retract
G1 Z0.7 F12000 ; Z hop
G0 X130.8815 Y126.5068 F12000 ; Move to start next pattern wall
G1 Z0.6 F12000 ; Z hop return
G1 E1 F1800 ; Un-retract
G1 X152.0947 Y147.72 E1.01546 F4200 ; Print pattern wall
G1 X130.8815 Y168.9332 E1.01546 F4200 ; Print pattern wall
G1 E-1 F3000 ; Retract
G1 Z0.7 F12000 ; Z hop
G0 X133.3315 Y126.5068 F12000 ; Move to next pattern
G1 Z0.6 F12000 ; Z hop return
G1 E1 F1800 ; Un-retract
SET_PRESSURE_ADVANCE ADVANCE=0.067 ; Set pressure advance
M117 PA 0.067
G1 X154.5447 Y147.72 E1.01546 F4200 ; Print pattern wall
G1 X133.3315 Y168.9332 E1.01546 F4200 ; Print pattern wall
G1 E-1 F3000 ; Retract
G1 Z0.7 F12000 ; Z hop
G0 X133.9072 Y126.5068 F12000 ; Move to start next pattern wall
G1 Z0.6 F12000 ; Z hop return
G1 E1 F1800 ; Un-retract
G1 X155.1204 Y147.72 E1.01546 F4200 ; Print pattern wall
G1 X133.9072 Y168.9332 E1.01546 F4200 ; Print pattern wall
G1 E-1 F3000 ; Retract
G1 Z0.7 F12000 ; Z hop
G0 X134.4829 Y126.5068 F12000 ; Move to start next pattern wall
G1 Z0.6 F12000 ; Z hop return
G1 E1 F1800 ; Un-retract
G1 X155.6961 Y147.72 E1.01546 F4200 ; Print pattern wall
G1 X134.4829 Y168.9332 E1.01546 F4200 ; Print pattern wall
G1 E-1 F3000 ; Retract
G1 Z0.7 F12000 ; Z hop
G0 X136.9329 Y126.5068 F12000 ; Move to next pattern
G1 Z0.6 F12000 ; Z hop return
G1 E1 F1800 ; Un-retract
SET_PRESSURE_ADVANCE ADVANCE=0.068 ; Set pressure advance
M117 PA 0.068
G1 X158.1461 Y147.72 E1.01546 F4200 ; Print pattern wall
G1 X136.9329 Y168.9332 E1.01546 F4200 ; Print pattern wall
G1 E-1 F3000 ; Retract
G1 Z0.7 F12000 ; Z hop
G0 X137.5086 Y126.5068 F12000 ; Move to start next pattern wall
G1 Z0.6 F12000 ; Z hop return
G1 E1 F1800 ; Un-retract
G1 X158.7218 Y147.72 E1.01546 F4200 ; Print pattern wall
G1 X137.5086 Y168.9332 E1.01546 F4200 ; Print pattern wall
G1 E-1 F3000 ; Retract
G1 Z0.7 F12000 ; Z hop
G0 X138.0843 Y126.5068 F12000 ; Move to start next pattern wall
G1 Z0.6 F12000 ; Z hop return
G1 E1 F1800 ; Un-retract
G1 X159.2975 Y147.72 E1.01546 F4200 ; Print pattern wall
G1 X138.0843 Y168.9332 E1.01546 F4200 ; Print pattern wall
G1 E-1 F3000 ; Retract
G1 Z0.7 F12000 ; Z hop
G0 X140.5343 Y126.5068 F12000 ; Move to next pattern
G1 Z0.6 F12000 ; Z hop return
G1 E1 F1800 ; Un-retract
SET_PRESSURE_ADVANCE ADVANCE=0.069 ; Set pressure advance
M117 PA 0.069
G1 X161.7475 Y147.72 E1.01546 F4200 ; Print pattern wall
G1 X140.5343 Y168.9332 E1.01546 F4200 ; Print pattern wall
G1 E-1 F3000 ; Retract
G1 Z0.7 F12000 ; Z hop
G0 X141.11 Y126.5068 F12000 ; Move to start next pattern wall
G1 Z0.6 F12000 ; Z hop return
G1 E1 F1800 ; Un-retract
G1 X162.3232 Y147.72 E1.01546 F4200 ; Print pattern wall
G1 X141.11 Y168.9332 E1.01546 F4200 ; Print pattern wall
G1 E-1 F3000 ; Retract
G1 Z0.7 F12000 ; Z hop
G0 X141.6857 Y126.5068 F12000 ; Move to start next pattern wall
G1 Z0.6 F12000 ; Z hop return
G1 E1 F1800 ; Un-retract
G1 X162.8989 Y147.72 E1.01546 F4200 ; Print pattern wall
G1 X141.6857 Y168.9332 E1.01546 F4200 ; Print pattern wall
G1 E-1 F3000 ; Retract
G1 Z0.7 F12000 ; Z hop
G0 X144.1357 Y126.5068 F12000 ; Move to next pattern
G1 Z0.6 F12000 ; Z hop return
G1 E1 F1800 ; Un-retract
SET_PRESSURE_ADVANCE ADVANCE=0.07 ; Set pressure advance
M117 PA 0.07
G1 X165.3489 Y147.72 E1.01546 F4200 ; Print pattern wall
G1 X144.1357 Y168.9332 E1.01546 F4200 ; Print pattern wall
G1 E-1 F3000 ; Retract
G1 Z0.7 F12000 ; Z hop
G0 X144.7114 Y126.5068 F12000 ; Move to start next pattern wall
G1 Z0.6 F12000 ; Z hop return
G1 E1 F1800 ; Un-retract
G1 X165.9246 Y147.72 E1.01546 F4200 ; Print pattern wall
G1 X144.7114 Y168.9332 E1.01546 F4200 ; Print pattern wall
G1 E-1 F3000 ; Retract
G1 Z0.7 F12000 ; Z hop
G0 X145.2871 Y126.5068 F12000 ; Move to start next pattern wall
G1 Z0.6 F12000 ; Z hop return
G1 E1 F1800 ; Un-retract
G1 X166.5003 Y147.72 E1.01546 F4200 ; Print pattern wall
G1 X145.2871 Y168.9332 E1.01546 F4200 ; Print pattern wall
G1 E-1 F3000 ; Retract
G1 Z0.7 F12000 ; Z hop
G0 X147.7371 Y126.5068 F12000 ; Move to next pattern
G1 Z0.6 F12000 ; Z hop return
G1 E1 F1800 ; Un-retract
SET_PRESSURE_ADVANCE ADVANCE=0.071 ; Set pressure advance
M117 PA 0.071
G1 X168.9503 Y147.72 E1.01546 F4200 ; Print pattern wall
G1 X147.7371 Y168.9332 E1.01546 F4200 ; Print pattern wall
G1 E-1 F3000 ; Retract
G1 Z0.7 F12000 ; Z hop
G0 X148.3128 Y126.5068 F12000 ; Move to start next pattern wall
G1 Z0.6 F12000 ; Z hop return
G1 E1 F1800 ; Un-retract
G1 X169.526 Y147.72 E1.01546 F4200 ; Print pattern wall
G1 X148.3128 Y168.9332 E1.01546 F4200 ; Print pattern wall
G1 E-1 F3000 ; Retract
G1 Z0.7 F12000 ; Z hop
G0 X148.8885 Y126.5068 F12000 ; Move to start next pattern wall
G1 Z0.6 F12000 ; Z hop return
G1 E1 F1800 ; Un-retract
G1 X170.1017 Y147.72 E1.01546 F4200 ; Print pattern wall
G1 X148.8885 Y168.9332 E1.01546 F4200 ; Print pattern wall
G1 E-1 F3000 ; Retract
G1 Z0.7 F12000 ; Z hop
G0 X151.3385 Y126.5068 F12000 ; Move to next pattern
G1 Z0.6 F12000 ; Z hop return
G1 E1 F1800 ; Un-retract
SET_PRESSURE_ADVANCE ADVANCE=0.072 ; Set pressure advance
M117 PA 0.072
G1 X172.5517 Y147.72 E1.01546 F4200 ; Print pattern wall
G1 X151.3385 Y168.9332 E1.01546 F4200 ; Print pattern wall
G1 E-1 F3000 ; Retract
G1 Z0.7 F12000 ; Z hop
G0 X151.9142 Y126.5068 F12000 ; Move to start next pattern wall
G1 Z0.6 F12000 ; Z hop return
G1 E1 F1800 ; Un-retract
G1 X173.1274 Y147.72 E1.01546 F4200 ; Print pattern wall
G1 X151.9142 Y168.9332 E1.01546 F4200 ; Print pattern wall
G1 E-1 F3000 ; Retract
G1 Z0.7 F12000 ; Z hop
G0 X152.4899 Y126.5068 F12000 ; Move to start next pattern wall
G1 Z0.6 F12000 ; Z hop return
G1 E1 F1800 ; Un-retract
G1 X173.7031 Y147.72 E1.01546 F4200 ; Print pattern wall
G1 X152.4899 Y168.9332 E1.01546 F4200 ; Print pattern wall
G1 E-1 F3000 ; Retract
G1 Z0.7 F12000 ; Z hop
G0 X154.9399 Y126.5068 F12000 ; Move to next pattern
G1 Z0.6 F12000 ; Z hop return
G1 E1 F1800 ; Un-retract
SET_PRESSURE_ADVANCE ADVANCE=0.073 ; Set pressure advance
M117 PA 0.073
G1 X176.1531 Y147.72 E1.01546 F4200 ; Print pattern wall
G1 X154.9399 Y168.9332 E1.01546 F4200 ; Print pattern wall
G1 E-1 F3000 ; Retract
G1 Z0.7 F12000 ; Z hop
G0 X155.5156 Y126.5068 F12000 ; Move to start next pattern wall
G1 Z0.6 F12000 ; Z hop return
G1 E1 F1800 ; Un-retract
G1 X176.7288 Y147.72 E1.01546 F4200 ; Print pattern wall
G1 X155.5156 Y168.9332 E1.01546 F4200 ; Print pattern wall
G1 E-1 F3000 ; Retract
G1 Z0.7 F12000 ; Z hop
G0 X156.0913 Y126.5068 F12000 ; Move to start next pattern wall
G1 Z0.6 F12000 ; Z hop return
G1 E1 F1800 ; Un-retract
G1 X177.3045 Y147.72 E1.01546 F4200 ; Print pattern wall
G1 X156.0913 Y168.9332 E1.01546 F4200 ; Print pattern wall
G1 E-1 F3000 ; Retract
G1 Z0.7 F12000 ; Z hop
G0 X158.5413 Y126.5068 F12000 ; Move to next pattern
G1 Z0.6 F12000 ; Z hop return
G1 E1 F1800 ; Un-retract
SET_PRESSURE_ADVANCE ADVANCE=0.074 ; Set pressure advance
M117 PA 0.074
G1 X179.7545 Y147.72 E1.01546 F4200 ; Print pattern wall
G1 X158.5413 Y168.9332 E1.01546 F4200 ; Print pattern wall
G1 E-1 F3000 ; Retract
G1 Z0.7 F12000 ; Z hop
G0 X159.117 Y126.5068 F12000 ; Move to start next pattern wall
G1 Z0.6 F12000 ; Z hop return
G1 E1 F1800 ; Un-retract
G1 X180.3302 Y147.72 E1.01546 F4200 ; Print pattern wall
G1 X159.117 Y168.9332 E1.01546 F4200 ; Print pattern wall
G1 E-1 F3000 ; Retract
G1 Z0.7 F12000 ; Z hop
G0 X159.6927 Y126.5068 F12000 ; Move to start next pattern wall
G1 Z0.6 F12000 ; Z hop return
G1 E1 F1800 ; Un-retract
G1 X180.9059 Y147.72 E1.01546 F4200 ; Print pattern wall
G1 X159.6927 Y168.9332 E1.01546 F4200 ; Print pattern wall
G1 E-1 F3000 ; Retract
G1 Z0.7 F12000 ; Z hop
G0 X162.1427 Y126.5068 F12000 ; Move to next pattern
G1 Z0.6 F12000 ; Z hop return
G1 E1 F1800 ; Un-retract
SET_PRESSURE_ADVANCE ADVANCE=0.075 ; Set pressure advance
M117 PA 0.075
G1 X183.3559 Y147.72 E1.01546 F4200 ; Print pattern wall
G1 X162.1427 Y168.9332 E1.01546 F4200 ; Print pattern wall
G1 E-1 F3000 ; Retract
G1 Z0.7 F12000 ; Z hop
G0 X162.7184 Y126.5068 F12000 ; Move to start next pattern wall
G1 Z0.6 F12000 ; Z hop return
G1 E1 F1800 ; Un-retract
G1 X183.9316 Y147.72 E1.01546 F4200 ; Print pattern wall
G1 X162.7184 Y168.9332 E1.01546 F4200 ; Print pattern wall
G1 E-1 F3000 ; Retract
G1 Z0.7 F12000 ; Z hop
G0 X163.2941 Y126.5068 F12000 ; Move to start next pattern wall
G1 Z0.6 F12000 ; Z hop return
G1 E1 F1800 ; Un-retract
G1 X184.5073 Y147.72 E1.01546 F4200 ; Print pattern wall
G1 X163.2941 Y168.9332 E1.01546 F4200 ; Print pattern wall
G1 E-1 F3000 ; Retract
G1 Z0.7 F12000 ; Z hop
G0 X165.7441 Y126.5068 F12000 ; Move to next pattern
G1 Z0.6 F12000 ; Z hop return
G1 E1 F1800 ; Un-retract
SET_PRESSURE_ADVANCE ADVANCE=0.076 ; Set pressure advance
M117 PA 0.076
G1 X186.9573 Y147.72 E1.01546 F4200 ; Print pattern wall
G1 X165.7441 Y168.9332 E1.01546 F4200 ; Print pattern wall
G1 E-1 F3000 ; Retract
G1 Z0.7 F12000 ; Z hop
G0 X166.3198 Y126.5068 F12000 ; Move to start next pattern wall
G1 Z0.6 F12000 ; Z hop return
G1 E1 F1800 ; Un-retract
G1 X187.533 Y147.72 E1.01546 F4200 ; Print pattern wall
G1 X166.3198 Y168.9332 E1.01546 F4200 ; Print pattern wall
G1 E-1 F3000 ; Retract
G1 Z0.7 F12000 ; Z hop
G0 X166.8955 Y126.5068 F12000 ; Move to start next pattern wall
G1 Z0.6 F12000 ; Z hop return
G1 E1 F1800 ; Un-retract
G1 X188.1087 Y147.72 E1.01546 F4200 ; Print pattern wall
G1 X166.8955 Y168.9332 E1.01546 F4200 ; Print pattern wall
G1 E-1 F3000 ; Retract
G1 Z0.7 F12000 ; Z hop
G0 X169.3455 Y126.5068 F12000 ; Move to next pattern
G1 Z0.6 F12000 ; Z hop return
G1 E1 F1800 ; Un-retract
SET_PRESSURE_ADVANCE ADVANCE=0.077 ; Set pressure advance
M117 PA 0.077
G1 X190.5587 Y147.72 E1.01546 F4200 ; Print pattern wall
G1 X169.3455 Y168.9332 E1.01546 F4200 ; Print pattern wall
G1 E-1 F3000 ; Retract
G1 Z0.7 F12000 ; Z hop
G0 X169.9212 Y126.5068 F12000 ; Move to start next pattern wall
G1 Z0.6 F12000 ; Z hop return
G1 E1 F1800 ; Un-retract
G1 X191.1344 Y147.72 E1.01546 F4200 ; Print pattern wall
G1 X169.9212 Y168.9332 E1.01546 F4200 ; Print pattern wall
G1 E-1 F3000 ; Retract
G1 Z0.7 F12000 ; Z hop
G0 X170.4969 Y126.5068 F12000 ; Move to start next pattern wall
G1 Z0.6 F12000 ; Z hop return
G1 E1 F1800 ; Un-retract
G1 X191.7101 Y147.72 E1.01546 F4200 ; Print pattern wall
G1 X170.4969 Y168.9332 E1.01546 F4200 ; Print pattern wall
G1 E-1 F3000 ; Retract
G1 Z0.7 F12000 ; Z hop
G0 X172.9469 Y126.5068 F12000 ; Move to next pattern
G1 Z0.6 F12000 ; Z hop return
G1 E1 F1800 ; Un-retract
SET_PRESSURE_ADVANCE ADVANCE=0.078 ; Set pressure advance
M117 PA 0.078
G1 X194.1601 Y147.72 E1.01546 F4200 ; Print pattern wall
G1 X172.9469 Y168.9332 E1.01546 F4200 ; Print pattern wall
G1 E-1 F3000 ; Retract
G1 Z0.7 F12000 ; Z hop
G0 X173.5226 Y126.5068 F12000 ; Move to start next pattern wall
G1 Z0.6 F12000 ; Z hop return
G1 E1 F1800 ; Un-retract
G1 X194.7358 Y147.72 E1.01546 F4200 ; Print pattern wall
G1 X173.5226 Y168.9332 E1.01546 F4200 ; Print pattern wall
G1 E-1 F3000 ; Retract
G1 Z0.7 F12000 ; Z hop
G0 X174.0982 Y126.5068 F12000 ; Move to start next pattern wall
G1 Z0.6 F12000 ; Z hop return
G1 E1 F1800 ; Un-retract
G1 X195.3115 Y147.72 E1.01546 F4200 ; Print pattern wall
G1 X174.0982 Y168.9332 E1.01546 F4200 ; Print pattern wall
G1 E-1 F3000 ; Retract
G1 Z0.7 F12000 ; Z hop
G0 X176.5482 Y126.5068 F12000 ; Move to next pattern
G1 Z0.6 F12000 ; Z hop return
G1 E1 F1800 ; Un-retract
SET_PRESSURE_ADVANCE ADVANCE=0.079 ; Set pressure advance
M117 PA 0.079
G1 X197.7615 Y147.72 E1.01546 F4200 ; Print pattern wall
G1 X176.5482 Y168.9332 E1.01546 F4200 ; Print pattern wall
G1 E-1 F3000 ; Retract
G1 Z0.7 F12000 ; Z hop
G0 X177.1239 Y126.5068 F12000 ; Move to start next pattern wall
G1 Z0.6 F12000 ; Z hop return
G1 E1 F1800 ; Un-retract
G1 X198.3371 Y147.72 E1.01546 F4200 ; Print pattern wall
G1 X177.1239 Y168.9332 E1.01546 F4200 ; Print pattern wall
G1 E-1 F3000 ; Retract
G1 Z0.7 F12000 ; Z hop
G0 X177.6996 Y126.5068 F12000 ; Move to start next pattern wall
G1 Z0.6 F12000 ; Z hop return
G1 E1 F1800 ; Un-retract
G1 X198.9128 Y147.72 E1.01546 F4200 ; Print pattern wall
G1 X177.6996 Y168.9332 E1.01546 F4200 ; Print pattern wall
G1 E-1 F3000 ; Retract
G1 Z0.7 F12000 ; Z hop
G0 X180.1496 Y126.5068 F12000 ; Move to next pattern
G1 Z0.6 F12000 ; Z hop return
G1 E1 F1800 ; Un-retract
SET_PRESSURE_ADVANCE ADVANCE=0.08 ; Set pressure advance
M117 PA 0.08
G1 X201.3628 Y147.72 E1.01546 F4200 ; Print pattern wall
G1 X180.1496 Y168.9332 E1.01546 F4200 ; Print pattern wall
G1 E-1 F3000 ; Retract
G1 Z0.7 F12000 ; Z hop
G0 X180.7253 Y126.5068 F12000 ; Move to start next pattern wall
G1 Z0.6 F12000 ; Z hop return
G1 E1 F1800 ; Un-retract
G1 X201.9385 Y147.72 E1.01546 F4200 ; Print pattern wall
G1 X180.7253 Y168.9332 E1.01546 F4200 ; Print pattern wall
G1 E-1 F3000 ; Retract
G1 Z0.7 F12000 ; Z hop
G0 X181.301 Y126.5068 F12000 ; Move to start next pattern wall
G1 Z0.6 F12000 ; Z hop return
G1 E1 F1800 ; Un-retract
G1 X202.5142 Y147.72 E1.01546 F4200 ; Print pattern wall
G1 X181.301 Y168.9332 E1.01546 F4200 ; Print pattern wall
G1 E-1 F3000 ; Retract
G1 Z0.7 F12000 ; Z hop
G0 X108.1217 Y126.5068 F12000 ; Move back to start position
G1 Z0.6 F12000 ; Z hop return
G1 E1 F1800 ; Un-retract
G0 Z0.8 F12000 ; Move to layer height
SET_PRESSURE_ADVANCE ADVANCE=0.06 ; Set pressure advance
M117 PA 0.06
G1 X129.3349 Y147.72 E1.01546 F4200 ; Print pattern wall
G1 X108.1217 Y168.9332 E1.01546 F4200 ; Print pattern wall
G1 E-1 F3000 ; Retract
G1 Z0.9 F12000 ; Z hop
G0 X108.6974 Y126.5068 F12000 ; Move to start next pattern wall
G1 Z0.8 F12000 ; Z hop return
G1 E1 F1800 ; Un-retract
G1 X129.9106 Y147.72 E1.01546 F4200 ; Print pattern wall
G1 X108.6974 Y168.9332 E1.01546 F4200 ; Print pattern wall
G1 E-1 F3000 ; Retract
G1 Z0.9 F12000 ; Z hop
G0 X109.2731 Y126.5068 F12000 ; Move to start next pattern wall
G1 Z0.8 F12000 ; Z hop return
G1 E1 F1800 ; Un-retract
G1 X130.4863 Y147.72 E1.01546 F4200 ; Print pattern wall
G1 X109.2731 Y168.9332 E1.01546 F4200 ; Print pattern wall
G1 E-1 F3000 ; Retract
G1 Z0.9 F12000 ; Z hop
G0 X111.7231 Y126.5068 F12000 ; Move to next pattern
G1 Z0.8 F12000 ; Z hop return
G1 E1 F1800 ; Un-retract
SET_PRESSURE_ADVANCE ADVANCE=0.061 ; Set pressure advance
M117 PA 0.061
G1 X132.9363 Y147.72 E1.01546 F4200 ; Print pattern wall
G1 X111.7231 Y168.9332 E1.01546 F4200 ; Print pattern wall
G1 E-1 F3000 ; Retract
G1 Z0.9 F12000 ; Z hop
G0 X112.2988 Y126.5068 F12000 ; Move to start next pattern wall
G1 Z0.8 F12000 ; Z hop return
G1 E1 F1800 ; Un-retract
G1 X133.512 Y147.72 E1.01546 F4200 ; Print pattern wall
G1 X112.2988 Y168.9332 E1.01546 F4200 ; Print pattern wall
G1 E-1 F3000 ; Retract
G1 Z0.9 F12000 ; Z hop
G0 X112.8745 Y126.5068 F12000 ; Move to start next pattern wall
G1 Z0.8 F12000 ; Z hop return
G1 E1 F1800 ; Un-retract
G1 X134.0877 Y147.72 E1.01546 F4200 ; Print pattern wall
G1 X112.8745 Y168.9332 E1.01546 F4200 ; Print pattern wall
G1 E-1 F3000 ; Retract
G1 Z0.9 F12000 ; Z hop
G0 X115.3245 Y126.5068 F12000 ; Move to next pattern
G1 Z0.8 F12000 ; Z hop return
G1 E1 F1800 ; Un-retract
SET_PRESSURE_ADVANCE ADVANCE=0.062 ; Set pressure advance
M117 PA 0.062
G1 X136.5377 Y147.72 E1.01546 F4200 ; Print pattern wall
G1 X115.3245 Y168.9332 E1.01546 F4200 ; Print pattern wall
G1 E-1 F3000 ; Retract
G1 Z0.9 F12000 ; Z hop
G0 X115.9002 Y126.5068 F12000 ; Move to start next pattern wall
G1 Z0.8 F12000 ; Z hop return
G1 E1 F1800 ; Un-retract
G1 X137.1134 Y147.72 E1.01546 F4200 ; Print pattern wall
G1 X115.9002 Y168.9332 E1.01546 F4200 ; Print pattern wall
G1 E-1 F3000 ; Retract
G1 Z0.9 F12000 ; Z hop
G0 X116.4759 Y126.5068 F12000 ; Move to start next pattern wall
G1 Z0.8 F12000 ; Z hop return
G1 E1 F1800 ; Un-retract
G1 X137.6891 Y147.72 E1.01546 F4200 ; Print pattern wall
G1 X116.4759 Y168.9332 E1.01546 F4200 ; Print pattern wall
G1 E-1 F3000 ; Retract
G1 Z0.9 F12000 ; Z hop
G0 X118.9259 Y126.5068 F12000 ; Move to next pattern
G1 Z0.8 F12000 ; Z hop return
G1 E1 F1800 ; Un-retract
SET_PRESSURE_ADVANCE ADVANCE=0.063 ; Set pressure advance
M117 PA 0.063
G1 X140.1391 Y147.72 E1.01546 F4200 ; Print pattern wall
G1 X118.9259 Y168.9332 E1.01546 F4200 ; Print pattern wall
G1 E-1 F3000 ; Retract
G1 Z0.9 F12000 ; Z hop
G0 X119.5016 Y126.5068 F12000 ; Move to start next pattern wall
G1 Z0.8 F12000 ; Z hop return
G1 E1 F1800 ; Un-retract
G1 X140.7148 Y147.72 E1.01546 F4200 ; Print pattern wall
G1 X119.5016 Y168.9332 E1.01546 F4200 ; Print pattern wall
G1 E-1 F3000 ; Retract
G1 Z0.9 F12000 ; Z hop
G0 X120.0773 Y126.5068 F12000 ; Move to start next pattern wall
G1 Z0.8 F12000 ; Z hop return
G1 E1 F1800 ; Un-retract
G1 X141.2905 Y147.72 E1.01546 F4200 ; Print pattern wall
G1 X120.0773 Y168.9332 E1.01546 F4200 ; Print pattern wall
G1 E-1 F3000 ; Retract
G1 Z0.9 F12000 ; Z hop
G0 X122.5273 Y126.5068 F12000 ; Move to next pattern
G1 Z0.8 F12000 ; Z hop return
G1 E1 F1800 ; Un-retract
SET_PRESSURE_ADVANCE ADVANCE=0.064 ; Set pressure advance
M117 PA 0.064
G1 X143.7405 Y147.72 E1.01546 F4200 ; Print pattern wall
G1 X122.5273 Y168.9332 E1.01546 F4200 ; Print pattern wall
G1 E-1 F3000 ; Retract
G1 Z0.9 F12000 ; Z hop
G0 X123.103 Y126.5068 F12000 ; Move to start next pattern wall
G1 Z0.8 F12000 ; Z hop return
G1 E1 F1800 ; Un-retract
G1 X144.3162 Y147.72 E1.01546 F4200 ; Print pattern wall
G1 X123.103 Y168.9332 E1.01546 F4200 ; Print pattern wall
G1 E-1 F3000 ; Retract
G1 Z0.9 F12000 ; Z hop
G0 X123.6787 Y126.5068 F12000 ; Move to start next pattern wall
G1 Z0.8 F12000 ; Z hop return
G1 E1 F1800 ; Un-retract
G1 X144.8919 Y147.72 E1.01546 F4200 ; Print pattern wall
G1 X123.6787 Y168.9332 E1.01546 F4200 ; Print pattern wall
G1 E-1 F3000 ; Retract
G1 Z0.9 F12000 ; Z hop
G0 X126.1287 Y126.5068 F12000 ; Move to next pattern
G1 Z0.8 F12000 ; Z hop return
G1 E1 F1800 ; Un-retract
SET_PRESSURE_ADVANCE ADVANCE=0.065 ; Set pressure advance
M117 PA 0.065
G1 X147.3419 Y147.72 E1.01546 F4200 ; Print pattern wall
G1 X126.1287 Y168.9332 E1.01546 F4200 ; Print pattern wall
G1 E-1 F3000 ; Retract
G1 Z0.9 F12000 ; Z hop
G0 X126.7044 Y126.5068 F12000 ; Move to start next pattern wall
G1 Z0.8 F12000 ; Z hop return
G1 E1 F1800 ; Un-retract
G1 X147.9176 Y147.72 E1.01546 F4200 ; Print pattern wall
G1 X126.7044 Y168.9332 E1.01546 F4200 ; Print pattern wall
G1 E-1 F3000 ; Retract
G1 Z0.9 F12000 ; Z hop
G0 X127.2801 Y126.5068 F12000 ; Move to start next pattern wall
G1 Z0.8 F12000 ; Z hop return
G1 E1 F1800 ; Un-retract
G1 X148.4933 Y147.72 E1.01546 F4200 ; Print pattern wall
G1 X127.2801 Y168.9332 E1.01546 F4200 ; Print pattern wall
G1 E-1 F3000 ; Retract
G1 Z0.9 F12000 ; Z hop
G0 X129.7301 Y126.5068 F12000 ; Move to next pattern
G1 Z0.8 F12000 ; Z hop return
G1 E1 F1800 ; Un-retract
SET_PRESSURE_ADVANCE ADVANCE=0.066 ; Set pressure advance
M117 PA 0.066
G1 X150.9433 Y147.72 E1.01546 F4200 ; Print pattern wall
G1 X129.7301 Y168.9332 E1.01546 F4200 ; Print pattern wall
G1 E-1 F3000 ; Retract
G1 Z0.9 F12000 ; Z hop
G0 X130.3058 Y126.5068 F12000 ; Move to start next pattern wall
G1 Z0.8 F12000 ; Z hop return
G1 E1 F1800 ; Un-retract
G1 X151.519 Y147.72 E1.01546 F4200 ; Print pattern wall
G1 X130.3058 Y168.9332 E1.01546 F4200 ; Print pattern wall
G1 E-1 F3000 ; Retract
G1 Z0.9 F12000 ; Z hop
G0 X130.8815 Y126.5068 F12000 ; Move to start next pattern wall
G1 Z0.8 F12000 ; Z hop return
G1 E1 F1800 ; Un-retract
G1 X152.0947 Y147.72 E1.01546 F4200 ; Print pattern wall
G1 X130.8815 Y168.9332 E1.01546 F4200 ; Print pattern wall
G1 E-1 F3000 ; Retract
G1 Z0.9 F12000 ; Z hop
G0 X133.3315 Y126.5068 F12000 ; Move to next pattern
G1 Z0.8 F12000 ; Z hop return
G1 E1 F1800 ; Un-retract
SET_PRESSURE_ADVANCE ADVANCE=0.067 ; Set pressure advance
M117 PA 0.067
G1 X154.5447 Y147.72 E1.01546 F4200 ; Print pattern wall
G1 X133.3315 Y168.9332 E1.01546 F4200 ; Print pattern wall
G1 E-1 F3000 ; Retract
G1 Z0.9 F12000 ; Z hop
G0 X133.9072 Y126.5068 F12000 ; Move to start next pattern wall
G1 Z0.8 F12000 ; Z hop return
G1 E1 F1800 ; Un-retract
G1 X155.1204 Y147.72 E1.01546 F4200 ; Print pattern wall
G1 X133.9072 Y168.9332 E1.01546 F4200 ; Print pattern wall
G1 E-1 F3000 ; Retract
G1 Z0.9 F12000 ; Z hop
G0 X134.4829 Y126.5068 F12000 ; Move to start next pattern wall
G1 Z0.8 F12000 ; Z hop return
G1 E1 F1800 ; Un-retract
G1 X155.6961 Y147.72 E1.01546 F4200 ; Print pattern wall
G1 X134.4829 Y168.9332 E1.01546 F4200 ; Print pattern wall
G1 E-1 F3000 ; Retract
G1 Z0.9 F12000 ; Z hop
G0 X136.9329 Y126.5068 F12000 ; Move to next pattern
G1 Z0.8 F12000 ; Z hop return
G1 E1 F1800 ; Un-retract
SET_PRESSURE_ADVANCE ADVANCE=0.068 ; Set pressure advance
M117 PA 0.068
G1 X158.1461 Y147.72 E1.01546 F4200 ; Print pattern wall
G1 X136.9329 Y168.9332 E1.01546 F4200 ; Print pattern wall
G1 E-1 F3000 ; Retract
G1 Z0.9 F12000 ; Z hop
G0 X137.5086 Y126.5068 F12000 ; Move to start next pattern wall
G1 Z0.8 F12000 ; Z hop return
G1 E1 F1800 ; Un-retract
G1 X158.7218 Y147.72 E1.01546 F4200 ; Print pattern wall
G1 X137.5086 Y168.9332 E1.01546 F4200 ; Print pattern wall
G1 E-1 F3000 ; Retract
G1 Z0.9 F12000 ; Z hop
G0 X138.0843 Y126.5068 F12000 ; Move to start next pattern wall
G1 Z0.8 F12000 ; Z hop return
G1 E1 F1800 ; Un-retract
G1 X159.2975 Y147.72 E1.01546 F4200 ; Print pattern wall
G1 X138.0843 Y168.9332 E1.01546 F4200 ; Print pattern wall
G1 E-1 F3000 ; Retract
G1 Z0.9 F12000 ; Z hop
G0 X140.5343 Y126.5068 F12000 ; Move to next pattern
G1 Z0.8 F12000 ; Z hop return
G1 E1 F1800 ; Un-retract
SET_PRESSURE_ADVANCE ADVANCE=0.069 ; Set pressure advance
M117 PA 0.069
G1 X161.7475 Y147.72 E1.01546 F4200 ; Print pattern wall
G1 X140.5343 Y168.9332 E1.01546 F4200 ; Print pattern wall
G1 E-1 F3000 ; Retract
G1 Z0.9 F12000 ; Z hop
G0 X141.11 Y126.5068 F12000 ; Move to start next pattern wall
G1 Z0.8 F12000 ; Z hop return
G1 E1 F1800 ; Un-retract
G1 X162.3232 Y147.72 E1.01546 F4200 ; Print pattern wall
G1 X141.11 Y168.9332 E1.01546 F4200 ; Print pattern wall
G1 E-1 F3000 ; Retract
G1 Z0.9 F12000 ; Z hop
G0 X141.6857 Y126.5068 F12000 ; Move to start next pattern wall
G1 Z0.8 F12000 ; Z hop return
G1 E1 F1800 ; Un-retract
G1 X162.8989 Y147.72 E1.01546 F4200 ; Print pattern wall
G1 X141.6857 Y168.9332 E1.01546 F4200 ; Print pattern wall
G1 E-1 F3000 ; Retract
G1 Z0.9 F12000 ; Z hop
G0 X144.1357 Y126.5068 F12000 ; Move to next pattern
G1 Z0.8 F12000 ; Z hop return
G1 E1 F1800 ; Un-retract
SET_PRESSURE_ADVANCE ADVANCE=0.07 ; Set pressure advance
M117 PA 0.07
G1 X165.3489 Y147.72 E1.01546 F4200 ; Print pattern wall
G1 X144.1357 Y168.9332 E1.01546 F4200 ; Print pattern wall
G1 E-1 F3000 ; Retract
G1 Z0.9 F12000 ; Z hop
G0 X144.7114 Y126.5068 F12000 ; Move to start next pattern wall
G1 Z0.8 F12000 ; Z hop return
G1 E1 F1800 ; Un-retract
