; generated by SuperSlicer 2.5.59 on 2023-04-27 at 21:54:33 UTC


;
;

;
;
; 

; external perimeters extrusion width = 0.40mm
; perimeters extrusion width = 0.46mm
; infill extrusion width = 0.64mm
; solid infill extrusion width = 0.56mm
; top infill extrusion width = 0.40mm
; support material extrusion width = 0.46mm
; first layer extrusion width = 0.50mm

; object:{"name":"Deck_Mate_Mechanism_Top__Print_02","id":"Deck_Mate_Mechanism_Top__Print_02.stl id:0 copy 0","object_center":[152.500000,150.000000,0.000000],"boundingbox_center":[152.500000,150.000000,3.299999],"boundingbox_size":[30.184719,23.945378,6.599998]}
EXCLUDE_OBJECT_DEFINE NAME=Deck_Mate_Mechanism_Top__Print_02_stl_id_0_copy_0 CENTER=152.500000,150.000000 POLYGON=[[137.407632,144.037728],[137.413760,142.457680],[137.540544,140.977776],[137.694512,140.321264],[137.909616,139.759408],[138.131680,139.375504],[138.162384,139.332000],[138.417168,139.032672],[138.703872,138.788320],[139.137664,138.530288],[139.706384,138.313184],[140.355568,138.160640],[141.847808,138.028576],[143.418048,138.027312],[161.581952,138.027312],[163.152192,138.028576],[164.644432,138.160640],[165.293616,138.313184],[165.862336,138.530288],[166.296128,138.788320],[166.582832,139.032672],[166.837616,139.332000],[166.868320,139.375504],[167.090384,139.759408],[167.305488,140.321264],[167.459456,140.977776],[167.586240,142.457680],[167.592368,144.037728],[167.592368,146.277056],[164.553024,157.821264],[164.057216,158.317056],[154.870176,161.972688],[150.129824,161.972688],[140.942784,158.317056],[140.446976,157.821264],[137.407632,146.277056],[137.407632,144.037728]]
; plater:{"center":[152.500000,150.000000,0.000000],"boundingbox_center":[152.500000,150.000000,3.299999],"boundingbox_size":[30.184719,23.945378,6.599998]}

M73 P0 R12
;TYPE:Custom
START_PRINT T_BED=60 T_EXTRUDER=200
M107
G21 ; set units to millimeters
G90 ; use absolute coordinates
M82 ; use absolute distances for extrusion
G92 E0
; Filament gcode

    PRESSURE_ADVANCE_SELECT FILAMENT=PLA
;_TOOLCHANGE 0
M104 S200 ; set temperature
M109 S200 ; set temperature and wait for it to be reached
M190 S60 ; set bed temperature and wait for it to be reached
M107
;LAYER_CHANGE
;Z:0.2
;HEIGHT:0.2
G1 Z0.2 F9000
M73 P0 R12
G1 E-0.8 F3000
M204 S1000
G1 X136.57 Y137.247 F9000
G1 E0 F1800
;TYPE:Skirt
;WIDTH:0.52
M73 P0 R12
G1 X135.973 Y137.997 E0.03575
G1 X135.642 Y138.567 E0.06031
G1 X135.349 Y139.306 E0.08998
G1 X135.095 Y140.368 E0.13069
G1 X134.982 Y141.473 E0.17212
G1 X134.997 Y146.206 E0.34861
G1 X135.184 Y147.342 E0.39154
G1 X139.16 Y159.382 E0.86435
G1 X139.764 Y160.509 E0.91199
G1 X141.102 Y161.577 E0.97585
G1 X148.843 Y165.233 E1.29509
G1 X150.43 Y165.588 E1.35572
G1 X154.57 Y165.588 E1.51011
G1 X156.157 Y165.233 E1.57074
G1 X163.898 Y161.577 E1.88998
G1 X164.943 Y160.841 E1.93762
G1 X165.84 Y159.382 E2.00148
G1 X169.816 Y147.342 E2.47429
G1 X170.003 Y146.193 E2.5177
G1 X170.023 Y141.647 E2.68722
G1 X169.809 Y139.881 E2.75357
G1 X169.441 Y138.745 E2.7981
G1 X169.013 Y137.977 E2.83088
G1 X168.31 Y137.128 E2.87197
G1 X167.367 Y136.435 E2.9156
G1 X166.483 Y136.033 E2.95183
G1 X165.158 Y135.702 E3.00274
G1 X163.856 Y135.588 E3.05148
G1 X140.904 Y135.595 E3.90736
G1 X139.539 Y135.746 E3.95855
G1 X138.443 Y136.057 E4.00105
G1 X137.602 Y136.455 E4.03573
G1 X136.57 Y137.247 E4.08425
G1 X136.907 Y137.585 F9000
G1 F1800
G1 X136.074 Y138.769 E4.13821
G1 X135.808 Y139.436 E4.16501
G1 X135.568 Y140.425 E4.20296
G1 X135.459 Y141.48 E4.24249
G1 X135.474 Y146.202 E4.41859
G1 X135.637 Y147.193 E4.45601
G1 X139.613 Y159.233 E4.92881
G1 X140.074 Y160.128 E4.96638
G1 X141.306 Y161.146 E5.02594
G1 X149.047 Y164.801 E5.34518
G1 X150.43 Y165.111 E5.39802
G1 X154.57 Y165.111 E5.55241
G1 X155.953 Y164.801 E5.60526
G1 X163.694 Y161.146 E5.9245
G1 X164.527 Y160.579 E5.96206
G1 X165.387 Y159.233 E6.02162
G1 X169.363 Y147.193 E6.49443
G1 X169.526 Y146.191 E6.53226
G1 X169.546 Y141.645 E6.70179
G1 X169.349 Y140.007 E6.76331
G1 X169.009 Y138.947 E6.80483
G1 X168.625 Y138.255 E6.83433
G1 X167.987 Y137.479 E6.87181
G1 X167.115 Y136.84 E6.91211
G1 X166.344 Y136.49 E6.94369
G1 X165.11 Y136.177 E6.99117
G1 X163.856 Y136.065 E7.0381
G1 X140.921 Y136.072 E7.89331
G1 X139.633 Y136.214 E7.94166
M73 P1 R12
G1 X138.591 Y136.51 E7.98203
G1 X137.54 Y137.06 E8.02627
G1 X136.907 Y137.585 E8.05695
G92 E0
G1 E-0.8 F3000
; printing object Deck_Mate_Mechanism_Top__Print_02.stl id:0 copy 0
EXCLUDE_OBJECT_START NAME=Deck_Mate_Mechanism_Top__Print_02_stl_id_0_copy_0
G1 X151.594 Y141.013 F9000
G1 E0 F1800
;TYPE:Internal perimeter
;WIDTH:0.5
G1 X148.216 Y141.013 E0.12069
G1 X148.216 Y157.053 E0.69374
G1 X143.853 Y157.053 E0.84961
G1 X143.853 Y145.013 E1.27975
G1 X139.877 Y145.013 E1.42179
G1 X139.848 Y142.45 E1.51338
G1 X139.86 Y141.606 E1.54353
G1 X139.928 Y141.047 E1.56365
G1 X140.008 Y140.764 E1.57413
G1 X140.084 Y140.654 E1.57892
G1 X140.366 Y140.562 E1.58951
G1 X141.103 Y140.473 E1.61604
G1 X143.41 Y140.496 E1.69848
G1 X161.59 Y140.496 E2.34796
G1 X163.803 Y140.469 E2.42703
G1 X164.427 Y140.533 E2.44943
G1 X164.547 Y140.545 E2.45376
G1 X164.915 Y140.657 E2.4675
G1 X164.991 Y140.763 E2.47215
G1 X165.078 Y141.082 E2.48397
G1 X165.143 Y141.69 E2.50583
G1 X165.129 Y145.013 E2.62452
G1 X161.147 Y145.013 E2.76676
G1 X161.147 Y157.053 E3.1969
G1 X156.784 Y157.053 E3.35278
G1 X156.784 Y141.013 E3.92582
G1 X153.406 Y141.013 E4.04651
G1 X153.406 Y160.709 E4.75016
G1 X151.594 Y160.709 E4.8149
G1 X151.594 Y141.013 E5.51854
G1 X151.137 Y141.47 F9000
G1 F1800
G1 X148.673 Y141.47 E5.60658
G1 X148.673 Y157.51 E6.17962
G1 X143.395 Y157.51 E6.36815
G1 X143.395 Y145.47 E6.79829
G1 X139.42 Y145.47 E6.94033
M73 P2 R12
G1 X139.42 Y144.03 E6.99177
G1 X139.391 Y142.45 E7.04822
G1 X139.403 Y141.575 E7.07951
G1 X139.478 Y140.956 E7.10177
G1 X139.589 Y140.567 E7.11621
G1 X139.753 Y140.329 E7.12656
G1 X139.905 Y140.231 E7.13302
G1 X140.266 Y140.113 E7.14658
G1 X141.078 Y140.016 E7.17579
G1 X143.413 Y140.039 E7.25921
G1 X161.587 Y140.039 E7.90851
G1 X163.823 Y140.011 E7.98841
G1 X164.473 Y140.078 E8.01175
G1 X164.638 Y140.095 E8.01766
G1 X165.106 Y140.237 E8.03514
G1 X165.235 Y140.318 E8.04056
G1 X165.41 Y140.564 E8.05136
G1 X165.529 Y140.997 E8.06739
G1 X165.601 Y141.667 E8.09147
G1 X165.584 Y145.47 E8.22734
G1 X161.605 Y145.47 E8.3695
G1 X161.605 Y157.51 E8.79964
G1 X156.327 Y157.51 E8.98818
G1 X156.327 Y141.47 E9.56122
G1 X153.863 Y141.47 E9.64926
G1 X153.863 Y161.166 E10.3529
G1 X151.137 Y161.166 E10.4503
G1 X151.137 Y141.47 E11.15394
G1 X150.68 Y141.927 F9000
;TYPE:External perimeter
G1 F1800
G1 X149.13 Y141.927 E11.20932
G1 X149.13 Y157.967 E11.78236
G1 X142.938 Y157.967 E12.00356
G1 X142.938 Y145.927 E12.4337
G1 X138.963 Y145.927 E12.57573
G1 X138.963 Y144.034 E12.64335
G1 X138.933 Y142.451 E12.69992
G1 X138.947 Y141.544 E12.73235
G1 X139.029 Y140.866 E12.75674
G1 X139.159 Y140.407 E12.77378
G1 X139.225 Y140.267 E12.7793
G1 X139.439 Y139.987 E12.79191
G1 X139.708 Y139.815 E12.80332
G1 X140.167 Y139.665 E12.82056
G1 X141.053 Y139.558 E12.85245
G1 X143.415 Y139.582 E12.93684
G1 X161.584 Y139.582 E13.58595
G1 X163.844 Y139.554 E13.66669
G1 X164.52 Y139.623 E13.69097
G1 X164.729 Y139.645 E13.69846
G1 X165.297 Y139.818 E13.71967
G1 X165.545 Y139.973 E13.73013
G1 X165.776 Y140.268 E13.74353
G1 X165.84 Y140.406 E13.74896
G1 X165.979 Y140.911 E13.7677
G1 X166.058 Y141.644 E13.794
G1 X166.039 Y145.927 E13.94703
G1 X162.062 Y145.927 E14.08913
G1 X162.062 Y157.967 E14.51927
M73 P3 R12
G1 X155.87 Y157.967 E14.74046
G1 X155.87 Y141.927 E15.31351
G1 X154.32 Y141.927 E15.36888
G1 X154.32 Y161.623 E16.07253
G1 X150.68 Y161.623 E16.20258
G1 X150.68 Y141.927 E16.90623
;WIPE_START
M204 S3000
G1 X150.68 Y141.527 F9000
;WIPE_END
G92 E0
G1 E-0.8 F3000
M204 S1000
G1 X153.337 Y141.463 F9000
G1 E0 F1800
;TYPE:Solid infill
;WIDTH:0.489717
G1 F2400
G1 X152.414 Y140.539 E0.04571
G1 X151.767 Y140.54 F9000
G1 F2400
G1 X153.337 Y142.11 E0.12341
G1 X153.337 Y142.756 F9000
G1 F2400
G1 X151.663 Y141.081 E0.20629
G1 X151.663 Y141.727 F9000
G1 F2400
G1 X153.337 Y143.402 E0.28918
G1 X153.337 Y144.049 F9000
G1 F2400
G1 X151.663 Y142.374 E0.37206
G1 X151.663 Y143.02 F9000
G1 F2400
G1 X153.337 Y144.695 E0.45495
G1 X153.337 Y145.342 F9000
G1 F2400
G1 X151.663 Y143.667 E0.53783
G1 X151.663 Y144.313 F9000
G1 F2400
G1 X153.337 Y145.988 E0.62072
G1 X153.337 Y146.634 F9000
G1 F2400
G1 X151.663 Y144.959 E0.70361
G1 X151.663 Y145.606 F9000
G1 F2400
G1 X153.337 Y147.281 E0.78649
G1 X153.337 Y147.927 F9000
G1 F2400
G1 X151.663 Y146.252 E0.86938
G1 X151.663 Y146.899 F9000
G1 F2400
G1 X153.337 Y148.574 E0.95226
G1 X153.337 Y149.22 F9000
G1 F2400
G1 X151.663 Y147.545 E1.03515
G1 X151.663 Y148.192 F9000
G1 F2400
G1 X153.337 Y149.866 E1.11803
G1 X153.337 Y150.513 F9000
G1 F2400
G1 X151.663 Y148.838 E1.20092
G1 X151.663 Y149.484 F9000
G1 F2400
G1 X153.337 Y151.159 E1.2838
G1 X153.337 Y151.806 F9000
G1 F2400
G1 X151.663 Y150.131 E1.36669
G1 X151.663 Y150.777 F9000
G1 F2400
G1 X153.337 Y152.452 E1.44957
G1 X153.337 Y153.099 F9000
G1 F2400
G1 X151.663 Y151.424 E1.53246
G1 X151.663 Y152.07 F9000
G1 F2400
G1 X153.337 Y153.745 E1.61534
G1 X153.337 Y154.391 F9000
G1 F2400
G1 X151.663 Y152.716 E1.69823
G1 X151.663 Y153.363 F9000
G1 F2400
G1 X153.337 Y155.038 E1.78111
G1 X153.337 Y155.684 F9000
G1 F2400
G1 X151.663 Y154.009 E1.864
G1 X151.663 Y154.656 F9000
G1 F2400
G1 X153.337 Y156.331 E1.94689
G1 X153.337 Y156.977 F9000
G1 F2400
G1 X151.663 Y155.302 E2.02977
G1 X151.663 Y155.948 F9000
G1 F2400
G1 X153.337 Y157.623 E2.11266
G1 X153.337 Y158.27 F9000
G1 F2400
G1 X151.663 Y156.595 E2.19554
G1 X151.663 Y157.241 F9000
G1 F2400
G1 X153.337 Y158.916 E2.27843
G1 X153.337 Y159.563 F9000
G1 F2400
G1 X151.663 Y157.888 E2.36131
G1 X151.663 Y158.534 F9000
G1 F2400
G1 X153.337 Y160.209 E2.4442
G1 X153.122 Y160.64 F9000
G1 F2400
G1 X151.663 Y159.18 E2.51642
G1 X151.663 Y159.827 F9000
G1 F2400
G1 X152.476 Y160.64 E2.55666
G92 E0
G1 E-0.8 F3000
G1 X147.223 Y140.54 F9000
G1 E0 F1800
G1 F2400
G1 X148.147 Y141.464 E0.04571
G1 X148.147 Y142.111 F9000
M73 P4 R11
G1 F2400
G1 X146.577 Y140.541 E0.12341
G1 X145.931 Y140.541 F9000
G1 F2400
G1 X148.147 Y142.757 E0.23308
G1 X148.147 Y143.403 F9000
G1 F2400
G1 X145.285 Y140.541 E0.37474
G1 X144.638 Y140.541 F9000
G1 F2400
G1 X148.147 Y144.05 E0.54838
G1 X148.147 Y144.696 F9000
G1 F2400
G1 X143.992 Y140.541 E0.75399
G1 X143.346 Y140.541 F9000
G1 F2400
G1 X148.147 Y145.343 E0.99159
G1 X148.147 Y145.989 F9000
G1 F2400
G1 X142.699 Y140.541 E1.26117
G1 X142.053 Y140.542 F9000
G1 F2400
G1 X148.147 Y146.636 E1.56274
G1 X148.147 Y147.282 F9000
G1 F2400
G1 X141.407 Y140.542 E1.89628
G1 X140.813 Y140.594 F9000
G1 F2400
G1 X148.147 Y147.928 E2.25921
G1 X148.147 Y148.575 F9000
G1 F2400
G1 X140.264 Y140.692 E2.64931
G1 X139.994 Y141.068 F9000
G1 F2400
G1 X143.87 Y144.944 E2.84111
G1 X143.224 Y144.944 F9000
G1 F2400
G1 X139.929 Y141.649 E3.00418
G1 X139.932 Y142.299 F9000
G1 F2400
G1 X142.578 Y144.944 E3.1351
G1 X141.931 Y144.944 F9000
G1 F2400
G1 X139.935 Y142.948 E3.23387
G1 X139.938 Y143.598 F9000
G1 F2400
G1 X141.285 Y144.944 E3.30049
G1 X140.638 Y144.944 F9000
G1 F2400
G1 X139.942 Y144.248 E3.33497
G92 E0
G1 E-0.8 F3000
G1 X143.921 Y144.995 F9000
G1 E0 F1800
G1 F2400
G1 X148.147 Y149.221 E0.20913
G1 X148.147 Y149.868 F9000
G1 F2400
G1 X143.921 Y145.642 E0.41825
G1 X143.921 Y146.288 F9000
G1 F2400
G1 X148.147 Y150.514 E0.62738
G1 X148.147 Y151.16 F9000
G1 F2400
G1 X143.921 Y146.934 E0.8365
G1 X143.921 Y147.581 F9000
G1 F2400
G1 X148.147 Y151.807 E1.04563
G1 X148.147 Y152.453 F9000
G1 F2400
G1 X143.921 Y148.227 E1.25475
G1 X143.921 Y148.874 F9000
G1 F2400
G1 X148.147 Y153.1 E1.46388
G1 X148.147 Y153.746 F9000
G1 F2400
G1 X143.921 Y149.52 E1.673
G1 X143.921 Y150.166 F9000
G1 F2400
G1 X148.147 Y154.392 E1.88213
G1 X148.147 Y155.039 F9000
G1 F2400
G1 X143.921 Y150.813 E2.09125
G1 X143.921 Y151.459 F9000
G1 F2400
G1 X148.147 Y155.685 E2.30038
G1 X148.147 Y156.332 F9000
G1 F2400
G1 X143.921 Y152.106 E2.5095
G1 X143.921 Y152.752 F9000
G1 F2400
G1 X148.147 Y156.978 E2.71863
G1 X147.507 Y156.984 F9000
G1 F2400
G1 X143.921 Y153.398 E2.89608
G1 X143.921 Y154.045 F9000
G1 F2400
G1 X146.861 Y156.984 E3.04154
G1 X146.214 Y156.984 F9000
G1 F2400
G1 X143.921 Y154.691 E3.15502
G1 X143.921 Y155.338 F9000
G1 F2400
G1 X145.568 Y156.984 E3.23651
G1 X144.921 Y156.984 F9000
G1 F2400
G1 X143.921 Y155.984 E3.28601
G92 E0
G1 E-0.8 F3000
G1 X165.074 Y141.858 F9000
M73 P5 R11
G1 E0 F1800
G1 F2400
G1 X163.753 Y140.537 E0.06538
G1 X163.107 Y140.537 F9000
G1 F2400
G1 X165.071 Y142.502 E0.1626
G1 X165.068 Y143.145 F9000
G1 F2400
G1 X162.46 Y140.537 E0.29166
G1 X161.814 Y140.537 F9000
G1 F2400
G1 X165.066 Y143.789 E0.45256
G1 X165.063 Y144.433 F9000
G1 F2400
G1 X161.168 Y140.538 E0.6453
G1 X160.522 Y140.538 F9000
G1 F2400
G1 X164.928 Y144.944 E0.86336
G1 X164.282 Y144.944 F9000
G1 F2400
G1 X159.875 Y140.538 E1.08141
G1 X159.229 Y140.538 F9000
G1 F2400
G1 X163.635 Y144.944 E1.29946
G1 X162.989 Y144.944 F9000
G1 F2400
G1 X158.583 Y140.538 E1.51751
G1 X157.936 Y140.538 F9000
G1 F2400
G1 X162.343 Y144.944 E1.73554
G1 X161.696 Y144.944 F9000
G1 F2400
G1 X157.29 Y140.538 E1.95357
G1 X156.853 Y140.748 F9000
G1 F2400
G1 X161.079 Y144.974 E2.1627
G1 X161.079 Y145.62 F9000
G1 F2400
G1 X156.853 Y141.394 E2.37182
G1 X156.853 Y142.04 F9000
G1 F2400
G1 X161.079 Y146.266 E2.58095
G1 X161.079 Y146.913 F9000
G1 F2400
G1 X156.853 Y142.687 E2.79007
G1 X156.853 Y143.333 F9000
G1 F2400
G1 X161.079 Y147.559 E2.9992
G1 X161.079 Y148.206 F9000
G1 F2400
G1 X156.853 Y143.98 E3.20832
G1 X156.853 Y144.626 F9000
G1 F2400
G1 X161.079 Y148.852 E3.41745
G1 X161.079 Y149.498 F9000
G1 F2400
G1 X156.853 Y145.272 E3.62657
G1 X156.853 Y145.919 F9000
G1 F2400
G1 X161.079 Y150.145 E3.8357
G1 X161.079 Y150.791 F9000
G1 F2400
G1 X156.853 Y146.565 E4.04482
G1 X156.853 Y147.212 F9000
G1 F2400
G1 X161.079 Y151.438 E4.25395
G1 X161.079 Y152.084 F9000
G1 F2400
G1 X156.853 Y147.858 E4.46307
G1 X156.853 Y148.504 F9000
G1 F2400
G1 X161.079 Y152.73 E4.6722
G1 X161.079 Y153.377 F9000
G1 F2400
G1 X156.853 Y149.151 E4.88132
G1 X156.853 Y149.797 F9000
G1 F2400
G1 X161.079 Y154.023 E5.09045
G1 X161.079 Y154.67 F9000
G1 F2400
G1 X156.853 Y150.444 E5.29957
G1 X156.853 Y151.09 F9000
G1 F2400
G1 X161.079 Y155.316 E5.5087
G1 X161.079 Y155.962 F9000
G1 F2400
G1 X156.853 Y151.736 E5.71782
G1 X156.853 Y152.383 F9000
G1 F2400
G1 X161.079 Y156.609 E5.92695
G1 X160.808 Y156.984 F9000
G1 F2400
G1 X156.853 Y153.029 E6.12267
G1 X156.853 Y153.676 F9000
G1 F2400
G1 X160.162 Y156.984 E6.2864
G1 X159.515 Y156.984 F9000
G1 F2400
G1 X156.853 Y154.322 E6.41814
G1 X156.853 Y154.969 F9000
G1 F2400
G1 X158.869 Y156.984 E6.51789
G1 X158.222 Y156.984 F9000
G1 F2400
G1 X156.853 Y155.615 E6.58566
G1 X156.853 Y156.261 F9000
M73 P6 R11
G1 F2400
G1 X157.576 Y156.984 E6.62144
;LAYER_CHANGE
;Z:0.4
;HEIGHT:0.2
; stop printing object Deck_Mate_Mechanism_Top__Print_02.stl id:0 copy 0
EXCLUDE_OBJECT_END NAME=Deck_Mate_Mechanism_Top__Print_02_stl_id_0_copy_0
M204 S3000
G1 Z0.4 F9000
G92 E0
G1 E-0.8 F3000
M204 S2000
G1 Z0.6 F9000
; printing object Deck_Mate_Mechanism_Top__Print_02.stl id:0 copy 0
EXCLUDE_OBJECT_START NAME=Deck_Mate_Mechanism_Top__Print_02_stl_id_0_copy_0
G1 X148.609 Y141.206
G1 Z0.4
G1 E0 F1800
;TYPE:Internal perimeter
;WIDTH:0.46
G1 F4200
G1 X148.609 Y157.246 E0.5229
G1 X143.459 Y157.246 E0.69078
G1 X143.459 Y145.206 E1.08327
G1 X139.506 Y145.206 E1.21213
G1 X139.478 Y142.455 E1.30184
G1 X139.498 Y141.515 E1.33249
G1 X139.573 Y140.94 E1.3514
G1 X139.706 Y140.527 E1.36553
G1 X139.803 Y140.404 E1.37061
G1 X139.952 Y140.308 E1.37641
G1 X140.286 Y140.198 E1.38789
G1 X140.425 Y140.171 E1.3925
G1 X141.004 Y140.11 E1.41146
G1 X141.43 Y140.092 E1.42536
G1 X143.008 Y140.119 E1.47681
G1 X161.589 Y140.126 E2.08254
G1 X163.714 Y140.098 E2.15183
G1 X164.714 Y140.198 E2.18457
G1 X165.056 Y140.31 E2.19631
G1 X165.211 Y140.412 E2.20236
G1 X165.317 Y140.573 E2.20865
G1 X165.45 Y141.069 E2.2254
G1 X165.503 Y141.52 E2.24019
G1 X165.499 Y145.206 E2.36037
G1 X161.541 Y145.206 E2.48939
G1 X161.541 Y157.246 E2.88189
G1 X156.391 Y157.246 E3.04977
