; HEADER_BLOCK_START
; generated by OrcaSlicer 1.6.6 on 2023-09-08 at 22:02:38
; total layer number: 18
; HEADER_BLOCK_END

; THUMBNAIL_BLOCK_START
; THUMBNAIL_BLOCK_END

; external perimeters extrusion width = 0.40mm
; perimeters extrusion width = 0.45mm
; infill extrusion width = 0.45mm
; solid infill extrusion width = 0.40mm
; top infill extrusion width = 0.40mm
; support material extrusion width = 0.40mm
; first layer extrusion width = 0.50mm

; EXECUTABLE_BLOCK_START
EXCLUDE_OBJECT_DEFINE NAME=DenjiKeychainByPekole.stl_id_0_copy_0 CENTER=154.998,154.998 POLYGON=[[133.561,159.429],[133.562,159.41],[133.568,159.372],[133.571,159.354],[134.063,157.042],[134.077,157.007],[148.695,127.014],[148.735,126.953],[148.787,126.9],[148.847,126.855],[148.919,126.819],[149.001,126.788],[149.095,126.763],[149.202,126.745],[149.273,126.736],[149.346,126.729],[149.491,126.718],[149.564,126.713],[149.638,126.708],[149.713,126.704],[149.785,126.701],[157.744,126.461],[157.841,126.461],[157.887,126.462],[160.704,126.547],[160.816,126.553],[160.859,126.557],[160.903,126.563],[160.946,126.568],[160.991,126.575],[161.034,126.582],[161.078,126.589],[161.166,126.606],[161.253,126.626],[161.296,126.637],[161.39,126.662],[161.436,126.68],[161.478,126.703],[161.516,126.728],[161.55,126.757],[161.579,126.79],[161.606,126.827],[161.627,126.867],[175.288,157.279],[176.432,161.052],[176.436,161.085],[176.433,161.12],[175.415,168.693],[175.408,168.717],[173.146,175.818],[173.133,175.851],[173.115,175.882],[173.091,175.91],[173.065,175.934],[173.032,175.953],[158.477,183.516],[158.461,183.523],[158.444,183.529],[158.432,183.533],[158.418,183.534],[158.384,183.534],[158.367,183.533],[145.609,182.011],[145.578,182.006],[145.548,181.994],[145.517,181.978],[137.856,177.139],[137.827,177.115],[137.803,177.089],[137.783,177.058],[134.46,170.355],[134.453,170.335],[134.447,170.314],[133.561,159.466],[133.561,159.429]]
M73 P0 R17
M73 C13
;TYPE:Custom
START_PRINT T_BED=60 T_EXTRUDER=220
G90
G21
M83 ; use relative distances for extrusion
; filament start gcode
PRESSURE_ADVANCE_SELECT FILAMENT=PLA
M106 S0
;LAYER_CHANGE
;Z:0.2
;HEIGHT:0.2
;BEFORE_LAYER_CHANGE
;0.2
G92 E0

SET_VELOCITY_LIMIT ACCEL=1500 ACCEL_TO_DECEL=750
G1 E-.8 F3000
G1 Z.4 F9000
G1 X131.664 Y171.178
G1 Z.4
G1 Z.2
G1 E.8 F1800
;TYPE:Skirt
;WIDTH:0.5
G1 F3000
G1 X131.543 Y170.551 E.02376
G1 X130.648 Y159.393 E.41695
G1 X131.213 Y156.436 E.11212
G1 X131.458 Y155.731 E.02781
G1 X146.319 Y125.325 E1.26051
G1 X146.699 Y124.867 E.02219
G1 X147.524 Y124.259 E.03817
G1 X148.71 Y123.872 E.04647
G1 X157.932 Y123.548 E.34368
G1 X161.014 Y123.647 E.11485
G1 X162.097 Y123.835 E.04095
G1 X162.928 Y124.177 E.03348
G1 X163.435 Y124.535 E.02311
G1 X164.105 Y125.334 E.03886
G1 X177.946 Y156.085 E1.25601
G1 X179.327 Y160.724 E.18029
G1 X179.324 Y161.473 E.02789
G1 X178.192 Y169.578 E.3048
G1 X175.874 Y176.842 E.28403
G1 X175.625 Y177.362 E.02146
G1 X175.204 Y177.914 E.02587
G1 X174.376 Y178.539 E.03864
G1 X159.803 Y186.109 E.61163
G1 X159.168 Y186.35 E.02529
G1 X158.337 Y186.447 E.03117
G1 X145.265 Y184.905 E.49025
G1 X144.359 Y184.652 E.03504
G1 X136.333 Y179.621 E.35283
G1 X135.655 Y179.059 E.03281
G1 X135.172 Y178.353 E.03185
G1 X131.681 Y171.214 E.29599
G1 X132.1 Y171.042 F9000
G1 F3000
G1 X131.998 Y170.514 E.02003
G1 X131.104 Y159.404 E.41514
M73 P0 R16
G1 X131.66 Y156.531 E.10899
G1 X131.869 Y155.931 E.02367
G1 X146.698 Y125.581 E1.25814
G1 X147.027 Y125.186 E.01914
G1 X147.732 Y124.666 E.03262
G1 X148.787 Y124.323 E.04135
G1 X157.918 Y124.005 E.34028
G1 X160.989 Y124.104 E.11446
G1 X161.986 Y124.279 E.03768
G1 X162.694 Y124.57 E.02852
G1 X163.134 Y124.879 E.02003
G1 X163.717 Y125.575 E.0338
G1 X177.529 Y156.272 E1.25377
G1 X178.874 Y160.781 E.17524
G1 X178.871 Y161.412 E.02352
G1 X177.756 Y169.439 E.30183
G1 X175.446 Y176.682 E.28317
G1 X175.232 Y177.13 E.01851
G1 X174.876 Y177.595 E.02181
G1 X174.165 Y178.134 E.03322
G1 X159.592 Y185.704 E.61163
G1 X159.051 Y185.909 E.02158
G1 X158.35 Y185.991 E.02628
G1 X145.32 Y184.451 E.4887
G1 X144.55 Y184.237 E.02973
G1 X136.577 Y179.235 E.35059
G1 X135.995 Y178.754 E.0281
G1 X135.582 Y178.15 E.02727
G1 X132.118 Y171.078 E.29328
; printing object DenjiKeychainByPekole.stl id:0 copy 0
G1 E-.8
EXCLUDE_OBJECT_START NAME=DenjiKeychainByPekole.stl_id_0_copy_0
G1 Z.6 F9000
G1 X155.213 Y133.035 Z.6
G1 Z.2
G1 E.8 F1800
;TYPE:Outer wall
;WIDTH:0.499999
G1 F3000
G1 X155.435 Y132.618 E.01757
G1 X155.757 Y131.701 E.03622
G1 X156.103 Y130.804 E.03579
G1 X156.859 Y128.985 E.07335
G1 X157.057 Y128.274 E.02752
G1 X157.116 Y127.227 E.03906
G1 X157.192 Y126.952 E.01063
G1 X157.374 Y126.788 E.00912
G1 X157.719 Y126.714 E.01313
G1 X160.772 Y126.805 E.11375
M73 P1 R16
G1 X161.253 Y126.897 E.01826
G1 X161.358 Y126.952 E.0044
G1 X161.422 Y127.085 E.00553
G1 X161.345 Y128.32 E.04608
G1 X161.385 Y128.768 E.01675
G1 X161.684 Y129.913 E.04407
G1 X161.851 Y130.891 E.03698
G1 X161.983 Y131.88 E.03713
G1 X162.232 Y134.376 E.09344
G1 X162.294 Y135.617 E.04627
G1 X162.301 Y136.927 E.04881
G1 X162.345 Y137.251 E.01218
G1 X162.454 Y137.38 E.0063
G1 X162.967 Y137.534 E.01994
G1 X163.453 Y137.709 E.01925
G1 X163.85 Y137.96 E.0175
G1 X164.093 Y138.266 E.01454
G1 X164.23 Y138.689 E.01658
G1 X164.255 Y139.022 E.01241
G1 X164.177 Y139.633 E.02297
G1 X163.777 Y140.911 E.04986
G1 X163.969 Y141.279 E.01548
G1 X163.877 Y141.724 E.01692
G1 X163.572 Y142.375 E.02682
G1 X163.294 Y142.839 E.02014
G1 X162.91 Y143.152 E.01843
G1 X162.51 Y143.829 E.0293
G1 X161.987 Y144.595 E.03453
G1 X161.29 Y145.495 E.0424
G1 X160.308 Y146.66 E.05676
G1 X160.238 Y146.932 E.01047
G1 X160.297 Y147.085 E.00613
G1 X160.444 Y147.159 E.00614
G1 X161.281 Y147.24 E.0313
G1 X163.742 Y147.529 E.09232
G1 X164.461 Y147.637 E.02706
G1 X165.098 Y147.776 E.02427
G1 X165.696 Y147.977 E.02351
G1 X166.261 Y148.241 E.02323
G1 X166.793 Y148.568 E.02326
G1 X167.291 Y148.955 E.0235
G1 X167.781 Y149.444 E.02578
G1 X168.122 Y149.885 E.02078
G1 X168.294 Y150.313 E.01715
G1 X168.346 Y150.772 E.0172
G1 X168.189 Y151.541 E.02926
G1 X168.283 Y151.677 E.00617
G1 X169.222 Y152.293 E.04182
G1 X169.62 Y152.654 E.02
G1 X169.878 Y152.999 E.01604
G1 X170.497 Y153.97 E.04289
G1 X170.655 Y154.071 E.00698
G1 X170.802 Y154.043 E.0056
G1 X171.331 Y153.739 E.02271
G1 X171.631 Y153.611 E.01216
G1 X171.654 Y153.681 E.00275
G1 X171.386 Y154.22 E.02243
G1 X171.222 Y154.791 E.02214
G1 X171.162 Y155.248 E.01714
G1 X171.225 Y155.46 E.00825
G1 X171.432 Y155.611 E.00956
G1 X171.597 Y155.587 E.00621
G1 X172.292 Y155.189 E.02983
G1 X172.864 Y154.958 E.02297
G1 X173.132 Y154.9 E.01021
G1 X173.176 Y154.999 E.00403
G1 X172.792 Y157.119 E.08021
G1 X172.882 Y157.274 E.0067
G1 X173.064 Y157.314 E.00694
G1 X173.766 Y157.171 E.02669
G1 X174.261 Y157.144 E.01845
G1 X174.774 Y157.236 E.01944
G1 X174.992 Y157.335 E.00889
G1 X174.826 Y157.46 E.00776
G1 X174.583 Y157.687 E.01239
G1 X174.222 Y158.289 E.02615
G1 X173.924 Y158.93 E.02632
G1 X173.697 Y159.605 E.0265
G1 X173.473 Y160.756 E.04368
G1 X173.505 Y161.214 E.01711
G1 X173.56 Y161.342 E.0052
G1 X173.685 Y161.417 E.00542
G1 X174.713 Y161.214 E.03904
G1 X175.385 Y161.138 E.02518
G1 X176.124 Y161.131 E.02753
G1 X175.652 Y161.698 E.02747
G1 X175.277 Y162.19 E.02304
G1 X174.798 Y162.874 E.0311
G1 X174.482 Y163.369 E.02188
G1 X174.009 Y164.266 E.03779
G1 X173.608 Y165.197 E.03776
G1 X173.433 Y165.686 E.01933
G1 X173.144 Y166.663 E.03794
G1 X172.999 Y167.267 E.02314
G1 X172.893 Y168.159 E.03347
G1 X172.967 Y168.323 E.00671
G1 X173.102 Y168.382 E.00546
G1 X174.489 Y168.5 E.05186
G1 X175.119 Y168.649 E.0241
G1 X174.284 Y169.091 E.03517
G1 X173.844 Y169.415 E.02036
G1 X173.434 Y169.77 E.0202
G1 X172.558 Y170.621 E.0455
G1 X170.933 Y172.27 E.08621
G1 X170.287 Y173.003 E.03642
G1 X170.057 Y173.335 E.01502
G1 X170.032 Y173.515 E.00677
G1 X170.157 Y173.661 E.00715
G1 X170.802 Y173.963 E.02655
G1 X171.587 Y174.428 E.03396
G1 X172.009 Y174.766 E.02015
G1 X172.545 Y175.301 E.0282
G1 X172.824 Y175.701 E.01816
G1 X172.193 Y175.603 E.02379
G1 X171.607 Y175.563 E.02187
G1 X171.083 Y175.579 E.01954
G1 X170.445 Y175.651 E.02392
G1 X169.94 Y175.741 E.01909
G1 X169.368 Y175.873 E.02189
G1 X168.814 Y176.058 E.02172
G1 X168.27 Y176.293 E.02209
G1 X165.85 Y177.631 E.10299
G1 X164.775 Y178.149 E.04445
G1 X163.386 Y178.729 E.05607
G1 X162.091 Y179.19 E.0512
G1 X160.764 Y179.57 E.05141
G1 X159.75 Y179.759 E.0384
G1 X159.055 Y179.815 E.02597
G1 X157.566 Y179.799 E.05549
G1 X157.426 Y179.866 E.00577
G1 X157.341 Y180.08 E.00858
G1 X157.366 Y180.246 E.00626
G1 X157.707 Y180.835 E.02535
G1 X157.965 Y181.386 E.02266
G1 X158.212 Y182.16 E.03028
G1 X158.335 Y182.853 E.02621
G1 X158.337 Y183.167 E.01168
G1 X158.17 Y182.92 E.01111
G1 X157.766 Y182.396 E.02463
G1 X157.389 Y181.979 E.02094
G1 X156.948 Y181.608 E.02146
G1 X156.49 Y181.302 E.02053
G1 X155.983 Y181.037 E.02132
G1 X155.074 Y180.662 E.03662
G1 X153.944 Y180.259 E.04466
G1 X153.439 Y180.125 E.01947
G1 X152.402 Y179.942 E.03924
G1 X151.898 Y179.895 E.01884
G1 X151.374 Y179.877 E.01953
G1 X150.836 Y179.89 E.02002
G1 X150.325 Y179.932 E.01912
G1 X149.8 Y180.004 E.01973
G1 X149.275 Y180.107 E.01993
G1 X148.745 Y180.239 E.02034
G1 X147.653 Y180.615 E.04303
G1 X147.141 Y180.842 E.02083
G1 X146.414 Y181.235 E.0308
G1 X145.701 Y181.701 E.03175
G1 X145.73 Y181.615 E.00341
G1 X146.141 Y180.898 E.03077
G1 X146.671 Y180.22 E.03205
G1 X147.136 Y179.785 E.02372
G1 X147.675 Y179.367 E.02539
G1 X147.752 Y179.256 E.00505
G1 X147.732 Y179.071 E.00694
G1 X147.461 Y178.857 E.01286
G1 X146.818 Y178.639 E.02529
G1 X146.212 Y178.384 E.02448
G1 X144.215 Y177.416 E.08265
G1 X143.405 Y177.045 E.0332
G1 X142.739 Y176.791 E.02653
G1 X142.052 Y176.603 E.02656
G1 X141.509 Y176.518 E.02045
G1 X140.346 Y176.486 E.04334
G1 X139.492 Y176.511 E.03181
G1 X138.675 Y176.649 E.03085
G1 X138.054 Y176.918 E.02522
G1 X138.124 Y176.657 E.01008
G1 X138.402 Y176.1 E.02315
G1 X138.925 Y175.367 E.03356
G1 X139.273 Y174.989 E.01914
G1 X139.766 Y174.571 E.02408
G1 X140.228 Y174.262 E.02072
G1 X140.376 Y174.096 E.00829
G1 X140.426 Y173.939 E.0061
G1 X140.352 Y173.785 E.00637
G1 X139.817 Y173.304 E.02678
G1 X139.3 Y172.79 E.02716
G1 X138.921 Y172.372 E.02103
G1 X138.419 Y171.881 E.02615
G1 X137.951 Y171.487 E.02278
G1 X137.45 Y171.132 E.02286
G1 X136.657 Y170.682 E.03397
G1 X135.955 Y170.386 E.02838
G1 X135.227 Y170.172 E.02825
G1 X134.838 Y170.19 E.01453
G1 X135.051 Y169.951 E.01193
G1 X135.431 Y169.653 E.01799
G1 X135.916 Y169.411 E.0202
G1 X136.786 Y169.078 E.03469
G1 X137.29 Y168.957 E.01929
G1 X137.43 Y168.856 E.00642
G1 X137.459 Y168.685 E.00647
G1 X137.252 Y168.221 E.01891
G1 X136.042 Y165.961 E.09551
G1 X135.465 Y164.924 E.04419
G1 X135.101 Y164.429 E.02287
G1 X134.72 Y164.084 E.01916
G1 X134.808 Y164.023 E.00397
G1 X135.083 Y163.934 E.01078
G1 X135.342 Y163.911 E.0097
G1 X136.077 Y163.903 E.02735
G1 X136.247 Y163.836 E.00682
G1 X136.374 Y163.663 E.00799
G1 X136.36 Y163.514 E.00556
G1 X135.68 Y162.001 E.06179
G1 X135.43 Y161.504 E.02074
G1 X135.123 Y160.967 E.02302
G1 X134.834 Y160.525 E.01965
G1 X134.244 Y159.829 E.03401
G1 X133.839 Y159.444 E.0208
G1 X134.378 Y159.608 E.02096
G1 X135.258 Y159.989 E.03571
G1 X135.77 Y160.279 E.02193
G1 X135.94 Y160.302 E.00639
G1 X136.148 Y160.226 E.00823
G1 X136.245 Y160.08 E.00651
G1 X136.176 Y159.755 E.01239
G1 X135.901 Y159.254 E.02127
G1 X135.289 Y158.327 E.04138
G1 X134.366 Y157.165 E.05527
G1 X134.506 Y157.173 E.00522
G1 X135.862 Y157.645 E.05347
G1 X136.784 Y158.037 E.03734
G1 X137.133 Y158.107 E.01323
G1 X137.272 Y158.023 E.00608
G1 X137.375 Y157.652 E.01433
G1 X137.339 Y156.877 E.02888
G1 X137.209 Y156.066 E.03059
G1 X136.833 Y154.838 E.04785
G1 X137.019 Y154.884 E.00713
G1 X137.662 Y155.203 E.02674
G1 X138.374 Y155.699 E.03229
G1 X138.797 Y156.037 E.02019
G1 X138.992 Y156.076 E.0074
G1 X139.122 Y155.986 E.00591
G1 X139.234 Y155.64 E.01352
G1 X139.19 Y154.941 E.0261
G1 X139.116 Y154.396 E.02047
G1 X138.972 Y153.904 E.01912
G1 X138.719 Y153.423 E.02022
G1 X138.769 Y153.426 E.00183
G1 X139.536 Y153.837 E.03244
G1 X139.827 Y153.862 E.01085
G1 X139.933 Y153.777 E.00505
G1 X140.385 Y153.107 E.03011
G1 X140.811 Y152.663 E.02292
G1 X141.086 Y152.463 E.01267
G1 X141.559 Y152.169 E.02071
G1 X142.185 Y151.818 E.02675
G1 X142.229 Y151.643 E.00675
G1 X142.122 Y150.994 E.02447
G1 X142.174 Y150.519 E.01782
G1 X142.298 Y150.142 E.01477
G1 X142.612 Y149.618 E.02277
G1 X142.975 Y149.203 E.02054
G1 X143.433 Y148.789 E.02299
G1 X144.012 Y148.395 E.0261
G1 X144.612 Y148.109 E.02474
G1 X145.281 Y147.854 E.02666
G1 X145.946 Y147.685 E.02555
G1 X146.596 Y147.578 E.02455
G1 X149.777 Y147.206 E.1193
G1 X149.986 Y147.058 E.0095
G1 X150.057 Y146.912 E.00607
G1 X150.006 Y146.745 E.0065
G1 X149.225 Y145.806 E.04549
G1 X148.4 Y144.748 E.04998
G1 X147.846 Y143.941 E.03645
G1 X147.492 Y143.304 E.02715
G1 X147.126 Y143.017 E.01733
G1 X146.871 Y142.626 E.01739
G1 X146.569 Y142.023 E.02509
G1 X146.448 Y141.686 E.01335
G1 X146.41 Y141.32 E.01372
G1 X146.567 Y141.053 E.01151
G1 X146.575 Y140.871 E.00678
G1 X146.229 Y139.891 E.03871
G1 X146.136 Y139.325 E.02136
G1 X146.123 Y138.846 E.01786
G1 X146.21 Y138.496 E.01342
G1 X146.46 Y138.078 E.01814
G1 X146.753 Y137.852 E.01378
G1 X147.276 Y137.634 E.02111
G1 X147.84 Y137.499 E.0216
G1 X147.976 Y137.404 E.00618
G1 X148.054 Y136.981 E.01605
G1 X148.052 Y136.048 E.03475
G1 X148.085 Y135.078 E.03613
G1 X148.154 Y134.107 E.03628
G1 X148.316 Y132.519 E.05942
G1 X148.521 Y130.812 E.06405
G1 X148.6 Y130.294 E.01951
G1 X148.753 Y129.615 E.02592
G1 X148.967 Y128.927 E.02682
G1 X148.981 Y128.658 E.01005
G1 X148.877 Y127.365 E.0483
G1 X148.96 Y127.098 E.01041
G1 X149.151 Y127.009 E.00787
G1 X149.8 Y126.951 E.02426
G1 X152.52 Y126.885 E.10134
G1 X152.907 Y126.931 E.01454
G1 X153.063 Y127.045 E.00719
G1 X153.196 Y127.284 E.01018
G1 X153.247 Y128.396 E.04145
G1 X153.339 Y128.896 E.01895
G1 X153.981 Y130.507 E.06457
G1 X154.851 Y132.937 E.09614
G1 X154.915 Y133.03 E.00421
G1 X155.046 Y133.087 E.00532
G1 X155.175 Y133.047 E.00505
G1 X155.487 Y133.381 F9000
;TYPE:Inner wall
G1 F3000
G1 X155.575 Y133.319 E.00402
G1 X155.866 Y132.77 E.02315
G1 X156.186 Y131.859 E.03596
G1 X156.528 Y130.974 E.03531
G1 X157.298 Y129.112 E.07507
G1 X157.514 Y128.299 E.03131
G1 X157.58 Y127.212 E.04059
G1 X157.761 Y127.173 E.00689
G1 X160.758 Y127.262 E.11168
G1 X160.951 Y127.3 E.00733
G1 X160.89 Y128.4 E.04105
G1 X160.94 Y128.916 E.0193
G1 X161.236 Y130.004 E.04201
G1 X161.399 Y130.96 E.03611
G1 X161.529 Y131.932 E.03653
G1 X161.776 Y134.41 E.09273
G1 X161.837 Y135.629 E.04547
G1 X161.844 Y136.929 E.04843
G1 X161.895 Y137.338 E.01533
G1 X161.999 Y137.57 E.00949
G1 X162.238 Y137.783 E.01193
G1 X163.266 Y138.127 E.04034
G1 X163.599 Y138.351 E.01498
G1 X163.745 Y138.675 E.01324
G1 X163.797 Y139.017 E.01286
G1 X163.733 Y139.523 E.019
G1 X163.33 Y140.766 E.04867
G1 X163.332 Y141.025 E.00966
G1 X163.49 Y141.337 E.01304
G1 X163.44 Y141.578 E.00917
G1 X163.204 Y142.082 E.02074
G1 X162.934 Y142.551 E.02017
G1 X162.689 Y142.725 E.01117
G1 X162.517 Y142.919 E.00967
G1 X162.124 Y143.584 E.02874
G1 X161.617 Y144.326 E.03347
G1 X160.929 Y145.215 E.0419
G1 X159.867 Y146.507 E.06227
G1 X159.789 Y146.829 E.01234
G1 X159.81 Y147.13 E.01126
G1 X159.919 Y147.345 E.00897
G1 X160.113 Y147.519 E.0097
G1 X160.4 Y147.614 E.01129
G1 X161.232 Y147.695 E.03112
G1 X163.682 Y147.982 E.09188
G1 X164.378 Y148.086 E.02622
G1 X164.975 Y148.217 E.02277
G1 X165.526 Y148.402 E.02162
G1 X166.044 Y148.644 E.0213
G1 X166.532 Y148.944 E.02135
G1 X166.988 Y149.299 E.02151
G1 X167.547 Y149.856 E.02939
G1 X167.829 Y150.336 E.02073
G1 X167.884 Y150.623 E.01089
G1 X167.728 Y151.545 E.03483
G1 X167.828 Y151.848 E.01189
G1 X168.035 Y152.061 E.01107
G1 X168.768 Y152.542 E.03263
G1 X169.28 Y152.963 E.02472
G1 X169.559 Y153.347 E.01766
G1 X170.119 Y154.227 E.03887
G1 X170.366 Y154.45 E.01237
G1 X170.588 Y154.523 E.0087
G1 X170.833 Y154.491 E.00921
G1 X170.763 Y154.758 E.01028
G1 X170.707 Y155.294 E.02006
G1 X170.76 Y155.54 E.00939
G1 X170.918 Y155.804 E.01145
G1 X171.222 Y156.022 E.01395
G1 X171.539 Y156.072 E.01196
G1 X171.825 Y155.984 E.01113
G1 X172.607 Y155.554 E.03324
