; HEADER_BLOCK_START
; generated by OrcaSlicer 1.7.0-beta on 2023-09-19 at 12:50:57
; total layer number: 3
; HEADER_BLOCK_END

; THUMBNAIL_BLOCK_START
; THUMBNAIL_BLOCK_END

; external perimeters extrusion width = 0.40mm
; perimeters extrusion width = 0.45mm
; infill extrusion width = 0.45mm
; solid infill extrusion width = 0.40mm
; top infill extrusion width = 0.40mm
; first layer extrusion width = 0.50mm

; external perimeters extrusion width = 0.40mm
; perimeters extrusion width = 0.45mm
; infill extrusion width = 0.45mm
; solid infill extrusion width = 0.40mm
; top infill extrusion width = 0.40mm
; first layer extrusion width = 0.50mm

; external perimeters extrusion width = 0.40mm
; perimeters extrusion width = 0.45mm
; infill extrusion width = 0.45mm
; solid infill extrusion width = 0.40mm
; top infill extrusion width = 0.40mm
; first layer extrusion width = 0.50mm

; external perimeters extrusion width = 0.40mm
; perimeters extrusion width = 0.45mm
; infill extrusion width = 0.45mm
; solid infill extrusion width = 0.40mm
; top infill extrusion width = 0.40mm
; first layer extrusion width = 0.50mm

; EXECUTABLE_BLOCK_START
EXCLUDE_OBJECT_DEFINE NAME=denjihair.stl_id_0_copy_0 CENTER=180.675,172.699 POLYGON=[[157.449,164.324],[157.774,161.768],[160.303,159.229],[162.616,157.951],[168.019,157.346],[192.194,157.817],[198.934,158.17],[200.84,159.476],[200.867,159.498],[202.656,161.802],[203.895,166.004],[203.897,166.012],[203.899,166.02],[203.9,166.026],[203.901,166.032],[203.902,166.038],[203.902,166.043],[203.902,166.047],[203.902,166.052],[203.902,166.056],[202.547,173.774],[200.072,180.786],[183.955,188.05],[183.929,188.052],[183.906,188.052],[170.825,186.708],[170.796,186.701],[170.765,186.688],[161.785,181.895],[158.153,174.9],[157.449,164.324]]
EXCLUDE_OBJECT_DEFINE NAME=denjihair.stl_id_1_copy_0 CENTER=180.675,137.301 POLYGON=[[157.449,128.926],[157.774,126.37],[160.303,123.831],[162.616,122.553],[168.019,121.948],[192.194,122.419],[198.934,122.772],[200.84,124.078],[200.867,124.1],[202.656,126.404],[203.895,130.606],[203.897,130.614],[203.899,130.622],[203.9,130.628],[203.901,130.634],[203.902,130.64],[203.902,130.645],[203.902,130.649],[203.902,130.654],[203.902,130.658],[202.547,138.376],[200.072,145.388],[183.955,152.652],[183.929,152.654],[183.906,152.654],[170.825,151.31],[170.796,151.303],[170.765,151.29],[161.785,146.497],[158.153,139.502],[157.449,128.926]]
EXCLUDE_OBJECT_DEFINE NAME=denjihair.stl_id_2_copy_0 CENTER=129.325,137.301 POLYGON=[[106.098,128.926],[106.423,126.37],[108.953,123.831],[111.266,122.553],[116.668,121.948],[140.844,122.419],[147.583,122.772],[149.49,124.078],[149.516,124.1],[151.305,126.404],[152.544,130.606],[152.547,130.614],[152.548,130.622],[152.55,130.628],[152.551,130.634],[152.551,130.64],[152.552,130.645],[152.552,130.649],[152.552,130.654],[152.552,130.658],[151.197,138.376],[148.721,145.388],[132.604,152.652],[132.579,152.654],[132.556,152.654],[119.475,151.31],[119.445,151.303],[119.414,151.29],[110.434,146.497],[106.803,139.502],[106.098,128.926]]
EXCLUDE_OBJECT_DEFINE NAME=denjihair.stl_id_3_copy_0 CENTER=129.325,172.699 POLYGON=[[106.098,164.324],[106.423,161.768],[108.953,159.229],[111.266,157.951],[116.668,157.346],[140.844,157.817],[147.583,158.17],[149.49,159.476],[149.516,159.498],[151.305,161.802],[152.544,166.004],[152.547,166.012],[152.548,166.02],[152.55,166.026],[152.551,166.032],[152.551,166.038],[152.552,166.043],[152.552,166.047],[152.552,166.052],[152.552,166.056],[151.197,173.774],[148.721,180.786],[132.604,188.05],[132.579,188.052],[132.556,188.052],[119.475,186.708],[119.445,186.701],[119.414,186.688],[110.434,181.895],[106.803,174.9],[106.098,164.324]]
M73 P0 R11
;TYPE:Custom
START_PRINT T_BED=60 T_EXTRUDER=220
G90
G21
M83 ; use relative distances for extrusion
; filament start gcode
PRESSURE_ADVANCE_SELECT FILAMENT=PLA
M106 S0
;LAYER_CHANGE
;Z:0.2
;HEIGHT:0.2
;BEFORE_LAYER_CHANGE
;0.2
G92 E0

;_SET_FAN_SPEED_CHANGING_LAYER
SET_VELOCITY_LIMIT ACCEL=1500 ACCEL_TO_DECEL=750
G1 E-.8 F3000
G1 Z.4 F9000
G1 X118.755 Y189.532
G1 Z.4
G1 Z.2
G1 E.8 F1800
;TYPE:Skirt
;WIDTH:0.5
G1 F3000
G1 X118.042 Y189.259 E.02844
G1 X109.062 Y184.466 E.37912
G1 X107.848 Y183.238 E.06433
G1 X104.216 Y176.243 E.29356
G1 X103.895 Y175.094 E.04444
G1 X103.184 Y164.324 E.40203
G1 X103.184 Y128.926 E1.31844
G1 X103.532 Y126.002 E.10967
G1 X104.359 Y124.313 E.07003
G1 X106.888 Y121.774 E.13349
G1 X107.543 Y121.28 E.03056
G1 X109.856 Y120.002 E.09842
G1 X110.941 Y119.657 E.04241
G1 X116.344 Y119.052 E.20248
G1 X168.075 Y119.034 E1.92681
G1 X192.251 Y119.505 E.90062
G1 X199.086 Y119.862 E.25493
G1 X200.581 Y120.368 E.05877
G1 X202.7 Y121.834 E.09598
G1 X203.169 Y122.313 E.02496
G1 X204.957 Y124.616 E.10863
G1 X205.451 Y125.58 E.04032
G1 X206.694 Y129.798 E.16379
G1 X206.817 Y130.658 E.03235
G1 X206.817 Y166.056 E1.31844
G1 X205.295 Y174.744 E.32852
G1 X202.82 Y181.756 E.27696
G1 X201.963 Y183.003 E.05638
G1 X201.269 Y183.442 E.03056
G1 X185.152 Y190.706 E.65845
M73 P1 R11
G1 X183.929 Y190.966 E.04657
G1 X132.258 Y190.951 E1.92455
G1 X118.795 Y189.537 E.50421
G1 X118.863 Y189.088 F9000
G1 F3000
G1 X118.258 Y188.855 E.02418
G1 X109.278 Y184.063 E.37912
G1 X108.254 Y183.028 E.05424
G1 X104.622 Y176.033 E.29356
G1 X104.351 Y175.064 E.03747
G1 X103.641 Y164.324 E.40089
G1 X103.641 Y128.926 E1.31844
G1 X103.986 Y126.06 E.10752
G1 X104.683 Y124.636 E.05905
G1 X107.212 Y122.097 E.13349
G1 X107.764 Y121.68 E.02576
G1 X110.077 Y120.402 E.09842
G1 X110.992 Y120.111 E.03575
G1 X116.394 Y119.506 E.20248
G1 X168.066 Y119.491 E1.92458
G1 X192.242 Y119.962 E.90062
G1 X199.062 Y120.318 E.25437
G1 X200.322 Y120.745 E.04955
G1 X202.408 Y122.186 E.09443
G1 X202.808 Y122.593 E.02125
G1 X204.596 Y124.897 E.10863
G1 X205.013 Y125.709 E.034
G1 X206.256 Y129.927 E.16379
G1 X206.36 Y130.658 E.02749
G1 X206.36 Y166.056 E1.31844
G1 X204.967 Y174.199 E.30769
G1 X202.389 Y181.604 E.29204
G1 X201.082 Y183.026 E.07195
G1 X184.965 Y190.29 E.65845
G1 X183.929 Y190.509 E.03942
G1 X132.305 Y190.496 E1.92281
M73 P2 R11
G1 X118.903 Y189.092 E.50189
; printing object denjihair.stl id:0 copy 0
G1 E-.8
EXCLUDE_OBJECT_START NAME=denjihair.stl_id_0_copy_0
G1 Z.6 F9000
G1 X194.881 Y159.073 Z.6
G1 Z.2
G1 E.8 F1800
;TYPE:Outer wall
;WIDTH:0.38292
G1 F3000
G1 X194.823 Y159.445 E.01043
G1 E-.8
G1 Z.6 F9000
G1 X199.338 Y162.759 Z.6
G1 Z.2
G1 E.8 F1800
;WIDTH:0.521093
G1 F3000
G1 X199.446 Y162.507 E.01067
;WIDTH:0.525516
G1 X199.378 Y161.312 E.04709
;WIDTH:0.499999
G1 X199.351 Y160.75 E.02094
G1 X199.404 Y160.466 E.01075
G1 X199.557 Y160.307 E.00824
G1 X200.199 Y159.926 E.02781
G1 X200.599 Y159.771 E.01596
G1 X200.353 Y160.84 E.04084
G1 X200.17 Y161.438 E.02329
;WIDTH:0.50356
G1 X199.957 Y161.753 E.01431
;WIDTH:0.525516
G1 X199.902 Y161.9 E.00616
;WIDTH:0.550543
G1 X199.951 Y162.206 E.0128
G1 X200.01 Y162.299 E.00458
;WIDTH:0.521093
G1 X200.262 Y162.439 E.01122
;WIDTH:0.499999
G1 X200.52 Y162.44 E.00963
G1 X201.352 Y162.113 E.03328
G1 X201.753 Y162.023 E.0153
G1 X202.262 Y161.961 E.0191
G1 X202.009 Y162.365 E.01777
G1 X201.693 Y162.954 E.0249
G1 X201.486 Y163.436 E.01952
G1 X201.155 Y164.504 E.04163
G1 X201.045 Y165.157 E.02468
G1 X200.995 Y165.924 E.02863
G1 X201.053 Y166.287 E.01369
G1 X201.3 Y166.536 E.01304
G1 X201.529 Y166.573 E.00863
G1 X202.783 Y166.304 E.04779
G1 X203.433 Y166.231 E.02436
G1 X202.963 Y166.806 E.02768
G1 X202.198 Y167.922 E.05037
G1 X201.903 Y168.4 E.02095
G1 X201.45 Y169.277 E.03676
G1 X201.025 Y170.286 E.04078
G1 X200.787 Y170.979 E.02729
G1 X200.506 Y172.031 E.04056
G1 X200.316 Y173.024 E.03764
G1 X200.078 Y173.414 E.01703
G1 X200.163 Y173.729 E.01212
G1 X200.28 Y173.855 E.00642
G1 X200.559 Y173.952 E.01099
G1 X201.127 Y173.909 E.02123
G1 X201.886 Y173.921 E.02826
G1 X201.281 Y174.365 E.02797
G1 X200.765 Y174.806 E.02527
G1 X197.952 Y177.477 E.14449
G1 X197.127 Y178.399 E.04605
G1 X196.872 Y178.839 E.01896
G1 X196.913 Y179.051 E.00803
G1 X197.002 Y179.173 E.00563
G1 X197.287 Y179.329 E.0121
G1 X198.214 Y179.679 E.03692
G1 X198.969 Y180.086 E.03195
G1 X199.568 Y180.543 E.02807
G1 X198.655 Y180.556 E.03403
G1 X197.89 Y180.635 E.02863
G1 X197.107 Y180.78 E.02967
G1 X196.407 Y180.964 E.02695
G1 X195.689 Y181.215 E.02835
G1 X194.987 Y181.523 E.02855
G1 X192.827 Y182.671 E.09107
G1 X192.306 Y182.919 E.02153
G1 X191.236 Y183.384 E.04344
G1 X190.148 Y183.806 E.04347
G1 X189.042 Y184.188 E.04358
G1 X187.921 Y184.536 E.0437
G1 X187.092 Y184.768 E.03208
G1 X186.561 Y184.885 E.02026
G1 X186.027 Y184.972 E.02015
G1 X185.49 Y185.027 E.02009
G1 X184.953 Y185.051 E.02001
G1 X184.038 Y185.017 E.03411
G1 X183.467 Y184.946 E.02145
G1 X182.894 Y184.825 E.02179
G1 X182.567 Y184.866 E.01228
G1 X182.329 Y185.116 E.01288
G1 X182.291 Y185.44 E.01212
G1 X182.339 Y185.586 E.00575
G1 X182.862 Y186.256 E.03165
G1 X183.242 Y186.855 E.02643
G1 X183.452 Y187.32 E.01898
G1 X182.963 Y186.955 E.02272
G1 X182.407 Y186.626 E.02406
G1 X181.822 Y186.354 E.02403
G1 X180.472 Y185.838 E.05384
G1 X179.347 Y185.493 E.04381
G1 X178.491 Y185.298 E.03272
G1 X177.285 Y185.148 E.04524
G1 X176.367 Y185.111 E.03425
G1 X175.534 Y185.14 E.03101
G1 X174.932 Y185.198 E.02255
G1 X173.905 Y185.368 E.03878
G1 X173.139 Y185.556 E.02935
G1 X172.387 Y185.786 E.0293
G1 X171.591 Y186.095 E.0318
G1 X171.729 Y185.955 E.00734
G1 X172.326 Y185.524 E.02743
G1 X172.986 Y185.181 E.02769
G1 X173.28 Y184.964 E.01362
G1 X173.355 Y184.837 E.00548
G1 X173.362 Y184.594 E.00908
G1 X173.31 Y184.446 E.00581
G1 X172.965 Y184.207 E.01563
G1 X172.47 Y184.108 E.01882
G1 X171.335 Y183.76 E.04421
G1 X170.417 Y183.38 E.03701
G1 X167.694 Y182.151 E.11127
G1 X166.997 Y181.893 E.02768
G1 X166.278 Y181.69 E.02784
G1 X165.661 Y181.575 E.02337
G1 X164.947 Y181.491 E.02678
G1 X164.031 Y181.448 E.03417
G1 X163.001 Y181.496 E.03841
G1 X162.218 Y181.602 E.02943
G1 X162.5 Y181.201 E.01824
G1 X163.187 Y180.515 E.03618
G1 X163.956 Y179.975 E.035
G1 X164.551 Y179.64 E.02544
G1 X164.741 Y179.298 E.01458
G1 X164.69 Y178.983 E.01188
G1 X164.517 Y178.773 E.01013
G1 X164.011 Y178.474 E.02188
G1 X163.418 Y177.978 E.0288
G1 X162.378 Y176.935 E.05487
G1 X161.804 Y176.446 E.02809
G1 X161.327 Y176.093 E.0221
G1 X160.761 Y175.736 E.02492
G1 X159.729 Y175.218 E.04302
G1 X158.726 Y174.834 E.03998
G1 X159.155 Y174.626 E.01774
G1 X159.781 Y174.397 E.02482
G1 X160.367 Y174.295 E.02216
G1 X160.898 Y174.277 E.01978
G1 X161.115 Y174.148 E.00941
G1 X161.246 Y173.868 E.01152
G1 X161.178 Y173.585 E.01084
G1 X158.773 Y169.465 E.17769
G1 X158.393 Y168.914 E.02491
G1 X158.791 Y168.959 E.0149
G1 X159.368 Y169.13 E.02244
G1 X159.687 Y169.083 E.01198
G1 X159.884 Y168.928 E.00935
G1 X159.995 Y168.722 E.00871
G1 X159.994 Y168.487 E.00876
G1 X159.665 Y167.707 E.03152
G1 X158.716 Y165.8 E.07933
G1 X158.1 Y164.824 E.04299
G1 X158.48 Y165.032 E.01613
G1 X159.106 Y165.44 E.02781
G1 X159.891 Y166.037 E.03675
G1 X159.999 Y166.082 E.00435
G1 X160.244 Y166.079 E.00913
G1 X160.545 Y165.873 E.01359
G1 X160.605 Y165.576 E.01128
G1 X160.541 Y165.411 E.0066
G1 X159.889 Y164.765 E.03416
G1 X159.782 Y164.488 E.01109
;WIDTH:0.535217
G1 X159.507 Y163.807 E.02946
;WIDTH:0.56051
G1 X159.399 Y163.574 E.01083
;WIDTH:0.585802
G1 X159.291 Y163.341 E.01136
;WIDTH:0.622379
G1 X158.979 Y162.841 E.02781
G1 X158.54 Y162.287 E.0334
G1 X159.329 Y162.61 E.04028
G1 X159.755 Y162.89 E.02407
G1 X159.753 Y163.047 E.00741
G1 X159.877 Y163.312 E.0138
;WIDTH:0.581007
G1 X160.004 Y163.373 E.00618
;WIDTH:0.540503
G1 X160.131 Y163.435 E.00572
;WIDTH:0.499999
G1 X160.304 Y163.457 E.00649
G1 X160.621 Y163.347 E.01252
G1 X160.803 Y162.994 E.01476
G1 X160.854 Y162.659 E.01265
G1 X160.93 Y161.772 E.03314
G1 X160.897 Y161.098 E.02513
G1 X160.83 Y160.454 E.02412
G1 X160.636 Y159.683 E.0296
G1 X160.854 Y159.799 E.0092
G1 X161.568 Y160.322 E.03297
G1 X162.035 Y160.801 E.0249
G1 X162.089 Y161.163 E.01362
G1 X162.3 Y161.468 E.01382
G1 X162.604 Y161.529 E.01155
G1 X162.949 Y161.347 E.01454
G1 X163.023 Y161.21 E.00579
G1 X163.103 Y160.647 E.02117
G1 X163.116 Y159.936 E.02649
G1 X163.039 Y158.905 E.03853
G1 X162.955 Y158.378 E.01986
G1 X163.417 Y158.675 E.02045
G1 X163.837 Y159.001 E.01981
G1 X164.406 Y159.574 E.03005
G1 X164.76 Y160.017 E.02114
G1 X164.734 Y160.134 E.00447
G1 X164.477 Y160.863 E.02876
G1 X164.487 Y161.018 E.00579
G1 X164.662 Y161.261 E.01114
G1 X165.046 Y161.343 E.01463
G1 X165.264 Y161.25 E.00883
G1 X165.442 Y160.999 E.01147
G1 X165.866 Y160.119 E.03638
G1 X166.178 Y159.597 E.02265
G1 X166.579 Y159.042 E.02551
G1 X167.253 Y158.286 E.03773
G1 X167.698 Y157.874 E.02261
G1 X167.548 Y158.604 E.02778
G1 X167.424 Y159.467 E.03248
G1 X167.369 Y160.146 E.02535
G1 X167.362 Y160.849 E.02621
G1 X167.448 Y161.685 E.0313
G1 X167.57 Y162.488 E.03023
G1 X167.961 Y164.592 E.07973
G1 X168.146 Y164.888 E.01301
G1 X168.463 Y165.011 E.01267
G1 X168.748 Y164.91 E.01125
G1 X168.869 Y164.782 E.00656
G1 X168.947 Y164.483 E.01154
G1 X168.577 Y162.438 E.0774
G1 X168.424 Y161.394 E.0393
G1 X168.616 Y161.81 E.01708
G1 X168.962 Y162.479 E.02806
G1 X169.353 Y163.132 E.02835
G1 X169.644 Y163.565 E.0194
G1 X170.273 Y164.37 E.03808
G1 X170.608 Y164.76 E.01915
G1 X171.066 Y165.24 E.0247
G1 X171.205 Y166.722 E.05542
G1 X171.39 Y167.306 E.02283
G1 X171.66 Y167.471 E.01179
G1 X171.918 Y167.461 E.00962
G1 X172.12 Y167.341 E.00877
G1 X172.239 Y167.141 E.00865
G1 X172.246 Y166.938 E.00757
G1 X172.161 Y166.362 E.02169
G1 X172.099 Y165.445 E.03424
G1 X172.15 Y164.666 E.02908
G1 X172.295 Y163.822 E.03187
G1 X172.548 Y162.989 E.03245
G1 X172.9 Y162.191 E.03248
G1 X173.324 Y161.487 E.03061
G1 X173.352 Y161.715 E.00855
G1 X173.526 Y162.602 E.03366
G1 X173.739 Y163.32 E.02789
G1 X173.951 Y163.873 E.02208
G1 X174.456 Y164.942 E.04402
G1 X174.793 Y165.541 E.02561
G1 X175.144 Y166.115 E.02507
G1 X175.43 Y166.271 E.01212
G1 X175.756 Y166.235 E.01223
G1 X175.92 Y166.093 E.00809
G1 X176.014 Y165.787 E.01191
G1 X175.914 Y164.586 E.04488
G1 X175.897 Y163.681 E.03372
G1 X176.004 Y162.46 E.04564
G1 X176.162 Y161.667 E.03013
G1 X176.393 Y160.862 E.0312
G1 X176.73 Y160.002 E.03437
G1 X178.149 Y161.471 E.07606
M73 P3 R11
G1 X178.468 Y161.642 E.01349
G1 X178.764 Y161.617 E.01106
G1 X179.03 Y161.417 E.01243
G1 X179.164 Y161.032 E.01517
G1 X179.369 Y159.082 E.07303
G1 X179.938 Y159.572 E.028
G1 X180.718 Y160.367 E.04149
G1 X181.205 Y160.92 E.02742
G1 X181.668 Y161.49 E.02735
G1 X182.581 Y162.742 E.05771
G1 X182.766 Y162.887 E.00876
G1 X183.053 Y162.936 E.01083
G1 X183.344 Y162.79 E.01211
G1 X183.432 Y162.697 E.00481
G1 X183.569 Y162.325 E.01474
G1 X183.739 Y161.433 E.03383
G1 X183.864 Y160.628 E.03034
G1 X183.956 Y159.82 E.03027
G1 X183.986 Y159.321 E.01863
G1 X184.417 Y159.886 E.02646
G1 X184.913 Y160.662 E.03431
G1 X185.374 Y161.49 E.03527
G1 X185.985 Y162.769 E.05279
G1 X186.338 Y163.638 E.03495
G1 X186.797 Y164.981 E.05287
G1 X186.991 Y165.657 E.0262
G1 X187.208 Y166.556 E.03445
G1 X187.388 Y167.462 E.03438
G1 X187.542 Y168.377 E.03457
G1 X187.679 Y168.619 E.01037
G1 X187.932 Y168.734 E.01034
G1 X188.263 Y168.65 E.01273
G1 X188.462 Y168.453 E.01042
G1 X188.502 Y168.033 E.01573
G1 X188.414 Y167.537 E.01873
G1 X188.345 Y166.984 E.02077
G1 X188.409 Y166.644 E.01289
G1 X188.92 Y165.429 E.04907
G1 X189.117 Y164.859 E.02249
G1 X189.459 Y163.778 E.04219
G1 X189.673 Y162.995 E.03025
G1 X189.781 Y162.471 E.01994
G1 X189.904 Y163.08 E.02313
G1 X190.019 Y163.818 E.02784
G1 X190.133 Y164.99 E.04386
G1 X190.26 Y167.249 E.08424
G1 X190.424 Y167.478 E.01051
G1 X190.703 Y167.575 E.01101
G1 X191.002 Y167.493 E.01153
G1 X191.193 Y167.25 E.01151
G1 X191.233 Y166.748 E.01872
G1 X191.128 Y164.942 E.0674
G1 X191.13 Y164.373 E.02121
G1 X191.222 Y164.027 E.0133
G1 X191.404 Y163.558 E.01875
G1 X191.599 Y162.977 E.02281
G1 X191.767 Y162.387 E.02285
G1 X191.969 Y161.5 E.0339
G1 X192.079 Y160.859 E.02422
G1 X192.203 Y159.964 E.03366
G1 X192.31 Y158.569 E.05211
G1 X192.648 Y159.319 E.03063
G1 X192.922 Y160.047 E.02898
G1 X193.15 Y160.789 E.02891
G1 X193.331 Y161.543 E.02889
G1 X193.553 Y162.9 E.05122
G1 X193.68 Y163.161 E.01079
G1 X193.955 Y163.325 E.01192
G1 X194.22 Y163.291 E.00995
G1 X194.369 Y163.194 E.00663
