; HEADER_BLOCK_START
; generated by OrcaSlicer 1.6.6 on 2023-09-09 at 21:19:51
; total layer number: 18
; HEADER_BLOCK_END

; THUMBNAIL_BLOCK_START
; THUMBNAIL_BLOCK_END

; external perimeters extrusion width = 0.40mm
; perimeters extrusion width = 0.45mm
; infill extrusion width = 0.45mm
; solid infill extrusion width = 0.40mm
; top infill extrusion width = 0.40mm
; support material extrusion width = 0.40mm
; first layer extrusion width = 0.50mm

; external perimeters extrusion width = 0.40mm
; perimeters extrusion width = 0.45mm
; infill extrusion width = 0.45mm
; solid infill extrusion width = 0.40mm
; top infill extrusion width = 0.40mm
; support material extrusion width = 0.40mm
; first layer extrusion width = 0.50mm

; EXECUTABLE_BLOCK_START
EXCLUDE_OBJECT_DEFINE NAME=DenjiKeychainByPekole.stl_id_0_copy_0 CENTER=192.082,136.359 POLYGON=[[167.582,141.107],[167.584,141.086],[167.59,141.046],[167.593,141.026],[168.156,138.55],[168.172,138.512],[184.878,106.376],[184.924,106.312],[184.984,106.255],[185.052,106.207],[185.134,106.168],[185.228,106.135],[185.336,106.108],[185.457,106.088],[185.539,106.079],[185.622,106.072],[185.788,106.06],[185.872,106.054],[185.956,106.049],[186.041,106.045],[186.124,106.042],[195.22,105.784],[195.331,105.784],[195.384,105.785],[198.603,105.877],[198.731,105.883],[198.78,105.887],[198.83,105.893],[198.88,105.899],[198.931,105.907],[198.98,105.914],[199.03,105.922],[199.131,105.94],[199.23,105.961],[199.28,105.973],[199.387,106],[199.44,106.019],[199.488,106.043],[199.531,106.07],[199.569,106.102],[199.603,106.136],[199.633,106.177],[199.657,106.219],[215.27,138.803],[216.577,142.846],[216.582,142.882],[216.579,142.919],[215.416,151.033],[215.408,151.058],[212.822,158.666],[212.808,158.702],[212.787,158.735],[212.76,158.765],[212.729,158.791],[212.692,158.812],[196.057,166.915],[196.04,166.922],[196.02,166.928],[196.006,166.933],[195.99,166.934],[195.952,166.934],[195.932,166.933],[181.352,165.302],[181.316,165.296],[181.281,165.284],[181.246,165.266],[172.491,160.082],[172.457,160.057],[172.43,160.028],[172.408,159.995],[168.609,152.813],[168.601,152.792],[168.595,152.77],[167.582,141.146],[167.582,141.107]]
EXCLUDE_OBJECT_DEFINE NAME=denjihair.stl_id_1_copy_0 CENTER=125.817,140.197 POLYGON=[[102.444,131.765],[102.772,129.192],[105.317,126.636],[107.644,125.35],[113.081,124.74],[137.408,125.214],[144.19,125.57],[146.109,126.885],[146.136,126.907],[147.936,129.226],[149.183,133.457],[149.185,133.465],[149.187,133.473],[149.188,133.479],[149.189,133.485],[149.19,133.491],[149.19,133.496],[149.19,133.5],[149.19,133.505],[149.19,133.509],[147.827,141.279],[145.336,148.338],[129.117,155.652],[129.092,155.654],[129.069,155.653],[115.905,154.301],[115.876,154.294],[115.844,154.28],[106.808,149.456],[103.153,142.413],[102.444,131.765]]
M73 P0 R22
M73 C18
;TYPE:Custom
START_PRINT T_BED=60 T_EXTRUDER=220
G90
G21
M83 ; use relative distances for extrusion
; filament start gcode
PRESSURE_ADVANCE_SELECT FILAMENT=PLA
M106 S0
;LAYER_CHANGE
;Z:0.2
;HEIGHT:0.2
;BEFORE_LAYER_CHANGE
;0.2
G92 E0

SET_VELOCITY_LIMIT ACCEL=1500 ACCEL_TO_DECEL=750
G1 E-.8 F3000
G1 Z.4 F9000
G1 X100.567 Y143.756
G1 Z.4
G1 Z.2
G1 E.8 F1800
;TYPE:Skirt
;WIDTH:0.5
G1 F3000
G1 X100.246 Y142.607 E.04442
G1 X99.537 Y131.959 E.39748
G1 X99.881 Y128.825 E.11745
G1 X100.707 Y127.136 E.07001
G1 X103.252 Y124.58 E.13436
G1 X103.907 Y124.086 E.03056
G1 X106.234 Y122.799 E.09905
G1 X106.944 Y122.521 E.02838
G1 X184.635 Y103.279 E2.98113
G1 X186.042 Y103.129 E.05271
G1 X195.416 Y102.871 E.34928
G1 X198.925 Y102.977 E.13074
G1 X200.052 Y103.163 E.04254
G1 X200.861 Y103.475 E.03231
G1 X201.379 Y103.817 E.02312
G1 X202.09 Y104.615 E.03979
G1 X217.898 Y137.544 E1.3605
G1 X219.35 Y141.949 E.17276
G1 X219.471 Y142.497 E.02088
G1 X219.467 Y143.295 E.02972
G1 X218.175 Y151.97 E.3267
G1 X215.528 Y159.748 E.30602
G1 X214.946 Y160.693 E.04131
G1 X214.602 Y161.024 E.01777
G1 X213.968 Y161.432 E.02808
G1 X197.314 Y169.542 E.68996
G1 X196.697 Y169.762 E.0244
G1 X195.608 Y169.829 E.0406
G1 X180.884 Y168.179 E.55186
G1 X115.185 Y157.125 E2.48143
G1 X114.472 Y156.851 E.02845
G1 X105.435 Y152.026 E.38154
G1 X104.221 Y150.798 E.06433
G1 X100.585 Y143.791 E.29402
G1 X100.991 Y143.581 F9000
G1 F3000
G1 X100.973 Y143.545 E.00149
G1 X100.702 Y142.577 E.03746
G1 X99.993 Y131.929 E.39748
G1 X100.334 Y128.882 E.11418
G1 X101.031 Y127.459 E.05903
G1 X103.576 Y124.902 E.13436
G1 X104.128 Y124.486 E.02577
G1 X106.456 Y123.199 E.09905
G1 X107.054 Y122.965 E.02393
G1 X184.745 Y103.723 E2.98113
G1 X186.055 Y103.586 E.04907
G1 X195.403 Y103.328 E.34832
G1 X198.902 Y103.433 E.13038
G1 X199.947 Y103.608 E.03947
G1 X200.638 Y103.874 E.02757
G1 X201.089 Y104.171 E.0201
G1 X201.708 Y104.866 E.03469
G1 X217.486 Y137.742 E1.35819
G1 X219.017 Y142.557 E.18821
G1 X219.014 Y143.23 E.02506
G1 X217.742 Y151.823 E.32356
G1 X215.148 Y159.457 E.30028
G1 X214.887 Y160.011 E.0228
G1 X214.607 Y160.386 E.01744
G1 X213.768 Y161.021 E.03919
G1 X197.114 Y169.131 E.68996
G1 X196.586 Y169.318 E.02086
G1 X195.659 Y169.375 E.03457
G1 X180.958 Y167.727 E.55101
G1 X115.293 Y156.681 E2.48011
M73 P1 R22
G1 X114.687 Y156.448 E.02419
G1 X105.651 Y151.623 E.38154
G1 X104.627 Y150.587 E.05424
G1 X101.009 Y143.616 E.29253
; printing object DenjiKeychainByPekole.stl id:0 copy 0
G1 E-.8
EXCLUDE_OBJECT_START NAME=DenjiKeychainByPekole.stl_id_0_copy_0
G1 Z.6 F9000
G1 X186.397 Y127.634 Z.6
G1 Z.2
G1 E.8 F1800
;TYPE:Outer wall
;WIDTH:0.499999
G1 F3000
G1 X186.133 Y127.256 E.01718
G1 X185.45 Y126.514 E.03754
G1 X184.507 Y125.382 E.05488
G1 X183.874 Y124.516 E.03995
G1 X183.469 Y123.833 E.02957
G1 X183.053 Y123.53 E.01917
G1 X182.758 Y123.107 E.01921
G1 X182.413 Y122.458 E.02737
G1 X182.274 Y122.098 E.01438
G1 X182.231 Y121.704 E.01476
G1 X182.432 Y121.355 E.015
G1 X182.42 Y121.225 E.00487
G1 X182.195 Y120.666 E.02242
G1 X182.024 Y120.174 E.0194
G1 X181.919 Y119.574 E.02268
G1 X181.903 Y119.053 E.01941
G1 X182.061 Y118.536 E.02016
G1 X182.292 Y118.225 E.01442
G1 X182.76 Y117.905 E.02113
G1 X183.242 Y117.74 E.01897
G1 X183.888 Y117.594 E.02464
G1 X184.023 Y117.505 E.00604
G1 X184.11 Y117.055 E.01707
G1 X184.107 Y116.056 E.03723
G1 X184.145 Y115.017 E.03872
G1 X184.224 Y113.976 E.03889
G1 X184.409 Y112.275 E.06371
G1 X184.644 Y110.446 E.0687
G1 X184.734 Y109.891 E.02095
G1 X184.909 Y109.163 E.02787
G1 X185.153 Y108.426 E.02892
G1 X185.169 Y108.138 E.01073
G1 X185.056 Y106.819 E.04931
G1 X185.091 Y106.566 E.00952
G1 X185.152 Y106.458 E.00462
G1 X185.388 Y106.354 E.00961
G1 X186.138 Y106.292 E.02802
G1 X189.253 Y106.22 E.11607
G1 X189.594 Y106.256 E.01275
G1 X189.85 Y106.344 E.01012
G1 X190.035 Y106.605 E.01189
G1 X190.073 Y106.983 E.01416
G1 X190.12 Y107.888 E.03375
G1 X190.222 Y108.392 E.01917
G1 X190.955 Y110.118 E.06984
G1 X191.319 Y111.052 E.03732
G1 X191.813 Y112.401 E.05353
G1 X191.976 Y112.766 E.01488
G1 X192.128 Y112.86 E.00665
G1 X192.296 Y112.82 E.00641
G1 X192.545 Y112.38 E.01884
G1 X192.914 Y111.397 E.0391
G1 X193.309 Y110.436 E.03869
G1 X193.994 Y108.896 E.0628
G1 X194.302 Y108.157 E.02979
G1 X194.4 Y107.721 E.01664
G1 X194.468 Y106.568 E.04306
G1 X194.556 Y106.304 E.01034
G1 X194.778 Y106.12 E.01073
G1 X195.187 Y106.038 E.01553
G1 X198.753 Y106.137 E.13287
G1 X199.315 Y106.249 E.02138
G1 X199.428 Y106.33 E.00513
G1 X199.462 Y106.742 E.01541
G1 X199.371 Y107.772 E.0385
G1 X199.383 Y108.159 E.01445
G1 X199.628 Y108.97 E.03153
G1 X199.758 Y109.482 E.0197
G1 X199.949 Y110.531 E.0397
G1 X200.1 Y111.59 E.03983
G1 X200.385 Y114.264 E.10018
G1 X200.455 Y115.594 E.04958
G1 X200.463 Y116.998 E.0523
G1 X200.534 Y117.386 E.01471
G1 X200.669 Y117.487 E.00629
G1 X201.443 Y117.697 E.02985
G1 X201.85 Y117.864 E.01639
G1 X202.224 Y118.093 E.01634
G1 X202.511 Y118.43 E.01649
G1 X202.608 Y118.712 E.01112
G1 X202.686 Y119.101 E.01475
G1 X202.657 Y119.623 E.01949
G1 X202.534 Y120.175 E.02107
G1 X202.149 Y121.234 E.04195
G1 X202.339 Y121.577 E.01461
G1 X202.369 Y121.783 E.00775
G1 X202.126 Y122.455 E.0266
G1 X201.666 Y123.219 E.03324
G1 X201.489 Y123.433 E.01034
G1 X201.158 Y123.671 E.01516
G1 X200.701 Y124.396 E.03194
G1 X200.103 Y125.217 E.03784
G1 X199.041 Y126.489 E.0617
G1 X198.184 Y127.429 E.04737
G1 X198.107 Y127.695 E.01033
G1 X198.162 Y127.866 E.00667
G1 X198.311 Y127.943 E.00627
G1 X201.249 Y128.241 E.10998
G1 X202.079 Y128.34 E.03115
G1 X203.279 Y128.523 E.04519
G1 X203.984 Y128.705 E.02712
G1 X204.979 Y129.109 E.04
G1 X205.588 Y129.46 E.02618
G1 X206.161 Y129.877 E.02642
G1 X206.65 Y130.322 E.02463
G1 X206.993 Y130.696 E.01887
G1 X207.278 Y131.206 E.02179
G1 X207.35 Y131.501 E.01129
G1 X207.354 Y131.929 E.01595
G1 X207.196 Y132.532 E.02321
G1 X207.196 Y132.666 E.00501
G1 X207.294 Y132.793 E.00594
G1 X208.366 Y133.452 E.04689
G1 X208.824 Y133.843 E.02243
G1 X209.199 Y134.328 E.02284
G1 X209.87 Y135.298 E.04394
G1 X210.031 Y135.349 E.00628
G1 X211.056 Y134.849 E.04249
G1 X211.156 Y134.897 E.00413
G1 X211.14 Y134.973 E.00289
G1 X210.846 Y135.527 E.02333
G1 X210.659 Y136.139 E.02384
G1 X210.592 Y136.568 E.01618
G1 X210.642 Y136.823 E.00967
G1 X210.849 Y136.992 E.00993
G1 X211.03 Y136.977 E.00678
G1 X211.825 Y136.55 E.03361
G1 X212.482 Y136.302 E.02617
G1 X212.78 Y136.238 E.01135
G1 X212.88 Y136.268 E.00388
G1 X212.874 Y136.503 E.00874
G1 X212.46 Y138.625 E.08054
G1 X212.548 Y138.78 E.00664
G1 X212.729 Y138.822 E.00694
G1 X213.577 Y138.66 E.03212
G1 X214.149 Y138.639 E.02134
G1 X214.644 Y138.731 E.01876
G1 X214.974 Y138.862 E.0132
G1 X214.753 Y138.968 E.00912
G1 X214.471 Y139.286 E.01583
G1 X214.087 Y139.888 E.02659
G1 X213.747 Y140.574 E.0285
G1 X213.488 Y141.296 E.02857
G1 X213.227 Y142.597 E.04944
G1 X213.292 Y143.1 E.01886
G1 X213.445 Y143.218 E.00719
G1 X213.545 Y143.218 E.00372
G1 X214.249 Y143.06 E.02687
G1 X214.878 Y142.963 E.02372
G1 X215.383 Y142.915 E.01888
G1 X216.016 Y142.894 E.02358
G1 X216.265 Y142.928 E.00936
G1 X215.356 Y143.969 E.05147
G1 X214.995 Y144.435 E.02196
G1 X214.384 Y145.331 E.04039
G1 X213.852 Y146.274 E.04035
G1 X213.391 Y147.275 E.04104
G1 X213.014 Y148.319 E.04134
G1 X212.754 Y149.236 E.03551
G1 X212.634 Y149.78 E.02075
G1 X212.57 Y150.457 E.02533
G1 X212.65 Y150.624 E.00688
G1 X213.003 Y150.712 E.01356
G1 X214.094 Y150.776 E.04068
G1 X214.645 Y150.869 E.02082
G1 X215.113 Y150.989 E.01799
G1 X214.695 Y151.171 E.01698
G1 X214.15 Y151.47 E.02314
G1 X213.649 Y151.815 E.02266
G1 X213.182 Y152.195 E.02242
G1 X212.181 Y153.106 E.05042
G1 X210.325 Y154.871 E.0954
G1 X209.498 Y155.752 E.04501
G1 X209.307 Y156.046 E.01307
G1 X209.31 Y156.227 E.00672
G1 X209.428 Y156.343 E.00615
G1 X210.126 Y156.645 E.02833
G1 X210.587 Y156.875 E.0192
M73 C17
G1 X211.238 Y157.283 E.02862
G1 X211.65 Y157.606 E.0195
G1 X212.163 Y158.101 E.02654
G1 X212.521 Y158.554 E.02152
G1 X211.944 Y158.469 E.02174
G1 X210.803 Y158.414 E.04252
G1 X209.806 Y158.488 E.03723
G1 X208.839 Y158.66 E.03659
G1 X208.202 Y158.833 E.02458
G1 X207.578 Y159.057 E.02471
G1 X206.758 Y159.441 E.03373
G1 X205.706 Y160.01 E.04455
G1 X204.507 Y160.622 E.05013
G1 X203.275 Y161.178 E.05034
G1 X201.686 Y161.8 E.06359
G1 X200.056 Y162.344 E.06397
G1 X198.882 Y162.666 E.04536
G1 X197.873 Y162.856 E.03823
G1 X197.331 Y162.926 E.02037
G1 X196.623 Y162.967 E.02642
G1 X195.024 Y162.95 E.05957
G1 X194.873 Y163.025 E.00627
G1 X194.795 Y163.234 E.00828
G1 X194.821 Y163.406 E.00649
G1 X195.213 Y164.04 E.02776
G1 X195.508 Y164.631 E.02462
G1 X195.791 Y165.462 E.03269
G1 X195.93 Y166.201 E.028
G1 X195.933 Y166.628 E.01591
G1 X195.694 Y166.303 E.01502
G1 X195.253 Y165.763 E.02599
G1 X194.721 Y165.226 E.02815
G1 X194.284 Y164.881 E.02074
G1 X193.764 Y164.555 E.02286
G1 X193.188 Y164.273 E.02389
G1 X191.973 Y163.804 E.0485
G1 X190.875 Y163.444 E.04305
G1 X190.297 Y163.3 E.0222
G1 X189.728 Y163.189 E.02157
G1 X189.134 Y163.105 E.02235
G1 X188.536 Y163.053 E.02233
G1 X187.941 Y163.033 E.02221
G1 X187.344 Y163.046 E.02222
G1 X186.747 Y163.092 E.02229
G1 X186.151 Y163.169 E.02241
G1 X185.553 Y163.278 E.02263
G1 X184.951 Y163.419 E.02304
G1 X183.879 Y163.75 E.04176
G1 X183.182 Y164.033 E.02803
G1 X182.297 Y164.481 E.03695
G1 X181.402 Y165.021 E.03893
G1 X181.575 Y164.644 E.01546
G1 X181.92 Y164.099 E.02401
G1 X182.22 Y163.712 E.01824
G1 X182.703 Y163.215 E.0258
G1 X183.688 Y162.457 E.04632
G1 X183.772 Y162.326 E.00577
G1 X183.739 Y162.149 E.00673
G1 X183.445 Y161.936 E.0135
G1 X182.715 Y161.704 E.02852
G1 X182.02 Y161.43 E.02782
G1 X180.057 Y160.538 E.08032
G1 X178.814 Y159.996 E.0505
G1 X178.058 Y159.725 E.02991
G1 X177.277 Y159.525 E.03002
G1 X176.671 Y159.435 E.02283
G1 X176.141 Y159.405 E.01978
G1 X175.336 Y159.4 E.02996
G1 X174.218 Y159.436 E.04167
G1 X173.465 Y159.564 E.02844
G1 X172.857 Y159.819 E.02456
G1 X172.661 Y159.874 E.00759
G1 X172.713 Y159.677 E.00761
G1 X173.105 Y158.949 E.03078
G1 X173.4 Y158.507 E.01979
G1 X173.734 Y158.113 E.01926
G1 X174.113 Y157.742 E.01974
G1 X174.693 Y157.289 E.02742
G1 X175.165 Y156.995 E.02071
G1 X175.338 Y156.817 E.00924
G1 X175.391 Y156.644 E.00673
G1 X175.311 Y156.494 E.00632
G1 X174.688 Y155.97 E.03032
G1 X174.12 Y155.439 E.02894
G1 X173.677 Y154.982 E.02374
G1 X173.105 Y154.457 E.0289
G1 X172.573 Y154.037 E.02527
G1 X172.003 Y153.659 E.02546
G1 X171.101 Y153.178 E.03809
G1 X170.459 Y152.913 E.02586
G1 X169.767 Y152.688 E.02712
G1 X169.4 Y152.627 E.01382
G1 X168.932 Y152.69 E.01761
G1 X169.278 Y152.35 E.01808
G1 X169.726 Y152.035 E.02042
G1 X170.273 Y151.78 E.02245
G1 X170.769 Y151.582 E.01991
G1 X171.361 Y151.405 E.02301
G1 X171.903 Y151.268 E.0208
G1 X172 Y151.135 E.00613
G1 X171.986 Y150.981 E.00577
G1 X171.766 Y150.53 E.0187
G1 X170.382 Y148.108 E.10389
G1 X169.704 Y146.969 E.04938
G1 X169.268 Y146.428 E.02588
G1 X168.863 Y146.122 E.0189
G1 X168.983 Y146.017 E.00593
G1 X169.343 Y145.908 E.014
G1 X169.952 Y145.872 E.02271
G1 X170.461 Y145.883 E.01897
G1 X170.632 Y145.811 E.00692
G1 X170.759 Y145.635 E.00809
G1 X170.743 Y145.479 E.00581
G1 X169.969 Y143.865 E.06669
G1 X169.683 Y143.333 E.02251
G1 X169.361 Y142.798 E.02325
G1 X169.008 Y142.291 E.023
G1 X168.36 Y141.566 E.03621
G1 X167.956 Y141.226 E.01966
G1 X167.877 Y141.097 E.00564
G1 X168.706 Y141.343 E.0322
G1 X169.542 Y141.693 E.03376
G1 X170.086 Y141.982 E.02294
G1 X170.277 Y142.029 E.00732
G1 X170.506 Y141.953 E.009
G1 X170.613 Y141.812 E.0066
G1 X170.551 Y141.487 E.01231
G1 X170.285 Y141.03 E.0197
G1 X169.975 Y140.55 E.02127
G1 X169.523 Y139.93 E.02857
G1 X168.439 Y138.65 E.06251
G1 X168.668 Y138.671 E.00857
G1 X170.229 Y139.18 E.06118
G1 X171.286 Y139.602 E.04239
G1 X171.664 Y139.671 E.01429
G1 X171.799 Y139.583 E.00603
G1 X171.905 Y139.203 E.01468
G1 X171.87 Y138.406 E.0297
G1 X171.783 Y137.887 E.01962
G1 X171.6 Y137.073 E.03108
G1 X171.279 Y136.16 E.03605
G1 X171.53 Y136.215 E.00956
G1 X171.978 Y136.403 E.01809
G1 X172.656 Y136.783 E.02896
G1 X173.585 Y137.457 E.04276
G1 X173.769 Y137.498 E.00701
G1 X173.91 Y137.404 E.00633
G1 X174.03 Y137.048 E.01401
G1 X173.98 Y136.299 E.02796
G1 X173.887 Y135.691 E.0229
G1 X173.711 Y135.142 E.02148
G1 X173.441 Y134.671 E.0202
G1 X173.528 Y134.655 E.00331
G1 X174.423 Y135.1 E.0372
G1 X174.715 Y135.13 E.01096
G1 X174.834 Y135.042 E.00551
G1 X175.203 Y134.508 E.02416
G1 X175.653 Y134.02 E.02474
G1 X176.17 Y133.623 E.02427
G1 X176.853 Y133.235 E.02926
G1 X177.341 Y133.001 E.02016
G1 X177.448 Y132.86 E.0066
G1 X177.382 Y132.435 E.01604
G1 X177.337 Y131.875 E.02092
G1 X177.491 Y131.253 E.02386
G1 X177.867 Y130.611 E.02769
G1 X178.15 Y130.29 E.01596
G1 X178.63 Y129.856 E.02407
G1 X179.054 Y129.545 E.0196
G1 X179.5 Y129.273 E.01947
G1 X180.481 Y128.835 E.03999
G1 X181.179 Y128.624 E.02717
G1 X181.726 Y128.507 E.02085
G1 X182.473 Y128.392 E.02815
G1 X186.131 Y127.988 E.13706
G1 X186.366 Y127.794 E.01134
G1 X186.389 Y127.673 E.0046
G1 X186.829 Y127.538 F9000
;TYPE:Inner wall
G1 F3000
G1 X186.79 Y127.376 E.00618
G1 X186.469 Y126.946 E.01998
G1 X185.794 Y126.213 E.03712
G1 X184.868 Y125.101 E.05392
G1 X184.418 Y124.486 E.02835
G1 X183.802 Y123.513 E.0429
G1 X183.379 Y123.197 E.01967
G1 X183.149 Y122.868 E.01496
G1 X182.816 Y122.243 E.02636
G1 X182.694 Y121.859 E.01502
G1 X182.815 Y121.63 E.00963
