; HEADER_BLOCK_START
; generated by OrcaSlicer 1.7.0-beta on 2023-09-19 at 12:36:37
; total layer number: 3
; HEADER_BLOCK_END

; THUMBNAIL_BLOCK_START
; THUMBNAIL_BLOCK_END

; external perimeters extrusion width = 0.40mm
; perimeters extrusion width = 0.45mm
; infill extrusion width = 0.45mm
; solid infill extrusion width = 0.40mm
; top infill extrusion width = 0.40mm
; first layer extrusion width = 0.50mm

; external perimeters extrusion width = 0.40mm
; perimeters extrusion width = 0.45mm
; infill extrusion width = 0.45mm
; solid infill extrusion width = 0.40mm
; top infill extrusion width = 0.40mm
; first layer extrusion width = 0.50mm

; external perimeters extrusion width = 0.40mm
; perimeters extrusion width = 0.45mm
; infill extrusion width = 0.45mm
; solid infill extrusion width = 0.40mm
; top infill extrusion width = 0.40mm
; first layer extrusion width = 0.50mm

; external perimeters extrusion width = 0.40mm
; perimeters extrusion width = 0.45mm
; infill extrusion width = 0.45mm
; solid infill extrusion width = 0.40mm
; top infill extrusion width = 0.40mm
; first layer extrusion width = 0.50mm

; EXECUTABLE_BLOCK_START
EXCLUDE_OBJECT_DEFINE NAME=denjihair.stl_id_0_copy_0 CENTER=180.675,172.699 POLYGON=[[157.449,164.324],[157.774,161.768],[160.303,159.229],[162.616,157.951],[168.019,157.346],[192.194,157.817],[198.934,158.17],[200.84,159.476],[200.867,159.498],[202.656,161.802],[203.895,166.004],[203.897,166.012],[203.899,166.02],[203.9,166.026],[203.901,166.032],[203.902,166.038],[203.902,166.043],[203.902,166.047],[203.902,166.052],[203.902,166.056],[202.547,173.774],[200.072,180.786],[183.955,188.05],[183.929,188.052],[183.906,188.052],[170.825,186.708],[170.796,186.701],[170.765,186.688],[161.785,181.895],[158.153,174.9],[157.449,164.324]]
EXCLUDE_OBJECT_DEFINE NAME=denjihair.stl_id_1_copy_0 CENTER=180.675,137.301 POLYGON=[[157.449,128.926],[157.774,126.37],[160.303,123.831],[162.616,122.553],[168.019,121.948],[192.194,122.419],[198.934,122.772],[200.84,124.078],[200.867,124.1],[202.656,126.404],[203.895,130.606],[203.897,130.614],[203.899,130.622],[203.9,130.628],[203.901,130.634],[203.902,130.64],[203.902,130.645],[203.902,130.649],[203.902,130.654],[203.902,130.658],[202.547,138.376],[200.072,145.388],[183.955,152.652],[183.929,152.654],[183.906,152.654],[170.825,151.31],[170.796,151.303],[170.765,151.29],[161.785,146.497],[158.153,139.502],[157.449,128.926]]
EXCLUDE_OBJECT_DEFINE NAME=denjihair.stl_id_2_copy_0 CENTER=129.325,137.301 POLYGON=[[106.098,128.926],[106.423,126.37],[108.953,123.831],[111.266,122.553],[116.668,121.948],[140.844,122.419],[147.583,122.772],[149.49,124.078],[149.516,124.1],[151.305,126.404],[152.544,130.606],[152.547,130.614],[152.548,130.622],[152.55,130.628],[152.551,130.634],[152.551,130.64],[152.552,130.645],[152.552,130.649],[152.552,130.654],[152.552,130.658],[151.197,138.376],[148.721,145.388],[132.604,152.652],[132.579,152.654],[132.556,152.654],[119.475,151.31],[119.445,151.303],[119.414,151.29],[110.434,146.497],[106.803,139.502],[106.098,128.926]]
EXCLUDE_OBJECT_DEFINE NAME=denjihair.stl_id_3_copy_0 CENTER=129.325,172.699 POLYGON=[[106.098,164.324],[106.423,161.768],[108.953,159.229],[111.266,157.951],[116.668,157.346],[140.844,157.817],[147.583,158.17],[149.49,159.476],[149.516,159.498],[151.305,161.802],[152.544,166.004],[152.547,166.012],[152.548,166.02],[152.55,166.026],[152.551,166.032],[152.551,166.038],[152.552,166.043],[152.552,166.047],[152.552,166.052],[152.552,166.056],[151.197,173.774],[148.721,180.786],[132.604,188.05],[132.579,188.052],[132.556,188.052],[119.475,186.708],[119.445,186.701],[119.414,186.688],[110.434,181.895],[106.803,174.9],[106.098,164.324]]
M73 P0 R13
;TYPE:Custom
START_PRINT T_BED=60 T_EXTRUDER=220
G90
G21
M83 ; use relative distances for extrusion
; filament start gcode
PRESSURE_ADVANCE_SELECT FILAMENT=PLA
M106 S0
;LAYER_CHANGE
;Z:0.2
;HEIGHT:0.2
;BEFORE_LAYER_CHANGE
;0.2
G92 E0

;_SET_FAN_SPEED_CHANGING_LAYER
SET_VELOCITY_LIMIT ACCEL=1500 ACCEL_TO_DECEL=750
G1 E-.8 F3000
G1 Z.4 F9000
G1 X118.755 Y189.532
G1 Z.4
G1 Z.2
G1 E.8 F1800
;TYPE:Skirt
;WIDTH:0.5
G1 F3000
G1 X118.042 Y189.259 E.02844
G1 X109.062 Y184.466 E.37912
G1 X107.848 Y183.238 E.06433
G1 X104.216 Y176.243 E.29356
G1 X103.895 Y175.094 E.04444
G1 X103.184 Y164.324 E.40203
G1 X103.184 Y128.926 E1.31844
G1 X103.532 Y126.002 E.10967
G1 X104.359 Y124.313 E.07003
G1 X106.888 Y121.774 E.13349
G1 X107.543 Y121.28 E.03056
G1 X109.856 Y120.002 E.09842
G1 X110.941 Y119.657 E.04241
G1 X116.344 Y119.052 E.20248
G1 X168.075 Y119.034 E1.92681
G1 X192.251 Y119.505 E.90062
G1 X199.086 Y119.862 E.25493
G1 X200.581 Y120.368 E.05877
G1 X202.7 Y121.834 E.09598
G1 X203.169 Y122.313 E.02496
G1 X204.957 Y124.616 E.10863
G1 X205.451 Y125.58 E.04032
G1 X206.694 Y129.798 E.16379
G1 X206.817 Y130.658 E.03235
G1 X206.817 Y166.056 E1.31844
G1 X205.295 Y174.744 E.32852
G1 X202.82 Y181.756 E.27696
G1 X201.963 Y183.003 E.05638
G1 X201.269 Y183.442 E.03056
G1 X185.152 Y190.706 E.65845
G1 X183.929 Y190.966 E.04657
G1 X132.258 Y190.951 E1.92455
M73 P1 R13
G1 X118.795 Y189.537 E.50421
G1 X118.863 Y189.088 F9000
G1 F3000
G1 X118.258 Y188.855 E.02418
G1 X109.278 Y184.063 E.37912
G1 X108.254 Y183.028 E.05424
G1 X104.622 Y176.033 E.29356
G1 X104.351 Y175.064 E.03747
G1 X103.641 Y164.324 E.40089
G1 X103.641 Y128.926 E1.31844
G1 X103.986 Y126.06 E.10752
G1 X104.683 Y124.636 E.05905
G1 X107.212 Y122.097 E.13349
G1 X107.764 Y121.68 E.02576
G1 X110.077 Y120.402 E.09842
G1 X110.992 Y120.111 E.03575
G1 X116.394 Y119.506 E.20248
G1 X168.066 Y119.491 E1.92458
G1 X192.242 Y119.962 E.90062
G1 X199.062 Y120.318 E.25437
G1 X200.322 Y120.745 E.04955
G1 X202.408 Y122.186 E.09443
G1 X202.808 Y122.593 E.02125
G1 X204.596 Y124.897 E.10863
G1 X205.013 Y125.709 E.034
G1 X206.256 Y129.927 E.16379
G1 X206.36 Y130.658 E.02749
G1 X206.36 Y166.056 E1.31844
G1 X204.967 Y174.199 E.30769
G1 X202.389 Y181.604 E.29204
G1 X201.082 Y183.026 E.07195
G1 X184.965 Y190.29 E.65845
G1 X183.929 Y190.509 E.03942
G1 X132.305 Y190.496 E1.92281
G1 X118.903 Y189.092 E.50189
; printing object denjihair.stl id:0 copy 0
G1 E-.8
EXCLUDE_OBJECT_START NAME=denjihair.stl_id_0_copy_0
G1 Z.6 F9000
G1 X168.019 Y157.392 Z.6
G1 Z.2
G1 E.8 F1800
;TYPE:Outer wall
;WIDTH:0.281457
G1 F3000
G1 X167.829 Y157.654 E.0063
;WIDTH:0.323883
G1 X167.639 Y157.917 E.00742
G1 E-.8
G1 Z.6 F9000
G1 X168.826 Y164.859 Z.6
G1 Z.2
M73 P2 R13
G1 E.8 F1800
;WIDTH:0.5
G1 F3000
G1 X168.926 Y164.699 E.00701
G1 X168.954 Y164.521 E.00674
G1 X168.533 Y162.15 E.08968
G1 X168.754 Y162.078 E.00867
G1 X168.959 Y162.473 E.01657
G1 X169.35 Y163.127 E.0284
G1 X169.64 Y163.559 E.01937
G1 X170.105 Y164.174 E.02871
G1 X170.604 Y164.756 E.02856
G1 X171.066 Y165.24 E.02492
G1 X171.198 Y166.695 E.05442
G1 X171.326 Y167.192 E.01909
G1 X171.4 Y167.326 E.00571
G1 X171.53 Y167.436 E.00633
G1 X171.727 Y167.491 E.00761
G1 X171.977 Y167.452 E.00942
G1 X172.166 Y167.306 E.0089
G1 X172.261 Y167.094 E.00864
G1 X172.256 Y166.865 E.00853
G1 X172.164 Y166.393 E.01792
G1 X172.116 Y166.011 E.01435
G1 X172.092 Y165.626 E.01435
G1 X172.094 Y165.24 E.01439
G1 X172.168 Y164.464 E.02905
G1 X172.28 Y163.872 E.02242
G1 X172.352 Y163.589 E.01087
G1 X172.534 Y163.02 E.02225
G1 X172.639 Y162.749 E.01085
G1 X172.891 Y162.206 E.02227
G1 X173.305 Y161.476 E.03129
G1 X173.523 Y162.591 E.04233
G1 X173.736 Y163.312 E.02797
G1 X173.948 Y163.868 E.02217
G1 X174.189 Y164.408 E.02202
G1 X174.454 Y164.937 E.02204
G1 X175.049 Y165.996 E.04524
G1 X175.178 Y166.157 E.0077
G1 X175.442 Y166.28 E.01084
G1 X175.659 Y166.283 E.00812
G1 X175.823 Y166.204 E.00678
G1 X175.96 Y166.048 E.00774
G1 X176.021 Y165.753 E.0112
G1 X175.917 Y164.67 E.04052
G1 X175.886 Y163.806 E.0322
G1 X175.9 Y163.388 E.0156
G1 X175.988 Y162.543 E.03164
G1 X176.15 Y161.709 E.03163
G1 X176.385 Y160.883 E.03198
G1 X176.718 Y159.984 E.03572
G1 X178.162 Y161.484 E.07757
G1 X178.293 Y161.582 E.00608
G1 X178.455 Y161.643 E.00645
G1 X178.627 Y161.652 E.00642
G1 X178.791 Y161.611 E.0063
G1 X178.938 Y161.522 E.00638
G1 X179.061 Y161.381 E.00699
G1 X179.162 Y161.054 E.01273
G1 X179.371 Y159.055 E.07486
G1 X179.936 Y159.57 E.02846
G1 X180.718 Y160.367 E.04161
G1 X181.205 Y160.92 E.02742
G1 X181.668 Y161.49 E.02735
G1 X182.603 Y162.773 E.05913
G1 X182.803 Y162.913 E.00909
G1 X183.057 Y162.942 E.00953
G1 X183.286 Y162.858 E.00908
G1 X183.426 Y162.72 E.00731
G1 X183.565 Y162.344 E.01492
G1 X183.738 Y161.437 E.03441
G1 X183.864 Y160.633 E.0303
G1 X183.956 Y159.827 E.03023
G1 X183.986 Y159.321 E.01885
G1 X184.418 Y159.889 E.02657
G1 X184.912 Y160.66 E.0341
G1 X185.374 Y161.49 E.03537
G1 X185.985 Y162.769 E.05279
G1 X186.338 Y163.638 E.03495
G1 X186.797 Y164.981 E.05287
G1 X186.991 Y165.657 E.0262
G1 X187.208 Y166.556 E.03445
G1 X187.388 Y167.462 E.03438
G1 X187.546 Y168.402 E.0355
G1 X187.6 Y168.533 E.00528
G1 X187.72 Y168.663 E.0066
G1 X187.953 Y168.744 E.00919
G1 X188.159 Y168.712 E.00776
G1 X188.316 Y168.621 E.00674
G1 X188.465 Y168.466 E.00801
G1 X188.508 Y168.281 E.00708
G1 X188.505 Y168.054 E.00845
G1 X188.454 Y167.689 E.01374
G1 X188.334 Y167.091 E.02274
G1 X188.331 Y166.946 E.00537
G1 X188.356 Y166.803 E.00543
G1 X188.923 Y165.422 E.05557
G1 X189.337 Y164.223 E.04725
G1 X189.672 Y162.999 E.04729
G1 X189.894 Y163.012 E.00826
G1 X190.019 Y163.818 E.03041
G1 X190.133 Y164.99 E.04386
G1 X190.248 Y167.219 E.08311
G1 X190.299 Y167.35 E.00525
G1 X190.432 Y167.491 E.00722
G1 X190.7 Y167.586 E.01058
G1 X191.002 Y167.506 E.01163
G1 X191.187 Y167.29 E.01058
G1 X191.225 Y167.066 E.00847
G1 X191.234 Y166.758 E.01147
G1 X191.104 Y164.528 E.08319
G1 X191.11 Y164.386 E.00531
G1 X191.154 Y164.204 E.00697
G1 X191.403 Y163.563 E.02561
G1 X191.598 Y162.982 E.02281
G1 X191.766 Y162.393 E.02282
G1 X191.968 Y161.505 E.03392
G1 X192.073 Y160.907 E.02262
G1 X192.202 Y159.969 E.03527
G1 X192.288 Y159.015 E.03567
G1 X192.497 Y158.981 E.0079
G1 X192.648 Y159.319 E.01379
G1 X192.922 Y160.047 E.02898
G1 X193.15 Y160.789 E.02891
G1 X193.331 Y161.543 E.02889
G1 X193.559 Y162.936 E.05255
G1 X193.685 Y163.181 E.01026
G1 X193.923 Y163.326 E.01037
G1 X194.112 Y163.331 E.00705
G1 X194.3 Y163.266 E.00743
G1 X194.448 Y163.128 E.0075
G1 X194.522 Y162.943 E.00745
G1 X194.522 Y162.59 E.01315
G1 X194.387 Y161.716 E.03291
G1 X194.383 Y161.529 E.007
G1 X194.411 Y161.384 E.0055
G1 X194.651 Y160.613 E.03007
G1 X194.858 Y159.72 E.03414
G1 X195.103 Y159.835 E.01005
G1 X195.36 Y159.835 E.00957
G1 X195.554 Y159.731 E.0082
G1 X195.817 Y159.405 E.01561
G1 X196.002 Y159.474 E.00735
G1 X195.94 Y161.404 E.07192
G1 X195.96 Y161.61 E.0077
G1 X196.03 Y161.781 E.0069
G1 X196.212 Y161.929 E.00874
G1 X196.44 Y161.978 E.0087
G1 X196.695 Y161.904 E.00987
G1 X196.882 Y161.686 E.0107
G1 X196.931 Y161.303 E.01437
G1 X196.958 Y160.83 E.01767
G1 X197.017 Y160.573 E.0098
G1 X197.151 Y160.252 E.01297
G1 X197.462 Y159.754 E.02186
G1 X197.698 Y159.454 E.01422
G1 X198.112 Y159.036 E.0219
G1 X198.548 Y158.695 E.02062
G1 X198.433 Y159.277 E.02211
G1 X198.385 Y159.8 E.01953
G1 X198.326 Y160.95 E.0429
G1 X198.344 Y161.54 E.02199
G1 X198.416 Y162.286 E.02792
G1 X198.537 Y162.699 E.016
G1 X198.648 Y162.841 E.00673
G1 X198.839 Y162.925 E.00775
G1 X199.047 Y162.926 E.00778
G1 X199.237 Y162.86 E.00748
G1 X199.383 Y162.715 E.00767
G1 X199.437 Y162.55 E.00647
G1 X199.346 Y160.637 E.07132
G1 X199.401 Y160.462 E.00683
G1 X199.552 Y160.309 E.00804
G1 X199.857 Y160.115 E.01346
G1 X200.208 Y159.92 E.01494
G1 X200.604 Y159.748 E.01609
G1 X200.282 Y161.148 E.0535
G1 X200.225 Y161.327 E.00699
G1 X200.155 Y161.483 E.00637
G1 X199.905 Y161.828 E.01587
G1 X199.942 Y162.114 E.01075
G1 X200.014 Y162.312 E.00786
G1 X200.252 Y162.442 E.01011
G1 X200.471 Y162.459 E.00817
G1 X201.388 Y162.099 E.03668
G1 X201.649 Y162.03 E.01006
G1 X202.287 Y161.919 E.02413
G1 X202.013 Y162.359 E.01931
G1 X201.697 Y162.945 E.0248
G1 X201.438 Y163.548 E.02444
G1 X201.328 Y163.863 E.01243
G1 X201.157 Y164.493 E.02431
G1 X201.046 Y165.145 E.02464
G1 X200.994 Y165.95 E.03002
G1 X201.048 Y166.294 E.01298
G1 X201.194 Y166.483 E.0089
G1 X201.339 Y166.555 E.00603
G1 X201.566 Y166.577 E.00848
G1 X202.655 Y166.323 E.04164
G1 X203.457 Y166.201 E.03024
G1 X203.017 Y166.732 E.0257
G1 X202.432 Y167.545 E.0373
G1 X201.907 Y168.393 E.03714
G1 X201.454 Y169.269 E.03675
G1 X201.028 Y170.279 E.04082
G1 X200.789 Y170.972 E.02729
G1 X200.507 Y172.024 E.04058
G1 X200.314 Y173.036 E.03836
G1 X200.276 Y173.107 E.003
G1 X200.126 Y173.259 E.00797
G1 X200.069 Y173.435 E.0069
G1 X200.099 Y173.634 E.00748
G1 X200.205 Y173.806 E.00752
G1 X200.34 Y173.904 E.00623
G1 X200.518 Y173.955 E.00689
G1 X201.413 Y173.888 E.03341
G1 X201.608 Y173.888 E.00728
G1 X201.67 Y174.076 E.00739
G1 X201.287 Y174.36 E.01777
G1 X200.769 Y174.803 E.02538
G1 X197.958 Y177.47 E.14434
G1 X197.125 Y178.402 E.04654
G1 X196.961 Y178.613 E.00996
G1 X196.855 Y178.857 E.00989
G1 X196.936 Y179.128 E.01052
G1 X197.154 Y179.279 E.00991
G1 X198.188 Y179.664 E.0411
G1 X198.579 Y179.855 E.0162
G1 X198.951 Y180.073 E.01606
G1 X199.344 Y180.358 E.01808
G1 X199.284 Y180.547 E.00737
G1 X198.665 Y180.555 E.02307
G1 X197.899 Y180.633 E.02867
G1 X197.15 Y180.768 E.02836
G1 X196.418 Y180.961 E.02818
G1 X196.054 Y181.079 E.01424
G1 X195.695 Y181.212 E.01428
G1 X194.994 Y181.519 E.02848
G1 X192.827 Y182.671 E.09139
G1 X192.306 Y182.919 E.02153
G1 X191.236 Y183.384 E.04344
G1 X190.148 Y183.806 E.04347
G1 X189.042 Y184.188 E.04358
G1 X187.921 Y184.536 E.0437
G1 X187.092 Y184.768 E.03208
G1 X186.561 Y184.885 E.02027
G1 X186.027 Y184.972 E.02014
G1 X185.49 Y185.027 E.02009
G1 X184.953 Y185.051 E.02001
G1 X184.038 Y185.017 E.03411
G1 X183.467 Y184.946 E.02145
G1 X182.86 Y184.818 E.02309
G1 X182.597 Y184.843 E.00985
G1 X182.419 Y184.97 E.00815
G1 X182.31 Y185.147 E.00775
G1 X182.269 Y185.335 E.00717
G1 X182.301 Y185.523 E.00709
G1 X182.385 Y185.673 E.00641
G1 X182.864 Y186.258 E.02816
G1 X183.273 Y186.904 E.0285
G1 X183.105 Y187.06 E.00852
G1 X182.974 Y186.961 E.00612
G1 X182.417 Y186.631 E.0241
G1 X181.83 Y186.356 E.02414
G1 X180.466 Y185.835 E.05439
G1 X179.503 Y185.528 E.03765
G1 X178.5 Y185.299 E.0383
G1 X177.491 Y185.159 E.03795
G1 X176.476 Y185.107 E.03787
G1 X175.541 Y185.14 E.03483
G1 X174.94 Y185.197 E.02251
G1 X173.913 Y185.366 E.03876
G1 X173.145 Y185.554 E.02943
G1 X172.326 Y185.804 E.03191
G1 X172.229 Y185.579 E.00913
G1 X172.654 Y185.335 E.01826
G1 X173.076 Y185.135 E.01743
G1 X173.231 Y185.031 E.00694
G1 X173.337 Y184.9 E.00626
G1 X173.391 Y184.723 E.0069
G1 X173.348 Y184.495 E.00863
G1 X173.231 Y184.343 E.00715
G1 X173 Y184.214 E.00984
G1 X172.465 Y184.107 E.02033
G1 X172.087 Y184.009 E.01456
G1 X171.338 Y183.761 E.02939
G1 X170.417 Y183.38 E.0371
G1 X167.702 Y182.154 E.11098
G1 X167.006 Y181.896 E.02764
G1 X166.287 Y181.692 E.02782
G1 X165.755 Y181.587 E.02019
G1 X165.068 Y181.497 E.02581
G1 X164.042 Y181.448 E.03829
G1 X163.011 Y181.495 E.03844
G1 X162.191 Y181.605 E.03079
G1 X162.51 Y181.186 E.01963
G1 X162.815 Y180.85 E.01689
G1 X163.149 Y180.541 E.01694
G1 X163.514 Y180.258 E.01722
G1 X163.915 Y179.998 E.01778
G1 X164.561 Y179.638 E.02756
G1 X164.708 Y179.44 E.00918
G1 X164.75 Y179.262 E.00683
G1 X164.736 Y179.09 E.0064
G1 X164.668 Y178.928 E.00654
G1 X164.548 Y178.792 E.00677
G1 X164.006 Y178.472 E.02345
G1 X163.706 Y178.244 E.01403
G1 X163.422 Y177.982 E.0144
G1 X162.372 Y176.929 E.05539
G1 X161.867 Y176.494 E.02482
G1 X161.334 Y176.098 E.02475
G1 X160.77 Y175.74 E.02486
G1 X159.881 Y175.28 E.03728
G1 X159.156 Y174.983 E.02918
G1 X158.726 Y174.834 E.01694
G1 X159.158 Y174.625 E.01787
G1 X159.784 Y174.396 E.02481
G1 X160.16 Y174.311 E.01439
G1 X160.41 Y174.286 E.00934
G1 X160.894 Y174.286 E.01803
G1 X161.119 Y174.154 E.0097
G1 X161.224 Y173.984 E.00744
G1 X161.255 Y173.82 E.00621
G1 X161.192 Y173.609 E.00824
G1 X158.777 Y169.47 E.17846
G1 X158.387 Y168.887 E.02614
G1 X158.78 Y168.956 E.01486
G1 X159.307 Y169.125 E.02062
G1 X159.467 Y169.149 E.00602
G1 X159.651 Y169.107 E.00705
G1 X159.858 Y168.969 E.00923
G1 X159.992 Y168.754 E.00945
G1 X160.016 Y168.552 E.00758
G1 X159.913 Y168.238 E.01232
G1 X158.783 Y165.913 E.09629
