; generated by SuperSlicer 2.5.59 on 2023-01-28 at 04:30:19 UTC


;
;

;
;
; 

; external perimeters extrusion width = 0.40mm
; perimeters extrusion width = 0.46mm
; infill extrusion width = 0.64mm
; solid infill extrusion width = 0.56mm
; top infill extrusion width = 0.40mm
; support material extrusion width = 0.46mm
; first layer extrusion width = 0.50mm

; object:{"name":"drawer_housing_2_F","id":"drawer_housing_2_F.stl id:0 copy 0","object_center":[152.500000,150.000000,0.000000],"boundingbox_center":[152.500000,150.000000,61.599998],"boundingbox_size":[144.899994,45.400002,123.199997]}
; plater:{"center":[152.500000,150.000000,0.000000],"boundingbox_center":[152.500000,150.000000,61.599998],"boundingbox_size":[144.899994,45.400002,123.199997]}

M73 P0 R287


; Pre-Processed for Cancel-Object support by preprocess_cancellation v0.2.0
; 1 known objects
EXCLUDE_OBJECT_DEFINE NAME=drawer_housing_2_F_stl_id_0_copy_0 CENTER=155.223,147.927 POLYGON=[[80.2,127.45],[80.2,172.55],[224.8,172.55],[224.8,127.45]]
;TYPE:Custom
START_PRINT T_BED=60 T_EXTRUDER=200
M107
G21 ; set units to millimeters
G90 ; use absolute coordinates
M82 ; use absolute distances for extrusion
G92 E0
; Filament gcode

    PRESSURE_ADVANCE_SELECT FILAMENT=PLA
;_TOOLCHANGE 0
M104 S200 ; set temperature
M109 S200 ; set temperature and wait for it to be reached
M190 S60 ; set bed temperature and wait for it to be reached
M107
;LAYER_CHANGE
;Z:0.2
;HEIGHT:0.2
G1 Z0.2 F9000
M73 P0 R287
G1 E-0.8 F3000
M204 S1000
G1 X77.929 Y124.421 F9000
G1 E0 F1800
;TYPE:Skirt
;WIDTH:0.52
G1 X76.829 Y125.734 E0.06793
G1 X76.434 Y127.4 E0.13586
G1 X76.434 Y172.6 E1.92892
G1 X77.171 Y174.821 E2.02174
G1 X78.484 Y175.921 E2.08968
G1 X80.15 Y176.316 E2.15761
G1 X224.85 Y176.316 E7.89776
G1 X227.071 Y175.579 E7.99059
G1 X228.171 Y174.266 E8.05852
G1 X228.566 Y172.6 E8.12645
G1 X228.566 Y127.4 E9.9195
G1 X227.829 Y125.179 E10.01233
G1 X226.516 Y124.079 E10.08026
G1 X224.85 Y123.684 E10.14819
G1 X80.15 Y123.684 E15.88835
G1 X77.929 Y124.421 E15.98117
G1 X78.307 Y124.771 F9000
G1 F1800
G1 X77.305 Y125.852 E16.03963
G1 X76.911 Y127.4 E16.10298
G1 X76.911 Y172.6 E17.89604
G1 X77.431 Y174.359 E17.96879
G1 X78.602 Y175.445 E18.03215
G1 X80.15 Y175.839 E18.09551
G1 X224.85 Y175.839 E23.83566
G1 X226.609 Y175.319 E23.90842
G1 X227.695 Y174.148 E23.97178
G1 X228.089 Y172.6 E24.03513
G1 X228.089 Y127.4 E25.82819
G1 X227.569 Y125.641 E25.90094
G1 X226.398 Y124.555 E25.9643
G1 X224.85 Y124.161 E26.02766
G1 X80.15 Y124.161 E31.76781
G1 X78.391 Y124.681 E31.84057
G1 X78.307 Y124.771 E31.84547
G92 E0
G1 E-0.8 F3000
; printing object drawer_housing_2_F.stl id:0 copy 0
EXCLUDE_OBJECT_START NAME=drawer_housing_2_F_stl_id_0_copy_0
G1 X216.614 Y155.624 F9000
G1 E0 F1800
;TYPE:Internal perimeter
;WIDTH:0.5
G1 X216.614 Y144.376 E0.42747
G1 X207.874 Y135.636 E0.89726
G1 X97.126 Y135.636 E5.10636
G1 X88.386 Y144.376 E5.57615
G1 X88.386 Y155.624 E6.00362
G1 X97.126 Y164.364 E6.47342
G1 X207.874 Y164.364 E10.68251
G1 X216.614 Y155.624 E11.15231
G1 X216.157 Y155.245 F9000
G1 F1800
G1 X216.157 Y144.566 E11.55819
G1 X207.684 Y136.093 E12.01359
G1 X97.316 Y136.093 E16.2083
G1 X88.843 Y144.566 E16.6637
G1 X88.843 Y155.434 E17.07678
G1 X97.316 Y163.907 E17.53218
G1 X207.684 Y163.907 E21.72688
G1 X216.157 Y155.434 E22.18229
G1 X216.157 Y155.245 E22.18948
G1 X215.7 Y155.245 F9000
;TYPE:External perimeter
G1 F1800
G1 X215.7 Y144.755 E22.58817
G1 X207.495 Y136.55 E23.02918
G1 X97.505 Y136.55 E27.20949
M73 P0 R286
G1 X89.3 Y144.755 E27.65051
G1 X89.3 Y155.245 E28.04919
G1 X97.505 Y163.45 E28.4902
G1 X207.495 Y163.45 E32.67052
G1 X215.7 Y155.245 E33.11153
;WIPE_START
M204 S3000
G1 X216.086 Y155.141 F9000
;WIPE_END
G92 E0
G1 E-0.8 F3000
M204 S1000
G1 X223.686 Y171.436 F9000
G1 E0 F1800
;TYPE:Internal perimeter
G1 X81.314 Y171.436 E5.41102
G1 X81.314 Y128.564 E7.04042
G1 X223.686 Y128.564 E12.45144
G1 X223.686 Y171.436 E14.08084
G1 X224.143 Y171.893 F9000
G1 F1800
G1 X80.857 Y171.893 E19.52661
G1 X80.857 Y128.107 E21.19075
G1 X224.143 Y128.107 E26.63652
G1 X224.143 Y171.893 E28.30066
G1 X224.6 Y172.35 F9000
;TYPE:External perimeter
G1 F1800
G1 X80.4 Y172.35 E33.78117
G1 X80.4 Y127.65 E35.48005
G1 X224.6 Y127.65 E40.96056
G1 X224.6 Y172.35 E42.65944
;WIPE_START
M204 S3000
G1 X224.254 Y172.15 F9000
;WIPE_END
G92 E0
G1 E-0.8 F3000
M204 S1000
G1 X223.617 Y129.557 F9000
G1 E0 F1800
;TYPE:Solid infill
;WIDTH:0.493044
G1 F2400
G1 X222.693 Y128.633 E0.04897
G1 X222.047 Y128.633 F9000
G1 F2400
G1 X223.617 Y130.203 E0.1322
G1 X223.617 Y130.849 F9000
G1 F2400
G1 X221.401 Y128.633 E0.2497
G1 X220.754 Y128.633 F9000
G1 F2400
G1 X223.617 Y131.496 E0.40145
G1 X223.617 Y132.142 F9000
G1 F2400
G1 X220.108 Y128.633 E0.58746
G1 X219.461 Y128.633 F9000
G1 F2400
G1 X223.617 Y132.789 E0.80774
G1 X223.617 Y133.435 F9000
G1 F2400
G1 X218.815 Y128.633 E1.06227
G1 X218.168 Y128.633 F9000
G1 F2400
G1 X223.617 Y134.082 E1.35107
G1 X223.617 Y134.728 F9000
G1 F2400
G1 X217.522 Y128.633 E1.67412
G1 X216.876 Y128.633 F9000
G1 F2400
G1 X223.617 Y135.374 E2.03144
G1 X223.617 Y136.021 F9000
G1 F2400
G1 X216.229 Y128.633 E2.42301
G1 X215.583 Y128.633 F9000
G1 F2400
G1 X223.617 Y136.667 E2.84885
G1 X223.617 Y137.314 F9000
G1 F2400
G1 X214.936 Y128.633 E3.30895
G1 X214.29 Y128.633 F9000
G1 F2400
G1 X223.617 Y137.96 E3.8033
G1 X223.617 Y138.606 F9000
G1 F2400
G1 X213.644 Y128.633 E4.33192
G1 X212.997 Y128.633 F9000
G1 F2400
G1 X223.617 Y139.253 E4.8948
G1 X223.617 Y139.899 F9000
G1 F2400
G1 X212.351 Y128.633 E5.49194
G1 X211.704 Y128.633 F9000
G1 F2400
G1 X223.617 Y140.546 E6.12334
G1 X223.617 Y141.192 F9000
G1 F2400
G1 X211.058 Y128.633 E6.789
G1 X210.412 Y128.633 F9000
G1 F2400
G1 X223.617 Y141.838 E7.48891
G1 X223.617 Y142.485 F9000
G1 F2400
G1 X209.765 Y128.633 E8.22309
G1 X209.119 Y128.633 F9000
G1 F2400
G1 X223.617 Y143.131 E8.99154
G1 X223.617 Y143.778 F9000
G1 F2400
G1 X208.472 Y128.633 E9.79424
G1 X207.826 Y128.633 F9000
G1 F2400
G1 X223.617 Y144.424 E10.6312
G1 X223.617 Y145.07 F9000
G1 F2400
G1 X207.18 Y128.633 E11.50242
G1 X206.533 Y128.633 F9000
G1 F2400
G1 X223.617 Y145.717 E12.4079
G1 X223.617 Y146.363 F9000
G1 F2400
G1 X205.887 Y128.633 E13.34764
G1 X205.24 Y128.633 F9000
G1 F2400
G1 X223.617 Y147.01 E14.32165
G1 X223.617 Y147.656 F9000
G1 F2400
G1 X204.594 Y128.633 E15.32991
G1 X203.948 Y128.633 F9000
G1 F2400
G1 X223.617 Y148.302 E16.37244
G1 X223.617 Y148.949 F9000
G1 F2400
G1 X203.301 Y128.633 E17.44922
G1 X202.655 Y128.633 F9000
G1 F2400
G1 X223.617 Y149.595 E18.56026
G1 X223.617 Y150.242 F9000
G1 F2400
G1 X202.008 Y128.633 E19.70557
M73 P1 R285
G1 X201.362 Y128.633 F9000
G1 F2400
G1 X223.617 Y150.888 E20.88513
G1 X223.617 Y151.535 F9000
G1 F2400
G1 X216.683 Y144.6 E21.25268
G1 X216.683 Y145.246 F9000
G1 F2400
G1 X223.617 Y152.181 E21.62022
G1 X223.617 Y152.827 F9000
G1 F2400
G1 X216.683 Y145.893 E21.98776
G1 X216.683 Y146.539 F9000
G1 F2400
G1 X223.617 Y153.474 E22.35531
G1 X223.617 Y154.12 F9000
G1 F2400
G1 X216.683 Y147.186 E22.72285
G1 X216.683 Y147.832 F9000
G1 F2400
G1 X223.617 Y154.767 E23.09039
G1 X223.617 Y155.413 F9000
G1 F2400
G1 X216.683 Y148.478 E23.45794
G1 X216.683 Y149.125 F9000
G1 F2400
G1 X223.617 Y156.059 E23.82548
G1 X223.617 Y156.706 F9000
G1 F2400
G1 X216.683 Y149.771 E24.19302
G1 X216.683 Y150.418 F9000
G1 F2400
G1 X223.617 Y157.352 E24.56056
G1 X223.617 Y157.999 F9000
G1 F2400
G1 X216.683 Y151.064 E24.92811
G1 X216.683 Y151.71 F9000
G1 F2400
G1 X223.617 Y158.645 E25.29565
G1 X223.617 Y159.291 F9000
G1 F2400
G1 X216.683 Y152.357 E25.66319
G1 X216.683 Y153.003 F9000
G1 F2400
G1 X223.617 Y159.938 E26.03074
G1 X223.617 Y160.584 F9000
G1 F2400
G1 X216.683 Y153.65 E26.39828
G1 X216.683 Y154.296 F9000
G1 F2400
G1 X223.617 Y161.231 E26.76582
G1 X223.617 Y161.877 F9000
G1 F2400
G1 X216.683 Y154.942 E27.13336
G1 X216.683 Y155.589 F9000
G1 F2400
G1 X223.617 Y162.523 E27.50091
G1 X223.617 Y163.17 F9000
G1 F2400
G1 X216.391 Y155.944 E27.88391
G1 X216.068 Y156.267 F9000
G1 F2400
G1 X223.617 Y163.816 E28.28403
G1 X223.617 Y164.463 F9000
G1 F2400
G1 X215.745 Y156.59 E28.70129
G1 X215.421 Y156.913 F9000
G1 F2400
G1 X223.617 Y165.109 E29.13568
G1 X223.617 Y165.755 F9000
G1 F2400
G1 X215.098 Y157.236 E29.5872
G1 X214.775 Y157.56 F9000
G1 F2400
G1 X223.617 Y166.402 E30.05585
G1 X223.617 Y167.048 F9000
G1 F2400
G1 X214.452 Y157.883 E30.54163
G1 X214.129 Y158.206 F9000
G1 F2400
G1 X223.617 Y167.695 E31.04454
G1 X223.617 Y168.341 F9000
G1 F2400
G1 X213.805 Y158.529 E31.56458
G1 X213.482 Y158.852 F9000
G1 F2400
G1 X223.617 Y168.988 E32.10176
G1 X223.617 Y169.634 F9000
G1 F2400
G1 X213.159 Y159.176 E32.65606
G1 X212.836 Y159.499 F9000
G1 F2400
G1 X223.617 Y170.28 E33.22749
G1 X223.617 Y170.927 F9000
G1 F2400
G1 X212.513 Y159.822 E33.81605
G1 X212.189 Y160.145 F9000
G1 F2400
G1 X223.411 Y171.367 E34.41083
G1 X222.765 Y171.367 F9000
G1 F2400
G1 X211.866 Y160.468 E34.98848
G1 X211.543 Y160.792 F9000
G1 F2400
G1 X222.119 Y171.367 E35.549
G1 X221.472 Y171.367 F9000
G1 F2400
G1 X211.22 Y161.115 E36.09239
G1 X210.897 Y161.438 F9000
G1 F2400
G1 X220.826 Y171.367 E36.61865
G1 X220.179 Y171.367 F9000
G1 F2400
G1 X210.573 Y161.761 E37.12778
G1 X210.25 Y162.085 F9000
G1 F2400
G1 X219.533 Y171.367 E37.61979
G1 X218.887 Y171.367 F9000
G1 F2400
G1 X209.927 Y162.408 E38.09466
G1 X209.604 Y162.731 F9000
G1 F2400
G1 X218.24 Y171.367 E38.5524
G1 X217.594 Y171.367 F9000
G1 F2400
G1 X209.281 Y163.054 E38.993
G1 X208.957 Y163.377 F9000
G1 F2400
G1 X216.947 Y171.367 E39.41648
G1 X216.301 Y171.367 F9000
G1 F2400
G1 X208.634 Y163.701 E39.82283
G1 X208.311 Y164.024 F9000
G1 F2400
G1 X215.655 Y171.367 E40.21205
G1 X215.008 Y171.367 F9000
G1 F2400
G1 X207.988 Y164.347 E40.58414
G1 X207.427 Y164.433 F9000
G1 F2400
G1 X214.362 Y171.367 E40.95168
G1 X213.715 Y171.367 F9000
G1 F2400
G1 X206.781 Y164.433 E41.31923
G1 X206.134 Y164.433 F9000
G1 F2400
G1 X213.069 Y171.367 E41.68677
G1 X212.423 Y171.367 F9000
G1 F2400
G1 X205.488 Y164.433 E42.05431
G1 X204.842 Y164.433 F9000
G1 F2400
G1 X211.776 Y171.367 E42.42186
G1 X211.13 Y171.367 F9000
G1 F2400
G1 X204.195 Y164.433 E42.7894
G1 X203.549 Y164.433 F9000
G1 F2400
G1 X210.483 Y171.367 E43.15694
G1 X209.837 Y171.367 F9000
G1 F2400
G1 X202.902 Y164.433 E43.52448
G1 X202.256 Y164.433 F9000
G1 F2400
G1 X209.19 Y171.367 E43.89203
G1 X208.544 Y171.367 F9000
G1 F2400
G1 X201.609 Y164.433 E44.25957
G1 X200.963 Y164.433 F9000
G1 F2400
G1 X207.898 Y171.367 E44.62711
G1 X207.251 Y171.367 F9000
G1 F2400
G1 X200.317 Y164.433 E44.99466
G1 X199.67 Y164.433 F9000
G1 F2400
G1 X206.605 Y171.367 E45.3622
G1 X205.958 Y171.367 F9000
G1 F2400
G1 X199.024 Y164.433 E45.72974
G1 X198.377 Y164.433 F9000
G1 F2400
G1 X205.312 Y171.367 E46.09729
G1 X204.666 Y171.367 F9000
G1 F2400
G1 X197.731 Y164.433 E46.46483
G1 X197.085 Y164.433 F9000
G1 F2400
G1 X204.019 Y171.367 E46.83237
G1 X203.373 Y171.367 F9000
G1 F2400
G1 X196.438 Y164.433 E47.19991
G1 X195.792 Y164.433 F9000
G1 F2400
G1 X202.726 Y171.367 E47.56746
G1 X202.08 Y171.367 F9000
G1 F2400
G1 X195.145 Y164.433 E47.935
G1 X194.499 Y164.433 F9000
G1 F2400
G1 X201.434 Y171.367 E48.30254
G1 X200.787 Y171.367 F9000
G1 F2400
G1 X193.853 Y164.433 E48.67009
G1 X193.206 Y164.433 F9000
G1 F2400
G1 X200.141 Y171.367 E49.03763
G1 X199.494 Y171.367 F9000
G1 F2400
G1 X192.56 Y164.433 E49.40517
G1 X191.913 Y164.433 F9000
G1 F2400
G1 X198.848 Y171.367 E49.77272
G1 X198.202 Y171.367 F9000
G1 F2400
G1 X191.267 Y164.433 E50.14026
G1 X190.621 Y164.433 F9000
G1 F2400
G1 X197.555 Y171.367 E50.5078
G1 X196.909 Y171.367 F9000
G1 F2400
G1 X189.974 Y164.433 E50.87534
G1 X189.328 Y164.433 F9000
G1 F2400
G1 X196.262 Y171.367 E51.24289
G1 X195.616 Y171.367 F9000
G1 F2400
G1 X188.681 Y164.433 E51.61043
G1 X188.035 Y164.433 F9000
G1 F2400
G1 X194.97 Y171.367 E51.97797
G1 X194.323 Y171.367 F9000
G1 F2400
G1 X187.389 Y164.433 E52.34552
G1 X186.742 Y164.433 F9000
G1 F2400
G1 X193.677 Y171.367 E52.71306
G1 X193.03 Y171.367 F9000
G1 F2400
G1 X186.096 Y164.433 E53.0806
G1 X185.449 Y164.433 F9000
G1 F2400
G1 X192.384 Y171.367 E53.44814
G1 X191.737 Y171.367 F9000
G1 F2400
G1 X184.803 Y164.433 E53.81569
G1 X184.156 Y164.433 F9000
G1 F2400
G1 X191.091 Y171.367 E54.18323
G1 X190.445 Y171.367 F9000
G1 F2400
G1 X183.51 Y164.433 E54.55077
G1 X182.864 Y164.433 F9000
G1 F2400
G1 X189.798 Y171.367 E54.91832
G1 X189.152 Y171.367 F9000
G1 F2400
G1 X182.217 Y164.433 E55.28586
G1 X181.571 Y164.433 F9000
G1 F2400
G1 X188.505 Y171.367 E55.6534
G1 X187.859 Y171.367 F9000
G1 F2400
G1 X180.924 Y164.433 E56.02095
G1 X180.278 Y164.433 F9000
G1 F2400
G1 X187.213 Y171.367 E56.38849
G1 X186.566 Y171.367 F9000
G1 F2400
G1 X179.632 Y164.433 E56.75603
G1 X178.985 Y164.433 F9000
G1 F2400
G1 X185.92 Y171.367 E57.12357
G1 X185.273 Y171.367 F9000
G1 F2400
G1 X178.339 Y164.433 E57.49112
G1 X177.692 Y164.433 F9000
G1 F2400
G1 X184.627 Y171.367 E57.85866
G1 X183.981 Y171.367 F9000
G1 F2400
G1 X177.046 Y164.433 E58.2262
G1 X176.4 Y164.433 F9000
G1 F2400
G1 X183.334 Y171.367 E58.59375
G1 X182.688 Y171.367 F9000
G1 F2400
G1 X175.753 Y164.433 E58.96129
G1 X175.107 Y164.433 F9000
G1 F2400
G1 X182.041 Y171.367 E59.32883
G1 X181.395 Y171.367 F9000
G1 F2400
G1 X174.46 Y164.433 E59.69638
G1 X173.814 Y164.433 F9000
G1 F2400
G1 X180.749 Y171.367 E60.06392
G1 X180.102 Y171.367 F9000
G1 F2400
G1 X173.168 Y164.433 E60.43146
G1 X172.521 Y164.433 F9000
G1 F2400
G1 X179.456 Y171.367 E60.799
G1 X178.809 Y171.367 F9000
G1 F2400
G1 X171.875 Y164.433 E61.16655
G1 X171.228 Y164.433 F9000
G1 F2400
G1 X178.163 Y171.367 E61.53409
G1 X177.517 Y171.367 F9000
G1 F2400
G1 X170.582 Y164.433 E61.90163
G1 X169.936 Y164.433 F9000
G1 F2400
G1 X176.87 Y171.367 E62.26918
G1 X176.224 Y171.367 F9000
G1 F2400
G1 X169.289 Y164.433 E62.63672
G1 X168.643 Y164.433 F9000
G1 F2400
G1 X175.577 Y171.367 E63.00426
G1 X174.931 Y171.367 F9000
G1 F2400
G1 X167.996 Y164.433 E63.37181
G1 X167.35 Y164.433 F9000
G1 F2400
G1 X174.284 Y171.367 E63.73935
G1 X173.638 Y171.367 F9000
G1 F2400
G1 X166.703 Y164.433 E64.10689
G1 X166.057 Y164.433 F9000
G1 F2400
G1 X172.992 Y171.367 E64.47443
G1 X172.345 Y171.367 F9000
G1 F2400
G1 X165.411 Y164.433 E64.84198
G1 X164.764 Y164.433 F9000
G1 F2400
G1 X171.699 Y171.367 E65.20952
M73 P1 R285
G1 X171.052 Y171.367 F9000
G1 F2400
G1 X164.118 Y164.433 E65.57706
G1 X163.471 Y164.433 F9000
G1 F2400
G1 X170.406 Y171.367 E65.94461
G1 X169.76 Y171.367 F9000
G1 F2400
G1 X162.825 Y164.433 E66.31215
G1 X162.179 Y164.433 F9000
G1 F2400
G1 X169.113 Y171.367 E66.67969
G1 X168.467 Y171.367 F9000
G1 F2400
G1 X161.532 Y164.433 E67.04724
G1 X160.886 Y164.433 F9000
G1 F2400
G1 X167.82 Y171.367 E67.41478
G1 X167.174 Y171.367 F9000
G1 F2400
G1 X160.239 Y164.433 E67.78232
G1 X159.593 Y164.433 F9000
G1 F2400
G1 X166.528 Y171.367 E68.14986
G1 X165.881 Y171.367 F9000
G1 F2400
G1 X158.947 Y164.433 E68.51741
G1 X158.3 Y164.433 F9000
G1 F2400
G1 X165.235 Y171.367 E68.88495
G1 X164.588 Y171.367 F9000
G1 F2400
G1 X157.654 Y164.433 E69.25249
G1 X157.007 Y164.433 F9000
G1 F2400
G1 X163.942 Y171.367 E69.62004
G1 X163.296 Y171.367 F9000
G1 F2400
G1 X156.361 Y164.433 E69.98758
G1 X155.715 Y164.433 F9000
G1 F2400
G1 X162.649 Y171.367 E70.35512
G1 X162.003 Y171.367 F9000
G1 F2400
G1 X155.068 Y164.433 E70.72266
G1 X154.422 Y164.433 F9000
G1 F2400
G1 X161.356 Y171.367 E71.09021
G1 X160.71 Y171.367 F9000
G1 F2400
G1 X153.775 Y164.433 E71.45775
G1 X153.129 Y164.433 F9000
G1 F2400
G1 X160.064 Y171.367 E71.82529
G1 X159.417 Y171.367 F9000
G1 F2400
G1 X152.483 Y164.433 E72.19284
G1 X151.836 Y164.433 F9000
G1 F2400
G1 X158.771 Y171.367 E72.56038
G1 X158.124 Y171.367 F9000
G1 F2400
G1 X151.19 Y164.433 E72.92792
G1 X150.543 Y164.433 F9000
G1 F2400
G1 X157.478 Y171.367 E73.29547
G1 X156.832 Y171.367 F9000
G1 F2400
G1 X149.897 Y164.433 E73.66301
G1 X149.25 Y164.433 F9000
G1 F2400
G1 X156.185 Y171.367 E74.03055
G1 X155.539 Y171.367 F9000
G1 F2400
G1 X148.604 Y164.433 E74.39809
G1 X147.958 Y164.433 F9000
G1 F2400
G1 X154.892 Y171.367 E74.76564
G1 X154.246 Y171.367 F9000
G1 F2400
G1 X147.311 Y164.433 E75.13318
G1 X146.665 Y164.433 F9000
G1 F2400
G1 X153.599 Y171.367 E75.50072
G1 X152.953 Y171.367 F9000
G1 F2400
