; generated by SuperSlicer 2.5.59 on 2023-01-28 at 18:47:49 UTC


;
;

;
;
; 

; external perimeters extrusion width = 0.40mm
; perimeters extrusion width = 0.46mm
; infill extrusion width = 0.64mm
; solid infill extrusion width = 0.56mm
; top infill extrusion width = 0.40mm
; support material extrusion width = 0.46mm
; first layer extrusion width = 0.50mm

; object:{"name":"drawer","id":"drawer.stl id:0 copy 0","object_center":[152.500000,150.000000,0.000000],"boundingbox_center":[152.500000,150.000000,9.400001],"boundingbox_size":[140.199997,130.000000,18.800001]}
; plater:{"center":[152.500000,150.000000,0.000000],"boundingbox_center":[152.500000,150.000000,9.400001],"boundingbox_size":[140.199997,130.000000,18.800001]}

M73 P0 R141


; Pre-Processed for Cancel-Object support by preprocess_cancellation v0.2.0
; 1 known objects
EXCLUDE_OBJECT_DEFINE NAME=drawer_stl_id_0_copy_0 CENTER=153.472,115.193 POLYGON=[[82.6,79.368],[82.6,214.8],[222.4,214.8],[222.4,79.368]]
;TYPE:Custom
START_PRINT T_BED=60 T_EXTRUDER=200
M107
G21 ; set units to millimeters
G90 ; use absolute coordinates
M82 ; use absolute distances for extrusion
G92 E0
; Filament gcode

    PRESSURE_ADVANCE_SELECT FILAMENT=PLA
;_TOOLCHANGE 0
M104 S200 ; set temperature
M109 S200 ; set temperature and wait for it to be reached
M190 S60 ; set bed temperature and wait for it to be reached
M107
;LAYER_CHANGE
;Z:0.2
;HEIGHT:0.2
G1 Z0.2 F9000
G1 E-0.8 F3000
M204 S1000
G1 X81.389 Y92.85 F9000
G1 E0 F1800
;TYPE:Skirt
;WIDTH:0.52
G1 X80.473 Y93.715 E0.04699
G1 X79.805 Y94.618 E0.08888
G1 X79.303 Y95.598 E0.12995
G1 X79.066 Y96.271 E0.15654
G1 X78.849 Y97.285 E0.19521
G1 X78.784 Y98.198 E0.22934
G1 X78.784 Y214.9 E4.58107
G1 X79.521 Y217.121 E4.66832
G1 X80.834 Y218.221 E4.73218
G1 X82.5 Y218.616 E4.79604
G1 X222.5 Y218.616 E10.01652
G1 X224.721 Y217.879 E10.10378
G1 X225.821 Y216.566 E10.16763
G1 X226.216 Y214.9 E10.23149
G1 X226.214 Y98.097 E14.58698
M73 P0 R141
G1 X226.081 Y96.867 E14.63311
G1 X225.704 Y95.617 E14.68181
G1 X224.893 Y94.168 E14.74373
G1 X223.998 Y93.173 E14.79362
G1 X222.955 Y92.388 E14.8423
G1 X221.557 Y91.736 E14.89983
G1 X169.896 Y75.818 E16.91561
G1 X168.802 Y75.653 E16.95686
G1 X136.198 Y75.653 E18.17261
G1 X135.104 Y75.818 E18.21388
G1 X83.399 Y91.754 E20.23142
G1 X82.384 Y92.199 E20.27276
G1 X81.389 Y92.85 E20.31708
G1 X81.669 Y93.236 F9000
G1 F1800
G1 X80.84 Y94.019 E20.35957
G1 X80.204 Y94.878 E20.39945
G1 X79.748 Y95.77 E20.4368
G1 X79.526 Y96.395 E20.46153
G1 X79.32 Y97.36 E20.49833
G1 X79.262 Y98.198 E20.52965
G1 X79.261 Y214.9 E24.88138
G1 X79.781 Y216.659 E24.94977
G1 X80.952 Y217.745 E25.00932
G1 X82.5 Y218.139 E25.06888
G1 X222.5 Y218.139 E30.28936
G1 X224.259 Y217.619 E30.35776
G1 X225.345 Y216.448 E30.41731
G1 X225.739 Y214.9 E30.47687
G1 X225.737 Y98.097 E34.83236
G1 X225.612 Y96.949 E34.87541
G1 X225.259 Y95.787 E34.9207
G1 X224.514 Y94.458 E34.97752
G1 X223.685 Y93.532 E35.02385
G1 X222.716 Y92.801 E35.06912
G1 X221.397 Y92.186 E35.12339
G1 X169.755 Y76.273 E37.13841
G1 X168.802 Y76.13 E37.17437
G1 X136.198 Y76.13 E38.39012
G1 X135.244 Y76.274 E38.42609
G1 X83.54 Y92.21 E40.44362
G1 X82.592 Y92.628 E40.48223
G1 X81.669 Y93.236 E40.52346
G92 E0
G1 E-0.8 F3000
; printing object drawer.stl id:0 copy 0
EXCLUDE_OBJECT_START NAME=drawer_stl_id_0_copy_0
G1 X132.803 Y93.236 F9000
G1 E0 F1800
;TYPE:Support material
;WIDTH:0.5
G1 X132.803 Y82.764 E0.37412
G1 X136.198 Y82.764 E0.49543
G1 X136.198 Y79.368 E0.61674
G1 X168.802 Y79.368 E1.78152
G1 X168.802 Y82.764 E1.90283
G1 X172.197 Y82.764 E2.02415
G1 X172.197 Y94.021 E2.42633
G1 X171.475 Y94.021 E2.45214
G1 X168.479 Y94.021 E2.55916
G1 X167.98 Y94.021 E2.577
G1 X165.483 Y94.021 E2.66618
G1 X164.984 Y94.021 E2.68402
G1 X162.488 Y94.021 E2.77321
G1 X161.989 Y94.021 E2.79104
G1 X158.993 Y94.021 E2.89806
G1 X158.494 Y94.021 E2.9159
G1 X155.997 Y94.021 E3.00509
G1 X155.498 Y94.021 E3.02292
G1 X153.002 Y94.021 E3.11211
G1 X152.502 Y94.021 E3.12994
G1 X149.507 Y94.021 E3.23697
G1 X149.007 Y94.021 E3.2548
G1 X146.511 Y94.021 E3.34399
G1 X146.012 Y94.021 E3.36183
G1 X143.016 Y94.021 E3.46885
G1 X142.517 Y94.021 E3.48668
G1 X140.021 Y94.021 E3.57587
G1 X139.521 Y94.021 E3.59371
G1 X137.025 Y94.021 E3.68289
G1 X136.526 Y94.021 E3.70073
G1 X133.53 Y94.021 E3.80775
G1 X132.803 Y94.021 E3.83373
G1 X132.803 Y93.236 E3.8618
G1 X171.799 Y93.907 F9000
G1 F1800
G1 X171.799 Y83.075 E4.24879
G1 X171.291 Y83.075 E4.26694
G1 X171.291 Y93.711 E4.64691
G1 X170.783 Y93.711 E4.66506
G1 X170.783 Y83.075 E5.04503
G1 X170.275 Y83.075 E5.06317
G1 X170.275 Y93.711 E5.44315
G1 X169.767 Y93.711 E5.46129
G1 X169.767 Y83.075 E5.84127
G1 X169.26 Y83.075 E5.85941
G1 X169.26 Y93.711 E6.23938
G1 X168.752 Y93.711 E6.25753
G1 X168.752 Y83.075 E6.6375
G1 X168.491 Y83.075 E6.64682
G1 X168.491 Y79.679 E6.76814
G1 X168.244 Y79.679 E6.77696
G1 X168.244 Y93.711 E7.27824
G1 X167.98 Y93.711 E7.28768
G1 X167.736 Y93.711 E7.29639
G1 X167.736 Y79.679 E7.79767
G1 X167.228 Y79.679 E7.81582
G1 X167.228 Y93.711 E8.3171
G1 X166.72 Y93.711 E8.33525
G1 X166.72 Y79.679 E8.83653
G1 X166.212 Y79.679 E8.85468
G1 X166.212 Y93.711 E9.35596
G1 X165.705 Y93.711 E9.37411
G1 X165.705 Y79.679 E9.87539
G1 X165.197 Y79.679 E9.89354
G1 X165.197 Y93.711 E10.39482
G1 X164.689 Y93.711 E10.41296
G1 X164.689 Y79.679 E10.91425
G1 X164.181 Y79.679 E10.93239
G1 X164.181 Y93.711 E11.43368
G1 X163.673 Y93.711 E11.45182
G1 X163.673 Y79.679 E11.95311
G1 X163.165 Y79.679 E11.97125
G1 X163.165 Y93.711 E12.47254
G1 X162.657 Y93.711 E12.49068
G1 X162.657 Y79.679 E12.99197
G1 X162.149 Y79.679 E13.01011
G1 X162.149 Y93.711 E13.5114
G1 X161.642 Y93.711 E13.52954
G1 X161.642 Y79.679 E14.03083
G1 X161.134 Y79.679 E14.04897
G1 X161.134 Y93.711 E14.55026
G1 X160.626 Y93.711 E14.5684
G1 X160.626 Y79.679 E15.06969
G1 X160.118 Y79.679 E15.08783
G1 X160.118 Y93.711 E15.58911
G1 X159.61 Y93.711 E15.60726
G1 X159.61 Y79.679 E16.10854
G1 X159.102 Y79.679 E16.12669
G1 X159.102 Y93.711 E16.62797
G1 X158.993 Y93.711 E16.63188
G1 X158.594 Y93.711 E16.64612
G1 X158.594 Y79.679 E17.1474
G1 X158.087 Y79.679 E17.16555
G1 X158.087 Y93.711 E17.66683
G1 X157.579 Y93.711 E17.68498
G1 X157.579 Y79.679 E18.18626
G1 X157.071 Y79.679 E18.20441
G1 X157.071 Y93.711 E18.70569
G1 X156.563 Y93.711 E18.72384
G1 X156.563 Y79.679 E19.22512
G1 X156.055 Y79.679 E19.24326
G1 X156.055 Y93.711 E19.74455
G1 X155.997 Y93.711 E19.74661
G1 X155.547 Y93.711 E19.76269
G1 X155.547 Y79.679 E20.26398
G1 X155.039 Y79.679 E20.28212
G1 X155.039 Y93.711 E20.78341
G1 X154.531 Y93.711 E20.80155
G1 X154.531 Y79.679 E21.30284
G1 X154.024 Y79.679 E21.32098
G1 X154.024 Y93.711 E21.82227
G1 X153.516 Y93.711 E21.84041
G1 X153.516 Y79.679 E22.3417
G1 X153.008 Y79.679 E22.35984
G1 X153.008 Y93.711 E22.86113
G1 X152.5 Y93.711 E22.87927
G1 X152.5 Y79.679 E23.38056
G1 X151.992 Y79.679 E23.3987
G1 X151.992 Y93.711 E23.89998
G1 X151.484 Y93.711 E23.91813
G1 X151.484 Y79.679 E24.41941
G1 X150.976 Y79.679 E24.43756
G1 X150.976 Y93.711 E24.93884
G1 X150.469 Y93.711 E24.95699
G1 X150.469 Y79.679 E25.45827
G1 X149.961 Y79.679 E25.47642
G1 X149.961 Y93.711 E25.9777
G1 X149.453 Y93.711 E25.99585
G1 X149.453 Y79.679 E26.49713
G1 X148.945 Y79.679 E26.51528
G1 X148.945 Y93.711 E27.01656
M73 P1 R140
G1 X148.437 Y93.711 E27.0347
G1 X148.437 Y79.679 E27.53599
G1 X147.929 Y79.679 E27.55413
G1 X147.929 Y93.711 E28.05542
G1 X147.421 Y93.711 E28.07356
G1 X147.421 Y79.679 E28.57485
G1 X146.913 Y79.679 E28.59299
G1 X146.913 Y93.711 E29.09428
G1 X146.511 Y93.711 E29.10865
G1 X146.406 Y93.711 E29.11242
G1 X146.406 Y79.679 E29.61371
G1 X145.898 Y79.679 E29.63185
G1 X145.898 Y93.711 E30.13314
G1 X145.39 Y93.711 E30.15128
G1 X145.39 Y79.679 E30.65257
G1 X144.882 Y79.679 E30.67071
G1 X144.882 Y93.711 E31.172
G1 X144.374 Y93.711 E31.19014
G1 X144.374 Y79.679 E31.69142
G1 X143.866 Y79.679 E31.70957
G1 X143.866 Y93.711 E32.21085
G1 X143.358 Y93.711 E32.229
G1 X143.358 Y79.679 E32.73028
G1 X142.851 Y79.679 E32.74843
G1 X142.851 Y93.711 E33.24971
G1 X142.517 Y93.711 E33.26163
G1 X142.343 Y93.711 E33.26786
G1 X142.343 Y79.679 E33.76914
G1 X141.835 Y79.679 E33.78729
G1 X141.835 Y93.711 E34.28857
G1 X141.327 Y93.711 E34.30671
G1 X141.327 Y79.679 E34.808
M73 P1 R140
G1 X140.819 Y79.679 E34.82614
G1 X140.819 Y93.711 E35.32743
G1 X140.311 Y93.711 E35.34557
G1 X140.311 Y79.679 E35.84686
G1 X139.803 Y79.679 E35.865
G1 X139.803 Y93.711 E36.36629
G1 X139.521 Y93.711 E36.37636
G1 X139.295 Y93.711 E36.38443
G1 X139.295 Y79.679 E36.88572
G1 X138.788 Y79.679 E36.90386
G1 X138.788 Y93.711 E37.40515
G1 X138.28 Y93.711 E37.42329
G1 X138.28 Y79.679 E37.92457
G1 X137.772 Y79.679 E37.94272
G1 X137.772 Y93.711 E38.444
G1 X137.264 Y93.711 E38.46215
G1 X137.264 Y79.679 E38.96343
G1 X136.756 Y79.679 E38.98158
G1 X136.756 Y93.711 E39.48286
G1 X136.248 Y93.711 E39.50101
G1 X136.248 Y83.075 E39.88098
G1 X135.74 Y83.075 E39.89912
G1 X135.74 Y93.711 E40.2791
G1 X135.233 Y93.711 E40.29724
G1 X135.233 Y83.075 E40.67722
G1 X134.725 Y83.075 E40.69536
G1 X134.725 Y93.711 E41.07533
G1 X134.217 Y93.711 E41.09348
G1 X134.217 Y83.075 E41.47345
G1 X133.709 Y83.075 E41.49159
G1 X133.709 Y93.711 E41.87157
G1 X133.53 Y93.711 E41.87796
G1 X133.201 Y93.711 E41.88971
G1 X133.201 Y82.878 E42.27671
G92 E0
G1 E-0.8 F3000
G1 X221.336 Y213.736 F9000
G1 E0 F1800
;TYPE:Internal perimeter
G1 X83.664 Y213.736 E4.91845
G1 X83.664 Y98.229 E9.04503
G1 X83.677 Y97.995 E9.05341
G1 X83.709 Y97.795 E9.06065
G1 X83.761 Y97.6 E9.06788
G1 X83.834 Y97.411 E9.07511
G1 X83.926 Y97.23 E9.08234
G1 X84.034 Y97.065 E9.08938
G1 X84.191 Y96.875 E9.09821
G1 X84.317 Y96.754 E9.10445
G1 X84.608 Y96.543 E9.11727
G1 X84.911 Y96.396 E9.12929
G1 X85.261 Y96.296 E9.14231
G1 X85.378 Y96.279 E9.14652
G1 X86.111 Y96.264 E9.17273
G1 X215.772 Y96.264 E13.805
G1 X219.361 Y96.264 E13.93323
G1 X219.769 Y96.303 E13.94785
G1 X220.139 Y96.412 E13.96162
G1 X220.267 Y96.471 E13.96667
G1 X220.598 Y96.682 E13.9807
G1 X220.738 Y96.804 E13.98733
G1 X220.983 Y97.091 E14.00082
G1 X221.17 Y97.422 E14.0144
G1 X221.238 Y97.599 E14.02115
G1 X221.322 Y97.982 E14.03518
G1 X221.334 Y98.142 E14.04089
G1 X221.336 Y213.736 E18.1706
G1 X221.793 Y214.193 F9000
G1 F1800
G1 X83.207 Y214.193 E23.12171
G1 X83.207 Y98.217 E27.26506
G1 X83.222 Y97.946 E27.27474
G1 X83.261 Y97.699 E27.28368
G1 X83.326 Y97.458 E27.29263
G1 X83.416 Y97.224 E27.30157
G1 X83.53 Y97.001 E27.31051
G1 X83.665 Y96.794 E27.31933
G1 X83.856 Y96.564 E27.33001
G1 X84.023 Y96.402 E27.33833
G1 X84.372 Y96.15 E27.35372
G1 X84.747 Y95.968 E27.3686
G1 X85.165 Y95.849 E27.38412
G1 X85.339 Y95.823 E27.39043
G1 X86.106 Y95.807 E27.41784
G1 X215.772 Y95.807 E32.05027
G1 X219.383 Y95.807 E32.17927
G1 X219.657 Y95.822 E32.18908
G1 X219.856 Y95.852 E32.19628
G1 X220.106 Y95.915 E32.20547
G1 X220.299 Y95.983 E32.2128
G1 X220.486 Y96.069 E32.22013
G1 X220.709 Y96.198 E32.22933
G1 X220.873 Y96.315 E32.23653
G1 X221.064 Y96.482 E32.2456
G1 X221.237 Y96.668 E32.25467
G1 X221.359 Y96.828 E32.26188
G1 X221.495 Y97.047 E32.27107
G1 X221.585 Y97.227 E32.27828
G1 X221.677 Y97.468 E32.28747
G1 X221.731 Y97.662 E32.29468
G1 X221.775 Y97.916 E32.30388
G1 X221.791 Y98.124 E32.31135
G1 X221.793 Y214.193 E36.45802
G1 X222.25 Y214.65 F9000
;TYPE:External perimeter
G1 F1800
G1 X82.75 Y214.65 E41.44178
G1 X82.75 Y98.205 E45.60191
G1 X82.767 Y97.898 E45.61288
G1 X82.814 Y97.603 E45.62353
G1 X82.891 Y97.315 E45.63419
G1 X82.999 Y97.037 E45.64485
G1 X83.134 Y96.772 E45.6555
G1 X83.296 Y96.523 E45.6661
G1 X83.52 Y96.253 E45.67864
G1 X83.729 Y96.051 E45.68902
G1 X84.136 Y95.756 E45.70698
G1 X84.583 Y95.539 E45.72472
G1 X85.068 Y95.401 E45.74274
G1 X85.301 Y95.366 E45.75115
G1 X86.102 Y95.35 E45.77976
G1 X215.772 Y95.35 E50.41236
G1 X219.395 Y95.35 E50.5418
G1 X219.704 Y95.367 E50.55283
G1 X219.946 Y95.403 E50.56161
G1 X220.239 Y95.477 E50.57237
G1 X220.471 Y95.559 E50.5812
G1 X220.696 Y95.662 E50.59002
G1 X220.957 Y95.813 E50.60079
G1 X221.156 Y95.956 E50.60956
G1 X221.382 Y96.153 E50.62027
G1 X221.587 Y96.373 E50.63098
G1 X221.736 Y96.568 E50.63975
G1 X221.895 Y96.824 E50.65052
G1 X222.004 Y97.043 E50.65929
G1 X222.112 Y97.325 E50.67006
G1 X222.177 Y97.562 E50.67883
G1 X222.229 Y97.858 E50.68959
G1 X222.248 Y98.107 E50.69848
G1 X222.25 Y214.65 E54.86211
;WIPE_START
M204 S3000
M73 P2 R139
G1 X221.904 Y214.45 F9000
;WIPE_END
G92 E0
G1 E-0.8 F3000
M204 S1000
G1 X221.177 Y97.649 F9000
G1 E0 F1800
;TYPE:Solid infill
;WIDTH:0.499168
G1 F2400
G1 X219.98 Y96.452 E0.0604
G1 X219.214 Y96.333 F9000
G1 F2400
G1 X221.265 Y98.384 E0.16387
G1 X221.265 Y99.03 F9000
G1 F2400
G1 X218.568 Y96.333 E0.29995
G1 X217.921 Y96.333 F9000
G1 F2400
G1 X221.266 Y99.677 E0.46863
G1 X221.266 Y100.323 F9000
G1 F2400
G1 X217.275 Y96.333 E0.66991
G1 X216.629 Y96.333 F9000
G1 F2400
G1 X221.266 Y100.97 E0.9038
G1 X221.266 Y101.616 F9000
G1 F2400
G1 X215.982 Y96.333 E1.1703
G1 X215.336 Y96.333 F9000
G1 F2400
G1 X221.266 Y102.263 E1.4694
G1 X221.266 Y102.909 F9000
G1 F2400
G1 X214.689 Y96.333 E1.8011
G1 X214.043 Y96.333 F9000
G1 F2400
G1 X221.266 Y103.555 E2.16542
G1 X221.266 Y104.202 F9000
G1 F2400
G1 X213.396 Y96.333 E2.56233
G1 X212.75 Y96.333 F9000
G1 F2400
G1 X221.266 Y104.848 E2.99186
G1 X221.266 Y105.495 F9000
G1 F2400
G1 X212.104 Y96.333 E3.45398
G1 X211.457 Y96.333 F9000
G1 F2400
G1 X221.266 Y106.141 E3.94872
G1 X221.266 Y106.787 F9000
G1 F2400
G1 X210.811 Y96.333 E4.47605
G1 X210.164 Y96.333 F9000
G1 F2400
G1 X221.266 Y107.434 E5.036
G1 X221.266 Y108.08 F9000
G1 F2400
G1 X209.518 Y96.333 E5.62855
G1 X208.872 Y96.333 F9000
G1 F2400
G1 X221.266 Y108.727 E6.2537
G1 X221.266 Y109.373 F9000
G1 F2400
G1 X208.225 Y96.333 E6.91146
G1 X207.579 Y96.333 F9000
G1 F2400
G1 X221.266 Y110.02 E7.60183
G1 X221.266 Y110.666 F9000
G1 F2400
G1 X206.932 Y96.333 E8.3248
G1 X206.286 Y96.333 F9000
G1 F2400
G1 X221.266 Y111.312 E9.08037
G1 X221.266 Y111.959 F9000
G1 F2400
G1 X205.64 Y96.333 E9.86855
G1 X204.993 Y96.333 F9000
G1 F2400
G1 X221.266 Y112.605 E10.68934
G1 X221.266 Y113.252 F9000
G1 F2400
G1 X204.347 Y96.333 E11.54273
G1 X203.7 Y96.333 F9000
G1 F2400
G1 X221.266 Y113.898 E12.42873
G1 X221.266 Y114.545 F9000
G1 F2400
G1 X203.054 Y96.333 E13.34733
G1 X202.408 Y96.333 F9000
G1 F2400
G1 X221.266 Y115.191 E14.29854
G1 X221.266 Y115.837 F9000
G1 F2400
G1 X201.761 Y96.333 E15.28235
G1 X201.115 Y96.333 F9000
G1 F2400
G1 X221.266 Y116.484 E16.29877
G1 X221.266 Y117.13 F9000
G1 F2400
G1 X200.468 Y96.333 E17.34779
G1 X199.822 Y96.333 F9000
G1 F2400
G1 X221.266 Y117.777 E18.42942
G1 X221.266 Y118.423 F9000
G1 F2400
G1 X199.176 Y96.333 E19.54365
M73 P2 R139
G1 X198.529 Y96.333 F9000
G1 F2400
G1 X221.266 Y119.069 E20.69049
G1 X221.266 Y119.716 F9000
G1 F2400
G1 X197.883 Y96.333 E21.86994
G1 X197.236 Y96.333 F9000
G1 F2400
G1 X221.266 Y120.362 E23.08199
G1 X221.266 Y121.009 F9000
G1 F2400
G1 X196.59 Y96.333 E24.32664
G1 X195.943 Y96.333 F9000
G1 F2400
G1 X221.266 Y121.655 E25.6039
G1 X221.266 Y122.302 F9000
G1 F2400
G1 X195.297 Y96.333 E26.91377
G1 X194.651 Y96.333 F9000
G1 F2400
G1 X221.266 Y122.948 E28.25624
G1 X221.266 Y123.594 F9000
G1 F2400
G1 X194.004 Y96.333 E29.63132
G1 X193.358 Y96.333 F9000
G1 F2400
G1 X221.266 Y124.241 E31.039
G1 X221.266 Y124.887 F9000
G1 F2400
G1 X192.711 Y96.333 E32.47929
G1 X192.065 Y96.333 F9000
G1 F2400
G1 X221.266 Y125.534 E33.95218
G1 X221.266 Y126.18 F9000
G1 F2400
G1 X191.419 Y96.333 E35.45768
G1 X190.772 Y96.333 F9000
G1 F2400
G1 X221.266 Y126.826 E36.99578
G1 X221.266 Y127.473 F9000
G1 F2400
G1 X190.126 Y96.333 E38.56649
G1 X189.479 Y96.333 F9000
G1 F2400
G1 X221.266 Y128.119 E40.1698
G1 X221.266 Y128.766 F9000
G1 F2400
G1 X188.833 Y96.333 E41.80572
G1 X188.187 Y96.333 F9000
G1 F2400
G1 X221.266 Y129.412 E43.47425
G1 X221.266 Y130.059 F9000
G1 F2400
G1 X187.54 Y96.333 E45.17538
G1 X186.894 Y96.333 F9000
G1 F2400
G1 X221.266 Y130.705 E46.90911
G1 X221.266 Y131.351 F9000
G1 F2400
G1 X186.247 Y96.333 E48.67545
G1 X185.601 Y96.333 F9000
G1 F2400
G1 X221.266 Y131.998 E50.4744
G1 X221.266 Y132.644 F9000
G1 F2400
G1 X184.955 Y96.333 E52.30595
G1 X184.308 Y96.333 F9000
G1 F2400
G1 X221.266 Y133.291 E54.1701
G1 X221.266 Y133.937 F9000
G1 F2400
