; HEADER_BLOCK_START
; generated by OrcaSlicer 1.7.0-beta on 2023-09-11 at 18:10:57
; total layer number: 122
; HEADER_BLOCK_END

; THUMBNAIL_BLOCK_START
; THUMBNAIL_BLOCK_END

; external perimeters extrusion width = 0.40mm
; perimeters extrusion width = 0.45mm
; infill extrusion width = 0.45mm
; solid infill extrusion width = 0.40mm
; top infill extrusion width = 0.40mm
; support material extrusion width = 0.40mm
; first layer extrusion width = 0.50mm

; EXECUTABLE_BLOCK_START
EXCLUDE_OBJECT_DEFINE NAME=Dude_Chilling_Park.STL_id_0_copy_0 CENTER=155,155 POLYGON=[[100.024,126.578],[100.044,126.328],[100.102,126.084],[100.198,125.852],[100.33,125.638],[100.493,125.447],[100.684,125.284],[100.898,125.153],[101.13,125.057],[101.374,124.998],[101.624,124.978],[208.376,124.978],[208.626,124.998],[208.87,125.057],[209.102,125.153],[209.316,125.284],[209.507,125.447],[209.67,125.638],[209.802,125.852],[209.898,126.084],[209.956,126.328],[209.976,126.578],[209.976,169.828],[209.953,170.098],[209.885,170.361],[209.773,170.608],[209.622,170.833],[209.434,171.028],[209.216,171.19],[208.975,171.312],[170.367,184.983],[170.245,185.012],[170.12,185.022],[139.88,185.022],[139.755,185.012],[139.633,184.983],[101.025,171.312],[100.784,171.19],[100.566,171.028],[100.378,170.833],[100.227,170.608],[100.115,170.361],[100.047,170.098],[100.024,169.828],[100.024,126.578]]
M73 P0 R94
M73 C89
;TYPE:Custom
START_PRINT T_BED=60 T_EXTRUDER=220
G90
G21
M83 ; use relative distances for extrusion
; filament start gcode
PRESSURE_ADVANCE_SELECT FILAMENT=PLA
M106 S0
;LAYER_CHANGE
;Z:0.2
;HEIGHT:0.2
;BEFORE_LAYER_CHANGE
;0.2
G92 E0

;_SET_FAN_SPEED_CHANGING_LAYER
SET_VELOCITY_LIMIT ACCEL=1500 ACCEL_TO_DECEL=750
G1 E-.8 F3000
G1 Z.4 F9000
G1 X94.482 Y121.972
G1 Z.4
G1 Z.2
G1 E.8 F1800
;TYPE:Skirt
;WIDTH:0.5
G1 F3000
G1 X95.93 Y121.587 E.0558
G1 X214.07 Y121.587 E4.40027
G1 X215.532 Y121.98 E.05638
G1 X216.599 Y123.053 E.05638
G1 X216.984 Y124.501 E.0558
G1 X216.984 Y171.214 E1.73988
G1 X216.591 Y172.676 E.05638
G1 X214.943 Y173.994 E.07862
G1 X170.918 Y187.797 E1.71847
G1 X170.12 Y187.887 E.02989
G1 X139.88 Y187.887 E1.12633
G1 X138.775 Y187.716 E.04164
G1 X95.057 Y173.994 E1.70666
G1 X93.78 Y173.181 E.05638
G1 X93.016 Y171.214 E.07862
G1 X93.016 Y124.501 E1.73988
G1 X93.409 Y123.039 E.05638
G1 X94.454 Y122 E.05489
G1 X94.781 Y122.379 F9000
G1 F3000
G1 X94.915 Y122.263 E.00661
G1 X95.93 Y122.044 E.03866
G1 X214.07 Y122.044 E4.40027
G1 X215.401 Y122.436 E.05169
G1 X216.308 Y123.486 E.05169
G1 X216.527 Y124.501 E.03866
G1 X216.527 Y171.214 E1.73988
G1 X216.135 Y172.545 E.05169
G1 X214.806 Y173.558 E.06225
G1 X170.811 Y187.353 E1.71731
G1 X170.12 Y187.43 E.02589
G1 X139.88 Y187.43 E1.12633
G1 X138.912 Y187.28 E.03648
G1 X95.194 Y173.558 E1.70666
G1 X94.041 Y172.786 E.05169
G1 X93.473 Y171.214 E.06225
G1 X93.473 Y124.501 E1.73988
G1 X93.865 Y123.17 E.05169
G1 X94.751 Y122.405 E.04359
; printing object Dude Chilling Park.STL id:0 copy 0
G1 E-.8
EXCLUDE_OBJECT_START NAME=Dude_Chilling_Park.STL_id_0_copy_0
G1 Z.6 F9000
G1 X101.005 Y124.564 Z.6
G1 Z.2
G1 E.8 F1800
;TYPE:Support
G1 F3000
G1 X100.995 Y124.566 E.00036
G1 X100.95 Y124.581 E.00176
G1 X100.688 Y124.69 E.01057
G1 X100.646 Y124.711 E.00176
G1 X100.404 Y124.859 E.01057
G1 X100.366 Y124.887 E.00176
G1 X100.15 Y125.072 E.0106
G1 X100.115 Y125.107 E.00182
G1 X99.926 Y125.331 E.01092
G1 X99.9 Y125.367 E.00169
G1 X99.757 Y125.6 E.01018
G1 X99.735 Y125.642 E.00176
G1 X99.627 Y125.905 E.01057
G1 X99.612 Y125.949 E.00176
G1 X99.546 Y126.225 E.01057
G1 X99.539 Y126.272 E.00176
G1 X99.517 Y126.543 E.01013
G1 X99.516 Y126.566 E.00088
G1 X99.516 Y169.841 E1.61182
G1 X99.517 Y169.867 E.00095
G1 X99.542 Y170.159 E.01094
G1 X99.551 Y170.209 E.0019
G1 X99.628 Y170.506 E.01141
G1 X99.645 Y170.554 E.0019
G1 X99.771 Y170.833 E.01141
G1 X99.796 Y170.877 E.0019
G1 X99.967 Y171.131 E.01141
G1 X99.999 Y171.171 E.0019
G1 X100.04 Y171.214 E.0022
G1 X95.93 Y171.214 E.15309
G1 X95.93 Y124.501 E1.73988
G1 X100.984 Y124.501 E.18824
G1 E-.8
G1 Z.6 F9000
G1 X99.105 Y169.85 Z.6
G1 Z.2
G1 E.8 F1800
G1 F3000
G1 X99.107 Y169.893 E.0016
G1 X99.134 Y170.211 E.01191
G1 X99.148 Y170.296 E.0032
G1 X99.234 Y170.626 E.01271
G1 X99.263 Y170.707 E.0032
G1 X99.306 Y170.802 E.00389
G1 X96.341 Y170.802 E.11042
G1 X96.341 Y124.912 E1.70924
G1 X99.741 Y124.912 E.12662
G1 X99.602 Y125.077 E.00805
G1 X99.557 Y125.139 E.00285
G1 X99.398 Y125.399 E.01136
G1 X99.362 Y125.47 E.00296
G1 X99.241 Y125.762 E.01177
G1 X99.216 Y125.838 E.00296
G1 X99.142 Y126.145 E.01177
G1 X99.13 Y126.223 E.00296
G1 X99.107 Y126.519 E.01103
G1 X99.105 Y126.558 E.00148
G1 X99.105 Y169.85 E1.61244
G1 X98.597 Y169.861 F9000
G1 F3000
G1 X98.6 Y169.925 E.0024
G1 X98.631 Y170.295 E.01381
G1 X96.849 Y170.295 E.06638
G1 X96.849 Y125.42 E1.67141
G1 X98.794 Y125.42 E.07244
G1 X98.644 Y126.046 E.02397
G1 X98.625 Y126.164 E.00445
G1 X98.6 Y126.489 E.01214
G1 X98.597 Y126.548 E.00222
G1 X98.597 Y169.861 E1.61322
G1 X98.089 Y169.787 F9000
G1 F3000
G1 X97.357 Y169.787 E.02727
G1 X97.357 Y125.928 E1.63357
G1 X98.134 Y125.928 E.02895
G1 X98.092 Y126.459 E.01984
G1 X98.089 Y126.538 E.00297
G1 X98.089 Y169.787 E1.61084
G1 E-.8
G1 Z.6 F9000
G1 X214.07 Y171.214 Z.6
G1 Z.2
G1 E.8 F1800
G1 F3000
G1 X209.96 Y171.214 E.15309
G1 X210.001 Y171.171 E.00221
G1 X210.033 Y171.131 E.0019
G1 X210.204 Y170.877 E.01141
G1 X210.229 Y170.833 E.00189
G1 X210.355 Y170.554 E.01141
G1 X210.372 Y170.506 E.0019
G1 X210.449 Y170.209 E.01141
G1 X210.458 Y170.159 E.0019
G1 X210.483 Y169.867 E.01094
G1 X210.484 Y169.841 E.00095
G1 X210.484 Y126.566 E1.61185
G1 X210.483 Y126.54 E.00095
G1 X210.459 Y126.26 E.01048
G1 X210.452 Y126.215 E.00169
G1 X210.388 Y125.949 E.01018
G1 X210.373 Y125.905 E.00176
G1 X210.265 Y125.642 E.01057
G1 X210.243 Y125.6 E.00176
G1 X210.095 Y125.358 E.01057
G1 X210.067 Y125.32 E.00176
G1 X209.883 Y125.105 E.01057
G1 X209.85 Y125.071 E.00175
G1 X209.634 Y124.887 E.01057
G1 X209.596 Y124.859 E.00176
G1 X209.354 Y124.711 E.01057
G1 X209.312 Y124.69 E.00176
G1 X209.049 Y124.581 E.0106
G1 X209.002 Y124.566 E.00182
G1 X208.996 Y124.564 E.00026
G1 X209.013 Y124.501 E.00245
G1 X214.07 Y124.501 E.18834
G1 X214.07 Y171.145 E1.73733
G1 X210.895 Y169.85 F9000
G1 F3000
G1 X210.895 Y126.557 E1.6125
G1 X210.893 Y126.514 E.00159
G1 X210.867 Y126.21 E.01138
G1 X210.855 Y126.134 E.00285
G1 X210.784 Y125.838 E.01136
G1 X210.759 Y125.762 E.00296
G1 X210.638 Y125.47 E.01177
G1 X210.602 Y125.399 E.00296
G1 X210.437 Y125.13 E.01177
G1 X210.391 Y125.065 E.00296
G1 X210.26 Y124.912 E.00751
G1 X213.659 Y124.912 E.1266
G1 X213.659 Y170.802 E1.70924
G1 X210.694 Y170.802 E.11042
G1 X210.737 Y170.707 E.0039
G1 X210.766 Y170.626 E.0032
G1 X210.852 Y170.296 E.01271
G1 X210.866 Y170.211 E.0032
G1 X210.893 Y169.893 E.01191
G1 X210.895 Y169.85 E.0016
G1 X211.403 Y169.861 F9000
G1 F3000
G1 X211.403 Y126.546 E1.6133
G1 X211.4 Y126.482 E.00239
G1 X211.372 Y126.147 E.0125
G1 X211.353 Y126.034 E.00428
G1 X211.206 Y125.42 E.02352
G1 X213.151 Y125.42 E.07244
G1 X213.151 Y170.295 E1.67141
G1 X211.369 Y170.295 E.06638
G1 X211.4 Y169.925 E.01382
G1 X211.403 Y169.861 E.0024
G1 X211.911 Y169.787 F9000
G1 F3000
G1 X211.911 Y126.535 E1.61095
G1 X211.907 Y126.45 E.00319
G1 X211.863 Y125.928 E.0195
G1 X212.643 Y125.928 E.02906
G1 X212.643 Y169.787 E1.63358
G1 X211.911 Y169.787 E.02727
G1 E-.8
G1 Z.6 F9000
G1 X139.338 Y176.51 Z.6
G1 Z.2
G1 E.8 F1800
;TYPE:Outer wall
G1 F3000
G1 X139.14 Y176.324 E.01012
G1 X131.855 Y175.751 E.27217
G1 X124.18 Y174.927 E.2875
G1 X116.534 Y173.87 E.28749
G1 X108.924 Y172.579 E.28749
G1 X101.366 Y171.059 E.28717
G1 X101.154 Y170.994 E.00826
G1 X100.964 Y170.898 E.00793
G1 X100.793 Y170.771 E.00793
G1 X100.646 Y170.617 E.00793
G1 X100.527 Y170.441 E.00793
G1 X100.439 Y170.247 E.00793
G1 X100.385 Y170.04 E.00793
G1 X100.366 Y169.818 E.00833
G1 X100.366 Y126.588 E1.61014
M73 C88
G1 X100.383 Y126.382 E.00771
G1 X100.429 Y126.19 E.00735
G1 X100.504 Y126.008 E.00735
G1 X100.603 Y125.847 E.00702
G1 X100.736 Y125.689 E.0077
G1 X100.885 Y125.561 E.00732
G1 X101.053 Y125.458 E.00735
G1 X101.236 Y125.383 E.00735
G1 X101.427 Y125.337 E.00735
G1 X101.634 Y125.321 E.00771
G1 X208.366 Y125.321 E3.97538
G1 X208.564 Y125.336 E.00738
G1 X208.765 Y125.383 E.0077
G1 X208.947 Y125.458 E.00732
G1 X209.115 Y125.561 E.00735
G1 X209.265 Y125.69 E.00735
G1 X209.393 Y125.839 E.00735
G1 X209.496 Y126.008 E.00735
G1 X209.571 Y126.19 E.00734
G1 X209.615 Y126.373 E.00702
G1 X209.634 Y126.589 E.00806
G1 X209.634 Y169.818 E1.61011
G1 X209.615 Y170.041 E.00833
G1 X209.561 Y170.247 E.00793
G1 X209.473 Y170.441 E.00793
G1 X209.354 Y170.617 E.00793
G1 X209.207 Y170.771 E.00793
G1 X209.036 Y170.898 E.00793
G1 X208.846 Y170.994 E.00793
G1 X208.634 Y171.059 E.00826
G1 X201.076 Y172.579 E.28717
G1 X193.466 Y173.87 E.28749
G1 X185.82 Y174.927 E.28749
G1 X178.145 Y175.751 E.2875
G1 X170.86 Y176.324 E.27217
G1 X170.662 Y176.51 E.01012
G1 X170.62 Y176.719 E.00793
G1 X170.612 Y184.3 E.28235
G1 X170.564 Y184.448 E.00581
G1 X170.472 Y184.574 E.0058
G1 X170.346 Y184.665 E.0058
G1 X170.198 Y184.714 E.0058
G1 X139.9 Y184.723 E1.12849
G1 X139.726 Y184.695 E.00654
G1 X139.578 Y184.62 E.00617
G1 X139.436 Y184.448 E.00832
G1 X139.388 Y184.3 E.00581
G1 X139.38 Y176.719 E.28235
G1 X139.346 Y176.549 E.00644
G1 X139.71 Y176.232 F9000
;TYPE:Inner wall
G1 F3000
G1 X139.335 Y175.881 E.01912
G1 X131.898 Y175.296 E.27789
G1 X124.236 Y174.474 E.287
G1 X116.604 Y173.418 E.28697
G1 X109.008 Y172.13 E.28697
G1 X101.478 Y170.615 E.28606
G1 X101.325 Y170.568 E.00596
G1 X101.096 Y170.427 E.01003
G1 X101.003 Y170.329 E.00503
G1 X100.872 Y170.094 E.01003
G1 X100.837 Y169.963 E.00504
G1 X100.823 Y169.798 E.00616
G1 X100.823 Y126.606 E1.60875
G1 X100.865 Y126.332 E.01034
G1 X100.974 Y126.115 E.00903
G1 X101.155 Y125.932 E.00957
G1 X101.377 Y125.819 E.0093
G1 X101.652 Y125.778 E.01034
G1 X208.494 Y125.789 E3.97945
G1 X208.738 Y125.867 E.00957
G1 X208.845 Y125.932 E.00467
G1 X209.022 Y126.109 E.0093
G1 X209.135 Y126.331 E.0093
G1 X209.177 Y126.608 E.01042
G1 X209.177 Y169.798 E1.60867
G1 X209.163 Y169.963 E.00616
G1 X209.073 Y170.217 E.01004
G1 X208.904 Y170.427 E.01003
G1 X208.675 Y170.568 E.01003
G1 X208.522 Y170.615 E.00596
G1 X200.992 Y172.13 E.28606
G1 X193.396 Y173.418 E.28697
G1 X185.764 Y174.474 E.28697
G1 X178.102 Y175.296 E.287
G1 X170.665 Y175.881 E.27789
G1 X170.242 Y176.277 E.02157
G1 X170.163 Y176.674 E.01507
G1 X170.155 Y184.257 E.28242
G1 X139.845 Y184.266 E1.12892
G1 X139.837 Y176.674 E.28277
G1 X139.758 Y176.277 E.01507
G1 X139.74 Y176.259 E.00095
G1 X140.204 Y176.172 F9000
G1 F3000
G1 X140.178 Y176.044 E.00488
G1 X139.531 Y175.438 E.03301
G1 X131.94 Y174.841 E.28361
G1 X124.292 Y174.02 E.2865
G1 X116.673 Y172.966 E.28645
G1 X109.091 Y171.68 E.28645
G1 X101.591 Y170.172 E.28495
G1 X101.497 Y170.143 E.00365
G1 X101.4 Y170.083 E.00427
G1 X101.304 Y169.941 E.00636
G1 X101.281 Y169.779 E.00611
G1 X101.281 Y126.624 E1.60736
G1 X101.301 Y126.473 E.00567
G1 X101.346 Y126.384 E.00374
G1 X101.424 Y126.303 E.00418
G1 X101.519 Y126.255 E.00396
G1 X101.67 Y126.235 E.00567
G1 X208.423 Y126.242 E3.97616
G1 X208.53 Y126.275 E.00418
G1 X208.651 Y126.378 E.00591
G1 X208.699 Y126.473 E.00396
G1 X208.719 Y126.627 E.0058
G1 X208.719 Y169.779 E1.60723
G1 X208.71 Y169.886 E.00399
G1 X208.672 Y169.994 E.00427
G1 X208.6 Y170.083 E.00427
G1 X208.503 Y170.143 E.00427
G1 X200.909 Y171.68 E.28858
G1 X193.327 Y172.966 E.28645
G1 X185.708 Y174.02 E.28645
G1 X178.06 Y174.841 E.2865
G1 X170.469 Y175.438 E.28361
G1 X169.822 Y176.044 E.03301
G1 X169.706 Y176.629 E.02221
G1 X169.698 Y183.8 E.26708
G1 X140.302 Y183.809 E1.09491
G1 X140.294 Y176.629 E.26741
G1 X140.211 Y176.212 E.01584
G1 E-.8
G1 Z.6 F9000
G1 X207.51 Y126.388 Z.6
M73 P1 R94
G1 Z.2
G1 E.8 F1800
;TYPE:Bottom surface
;WIDTH:0.501931
G1 F3000
G1 X208.368 Y127.246 E.04534
G1 X208.368 Y127.895 E.02428
G1 X207.067 Y126.594 E.0688
G1 X206.418 Y126.594 E.02428
G1 X208.368 Y128.544 E.10314
G1 X208.368 Y129.193 E.02428
G1 X205.768 Y126.594 E.13748
G1 X205.119 Y126.594 E.02428
G1 X208.368 Y129.842 E.17182
G1 X208.368 Y130.491 E.02428
G1 X204.47 Y126.594 E.20616
G1 X203.821 Y126.594 E.02428
G1 X208.368 Y131.14 E.2405
G1 X208.368 Y131.789 E.02428
G1 X203.172 Y126.594 E.27484
G1 X202.523 Y126.594 E.02428
G1 X208.368 Y132.439 E.30918
G1 X208.368 Y133.088 E.02428
G1 X201.873 Y126.594 E.34352
G1 X201.224 Y126.594 E.02428
G1 X208.368 Y133.737 E.37786
M73 P1 R93
G1 X208.368 Y134.386 E.02428
G1 X200.575 Y126.594 E.4122
G1 X199.926 Y126.593 E.02428
G1 X208.368 Y135.035 E.44654
G1 X208.368 Y135.684 E.02428
G1 X199.277 Y126.593 E.48088
G1 X198.627 Y126.593 E.02428
G1 X208.368 Y136.333 E.51522
G1 X208.368 Y136.983 E.02428
G1 X197.978 Y126.593 E.54956
G1 X197.329 Y126.593 E.02428
G1 X208.368 Y137.632 E.5839
G1 X208.368 Y138.281 E.02428
G1 X196.68 Y126.593 E.61824
G1 X196.031 Y126.593 E.02428
G1 X208.368 Y138.93 E.65258
G1 X208.368 Y139.579 E.02428
G1 X195.381 Y126.593 E.68692
G1 X194.732 Y126.593 E.02428
G1 X208.368 Y140.228 E.72126
G1 X208.368 Y140.877 E.02428
G1 X194.083 Y126.593 E.7556
G1 X193.434 Y126.593 E.02428
G1 X208.368 Y141.527 E.78994
G1 X208.368 Y142.176 E.02428
G1 X192.785 Y126.593 E.82428
G1 X192.136 Y126.593 E.02428
G1 X208.368 Y142.825 E.85862
G1 X208.368 Y143.474 E.02428
G1 X191.486 Y126.593 E.89295
G1 X190.837 Y126.593 E.02428
G1 X208.368 Y144.123 E.92729
G1 X208.368 Y144.772 E.02428
G1 X190.188 Y126.593 E.96163
G1 X189.539 Y126.593 E.02428
G1 X208.368 Y145.421 E.99597
G1 X208.368 Y146.071 E.02428
G1 X188.89 Y126.593 E1.03031
G1 X188.24 Y126.593 E.02428
G1 X208.368 Y146.72 E1.06465
G1 X208.368 Y147.369 E.02428
G1 X187.591 Y126.593 E1.09899
G1 X186.942 Y126.593 E.02428
G1 X208.368 Y148.018 E1.13333
G1 X208.368 Y148.667 E.02428
G1 X186.293 Y126.593 E1.16767
G1 X185.644 Y126.592 E.02428
G1 X208.368 Y149.316 E1.20201
G1 X208.368 Y149.965 E.02428
G1 X184.995 Y126.592 E1.23635
G1 X184.345 Y126.592 E.02428
G1 X208.368 Y150.615 E1.27069
G1 X208.368 Y151.264 E.02428
G1 X183.696 Y126.592 E1.30503
G1 X183.047 Y126.592 E.02428
G1 X208.368 Y151.913 E1.33937
G1 X208.368 Y152.562 E.02428
G1 X182.398 Y126.592 E1.37371
G1 X181.749 Y126.592 E.02428
G1 X208.368 Y153.211 E1.40805
G1 X208.368 Y153.86 E.02428
G1 X181.099 Y126.592 E1.44239
G1 X180.45 Y126.592 E.02428
G1 X208.368 Y154.509 E1.47673
G1 X208.368 Y155.159 E.02428
G1 X179.801 Y126.592 E1.51107
G1 X179.152 Y126.592 E.02428
G1 X208.368 Y155.808 E1.54541
G1 X208.368 Y156.457 E.02428
G1 X178.503 Y126.592 E1.57975
G1 X177.854 Y126.592 E.02428
G1 X208.368 Y157.106 E1.61409
G1 X208.368 Y157.755 E.02428
G1 X177.204 Y126.592 E1.64843
G1 X176.555 Y126.592 E.02428
G1 X208.368 Y158.404 E1.68277
G1 X208.368 Y159.053 E.02428
G1 X175.906 Y126.592 E1.71711
G1 X175.257 Y126.592 E.02428
G1 X208.368 Y159.702 E1.75145
G1 X208.368 Y160.352 E.02428
G1 X174.608 Y126.592 E1.78579
G1 X173.958 Y126.592 E.02428
G1 X208.368 Y161.001 E1.82013
G1 X208.368 Y161.65 E.02428
G1 X173.309 Y126.592 E1.85447
G1 X172.66 Y126.592 E.02428
G1 X208.368 Y162.299 E1.8888
G1 X208.368 Y162.948 E.02428
G1 X172.011 Y126.592 E1.92314
G1 X171.362 Y126.592 E.02428
G1 X208.368 Y163.597 E1.95748
G1 X208.368 Y164.246 E.02428
G1 X170.713 Y126.591 E1.99182
G1 X170.063 Y126.591 E.02428
G1 X208.368 Y164.896 E2.02616
G1 X208.368 Y165.545 E.02428
G1 X169.414 Y126.591 E2.0605
G1 X168.765 Y126.591 E.02428
G1 X208.368 Y166.194 E2.09484
G1 X208.368 Y166.843 E.02428
G1 X168.116 Y126.591 E2.12918
G1 X167.467 Y126.591 E.02428
G1 X208.368 Y167.492 E2.16352
M73 C87
G1 X208.368 Y168.141 E.02428
G1 X166.817 Y126.591 E2.19786
G1 X166.168 Y126.591 E.02428
G1 X208.368 Y168.79 E2.2322
G1 X208.368 Y169.44 E.02428
G1 X165.519 Y126.591 E2.26654
G1 X164.87 Y126.591 E.02428
G1 X208.137 Y169.858 E2.28868
G1 X207.597 Y169.967 E.0206
G1 X164.221 Y126.591 E2.29446
G1 X163.571 Y126.591 E.02428
G1 X207.057 Y170.077 E2.30024
G1 X206.517 Y170.186 E.0206
G1 X162.922 Y126.591 E2.30603
G1 X162.273 Y126.591 E.02428
G1 X205.977 Y170.295 E2.31181
G1 X205.438 Y170.404 E.0206
G1 X161.624 Y126.591 E2.31759
G1 X160.975 Y126.591 E.02428
G1 X204.898 Y170.514 E2.32338
