; generated by SuperSlicer 2.5.59 on 2023-09-13 at 18:12:07 UTC


;
;

;
;
; 

; external perimeters extrusion width = 0.40mm
; perimeters extrusion width = 0.46mm
; infill extrusion width = 0.64mm
; solid infill extrusion width = 0.56mm
; top infill extrusion width = 0.40mm
; support material extrusion width = 0.46mm
; first layer extrusion width = 0.50mm

; external perimeters extrusion width = 0.40mm
; perimeters extrusion width = 0.40mm
; infill extrusion width = 0.64mm
; solid infill extrusion width = 0.56mm
; top infill extrusion width = 0.40mm
; support material extrusion width = 0.46mm
; first layer extrusion width = 0.50mm

; object:{"name":"Dude Chilling Park","id":"Dude Chilling Park.STL id:0 copy 0","object_center":[152.500000,150.000001,0.000000],"boundingbox_center":[152.500000,150.000001,8.819999],"boundingbox_size":[109.952072,60.043610,17.639997]}
EXCLUDE_OBJECT_DEFINE NAME=Dude_Chilling_Park_STL_id_0_copy_0 CENTER=152.500000,150.000001 POLYGON=[[97.523968,121.578200],[97.543672,121.327904],[97.602272,121.083776],[97.698360,120.851824],[97.829536,120.637744],[97.992592,120.446824],[98.183512,120.283776],[98.397592,120.152576],[98.629544,120.056504],[98.873672,119.997904],[99.123968,119.978192],[205.876032,119.978192],[206.126320,119.997904],[206.370448,120.056504],[206.602416,120.152576],[206.816496,120.283776],[207.007424,120.446824],[207.170464,120.637744],[207.301664,120.851824],[207.397744,121.083776],[207.456336,121.327904],[207.476048,121.578200],[207.476048,164.828352],[207.453072,165.098464],[207.384864,165.360816],[207.273280,165.607888],[207.121648,165.832592],[206.934240,166.028464],[206.716464,166.189872],[206.474544,166.312208],[167.867248,179.982656],[167.745184,180.011952],[167.620032,180.021808],[137.380000,180.021808],[137.254848,180.011952],[137.132784,179.982656],[98.525464,166.312208],[98.283560,166.189872],[98.065776,166.028464],[97.878368,165.832592],[97.726712,165.607888],[97.615168,165.360816],[97.546928,165.098464],[97.523968,164.828352],[97.523968,121.578200]]
; plater:{"center":[152.500000,150.000001,0.000000],"boundingbox_center":[152.500000,150.000001,8.819999],"boundingbox_size":[109.952072,60.043610,17.639997]}

M73 P0 R99
M73 P0 R99
;TYPE:Custom
START_PRINT T_BED=60 T_EXTRUDER=210
M107
G21 ; set units to millimeters
G90 ; use absolute coordinates
M82 ; use absolute distances for extrusion
G92 E0
; Filament gcode

    PRESSURE_ADVANCE_SELECT FILAMENT=PLA
;_TOOLCHANGE 0
M104 S210 ; set temperature
M109 S210 ; set temperature and wait for it to be reached
M190 S60 ; set bed temperature and wait for it to be reached
M107
;LAYER_CHANGE
;Z:0.2
;HEIGHT:0.2
G1 Z0.2 F9000
M73 P0 R99
M73 P0 R99
G1 E-0.8 F2400
M204 S1000
G1 X95.884 Y117.614 F9000
G1 E0 F1800
;TYPE:Skirt
;WIDTH:0.52
G1 X95.304 Y118.17 E0.03186
G1 X94.817 Y118.81 E0.06374
G1 X94.437 Y119.517 E0.0956
G1 X94.173 Y120.276 E0.12748
G1 X94.012 Y121.291 E0.16822
G1 X94.001 Y164.824 E1.89517
G1 X94.141 Y166.001 E1.9422
G1 X94.509 Y167.043 E1.98601
G1 X94.949 Y167.79 E2.02042
G1 X95.509 Y168.453 E2.05483
G1 X96.172 Y169.011 E2.08924
G1 X97.354 Y169.635 E2.14223
G1 X135.935 Y183.341 E3.76645
G1 X136.598 Y183.51 E3.79357
G1 X137.389 Y183.588 E3.82511
G1 X167.723 Y183.579 E5.02843
G1 X168.87 Y183.397 E5.07449
G1 X208.079 Y169.449 E6.7254
G1 X208.828 Y169.011 E6.7598
G1 X209.491 Y168.453 E6.79421
G1 X210.185 Y167.592 E6.83804
G1 X210.589 Y166.826 E6.87242
G1 X210.799 Y166.232 E6.89741
G1 X210.986 Y165.139 E6.9414
G1 X210.999 Y121.582 E8.66926
G1 X210.879 Y120.491 E8.71283
G1 X210.647 Y119.722 E8.74469
G1 X210.183 Y118.81 E8.78529
G1 X209.696 Y118.17 E8.81717
G1 X208.645 Y117.272 E8.87203
G1 X207.937 Y116.892 E8.9039
G1 X206.963 Y116.575 E8.9445
G1 X206.164 Y116.466 E8.97652
G1 X99.128 Y116.455 E13.22256
G1 X98.036 Y116.575 E13.26612
G1 X97.063 Y116.892 E13.30672
G1 X95.884 Y117.614 E13.36159
G1 X96.193 Y117.977 F9000
G1 F1800
G1 X95.666 Y118.48 E13.39049
G1 X95.224 Y119.059 E13.41939
G1 X94.878 Y119.7 E13.44829
G1 X94.637 Y120.387 E13.4772
G1 X94.488 Y121.328 E13.51497
G1 X94.478 Y164.824 E15.24043
G1 X94.603 Y165.881 E15.28266
G1 X94.845 Y166.629 E15.31386
G1 X95.344 Y167.523 E15.35447
G1 X95.853 Y168.123 E15.38567
G1 X96.456 Y168.628 E15.41687
G1 X97.513 Y169.185 E15.46428
G1 X136.095 Y182.891 E17.0885
G1 X137.389 Y183.111 E17.14056
G1 X167.723 Y183.102 E18.34388
G1 X168.722 Y182.944 E18.38403
G1 X207.864 Y169.023 E20.03202
G1 X208.544 Y168.628 E20.06322
G1 X209.147 Y168.123 E20.09442
G1 X209.789 Y167.326 E20.13504
G1 X210.337 Y166.112 E20.18787
G1 X210.511 Y165.098 E20.22865
G1 X210.522 Y121.582 E21.95492
G1 X210.415 Y120.602 E21.99403
G1 X210.206 Y119.904 E22.02292
G1 X209.776 Y119.059 E22.06055
G1 X209.334 Y118.48 E22.08947
G1 X208.395 Y117.678 E22.13841
G1 X207.754 Y117.332 E22.16731
G1 X206.852 Y117.039 E22.20494
G1 X206.126 Y116.942 E22.23399
G1 X99.128 Y116.932 E26.47854
G1 X98.148 Y117.039 E26.51765
G1 X97.246 Y117.332 E26.55528
G1 X96.193 Y117.977 E26.60424
G92 E0
G1 E-0.8 F2400
; printing object Dude Chilling Park.STL id:0 copy 0
EXCLUDE_OBJECT_START NAME=Dude_Chilling_Park_STL_id_0_copy_0
G1 X168.07 Y171.459 F9000
G1 E0 F1800
;TYPE:External perimeter
;WIDTH:0.5
G1 X168.02 Y171.709 E0.00969
G1 X168.012 Y179.284 E0.29757
G1 X167.973 Y179.402 E0.30229
G1 X167.9 Y179.502 E0.30701
G1 X167.8 Y179.575 E0.31172
G1 X167.682 Y179.614 E0.31644
G1 X137.407 Y179.623 E1.46707
G1 X137.257 Y179.599 E1.47284
G1 X137.134 Y179.536 E1.47809
G1 X137.027 Y179.402 E1.48464
G1 X136.988 Y179.284 E1.48936
G1 X136.98 Y171.709 E1.77725
G1 X136.93 Y171.459 E1.78693
G1 X136.683 Y171.228 E1.79981
G1 X129.364 Y170.651 E2.07882
G1 X121.693 Y169.828 E2.37207
G1 X114.05 Y168.771 E2.66532
G1 X106.443 Y167.481 E2.95856
G1 X98.89 Y165.962 E3.25134
G1 X98.691 Y165.901 E3.25925
G1 X98.517 Y165.812 E3.2667
G1 X98.359 Y165.696 E3.27414
G1 X98.224 Y165.554 E3.28159
G1 X98.114 Y165.392 E3.28903
G1 X98.034 Y165.213 E3.29648
G1 X97.984 Y165.024 E3.30393
G1 X97.966 Y164.814 E3.31194
G1 X97.966 Y121.592 E4.95463
G1 X97.982 Y121.397 E4.96205
G1 X98.024 Y121.221 E4.96895
G1 X98.094 Y121.053 E4.97585
G1 X98.188 Y120.898 E4.98274
G1 X98.306 Y120.76 E4.98964
G1 X98.444 Y120.643 E4.99654
G1 X98.599 Y120.548 E5.00343
G1 X98.767 Y120.478 E5.01033
G1 X98.943 Y120.436 E5.01723
G1 X99.138 Y120.421 E5.02465
G1 X205.862 Y120.421 E9.08086
G1 X206.033 Y120.434 E9.08735
G1 X206.233 Y120.478 E9.09517
G1 X206.401 Y120.548 E9.10206
G1 X206.556 Y120.643 E9.10896
G1 X206.694 Y120.76 E9.11586
G1 X206.812 Y120.898 E9.12276
G1 X206.906 Y121.053 E9.12965
G1 X206.976 Y121.221 E9.13655
G1 X207.018 Y121.397 E9.14345
G1 X207.034 Y121.592 E9.15087
G1 X207.034 Y164.814 E10.79356
G1 X207.016 Y165.024 E10.80157
G1 X206.966 Y165.213 E10.80902
G1 X206.886 Y165.392 E10.81647
G1 X206.776 Y165.554 E10.82391
G1 X206.641 Y165.696 E10.83136
G1 X206.483 Y165.812 E10.8388
G1 X206.309 Y165.901 E10.84625
G1 X206.11 Y165.962 E10.85416
G1 X198.557 Y167.481 E11.14694
G1 X190.95 Y168.771 E11.44018
G1 X183.307 Y169.828 E11.73343
G1 X175.636 Y170.651 E12.02668
G1 X168.317 Y171.228 E12.30569
G1 X168.07 Y171.459 E12.31857
;WIPE_START
M204 S3000
G1 X167.673 Y171.507 F9000
;WIPE_END
M204 S1000
G1 X167.698 Y171.181
;TYPE:Internal perimeter
G1 F1800
G1 X167.65 Y171.226 E12.32107
G1 X167.563 Y171.664 E12.33804
G1 X167.555 Y179.157 E12.6228
G1 X137.445 Y179.166 E13.76717
G1 X137.437 Y171.664 E14.05228
G1 X137.35 Y171.226 E14.06925
G1 X136.878 Y170.784 E14.09381
G1 X129.407 Y170.196 E14.37865
G1 X121.748 Y169.374 E14.6714
G1 X114.119 Y168.319 E14.96411
G1 X106.526 Y167.032 E15.25682
G1 X99.003 Y165.518 E15.54847
G1 X98.863 Y165.475 E15.55403
G1 X98.663 Y165.352 E15.56298
G1 X98.515 Y165.168 E15.57193
G1 X98.466 Y165.06 E15.57643
G1 X98.423 Y164.794 E15.58668
G1 X98.423 Y121.61 E17.22795
M73 P1 R99
G1 X98.46 Y121.363 E17.23746
G1 X98.559 Y121.168 E17.24576
G1 X98.714 Y121.014 E17.25406
G1 X98.908 Y120.914 E17.26236
G1 X99.156 Y120.878 E17.27186
G1 X205.965 Y120.887 E21.3313
G1 X206.193 Y120.956 E21.34034
G1 X206.286 Y121.014 E21.34451
G1 X206.441 Y121.168 E21.35281
G1 X206.54 Y121.362 E21.36111
G1 X206.577 Y121.61 E21.37061
G1 X206.577 Y164.794 E23.01189
G1 X206.564 Y164.946 E23.01768
G1 X206.485 Y165.168 E23.02664
G1 X206.337 Y165.352 E23.03559
G1 X206.137 Y165.475 E23.04454
G1 X205.997 Y165.518 E23.0501
G1 X198.474 Y167.032 E23.34175
G1 X190.881 Y168.319 E23.63446
G1 X183.252 Y169.374 E23.92717
G1 X175.593 Y170.196 E24.21992
G1 X168.122 Y170.784 E24.50476
G1 X167.698 Y171.181 E24.52682
G1 X167.326 Y170.903 F9000
G1 F1800
G1 X167.23 Y170.993 E24.53182
G1 X167.106 Y171.619 E24.55608
G1 X167.098 Y178.7 E24.82519
G1 X137.902 Y178.708 E25.93485
G1 X137.894 Y171.619 E26.20429
G1 X137.77 Y170.993 E26.22855
G1 X137.074 Y170.341 E26.26479
G1 X129.449 Y169.741 E26.55547
G1 X121.804 Y168.921 E26.8477
G1 X114.189 Y167.867 E27.13989
G1 X106.609 Y166.582 E27.43207
G1 X99.115 Y165.075 E27.72258
G1 X98.969 Y165.004 E27.72876
G1 X98.908 Y164.927 E27.73248
G1 X98.881 Y164.758 E27.73901
G1 X98.881 Y121.644 E29.37762
G1 X98.901 Y121.503 E29.38301
G1 X98.934 Y121.44 E29.38572
G1 X99.049 Y121.356 E29.39116
G1 X99.189 Y121.335 E29.39654
G1 X205.897 Y121.344 E33.45212
G1 X206.003 Y121.376 E33.4563
G1 X206.066 Y121.44 E33.45973
G1 X206.099 Y121.503 E33.46243
G1 X206.119 Y121.644 E33.46782
G1 X206.119 Y164.775 E35.10707
G1 X206.08 Y164.942 E35.11361
G1 X206.031 Y165.004 E35.11662
G1 X205.947 Y165.056 E35.12037
G1 X198.391 Y166.582 E35.41334
G1 X190.811 Y167.867 E35.70552
M73 P1 R98
G1 X183.196 Y168.921 E35.9977
G1 X175.551 Y169.741 E36.28994
G1 X167.926 Y170.341 E36.58061
G1 X167.326 Y170.903 E36.61186
G92 E0
G1 E-0.8 F2400
G1 X205.127 Y121.413 F9000
G1 E0 F1800
;TYPE:Solid infill
;WIDTH:0.498458
G1 F2400
G1 X206.051 Y122.337 E0.0495
G1 X206.051 Y122.983 F9000
G1 F2400
G1 X204.481 Y121.413 E0.13364
G1 X203.834 Y121.413 F9000
G1 F2400
G1 X206.051 Y123.63 E0.25241
G1 X206.051 Y124.276 F9000
G1 F2400
G1 X203.188 Y121.413 E0.40581
G1 X202.542 Y121.413 F9000
G1 F2400
G1 X206.051 Y124.922 E0.59385
G1 X206.051 Y125.569 F9000
G1 F2400
G1 X201.895 Y121.413 E0.81652
G1 X201.249 Y121.413 F9000
G1 F2400
G1 X206.051 Y126.215 E1.07382
G1 X206.051 Y126.862 F9000
G1 F2400
G1 X200.603 Y121.413 E1.36576
G1 X199.956 Y121.413 F9000
G1 F2400
G1 X206.051 Y127.508 E1.69233
G1 X206.051 Y128.154 F9000
G1 F2400
G1 X199.31 Y121.414 E2.05353
G1 X198.664 Y121.414 F9000
G1 F2400
G1 X206.051 Y128.801 E2.44936
G1 X206.051 Y129.447 F9000
G1 F2400
G1 X198.017 Y121.414 E2.87983
G1 X197.371 Y121.414 F9000
G1 F2400
G1 X206.051 Y130.094 E3.34493
G1 X206.051 Y130.74 F9000
G1 F2400
G1 X196.725 Y121.414 E3.84466
G1 X196.078 Y121.414 F9000
G1 F2400
G1 X206.051 Y131.386 E4.37903
G1 X206.051 Y132.033 F9000
G1 F2400
G1 X195.432 Y121.414 E4.94803
G1 X194.786 Y121.414 F9000
G1 F2400
G1 X206.051 Y132.679 E5.55166
G1 X206.051 Y133.326 F9000
G1 F2400
G1 X194.139 Y121.414 E6.18992
G1 X193.493 Y121.414 F9000
G1 F2400
G1 X206.051 Y133.972 E6.86282
G1 X206.051 Y134.619 F9000
G1 F2400
G1 X192.847 Y121.414 E7.57035
G1 X192.2 Y121.414 F9000
G1 F2400
G1 X206.051 Y135.265 E8.31252
G1 X206.051 Y135.911 F9000
G1 F2400
G1 X191.554 Y121.414 E9.08932
G1 X190.908 Y121.414 F9000
G1 F2400
G1 X206.051 Y136.558 E9.90075
G1 X206.051 Y137.204 F9000
G1 F2400
G1 X190.261 Y121.414 E10.74681
G1 X189.615 Y121.415 F9000
G1 F2400
G1 X206.051 Y137.851 E11.62751
G1 X206.051 Y138.497 F9000
G1 F2400
G1 X188.969 Y121.415 E12.54283
G1 X188.322 Y121.415 F9000
G1 F2400
G1 X206.051 Y139.143 E13.4928
G1 X206.051 Y139.79 F9000
G1 F2400
G1 X187.676 Y121.415 E14.47739
G1 X187.03 Y121.415 F9000
G1 F2400
G1 X206.051 Y140.436 E15.49662
G1 X206.051 Y141.083 F9000
G1 F2400
G1 X186.383 Y121.415 E16.55048
G1 X185.737 Y121.415 F9000
G1 F2400
G1 X206.051 Y141.729 E17.63897
G1 X206.051 Y142.375 F9000
G1 F2400
G1 X185.091 Y121.415 E18.7621
G1 X184.444 Y121.415 F9000
G1 F2400
G1 X206.051 Y143.022 E19.91986
G1 X206.051 Y143.668 F9000
G1 F2400
G1 X183.798 Y121.415 E21.11226
G1 X183.152 Y121.415 F9000
G1 F2400
G1 X206.051 Y144.315 E22.33928
G1 X206.051 Y144.961 F9000
G1 F2400
G1 X182.505 Y121.415 E23.60094
G1 X181.859 Y121.415 F9000
G1 F2400
G1 X206.051 Y145.607 E24.89723
G1 X206.051 Y146.254 F9000
G1 F2400
G1 X181.212 Y121.415 E26.22816
G1 X180.566 Y121.416 F9000
G1 F2400
G1 X206.051 Y146.9 E27.59372
G1 X206.051 Y147.547 F9000
G1 F2400
G1 X179.92 Y121.416 E28.99391
G1 X179.273 Y121.416 F9000
G1 F2400
G1 X206.051 Y148.193 E30.42873
G1 X206.051 Y148.839 F9000
G1 F2400
G1 X178.627 Y121.416 E31.89819
G1 X177.981 Y121.416 F9000
G1 F2400
G1 X206.051 Y149.486 E33.40228
G1 X206.051 Y150.132 F9000
G1 F2400
G1 X177.334 Y121.416 E34.941
G1 X176.688 Y121.416 F9000
G1 F2400
G1 X206.051 Y150.779 E36.51436
G1 X206.051 Y151.425 F9000
G1 F2400
G1 X176.042 Y121.416 E38.12235
G1 X175.395 Y121.416 F9000
G1 F2400
G1 X206.051 Y152.072 E39.76497
G1 X206.051 Y152.718 F9000
G1 F2400
G1 X174.749 Y121.416 E41.44222
G1 X174.103 Y121.416 F9000
G1 F2400
G1 X206.051 Y153.364 E43.15411
G1 X206.051 Y154.011 F9000
G1 F2400
G1 X173.456 Y121.416 E44.90063
G1 X172.81 Y121.416 F9000
G1 F2400
G1 X206.051 Y154.657 E46.68179
G1 X206.051 Y155.304 F9000
G1 F2400
G1 X172.164 Y121.416 E48.49757
G1 X171.517 Y121.416 F9000
G1 F2400
G1 X206.051 Y155.95 E50.34799
G1 X206.051 Y156.596 F9000
G1 F2400
G1 X170.871 Y121.417 E52.23305
G1 X170.225 Y121.417 F9000
G1 F2400
G1 X206.051 Y157.243 E54.15273
G1 X206.051 Y157.889 F9000
G1 F2400
G1 X169.578 Y121.417 E56.10705
G1 X168.932 Y121.417 F9000
G1 F2400
G1 X206.051 Y158.536 E58.096
M73 P2 R98
G1 X206.051 Y159.182 F9000
G1 F2400
G1 X168.286 Y121.417 E60.11959
G1 X167.639 Y121.417 F9000
G1 F2400
G1 X206.051 Y159.828 E62.17781
G1 X206.051 Y160.475 F9000
G1 F2400
G1 X166.993 Y121.417 E64.27066
G1 X166.347 Y121.417 F9000
G1 F2400
G1 X206.051 Y161.121 E66.39814
G1 X206.051 Y161.768 F9000
G1 F2400
G1 X165.7 Y121.417 E68.56026
G1 X165.054 Y121.417 F9000
G1 F2400
G1 X206.051 Y162.414 E70.75701
G1 X206.051 Y163.06 F9000
G1 F2400
G1 X164.408 Y121.417 E72.98839
G1 X163.761 Y121.417 F9000
G1 F2400
G1 X206.051 Y163.707 E75.25441
G1 X206.051 Y164.353 F9000
G1 F2400
G1 X163.115 Y121.417 E77.55506
G1 X162.469 Y121.417 F9000
G1 F2400
G1 X206.022 Y164.971 E79.88878
G1 X205.484 Y165.079 F9000
G1 F2400
G1 X161.822 Y121.417 E82.22831
M73 P2 R97
G1 X161.176 Y121.418 F9000
G1 F2400
G1 X204.946 Y165.188 E84.57367
G1 X204.408 Y165.296 F9000
G1 F2400
G1 X160.53 Y121.418 E86.92484
G1 X159.883 Y121.418 F9000
G1 F2400
G1 X203.871 Y165.405 E89.28183
G1 X203.333 Y165.514 F9000
G1 F2400
G1 X159.237 Y121.418 E91.64464
G1 X158.591 Y121.418 F9000
G1 F2400
G1 X202.795 Y165.622 E94.01327
G1 X202.257 Y165.731 F9000
G1 F2400
G1 X157.944 Y121.418 E96.38771
G1 X157.298 Y121.418 F9000
G1 F2400
G1 X201.72 Y165.84 E98.76797
G1 X201.182 Y165.948 F9000
G1 F2400
G1 X156.652 Y121.418 E101.15405
G1 X156.005 Y121.418 F9000
G1 F2400
G1 X200.644 Y166.057 E103.54595
G1 X200.106 Y166.166 F9000
G1 F2400
G1 X155.359 Y121.418 E105.94366
G1 X154.713 Y121.418 F9000
G1 F2400
G1 X199.569 Y166.274 E108.34719
G1 X199.031 Y166.383 F9000
G1 F2400
G1 X154.066 Y121.418 E110.75654
G1 X153.42 Y121.418 F9000
G1 F2400
G1 X198.493 Y166.491 E113.17171
G1 X197.943 Y166.588 F9000
G1 F2400
G1 X152.774 Y121.418 E115.59206
G1 X152.127 Y121.419 F9000
G1 F2400
G1 X197.391 Y166.682 E118.01744
G1 X196.838 Y166.776 F9000
G1 F2400
G1 X151.481 Y121.419 E120.44783
G1 X150.835 Y121.419 F9000
G1 F2400
G1 X196.285 Y166.87 E122.88324
G1 X195.733 Y166.963 F9000
G1 F2400
G1 X150.188 Y121.419 E125.32366
G1 X149.542 Y121.419 F9000
G1 F2400
G1 X195.18 Y167.057 E127.76911
G1 X194.627 Y167.151 F9000
G1 F2400
G1 X148.896 Y121.419 E130.21957
G1 X148.249 Y121.419 F9000
G1 F2400
G1 X194.075 Y167.244 E132.67505
G1 X193.522 Y167.338 F9000
G1 F2400
G1 X147.603 Y121.419 E135.13555
G1 X146.957 Y121.419 F9000
G1 F2400
G1 X192.969 Y167.432 E137.60107
G1 X192.417 Y167.526 F9000
G1 F2400
G1 X146.31 Y121.419 E140.0716
G1 X145.664 Y121.419 F9000
G1 F2400
G1 X191.864 Y167.619 E142.54715
G1 X191.311 Y167.713 F9000
G1 F2400
G1 X145.017 Y121.419 E145.02772
M73 P3 R97
G1 X144.371 Y121.419 F9000
G1 F2400
G1 X190.757 Y167.806 E147.51325
