; generated by SuperSlicer 2.5.59 on 2023-04-26 at 22:41:11 UTC


;
;

;
;
; 

; external perimeters extrusion width = 0.40mm
; perimeters extrusion width = 0.46mm
; infill extrusion width = 0.64mm
; solid infill extrusion width = 0.56mm
; top infill extrusion width = 0.40mm
; support material extrusion width = 0.46mm
; first layer extrusion width = 0.50mm

; external perimeters extrusion width = 0.40mm
; perimeters extrusion width = 0.46mm
; infill extrusion width = 0.64mm
; solid infill extrusion width = 0.56mm
; top infill extrusion width = 0.40mm
; support material extrusion width = 0.46mm
; first layer extrusion width = 0.50mm

; object:{"name":"Flywoo Firefly Hex Nano Insta360 SMO 4K mount v2","id":"Flywoo Firefly Hex Nano Insta360 SMO 4K mount v2.stl id:0 copy 0","object_center":[164.771422,144.240408,0.000000],"boundingbox_center":[164.771422,144.240408,22.919718],"boundingbox_size":[24.989037,27.160816,45.839436]}
EXCLUDE_OBJECT_DEFINE NAME=Flywoo_Firefly_Hex_Nano_Insta360_SMO_4K_mount_v2_stl_id_0_copy_0 CENTER=164.771422,144.240408 POLYGON=[[152.276912,132.992688],[152.327840,132.630080],[152.431184,132.278792],[152.584752,131.946368],[152.785216,131.639936],[153.028288,131.366088],[153.308784,131.130680],[153.620640,130.938768],[153.957184,130.794464],[154.311184,130.700880],[154.675072,130.660000],[174.867760,130.660000],[175.231664,130.700880],[175.585664,130.794464],[175.922208,130.938768],[176.234064,131.130680],[176.514560,131.366088],[176.757632,131.639936],[176.958096,131.946368],[177.111664,132.278792],[177.215024,132.630080],[177.265952,132.992688],[177.263344,133.358856],[177.207312,133.720736],[172.277440,157.691408],[172.260384,157.724912],[172.210432,157.756112],[172.130976,157.782912],[172.027440,157.803488],[171.906832,157.816400],[171.777440,157.820832],[157.776432,157.820832],[157.647024,157.816400],[157.526432,157.803488],[157.422880,157.782912],[157.343408,157.756112],[157.293456,157.724912],[157.276432,157.691408],[152.335536,133.720736],[152.279488,133.358856],[152.276912,132.992688]]
; object:{"name":"Insta_SMO_4K","id":"Insta_SMO_4K.stl id:1 copy 0","object_center":[141.045576,149.999753,0.000000],"boundingbox_center":[141.045576,149.999753,6.000500],"boundingbox_size":[26.624439,55.717747,12.001000]}
EXCLUDE_OBJECT_DEFINE NAME=Insta_SMO_4K_stl_id_1_copy_0 CENTER=141.045576,149.999753 POLYGON=[[127.733352,136.294064],[127.733472,123.567072],[127.754472,123.499072],[127.785464,123.420056],[127.867456,123.228056],[128.075424,122.906048],[128.120424,122.849048],[128.156416,122.811032],[128.271408,122.691024],[128.339416,122.631024],[128.399416,122.580016],[128.541400,122.479008],[128.796384,122.331992],[128.847384,122.308992],[128.997392,122.249984],[129.092376,122.219976],[129.212384,122.190968],[129.476376,122.152944],[129.533368,122.144944],[129.579376,122.142944],[130.424376,122.140888],[140.950384,122.141152],[141.214384,122.168136],[141.354384,122.195128],[141.601376,122.272112],[141.685392,122.302112],[141.792384,122.352096],[141.983392,122.461080],[142.143408,122.579072],[142.214416,122.636072],[142.237408,122.656064],[142.358416,122.774064],[142.410432,122.834056],[142.530448,122.993040],[142.590432,123.085040],[142.637456,123.162032],[142.716464,123.311032],[142.757456,123.411024],[142.794464,123.511032],[142.817472,123.584032],[142.829488,123.631024],[154.196720,170.462256],[154.305760,171.041232],[154.357792,171.628240],[154.351840,172.216240],[154.288880,172.802224],[154.167904,173.378240],[153.991952,173.940240],[153.760992,174.482272],[153.478032,174.998288],[153.146064,175.484320],[152.768096,175.936336],[152.348112,176.348368],[151.889152,176.717408],[151.396160,177.040432],[150.874192,177.312464],[150.328208,177.532496],[149.763216,177.697536],[149.185216,177.807584],[148.598224,177.858624],[148.009216,177.853664],[147.424224,177.789696],[146.848208,177.669760],[146.286192,177.492784],[145.744192,177.262816],[145.228160,176.979856],[128.619416,166.212000],[128.430408,166.086032],[128.228392,165.907024],[128.149400,165.820032],[128.085392,165.747040],[128.039384,165.688048],[128.026384,165.671056],[127.961376,165.574048],[127.836360,165.349056],[127.784344,165.222064],[127.734336,165.067056],[127.734296,164.515072],[127.733352,136.335072],[127.733352,136.294064]]
; plater:{"center":[152.499648,149.999753,0.000000],"boundingbox_center":[152.499648,149.999753,22.919718],"boundingbox_size":[49.532584,55.717747,45.839436]}

M73 P0 R79
;TYPE:Custom
START_PRINT T_BED=60 T_EXTRUDER=220
M107
G21 ; set units to millimeters
G90 ; use absolute coordinates
M82 ; use absolute distances for extrusion
G92 E0
; Filament gcode
;_TOOLCHANGE 0
M104 S220 ; set temperature
M109 S220 ; set temperature and wait for it to be reached
M190 S60 ; set bed temperature and wait for it to be reached
M107
;LAYER_CHANGE
;Z:0.2
;HEIGHT:0.2
G1 Z0.2 F9000
M204 S1000
G1 X125.887 Y120.315
;TYPE:Skirt
;WIDTH:0.52
G1 F1800
G1 X125.509 Y120.716 E0.02183
G1 X124.747 Y121.929 E0.07865
G1 X124.52 Y122.521 E0.10381
G1 X124.285 Y123.547 E0.14558
G1 X121.041 Y162.637 E1.70156
G1 X121.028 Y169.697 E1.98165
G1 X121.368 Y171.249 E2.04468
G1 X122.423 Y172.598 E2.11262
G1 X139.401 Y186.181 E2.97513
G1 X141.722 Y186.995 E3.07271
G1 X153.952 Y186.995 E3.55785
G1 X155.046 Y186.83 E3.60176
G1 X156.522 Y185.962 E3.6697
G1 X180.248 Y163.225 E4.97331
G1 X180.998 Y162.208 E5.02341
G1 X181.393 Y160.542 E5.09135
G1 X181.393 Y141.521 E5.84589
G1 X180.875 Y132.777 E6.19339
G1 X180.682 Y131.602 E6.24059
G1 X180.391 Y130.756 E6.2761
G1 X179.98 Y129.961 E6.31161
G1 X179.223 Y128.971 E6.36101
G1 X178.564 Y128.366 E6.39652
G1 X177.823 Y127.863 E6.43203
G1 X176.503 Y127.297 E6.48904
G1 X142.281 Y118.931 E7.88656
G1 X141.175 Y118.776 E7.93087
G1 X139.496 Y118.733 E7.99749
G1 X129.503 Y118.741 E8.3939
G1 X128.443 Y118.877 E8.43632
G1 X127.204 Y119.356 E8.489
G1 X126.655 Y119.691 E8.51451
G1 X125.887 Y120.315 E8.55379
G1 X126.234 Y120.642 F9000
G1 F1800
G1 X125.857 Y121.043 E8.57562
G1 X125.192 Y122.1 E8.62515
G1 X124.965 Y122.692 E8.6503
G1 X124.76 Y123.586 E8.68671
G1 X121.516 Y162.676 E10.2427
G1 X121.505 Y169.697 E10.52121
G1 X121.758 Y170.951 E10.57198
G1 X122.721 Y172.226 E10.63533
G1 X139.699 Y185.808 E11.49785
G1 X141.722 Y186.518 E11.5829
G1 X153.952 Y186.518 E12.06804
G1 X154.802 Y186.404 E12.10209
G1 X156.192 Y185.618 E12.16544
G1 X179.918 Y162.88 E13.46905
G1 X180.522 Y162.09 E13.50851
G1 X180.916 Y160.542 E13.57187
G1 X180.916 Y141.521 E14.32641
G1 X180.399 Y132.805 E14.67278
G1 X180.224 Y131.737 E14.71571
G1 X179.958 Y130.956 E14.74845
G1 X179.58 Y130.222 E14.78119
G1 X178.867 Y129.288 E14.82782
G1 X177.873 Y128.454 E14.8793
G1 X177.152 Y128.051 E14.91203
G1 X176.381 Y127.758 E14.94477
G1 X142.168 Y119.395 E16.34194
G1 X141.121 Y119.25 E16.38385
G1 X139.496 Y119.21 E16.44835
G1 X129.504 Y119.218 E16.84472
G1 X128.532 Y119.346 E16.8836
G1 X127.453 Y119.763 E16.92952
G1 X126.234 Y120.642 E16.98913
G92 E0
; printing object Flywoo Firefly Hex Nano Insta360 SMO 4K mount v2.stl id:0 copy 0
EXCLUDE_OBJECT_START NAME=Flywoo_Firefly_Hex_Nano_Insta360_SMO_4K_mount_v2_stl_id_0_copy_0
G1 X158.657 Y149.116 F9000
;TYPE:Support material
;WIDTH:0.5
G1 F1800
G1 X159.504 Y148.827 E0.03404
G1 X159.76 Y149.161 E0.05001
G1 X159.918 Y149.438 E0.06215
G1 X160.267 Y150.277 E0.09667
G1 X160.534 Y150.772 E0.11807
G1 X160.849 Y151.223 E0.13899
G1 X161.235 Y151.662 E0.1612
G1 X161.657 Y152.042 E0.18278
G1 X162.119 Y152.371 E0.20433
G1 X162.616 Y152.645 E0.22589
G1 X163.082 Y152.841 E0.24512
G1 X163.626 Y153.003 E0.26667
G1 X164.184 Y153.102 E0.28823
G1 X164.75 Y153.136 E0.30977
G1 X165.299 Y153.108 E0.33067
G1 X165.857 Y153.017 E0.35217
G1 X166.461 Y152.841 E0.37606
G1 X166.983 Y152.618 E0.39762
G1 X167.476 Y152.338 E0.41917
G1 X167.933 Y152.003 E0.44073
G1 X168.35 Y151.619 E0.46229
G1 X168.721 Y151.189 E0.48385
G1 X169.04 Y150.72 E0.50541
G1 X169.277 Y150.276 E0.52452
G1 X169.624 Y149.436 E0.55909
G1 X169.781 Y149.158 E0.57121
G1 X169.972 Y148.894 E0.5836
G1 X170.191 Y148.653 E0.59599
G1 X170.436 Y148.437 E0.60838
G1 X170.703 Y148.25 E0.62078
G1 X170.989 Y148.094 E0.63317
G1 X171.291 Y147.97 E0.64556
G1 X171.604 Y147.88 E0.65795
G1 X171.925 Y147.827 E0.6703
G1 X172.653 Y147.788 E0.698
G1 X173.241 Y147.183 E0.73008
G1 X173.275 Y145.89 E0.77922
G1 X173.347 Y144.966 E0.81445
G1 X173.477 Y143.991 E0.85186
G1 X173.639 Y143.125 E0.88533
G1 X173.858 Y142.214 E0.92095
G1 X174.063 Y141.521 E0.9484
G1 X177.677 Y141.521 E1.08576
G1 X177.677 Y160.542 E1.80867
G1 X162.052 Y160.542 E2.40253
G1 X162.052 Y153.751 E2.66064
G1 X158.657 Y153.751 E2.78969
G1 X158.657 Y149.116 E2.96584
G92 E0
G1 X176.96 Y160.428 F9000
G1 F1800
G1 X176.96 Y141.832 E0.70676
G1 X176.452 Y141.832 E0.72606
G1 X176.452 Y160.231 E1.42534
G1 X175.944 Y160.231 E1.44464
G1 X175.944 Y141.832 E2.14393
G1 X175.437 Y141.832 E2.16323
G1 X175.437 Y160.231 E2.86252
G1 X174.929 Y160.231 E2.88182
G1 X174.929 Y141.832 E3.5811
G1 X174.421 Y141.832 E3.60041
G1 X174.421 Y160.231 E4.29969
G1 X173.913 Y160.231 E4.31899
G1 X173.913 Y143.35 E4.9606
G1 X173.784 Y144.04 E4.98728
G1 X173.656 Y144.999 E5.02406
G1 X173.585 Y145.907 E5.05866
G1 X173.549 Y147.313 E5.11211
G1 X173.405 Y147.46 E5.11993
G1 X173.405 Y160.231 E5.60532
G1 X172.897 Y160.231 E5.62462
G1 X172.897 Y147.982 E6.09017
G1 X172.79 Y148.092 E6.09599
G1 X172.389 Y148.113 E6.11126
G1 X172.389 Y160.231 E6.57182
G1 X171.882 Y160.231 E6.59113
G1 X171.882 Y148.149 E7.05033
G1 X171.673 Y148.184 E7.05837
G1 X171.374 Y148.272 E7.07022
G1 X171.374 Y160.231 E7.52476
G1 X170.866 Y160.231 E7.54406
G1 X170.866 Y148.515 E7.98934
G1 X170.629 Y148.682 E8.00035
G1 X170.358 Y148.932 E8.01435
G1 X170.358 Y160.231 E8.44381
G1 X169.85 Y160.231 E8.46311
G1 X169.85 Y149.704 E8.86321
M73 P1 R78
G1 X169.584 Y150.352 E8.88984
G1 X169.342 Y150.814 E8.90964
G1 X169.342 Y160.231 E9.26756
G1 X168.834 Y160.231 E9.28686
G1 X168.834 Y151.537 E9.6173
G1 X168.579 Y151.83 E9.63208
G1 X168.326 Y152.066 E9.6452
G1 X168.326 Y160.231 E9.95554
G1 X167.819 Y160.231 E9.97485
G1 X167.819 Y152.474 E10.26968
G1 X167.583 Y152.638 E10.28058
G1 X167.311 Y152.791 E10.29246
G1 X167.311 Y160.231 E10.57524
G1 X166.803 Y160.231 E10.59454
G1 X166.803 Y153.035 E10.86806
G1 X166.573 Y153.131 E10.87754
G1 X166.295 Y153.217 E10.88859
G1 X166.295 Y160.231 E11.15519
G1 X165.787 Y160.231 E11.17449
G1 X165.787 Y153.344 E11.43626
G1 X165.279 Y153.421 E11.45578
G1 X165.279 Y160.231 E11.71462
G1 X164.771 Y160.231 E11.73392
G1 X164.771 Y153.447 E11.99176
G1 X164.264 Y153.421 E12.01109
G1 X164.264 Y160.231 E12.26992
G1 X163.756 Y160.231 E12.28923
G1 X163.756 Y153.344 E12.55099
G1 X163.248 Y153.217 E12.57089
G1 X163.248 Y160.231 E12.83749
G1 X162.74 Y160.231 E12.85679
G1 X162.74 Y153.035 E13.13031
G1 X162.487 Y152.929 E13.14072
G1 X162.232 Y152.791 E13.15174
G1 X162.232 Y153.44 E13.17642
G1 X161.724 Y153.44 E13.19572
G1 X161.724 Y152.474 E13.23244
G1 X161.468 Y152.289 E13.24445
G1 X161.216 Y152.066 E13.25724
G1 X161.216 Y153.44 E13.30947
G1 X160.708 Y153.44 E13.32877
G1 X160.708 Y151.536 E13.40115
G1 X160.561 Y151.359 E13.40991
G1 X160.201 Y150.814 E13.43473
G1 X160.201 Y153.44 E13.53454
G1 X159.693 Y153.44 E13.55384
G1 X159.693 Y149.707 E13.69571
G1 X159.498 Y149.329 E13.71186
G1 X159.398 Y149.192 E13.71834
G1 X159.185 Y149.264 E13.72689
G1 X159.185 Y153.637 E13.89307
G92 E0
G1 X162.71 Y149.095 F9000
;TYPE:Internal perimeter
G1 F1800
G1 X162.74 Y149.178 E0.00338
G1 X163.03 Y149.619 E0.02344
G1 X163.414 Y149.981 E0.04349
G1 X163.871 Y150.245 E0.06355
G1 X164.377 Y150.396 E0.08361
G1 X164.904 Y150.427 E0.10366
G1 X165.423 Y150.335 E0.12372
G1 X165.908 Y150.126 E0.14377
G1 X166.331 Y149.811 E0.16383
G1 X166.496 Y149.615 E0.17357
G1 X166.67 Y149.407 E0.18388
G1 X166.907 Y148.935 E0.20394
G1 X167.029 Y148.422 E0.224
G1 X167.029 Y147.894 E0.24405
G1 X166.907 Y147.381 E0.26411
G1 X166.67 Y146.909 E0.28417
G1 X166.331 Y146.505 E0.30422
G1 X165.908 Y146.19 E0.32428
G1 X165.423 Y145.981 E0.34433
G1 X164.904 Y145.889 E0.36439
G1 X164.562 Y145.909 E0.3774
G1 X164.377 Y145.92 E0.38445
G1 X163.871 Y146.071 E0.4045
G1 X163.414 Y146.335 E0.42456
G1 X163.03 Y146.697 E0.44461
G1 X162.74 Y147.138 E0.46467
G1 X162.56 Y147.634 E0.48473
G1 X162.499 Y148.158 E0.50478
G1 X162.56 Y148.682 E0.52484
G1 X162.71 Y149.095 E0.54151
G1 X163.136 Y148.93 F9000
G1 F1800
G1 X163.152 Y148.972 E0.5432
G1 X163.383 Y149.323 E0.5592
G1 X163.689 Y149.612 E0.57519
G1 X164.053 Y149.822 E0.59119
G1 X164.457 Y149.943 E0.60719
G1 X164.877 Y149.968 E0.62318
G1 X165.291 Y149.895 E0.63917
G1 X165.678 Y149.728 E0.65517
G1 X166.015 Y149.477 E0.67117
G1 X166.146 Y149.321 E0.67887
G1 X166.286 Y149.154 E0.68716
G1 X166.475 Y148.778 E0.70316
G1 X166.572 Y148.369 E0.71915
G1 X166.572 Y147.948 E0.73515
G1 X166.475 Y147.538 E0.75114
G1 X166.286 Y147.162 E0.76714
G1 X166.015 Y146.84 E0.78313
G1 X165.678 Y146.588 E0.79913
G1 X165.291 Y146.422 E0.81512
G1 X164.877 Y146.349 E0.83112
G1 X164.588 Y146.365 E0.8421
G1 X164.457 Y146.373 E0.84711
G1 X164.054 Y146.494 E0.86311
G1 X163.689 Y146.704 E0.8791
G1 X163.383 Y146.993 E0.8951
G1 X163.152 Y147.345 E0.91109
G1 X163.008 Y147.74 E0.92709
G1 X162.959 Y148.158 E0.94308
G1 X163.008 Y148.576 E0.95908
G1 X163.136 Y148.93 E0.97338
G1 X163.563 Y148.765 F9000
;TYPE:External perimeter
G1 F1800
G1 X163.735 Y149.027 E0.98532
G1 X163.964 Y149.243 E0.99725
G1 X164.236 Y149.4 E1.00918
G1 X164.537 Y149.49 E1.02112
G1 X164.85 Y149.508 E1.03305
G1 X165.159 Y149.454 E1.04499
G1 X165.448 Y149.329 E1.05692
G1 X165.699 Y149.142 E1.06886
G1 X165.795 Y149.027 E1.07453
G1 X165.901 Y148.901 E1.08079
G1 X166.042 Y148.621 E1.09272
G1 X166.115 Y148.315 E1.10466
G1 X166.115 Y148.001 E1.11659
G1 X166.042 Y147.696 E1.12853
G1 X165.901 Y147.415 E1.14046
G1 X165.699 Y147.174 E1.15239
G1 X165.448 Y146.987 E1.16433
G1 X165.159 Y146.863 E1.17626
G1 X164.85 Y146.808 E1.1882
G1 X164.615 Y146.822 E1.19715
G1 X164.537 Y146.826 E1.20013
G1 X164.236 Y146.916 E1.21206
G1 X163.964 Y147.073 E1.224
G1 X163.735 Y147.289 E1.23593
G1 X163.563 Y147.551 E1.24787
G1 X163.455 Y147.846 E1.2598
G1 X163.419 Y148.158 E1.27174
G1 X163.455 Y148.47 E1.28367
G1 X163.563 Y148.765 E1.2956
;WIPE_START
M204 S3000
G1 X163.356 Y149.108 F9000
;WIPE_END
G92 E0
M204 S1000
G1 X158.504 Y145.713
;TYPE:Internal perimeter
G1 F1800
G1 X158.426 Y144.727 E0.03762
G1 X158.289 Y143.687 E0.07747
G1 X158.084 Y142.595 E0.11968
G1 X157.85 Y141.627 E0.15756
G1 X157.55 Y140.617 E0.19761
G1 X157.197 Y139.623 E0.23768
G1 X156.792 Y138.65 E0.27775
G1 X156.336 Y137.699 E0.31781
G1 X155.831 Y136.774 E0.35788
G1 X155.277 Y135.875 E0.39802
G1 X154.955 Y135.418 E0.41926
G1 X155.423 Y135.335 E0.43732
G1 X155.908 Y135.126 E0.45738
G1 X156.331 Y134.811 E0.47743
G1 X156.67 Y134.407 E0.49749
G1 X156.907 Y133.935 E0.51754
G1 X157.016 Y133.475 E0.53552
G1 X157.804 Y133.878 E0.56914
G1 X158.418 Y134.115 E0.59417
G1 X159.054 Y134.286 E0.61919
G1 X159.704 Y134.389 E0.64422
G1 X160.328 Y134.422 E0.66798
G1 X169.214 Y134.422 E1.00571
G1 X169.839 Y134.389 E1.02947
G1 X170.489 Y134.286 E1.05449
G1 X171.125 Y134.115 E1.07952
G1 X171.739 Y133.878 E1.10454
G1 X172.491 Y133.493 E1.13664
G1 X172.74 Y134.178 E1.16434
G1 X173.03 Y134.619 E1.1844
G1 X173.414 Y134.981 E1.20446
G1 X173.871 Y135.245 E1.22451
G1 X174.559 Y135.451 E1.2518
G1 X174.264 Y135.878 E1.27152
G1 X173.711 Y136.776 E1.31161
G1 X173.205 Y137.701 E1.35169
G1 X172.774 Y138.6 E1.38957
G1 X172.345 Y139.625 E1.43183
G1 X171.991 Y140.621 E1.47198
G1 X171.691 Y141.632 E1.51207
G1 X171.445 Y142.657 E1.55213
G1 X171.262 Y143.637 E1.59001
G1 X171.116 Y144.733 E1.63202
G1 X171.051 Y145.706 E1.66911
G1 X170.556 Y145.847 E1.68868
G1 X170.023 Y146.066 E1.71056
G1 X169.518 Y146.342 E1.73244
G1 X169.047 Y146.672 E1.75431
G1 X168.615 Y147.053 E1.77619
G1 X168.228 Y147.479 E1.79807
G1 X167.891 Y147.945 E1.81994
G1 X167.603 Y148.455 E1.84217
G1 X167.257 Y149.297 E1.87678
G1 X167.107 Y149.579 E1.88894
G1 X166.93 Y149.836 E1.90078
G1 X166.725 Y150.07 E1.91262
G1 X166.495 Y150.28 E1.92445
G1 X166.242 Y150.462 E1.93629
G1 X165.97 Y150.615 E1.94813
G1 X165.683 Y150.735 E1.95997
