; generated by SuperSlicer 2.5.59 on 2023-05-30 at 16:57:38 UTC


;
;

;
;
; 

; external perimeters extrusion width = 0.40mm
; perimeters extrusion width = 0.46mm
; infill extrusion width = 0.64mm
; solid infill extrusion width = 0.56mm
; top infill extrusion width = 0.40mm
; support material extrusion width = 0.46mm
; first layer extrusion width = 0.50mm

; object:{"name":"Frame_Brace","id":"Frame_Brace.stl id:0 copy 0","object_center":[152.500000,149.127723,0.000000],"boundingbox_center":[152.500000,149.127723,7.500000],"boundingbox_size":[144.066025,144.066025,15.000000]}
EXCLUDE_OBJECT_DEFINE NAME=Frame_Brace_stl_id_0_copy_0 CENTER=152.500000,149.127723 POLYGON=[[80.466984,185.160720],[81.881200,181.746512],[185.118800,78.508920],[188.533024,77.094704],[222.533024,77.094704],[224.533024,79.094704],[224.533024,87.094704],[223.118800,90.508920],[209.533024,104.094704],[93.881200,219.746528],[90.466984,221.160736],[82.466984,221.160736],[80.466984,219.160736],[80.466984,185.160720]]
; plater:{"center":[152.500000,149.127723,0.000000],"boundingbox_center":[152.500000,149.127723,7.500000],"boundingbox_size":[144.066025,144.066025,15.000000]}

M73 P0 R101
;TYPE:Custom
START_PRINT T_BED=100 T_EXTRUDER=250
M107
G21 ; set units to millimeters
G90 ; use absolute coordinates
M82 ; use absolute distances for extrusion
G92 E0
; Filament gcode

    PRESSURE_ADVANCE_SELECT FILAMENT=ABS
;_TOOLCHANGE 0
M109 S250 ; set temperature and wait for it to be reached
M190 S100 ; set bed temperature and wait for it to be reached
M107
;LAYER_CHANGE
;Z:0.2
;HEIGHT:0.2
G1 Z0.2 F9000
G1 E-0.5 F3000
M204 S1000
G1 X130.577 Y130.577 F9000
G1 E0 F1800
;TYPE:Skirt
;WIDTH:0.52
G1 X79.885 Y181.269 E2.63341
G1 X79.08 Y182.474 E2.68667
G1 X78.718 Y184.087 E2.74738
G1 X78.718 Y219.119 E4.03425
G1 X78.907 Y220.289 E4.07778
G1 X79.881 Y221.821 E4.14447
G1 X80.842 Y222.515 E4.18801
G1 X82.508 Y222.91 E4.25091
G1 X91.541 Y222.91 E4.5827
G1 X93.153 Y222.548 E4.64341
G1 X94.359 Y221.742 E4.69667
G1 X225.115 Y90.986 E11.48936
G1 X225.92 Y89.781 E11.54262
G1 X226.282 Y88.168 E11.60334
G1 X226.282 Y79.136 E11.93512
G1 X226.093 Y77.966 E11.97866
G1 X225.194 Y76.509 E12.04156
G1 X224.158 Y75.74 E12.08894
G1 X222.492 Y75.346 E12.15184
G1 X187.459 Y75.346 E13.4387
G1 X186.038 Y75.629 E13.49196
G1 X184.641 Y76.513 E13.55268
G1 X130.577 Y130.577 E16.36127
G1 X130.915 Y130.915 F9000
G1 F1800
G1 X80.223 Y181.606 E18.99469
G1 X79.521 Y182.657 E19.0411
G1 X79.195 Y184.087 E19.09498
G1 X79.195 Y219.119 E20.38185
M73 P0 R101
G1 X79.328 Y220.036 E20.41588
G1 X80.218 Y221.484 E20.47832
G1 X80.961 Y222.039 E20.51236
G1 X82.508 Y222.433 E20.57103
G1 X91.541 Y222.433 E20.90282
G1 X92.971 Y222.107 E20.9567
G1 X94.021 Y221.405 E21.00311
G1 X224.777 Y90.649 E27.79581
G1 X225.479 Y89.598 E27.84222
G1 X225.805 Y88.168 E27.89611
G1 X225.805 Y79.136 E28.22789
G1 X225.672 Y78.219 E28.26193
G1 X224.856 Y76.846 E28.3206
G1 X224.039 Y76.217 E28.35848
G1 X222.492 Y75.823 E28.41715
G1 X187.459 Y75.823 E29.70401
G1 X186.22 Y76.069 E29.75043
G1 X184.979 Y76.85 E29.80431
G1 X130.915 Y130.915 E32.61291
G92 E0
G1 E-0.5 F3000
; printing object Frame_Brace.stl id:0 copy 0
EXCLUDE_OBJECT_START NAME=Frame_Brace_stl_id_0_copy_0
G1 X121.785 Y160.509 F9000
G1 E0 F1800
;TYPE:Internal perimeter
;WIDTH:0.5
G1 X122.033 Y161.161 E0.02452
G1 X122.365 Y161.792 E0.04964
G1 X122.788 Y162.409 E0.07593
G1 X123.259 Y162.941 E0.10097
G1 X125.686 Y165.369 E0.22179
G1 X126.219 Y165.84 E0.24683
G1 X126.835 Y166.263 E0.27312
G1 X127.467 Y166.595 E0.29824
G1 X128.166 Y166.861 E0.32456
G1 X128.895 Y167.04 E0.35097
G1 X129.637 Y167.129 E0.37728
G1 X130.354 Y167.129 E0.40253
G1 X131.127 Y167.032 E0.42994
G1 X131.821 Y166.861 E0.45508
G1 X132.488 Y166.608 E0.48019
G1 X133.153 Y166.263 E0.50656
G1 X133.796 Y165.817 E0.53408
G1 X134.302 Y165.369 E0.55789
G1 X168.741 Y130.929 E2.27199
G1 X169.213 Y130.396 E2.29703
G1 X169.635 Y129.78 E2.32332
G1 X169.967 Y129.148 E2.34844
G1 X170.233 Y128.449 E2.37477
G1 X170.413 Y127.721 E2.40117
G1 X170.501 Y126.978 E2.42748
G1 X170.501 Y126.265 E2.4526
G1 X170.413 Y125.522 E2.47891
G1 X170.233 Y124.794 E2.50532
G1 X169.966 Y124.093 E2.53172
G1 X169.617 Y123.433 E2.558
G1 X169.211 Y122.845 E2.58312
G1 X168.741 Y122.314 E2.60809
G1 X166.314 Y119.886 E2.72891
G1 X165.782 Y119.416 E2.75388
G1 X165.195 Y119.011 E2.779
G1 X164.535 Y118.662 E2.80528
G1 X163.834 Y118.395 E2.83168
G1 X163.105 Y118.215 E2.85809
G1 X162.363 Y118.127 E2.8844
G1 X161.646 Y118.127 E2.90965
G1 X160.873 Y118.223 E2.93706
G1 X160.178 Y118.395 E2.96223
G1 X159.479 Y118.661 E2.98855
G1 X158.847 Y118.993 E3.01367
G1 X158.231 Y119.415 E3.03997
G1 X157.698 Y119.886 E3.065
G1 X123.259 Y154.326 E4.77912
G1 X122.788 Y154.859 E4.80416
G1 X122.365 Y155.475 E4.83045
G1 X122.033 Y156.107 E4.85557
G1 X121.767 Y156.806 E4.8819
G1 X121.587 Y157.535 E4.9083
G1 X121.499 Y158.277 E4.93461
G1 X121.499 Y158.991 E4.95973
G1 X121.587 Y159.733 E4.98604
G1 X121.767 Y160.462 E5.01244
G1 X121.785 Y160.509 E5.01425
G1 X122.213 Y160.349 F9000
G1 F1800
G1 X122.451 Y160.972 E5.03773
G1 X122.757 Y161.556 E5.06093
G1 X123.149 Y162.127 E5.08529
G1 X123.592 Y162.628 E5.10884
G1 X126 Y165.036 E5.22868
G1 X126.501 Y165.479 E5.25223
G1 X127.072 Y165.871 E5.27659
G1 X127.655 Y166.177 E5.29979
G1 X128.303 Y166.424 E5.32417
G1 X128.977 Y166.59 E5.3486
G1 X129.664 Y166.672 E5.37297
G1 X130.326 Y166.672 E5.39626
G1 X131.044 Y166.582 E5.42173
G1 X131.685 Y166.424 E5.44494
G1 X132.301 Y166.19 E5.46815
G1 X132.917 Y165.871 E5.49255
G1 X133.513 Y165.457 E5.51809
G1 X133.989 Y165.036 E5.54046
G1 X168.408 Y130.616 E7.25358
G1 X168.851 Y130.115 E7.27713
G1 X169.243 Y129.544 E7.30149
G1 X169.549 Y128.96 E7.3247
G1 X169.796 Y128.313 E7.34908
G1 X169.962 Y127.639 E7.3735
G1 X170.044 Y126.951 E7.39787
G1 X170.044 Y126.292 E7.42108
G1 X169.962 Y125.604 E7.44545
G1 X169.796 Y124.93 E7.46987
G1 X169.549 Y124.282 E7.4943
G1 X169.225 Y123.67 E7.51865
G1 X168.851 Y123.128 E7.54186
G1 X168.408 Y122.627 E7.56537
G1 X166.001 Y120.22 E7.6852
G1 X165.5 Y119.777 E7.70872
G1 X164.957 Y119.402 E7.73192
G1 X164.346 Y119.079 E7.75627
G1 X163.697 Y118.832 E7.7807
G1 X163.023 Y118.666 E7.80512
G1 X162.336 Y118.584 E7.82949
G1 X161.674 Y118.584 E7.85278
G1 X160.956 Y118.674 E7.87825
G1 X160.315 Y118.832 E7.90149
G1 X159.668 Y119.078 E7.92587
G1 X159.084 Y119.385 E7.94907
G1 X158.513 Y119.776 E7.97343
G1 X158.012 Y120.22 E7.99698
G1 X123.592 Y154.639 E9.71012
M73 P1 R101
G1 X123.149 Y155.141 E9.73367
G1 X122.757 Y155.711 E9.75803
G1 X122.451 Y156.295 E9.78123
G1 X122.204 Y156.943 E9.80561
G1 X122.038 Y157.617 E9.83004
G1 X121.956 Y158.304 E9.85441
G1 X121.956 Y158.964 E9.87761
G1 X122.038 Y159.651 E9.90198
G1 X122.204 Y160.325 E9.92641
G1 X122.213 Y160.349 E9.92731
G1 X122.641 Y160.188 F9000
;TYPE:External perimeter
G1 F1800
G1 X122.868 Y160.784 E9.94974
G1 X123.149 Y161.32 E9.97104
G1 X123.51 Y161.845 E9.99346
G1 X123.925 Y162.315 E10.01553
G1 X125.966 Y164.356 E10.11712
G1 X126.313 Y164.703 E10.13437
G1 X126.783 Y165.118 E10.15644
G1 X127.308 Y165.479 E10.17886
G1 X127.844 Y165.76 E10.20016
G1 X128.439 Y165.987 E10.22259
G1 X129.059 Y166.139 E10.24504
G1 X129.691 Y166.215 E10.26746
G1 X130.297 Y166.215 E10.2888
G1 X130.961 Y166.132 E10.31232
G1 X131.548 Y165.987 E10.33362
G1 X132.114 Y165.772 E10.35492
G1 X132.68 Y165.479 E10.37735
G1 X133.23 Y165.097 E10.40091
G1 X133.675 Y164.703 E10.42184
G1 X168.075 Y130.303 E12.13398
G1 X168.49 Y129.833 E12.15605
G1 X168.851 Y129.308 E12.17847
G1 X169.132 Y128.772 E12.19977
G1 X169.359 Y128.176 E12.2222
G1 X169.511 Y127.557 E12.24465
G1 X169.587 Y126.924 E12.26707
G1 X169.587 Y126.319 E12.28837
G1 X169.511 Y125.686 E12.31079
G1 X169.359 Y125.067 E12.33324
G1 X169.132 Y124.471 E12.35569
G1 X168.834 Y123.908 E12.37811
G1 X168.49 Y123.41 E12.39941
G1 X168.075 Y122.94 E12.42146
G1 X165.687 Y120.553 E12.5403
G1 X165.218 Y120.138 E12.56236
G1 X164.72 Y119.794 E12.58365
G1 X164.157 Y119.496 E12.60607
G1 X163.561 Y119.269 E12.62852
G1 X162.941 Y119.116 E12.65097
G1 X162.309 Y119.041 E12.6734
G1 X161.703 Y119.041 E12.69473
G1 X161.039 Y119.124 E12.71825
G1 X160.451 Y119.269 E12.73956
G1 X159.856 Y119.496 E12.76199
G1 X159.32 Y119.777 E12.78328
G1 X158.795 Y120.137 E12.8057
G1 X158.325 Y120.553 E12.82778
G1 X123.925 Y154.953 E14.53992
G1 X123.51 Y155.423 E14.56199
G1 X123.149 Y155.948 E14.58441
G1 X122.868 Y156.484 E14.60571
G1 X122.641 Y157.079 E14.62814
G1 X122.489 Y157.699 E14.65059
G1 X122.413 Y158.331 E14.67301
G1 X122.413 Y158.936 E14.69431
G1 X122.489 Y159.569 E14.71673
G1 X122.641 Y160.188 E14.73918
;WIPE_START
M204 S3000
G1 X122.376 Y160.488 F9000
;WIPE_END
G92 E0
G1 E-0.5 F3000
M204 S1000
G1 X215.224 Y91.263 F9000
G1 E0 F1800
;TYPE:Internal perimeter
G1 X215.253 Y91.221 E0.00179
G1 X215.588 Y90.57 E0.02756
G1 X215.853 Y89.851 E0.05453
G1 X216.027 Y89.103 E0.08157
G1 X216.102 Y88.372 E0.10741
G1 X216.087 Y87.575 E0.13549
G1 X215.981 Y86.847 E0.16137
G1 X215.779 Y86.107 E0.18836
G1 X215.485 Y85.397 E0.21542
G1 X215.105 Y84.731 E0.2424
G1 X214.665 Y84.141 E0.26828
G1 X214.112 Y83.567 E0.29636
G1 X213.542 Y83.104 E0.32221
G1 X212.89 Y82.698 E0.34924
G1 X212.194 Y82.377 E0.37621
G1 X211.497 Y82.153 E0.40198
G1 X210.744 Y82.01 E0.42895
G1 X210.016 Y81.964 E0.45461
G1 X191.053 Y81.964 E1.122
G1 X190.393 Y82.002 E1.14527
G1 X189.739 Y82.113 E1.1686
G1 X189.07 Y82.304 E1.19311
G1 X188.423 Y82.572 E1.21775
G1 X187.814 Y82.91 E1.24226
G1 X187.273 Y83.294 E1.2656
G1 X186.78 Y83.734 E1.28886
G1 X171.959 Y98.555 E2.02652
G1 X171.519 Y99.048 E2.04979
G1 X171.135 Y99.589 E2.07312
G1 X170.797 Y100.198 E2.09764
G1 X170.529 Y100.844 E2.12227
G1 X170.338 Y101.514 E2.14679
G1 X170.227 Y102.168 E2.17012
G1 X170.189 Y102.828 E2.19339
G1 X170.189 Y107.486 E2.35733
G1 X170.227 Y108.146 E2.3806
G1 X170.338 Y108.8 E2.40393
G1 X170.529 Y109.47 E2.42845
G1 X170.797 Y110.116 E2.45308
G1 X171.135 Y110.725 E2.4776
G1 X171.519 Y111.266 E2.50093
G1 X171.959 Y111.76 E2.5242
G1 X176.868 Y116.669 E2.76854
G1 X177.362 Y117.109 E2.79181
G1 X177.902 Y117.492 E2.81514
G1 X178.511 Y117.831 E2.83965
G1 X179.158 Y118.099 E2.86429
G1 X179.828 Y118.29 E2.8888
G1 X180.481 Y118.401 E2.91213
G1 X181.141 Y118.439 E2.9354
G1 X185.8 Y118.439 E3.09935
G1 X186.46 Y118.401 E3.12262
G1 X187.113 Y118.29 E3.14595
G1 X187.783 Y118.099 E3.17047
G1 X188.43 Y117.831 E3.1951
G1 X189.039 Y117.492 E3.21962
G1 X189.579 Y117.109 E3.24295
G1 X190.073 Y116.669 E3.26621
G1 X214.34 Y92.402 E4.47402
G1 X214.822 Y91.855 E4.49968
G1 X215.224 Y91.263 E4.52485
G1 X214.845 Y91.008 F9000
G1 F1800
G1 X214.859 Y90.987 E4.52575
G1 X215.169 Y90.386 E4.54956
G1 X215.414 Y89.72 E4.57454
G1 X215.575 Y89.027 E4.59956
G1 X215.645 Y88.353 E4.62341
G1 X215.631 Y87.612 E4.6495
G1 X215.533 Y86.94 E4.67338
G1 X215.346 Y86.256 E4.69837
G1 X215.074 Y85.599 E4.7234
G1 X214.722 Y84.982 E4.74839
G1 X214.316 Y84.438 E4.77227
G1 X213.802 Y83.904 E4.79835
G1 X213.276 Y83.477 E4.82221
G1 X212.673 Y83.101 E4.84723
G1 X212.028 Y82.803 E4.87221
G1 X211.384 Y82.597 E4.89602
G1 X210.687 Y82.464 E4.92099
G1 X210.002 Y82.421 E4.94513
G1 X191.066 Y82.421 E5.61156
G1 X190.445 Y82.457 E5.63347
G1 X189.841 Y82.559 E5.65503
G1 X189.22 Y82.736 E5.67774
G1 X188.622 Y82.984 E5.70052
G1 X188.058 Y83.298 E5.72323
G1 X187.559 Y83.652 E5.74479
G1 X187.094 Y84.066 E5.7667
G1 X172.291 Y98.869 E6.50344
G1 X171.877 Y99.334 E6.52535
G1 X171.523 Y99.833 E6.5469
G1 X171.209 Y100.397 E6.56962
G1 X170.961 Y100.995 E6.5924
G1 X170.784 Y101.616 E6.61511
G1 X170.682 Y102.219 E6.63667
G1 X170.646 Y102.841 E6.65858
G1 X170.646 Y107.473 E6.8216
G1 X170.682 Y108.095 E6.84352
G1 X170.784 Y108.699 E6.86507
G1 X170.961 Y109.319 E6.88778
G1 X171.209 Y109.917 E6.91057
G1 X171.523 Y110.481 E6.93328
G1 X171.877 Y110.981 E6.95483
G1 X172.291 Y111.446 E6.97675
G1 X177.182 Y116.336 E7.22016
G1 X177.647 Y116.751 E7.24207
G1 X178.146 Y117.105 E7.26363
G1 X178.71 Y117.419 E7.28634
G1 X179.309 Y117.666 E7.30912
G1 X179.929 Y117.843 E7.33184
G1 X180.533 Y117.946 E7.35339
G1 X181.155 Y117.982 E7.3753
G1 X185.787 Y117.982 E7.53833
G1 X186.408 Y117.946 E7.56024
G1 X187.012 Y117.843 E7.58179
G1 X187.633 Y117.666 E7.60451
G1 X188.231 Y117.419 E7.62729
G1 X188.795 Y117.105 E7.65
G1 X189.294 Y116.751 E7.67156
G1 X189.759 Y116.336 E7.69347
G1 X214.007 Y92.089 E8.90031
G1 X214.46 Y91.574 E8.92445
G1 X214.845 Y91.008 E8.94852
G1 X214.465 Y90.753 F9000
;TYPE:External perimeter
G1 F1800
G1 X214.749 Y90.201 E8.97038
G1 X214.976 Y89.589 E8.99336
G1 X215.123 Y88.952 E9.01637
G1 X215.187 Y88.334 E9.03824
G1 X215.174 Y87.649 E9.06232
G1 X215.085 Y87.034 E9.08421
G1 X214.912 Y86.404 E9.1072
G1 X214.662 Y85.8 E9.13021
G1 X214.339 Y85.233 E9.15319
G1 X213.967 Y84.734 E9.17508
G1 X213.492 Y84.241 E9.19917
G1 X213.01 Y83.849 E9.22104
G1 X212.455 Y83.504 E9.24404
G1 X211.862 Y83.23 E9.26703
G1 X211.271 Y83.041 E9.28888
G1 X210.629 Y82.918 E9.31186
G1 X209.988 Y82.878 E9.33448
G1 X191.079 Y82.878 E9.99994
G1 X190.496 Y82.912 E10.0205
G1 X189.942 Y83.006 E10.04028
G1 X189.371 Y83.169 E10.06118
G1 X188.821 Y83.396 E10.08212
G1 X188.302 Y83.685 E10.10302
G1 X187.844 Y84.01 E10.1228
G1 X187.408 Y84.399 E10.14336
G1 X172.624 Y99.183 E10.87917
G1 X172.235 Y99.619 E10.89973
G1 X171.91 Y100.077 E10.91951
G1 X171.621 Y100.596 E10.94042
G1 X171.394 Y101.146 E10.96135
G1 X171.231 Y101.717 E10.98226
G1 X171.137 Y102.271 E11.00203
G1 X171.103 Y102.854 E11.02259
G1 X171.103 Y107.46 E11.18469
G1 X171.137 Y108.043 E11.20525
G1 X171.231 Y108.597 E11.22503
G1 X171.394 Y109.169 E11.24593
G1 X171.621 Y109.718 E11.26687
G1 X171.91 Y110.237 E11.28778
G1 X172.235 Y110.696 E11.30755
G1 X172.624 Y111.132 E11.32811
G1 X177.496 Y116.004 E11.5706
G1 X177.932 Y116.392 E11.59116
G1 X178.39 Y116.718 E11.61094
G1 X178.91 Y117.006 E11.63185
G1 X179.459 Y117.234 E11.65278
G1 X180.03 Y117.397 E11.67369
G1 X180.584 Y117.491 E11.69347
G1 X181.168 Y117.525 E11.71403
G1 X185.773 Y117.525 E11.87612
G1 X186.357 Y117.491 E11.89668
G1 X186.911 Y117.397 E11.91646
G1 X187.482 Y117.234 E11.93737
G1 X188.032 Y117.006 E11.9583
G1 X188.551 Y116.718 E11.97921
G1 X189.009 Y116.392 E11.99899
G1 X189.445 Y116.004 E12.01954
G1 X213.673 Y91.776 E13.22542
G1 X214.098 Y91.294 E13.24804
G1 X214.465 Y90.753 E13.27102
;WIPE_START
M204 S3000
G1 X214.865 Y90.75 F9000
;WIPE_END
G92 E0
G1 E-0.5 F3000
M204 S1000
G1 X89.431 Y212.387 F9000
G1 E0 F1800
;TYPE:Internal perimeter
G1 X89.48 Y212.407 E0.00185
G1 X90.221 Y212.61 E0.0289
G1 X90.982 Y212.718 E0.05596
G1 X91.747 Y212.73 E0.08286
G1 X92.475 Y212.654 E0.10863
G1 X93.189 Y212.489 E0.13443
G1 X93.939 Y212.217 E0.1625
G1 X94.594 Y211.88 E0.18841
G1 X95.227 Y211.45 E0.21537
G1 X95.774 Y210.968 E0.24103
G1 X120.041 Y186.701 E1.44883
G1 X120.481 Y186.207 E1.4721
G1 X120.865 Y185.666 E1.49543
G1 X121.203 Y185.058 E1.51995
G1 X121.471 Y184.411 E1.54458
G1 X121.662 Y183.741 E1.5691
G1 X121.773 Y183.088 E1.59243
G1 X121.811 Y182.427 E1.6157
G1 X121.811 Y177.769 E1.77964
G1 X121.773 Y177.109 E1.80291
G1 X121.662 Y176.456 E1.82624
G1 X121.471 Y175.786 E1.85076
G1 X121.203 Y175.139 E1.87539
G1 X120.863 Y174.527 E1.90003
G1 X120.458 Y173.963 E1.92448
G1 X120.04 Y173.495 E1.94653
G1 X115.132 Y168.587 E2.19085
G1 X114.638 Y168.147 E2.21411
G1 X114.098 Y167.763 E2.23744
G1 X113.489 Y167.425 E2.26196
G1 X112.844 Y167.157 E2.28654
G1 X112.204 Y166.973 E2.30998
G1 X111.486 Y166.852 E2.3356
G1 X110.858 Y166.817 E2.35773
G1 X106.2 Y166.817 E2.52165
G1 X105.54 Y166.855 E2.54492
G1 X104.887 Y166.966 E2.56825
G1 X104.217 Y167.157 E2.59277
G1 X103.57 Y167.425 E2.6174
G1 X102.961 Y167.763 E2.64192
G1 X102.421 Y168.147 E2.66525
G1 X101.927 Y168.587 E2.68852
G1 X87.106 Y183.408 E3.42618
G1 X86.666 Y183.901 E3.44944
G1 X86.283 Y184.442 E3.47277
G1 X85.944 Y185.051 E3.49729
G1 X85.676 Y185.697 E3.52192
G1 X85.485 Y186.367 E3.54644
G1 X85.374 Y187.021 E3.56977
G1 X85.336 Y187.681 E3.59304
G1 X85.336 Y206.644 E4.26043
G1 X85.382 Y207.372 E4.28609
G1 X85.526 Y208.127 E4.31315
G1 X85.764 Y208.858 E4.3402
G1 X86.089 Y209.549 E4.36708
G1 X86.476 Y210.17 E4.39283
G1 X86.938 Y210.738 E4.41859
G1 X87.487 Y211.27 E4.4455
G1 X88.102 Y211.732 E4.47255
