; HEADER_BLOCK_START
; generated by OrcaSlicer 1.7.0-beta on 2023-09-11 at 10:49:07
; total layer number: 40
; HEADER_BLOCK_END

; THUMBNAIL_BLOCK_START
; THUMBNAIL_BLOCK_END

; external perimeters extrusion width = 0.40mm
; perimeters extrusion width = 0.45mm
; infill extrusion width = 0.45mm
; solid infill extrusion width = 0.40mm
; top infill extrusion width = 0.40mm
; support material extrusion width = 0.40mm
; first layer extrusion width = 0.50mm

; EXECUTABLE_BLOCK_START
EXCLUDE_OBJECT_DEFINE NAME=garbagebox.stl_id_0_copy_0 CENTER=155,155 POLYGON=[[101,113],[209,113],[209,197],[101,197],[101,113]]
M73 P0 R62
;TYPE:Custom
START_PRINT T_BED=60 T_EXTRUDER=220
G90
G21
M83 ; use relative distances for extrusion
; filament start gcode
PRESSURE_ADVANCE_SELECT FILAMENT=PLA
M106 S0
;LAYER_CHANGE
;Z:0.2
;HEIGHT:0.2
;BEFORE_LAYER_CHANGE
;0.2
G92 E0

;_SET_FAN_SPEED_CHANGING_LAYER
SET_VELOCITY_LIMIT ACCEL=1500 ACCEL_TO_DECEL=750
G1 E-.8 F3000
G1 Z.4 F9000
G1 X99.552 Y110.471
G1 Z.4
G1 Z.2
G1 E.8 F1800
;TYPE:Skirt
;WIDTH:0.5
G1 F3000
G1 X101 Y110.086 E.0558
G1 X209 Y110.086 E4.02259
G1 X210.462 Y110.479 E.05638
G1 X211.529 Y111.552 E.05638
G1 X211.914 Y113 E.0558
G1 X211.914 Y197 E3.12868
G1 X211.521 Y198.462 E.05638
G1 X210.448 Y199.529 E.05638
G1 X209 Y199.914 E.0558
G1 X101 Y199.914 E4.02259
G1 X99.538 Y199.521 E.05638
G1 X98.471 Y198.448 E.05638
G1 X98.086 Y197 E.0558
G1 X98.086 Y113 E3.12868
G1 X98.479 Y111.538 E.05638
G1 X99.524 Y110.499 E.05489
G1 X99.851 Y110.878 F9000
G1 F3000
G1 X99.985 Y110.762 E.00661
G1 X101 Y110.543 E.03866
G1 X209 Y110.543 E4.02259
G1 X210.331 Y110.935 E.05169
G1 X211.238 Y111.985 E.05169
G1 X211.457 Y113 E.03866
G1 X211.457 Y197 E3.12868
G1 X211.065 Y198.331 E.05169
G1 X210.015 Y199.238 E.05169
G1 X209 Y199.457 E.03866
G1 X101 Y199.457 E4.02259
G1 X99.669 Y199.065 E.05169
G1 X98.762 Y198.015 E.05169
G1 X98.543 Y197 E.03866
G1 X98.543 Y113 E3.12868
G1 X98.935 Y111.669 E.05169
G1 X99.821 Y110.904 E.04359
; printing object garbagebox.stl id:0 copy 0
G1 E-.8
EXCLUDE_OBJECT_START NAME=garbagebox.stl_id_0_copy_0
G1 Z.6 F9000
G1 X208.75 Y196.75 Z.6
G1 Z.2
G1 E.8 F1800
;TYPE:Outer wall
G1 F3000
G1 X101.25 Y196.75 E4.00397
G1 X101.25 Y113.25 E3.11006
G1 X208.75 Y113.25 E4.00397
G1 X208.75 Y196.71 E3.10857
G1 X208.293 Y196.293 F9000
;TYPE:Inner wall
G1 F3000
G1 X101.707 Y196.293 E3.96992
G1 X101.707 Y113.707 E3.07601
G1 X208.293 Y113.707 E3.96992
G1 X208.293 Y196.253 E3.07452
G1 X207.836 Y195.836 F9000
G1 F3000
G1 X102.164 Y195.836 E3.93587
G1 X102.164 Y114.164 E3.04196
M73 P1 R62
G1 X207.836 Y114.164 E3.93587
G1 X207.836 Y195.796 E3.04047
M73 P1 R61
G1 E-.8
G1 Z.6 F9000
G1 X206.765 Y114.31 Z.6
G1 Z.2
G1 E.8 F1800
;TYPE:Bottom surface
;WIDTH:0.500092
G1 F3000
G1 X207.484 Y115.029 E.03785
G1 X207.484 Y115.675 E.02409
G1 X206.325 Y114.516 E.06108
G1 X205.678 Y114.516 E.02409
G1 X207.484 Y116.322 E.09514
G1 X207.484 Y116.969 E.02409
G1 X205.031 Y114.516 E.1292
G1 X204.385 Y114.516 E.02409
G1 X207.484 Y117.615 E.16327
G1 X207.484 Y118.262 E.02409
G1 X203.738 Y114.516 E.19733
G1 X203.092 Y114.516 E.02409
G1 X207.484 Y118.908 E.23139
G1 X207.484 Y119.555 E.02409
G1 X202.445 Y114.516 E.26546
G1 X201.799 Y114.516 E.02409
G1 X207.484 Y120.201 E.29952
G1 X207.484 Y120.848 E.02409
G1 X201.152 Y114.516 E.33358
G1 X200.506 Y114.516 E.02409
G1 X207.484 Y121.494 E.36764
G1 X207.484 Y122.141 E.02409
G1 X199.859 Y114.516 E.40171
G1 X199.213 Y114.516 E.02409
G1 X207.484 Y122.787 E.43577
G1 X207.484 Y123.434 E.02409
G1 X198.566 Y114.516 E.46983
G1 X197.92 Y114.516 E.02409
G1 X207.484 Y124.08 E.50389
G1 X207.484 Y124.727 E.02409
G1 X197.273 Y114.516 E.53796
G1 X196.626 Y114.516 E.02409
G1 X207.484 Y125.374 E.57202
G1 X207.484 Y126.02 E.02409
G1 X195.98 Y114.516 E.60608
G1 X195.333 Y114.516 E.02409
G1 X207.484 Y126.667 E.64015
G1 X207.484 Y127.313 E.02409
G1 X194.687 Y114.516 E.67421
G1 X194.04 Y114.516 E.02409
G1 X207.484 Y127.96 E.70827
G1 X207.484 Y128.606 E.02409
G1 X193.394 Y114.516 E.74233
G1 X192.747 Y114.516 E.02409
G1 X207.484 Y129.253 E.7764
G1 X207.484 Y129.899 E.02409
G1 X192.101 Y114.516 E.81046
G1 X191.454 Y114.516 E.02409
G1 X207.484 Y130.546 E.84452
G1 X207.484 Y131.192 E.02409
G1 X190.808 Y114.516 E.87858
G1 X190.161 Y114.516 E.02409
G1 X207.484 Y131.839 E.91265
G1 X207.484 Y132.485 E.02409
G1 X189.515 Y114.516 E.94671
G1 X188.868 Y114.516 E.02409
G1 X207.484 Y133.132 E.98077
G1 X207.484 Y133.779 E.02409
G1 X188.221 Y114.516 E1.01484
G1 X187.575 Y114.516 E.02409
G1 X207.484 Y134.425 E1.0489
G1 X207.484 Y135.072 E.02409
G1 X186.928 Y114.516 E1.08296
G1 X186.282 Y114.516 E.02409
G1 X207.484 Y135.718 E1.11702
G1 X207.484 Y136.365 E.02409
G1 X185.635 Y114.516 E1.15109
G1 X184.989 Y114.516 E.02409
G1 X207.484 Y137.011 E1.18515
G1 X207.484 Y137.658 E.02409
G1 X184.342 Y114.516 E1.21921
G1 X183.696 Y114.516 E.02409
G1 X207.484 Y138.304 E1.25327
G1 X207.484 Y138.951 E.02409
G1 X183.049 Y114.516 E1.28734
G1 X182.403 Y114.516 E.02409
G1 X207.484 Y139.597 E1.3214
G1 X207.484 Y140.244 E.02409
G1 X181.756 Y114.516 E1.35546
G1 X181.11 Y114.516 E.02409
G1 X207.484 Y140.89 E1.38953
G1 X207.484 Y141.537 E.02409
G1 X180.463 Y114.516 E1.42359
G1 X179.816 Y114.516 E.02409
G1 X207.484 Y142.184 E1.45765
G1 X207.484 Y142.83 E.02409
G1 X179.17 Y114.516 E1.49171
G1 X178.523 Y114.516 E.02409
G1 X207.484 Y143.477 E1.52578
G1 X207.484 Y144.123 E.02409
G1 X177.877 Y114.516 E1.55984
G1 X177.23 Y114.516 E.02409
G1 X207.484 Y144.77 E1.5939
G1 X207.484 Y145.416 E.02409
G1 X176.584 Y114.516 E1.62796
G1 X175.937 Y114.516 E.02409
G1 X207.484 Y146.063 E1.66203
G1 X207.484 Y146.709 E.02409
G1 X175.291 Y114.516 E1.69609
G1 X174.644 Y114.516 E.02409
G1 X207.484 Y147.356 E1.73015
G1 X207.484 Y148.002 E.02409
G1 X173.998 Y114.516 E1.76422
G1 X173.351 Y114.516 E.02409
G1 X207.484 Y148.649 E1.79828
G1 X207.484 Y149.295 E.02409
G1 X172.705 Y114.516 E1.83234
G1 X172.058 Y114.516 E.02409
G1 X207.484 Y149.942 E1.8664
G1 X207.484 Y150.589 E.02409
G1 X171.411 Y114.516 E1.90047
M73 P2 R61
G1 X170.765 Y114.516 E.02409
G1 X207.484 Y151.235 E1.93453
G1 X207.484 Y151.882 E.02409
G1 X170.118 Y114.516 E1.96859
G1 X169.472 Y114.516 E.02409
G1 X207.484 Y152.528 E2.00265
G1 X207.484 Y153.175 E.02409
G1 X168.825 Y114.516 E2.03672
G1 X168.179 Y114.516 E.02409
G1 X207.484 Y153.821 E2.07078
G1 X207.484 Y154.468 E.02409
G1 X167.532 Y114.516 E2.10484
G1 X166.886 Y114.516 E.02409
G1 X207.484 Y155.114 E2.13891
G1 X207.484 Y155.761 E.02409
G1 X166.239 Y114.516 E2.17297
G1 X165.593 Y114.516 E.02409
G1 X207.484 Y156.407 E2.20703
G1 X207.484 Y157.054 E.02409
G1 X164.946 Y114.516 E2.24109
G1 X164.3 Y114.516 E.02409
G1 X207.484 Y157.7 E2.27516
G1 X207.484 Y158.347 E.02409
G1 X163.653 Y114.516 E2.30922
G1 X163.006 Y114.516 E.02409
G1 X207.484 Y158.994 E2.34328
G1 X207.484 Y159.64 E.02409
G1 X162.36 Y114.516 E2.37734
G1 X161.713 Y114.516 E.02409
G1 X207.484 Y160.287 E2.41141
G1 X207.484 Y160.933 E.02409
G1 X161.067 Y114.516 E2.44547
G1 X160.42 Y114.516 E.02409
G1 X207.484 Y161.58 E2.47953
G1 X207.484 Y162.226 E.02409
G1 X159.774 Y114.516 E2.5136
G1 X159.127 Y114.516 E.02409
G1 X207.484 Y162.873 E2.54766
G1 X207.484 Y163.519 E.02409
G1 X158.481 Y114.516 E2.58172
G1 X157.834 Y114.516 E.02409
G1 X207.484 Y164.166 E2.61578
M73 P2 R60
G1 X207.484 Y164.812 E.02409
G1 X157.188 Y114.516 E2.64985
G1 X156.541 Y114.516 E.02409
G1 X207.484 Y165.459 E2.68391
G1 X207.484 Y166.105 E.02409
G1 X155.895 Y114.516 E2.71797
G1 X155.248 Y114.516 E.02409
G1 X207.484 Y166.752 E2.75203
G1 X207.484 Y167.399 E.02409
G1 X154.601 Y114.516 E2.7861
G1 X153.955 Y114.516 E.02409
G1 X207.484 Y168.045 E2.82016
G1 X207.484 Y168.692 E.02409
G1 X153.308 Y114.516 E2.85422
M73 P3 R60
G1 X152.662 Y114.516 E.02409
G1 X207.484 Y169.338 E2.88829
G1 X207.484 Y169.985 E.02409
G1 X152.015 Y114.516 E2.92235
G1 X151.369 Y114.516 E.02409
G1 X207.484 Y170.631 E2.95641
G1 X207.484 Y171.278 E.02409
G1 X150.722 Y114.516 E2.99047
G1 X150.076 Y114.516 E.02409
G1 X207.484 Y171.924 E3.02454
G1 X207.484 Y172.571 E.02409
G1 X149.429 Y114.516 E3.0586
G1 X148.783 Y114.516 E.02409
G1 X207.484 Y173.217 E3.09266
G1 X207.484 Y173.864 E.02409
G1 X148.136 Y114.516 E3.12672
G1 X147.49 Y114.516 E.02409
G1 X207.484 Y174.51 E3.16079
G1 X207.484 Y175.157 E.02409
G1 X146.843 Y114.516 E3.19485
G1 X146.196 Y114.516 E.02409
G1 X207.484 Y175.804 E3.22891
G1 X207.484 Y176.45 E.02409
G1 X145.55 Y114.516 E3.26298
G1 X144.903 Y114.516 E.02409
G1 X207.484 Y177.097 E3.29704
G1 X207.484 Y177.743 E.02409
G1 X144.257 Y114.516 E3.3311
G1 X143.61 Y114.516 E.02409
G1 X207.484 Y178.39 E3.36516
G1 X207.484 Y179.036 E.02409
G1 X142.964 Y114.516 E3.39923
G1 X142.317 Y114.516 E.02409
G1 X207.484 Y179.683 E3.43329
G1 X207.484 Y180.329 E.02409
G1 X141.671 Y114.516 E3.46735
G1 X141.024 Y114.516 E.02409
G1 X207.484 Y180.976 E3.50141
G1 X207.484 Y181.622 E.02409
G1 X140.378 Y114.516 E3.53548
G1 X139.731 Y114.516 E.02409
G1 X207.484 Y182.269 E3.56954
G1 X207.484 Y182.915 E.02409
G1 X139.085 Y114.516 E3.6036
M73 P4 R60
G1 X138.438 Y114.516 E.02409
G1 X207.484 Y183.562 E3.63767
G1 X207.484 Y184.209 E.02409
G1 X137.791 Y114.516 E3.67173
G1 X137.145 Y114.516 E.02409
G1 X207.484 Y184.855 E3.70579
G1 X207.484 Y185.502 E.02409
G1 X136.498 Y114.516 E3.73985
G1 X135.852 Y114.516 E.02409
G1 X207.484 Y186.148 E3.77392
M73 P4 R59
G1 X207.484 Y186.795 E.02409
G1 X135.205 Y114.516 E3.80798
G1 X134.559 Y114.516 E.02409
G1 X207.484 Y187.441 E3.84204
G1 X207.484 Y188.088 E.02409
G1 X133.912 Y114.516 E3.8761
G1 X133.266 Y114.516 E.02409
G1 X207.484 Y188.734 E3.91017
G1 X207.484 Y189.381 E.02409
G1 X132.619 Y114.516 E3.94423
G1 X131.973 Y114.516 E.02409
G1 X207.484 Y190.027 E3.97829
G1 X207.484 Y190.674 E.02409
G1 X131.326 Y114.516 E4.01236
G1 X130.68 Y114.516 E.02409
G1 X207.484 Y191.32 E4.04642
G1 X207.484 Y191.967 E.02409
G1 X130.033 Y114.516 E4.08048
G1 X129.386 Y114.516 E.02409
G1 X207.484 Y192.614 E4.11454
G1 X207.484 Y193.26 E.02409
G1 X128.74 Y114.516 E4.14861
G1 X128.093 Y114.516 E.02409
G1 X207.484 Y193.907 E4.18267
M73 P5 R59
G1 X207.484 Y194.553 E.02409
G1 X127.447 Y114.516 E4.21673
G1 X126.8 Y114.516 E.02409
G1 X207.484 Y195.2 E4.25079
G1 X207.484 Y195.484 E.01059
G1 X207.122 Y195.484 E.0135
G1 X126.154 Y114.516 E4.26577
G1 X125.507 Y114.516 E.02409
G1 X206.475 Y195.484 E4.26577
G1 X205.828 Y195.484 E.02409
G1 X124.861 Y114.516 E4.26577
G1 X124.214 Y114.516 E.02409
G1 X205.182 Y195.484 E4.26577
G1 X204.535 Y195.484 E.02409
G1 X123.568 Y114.516 E4.26577
G1 X122.921 Y114.516 E.02409
G1 X203.889 Y195.484 E4.26577
G1 X203.242 Y195.484 E.02409
G1 X122.275 Y114.516 E4.26577
G1 X121.628 Y114.516 E.02409
G1 X202.596 Y195.484 E4.26577
G1 X201.949 Y195.484 E.02409
G1 X120.981 Y114.516 E4.26577
G1 X120.335 Y114.516 E.02409
G1 X201.303 Y195.484 E4.26577
G1 X200.656 Y195.484 E.02409
G1 X119.688 Y114.516 E4.26577
G1 X119.042 Y114.516 E.02409
G1 X200.01 Y195.484 E4.26577
M73 P5 R58
G1 X199.363 Y195.484 E.02409
G1 X118.395 Y114.516 E4.26577
G1 X117.749 Y114.516 E.02409
G1 X198.717 Y195.484 E4.26577
M73 P6 R58
G1 X198.07 Y195.484 E.02409
G1 X117.102 Y114.516 E4.26577
G1 X116.456 Y114.516 E.02409
G1 X197.423 Y195.484 E4.26577
G1 X196.777 Y195.484 E.02409
G1 X115.809 Y114.516 E4.26577
G1 X115.163 Y114.516 E.02409
G1 X196.13 Y195.484 E4.26577
G1 X195.484 Y195.484 E.02409
G1 X114.516 Y114.516 E4.26577
G1 X113.87 Y114.516 E.02409
G1 X194.837 Y195.484 E4.26577
G1 X194.191 Y195.484 E.02409
G1 X113.223 Y114.516 E4.26577
G1 X112.576 Y114.516 E.02409
G1 X193.544 Y195.484 E4.26577
G1 X192.898 Y195.484 E.02409
G1 X111.93 Y114.516 E4.26577
G1 X111.283 Y114.516 E.02409
G1 X192.251 Y195.484 E4.26577
G1 X191.605 Y195.484 E.02409
G1 X110.637 Y114.516 E4.26577
G1 X109.99 Y114.516 E.02409
G1 X190.958 Y195.484 E4.26577
G1 X190.312 Y195.484 E.02409
G1 X109.344 Y114.516 E4.26577
G1 X108.697 Y114.516 E.02409
G1 X189.665 Y195.484 E4.26577
G1 X189.018 Y195.484 E.02409
G1 X108.051 Y114.516 E4.26577
G1 X107.404 Y114.516 E.02409
G1 X188.372 Y195.484 E4.26577
M73 P7 R58
G1 X187.725 Y195.484 E.02409
G1 X106.758 Y114.516 E4.26577
G1 X106.111 Y114.516 E.02409
G1 X187.079 Y195.484 E4.26577
G1 X186.432 Y195.484 E.02409
G1 X105.465 Y114.516 E4.26577
G1 X104.818 Y114.516 E.02409
G1 X185.786 Y195.484 E4.26577
G1 X185.139 Y195.484 E.02409
G1 X104.171 Y114.516 E4.26577
G1 X103.525 Y114.516 E.02409
G1 X184.493 Y195.484 E4.26577
G1 X183.846 Y195.484 E.02409
G1 X102.878 Y114.516 E4.26577
G1 X102.516 Y114.516 E.0135
G1 X102.516 Y114.8 E.01059
G1 X183.2 Y195.484 E4.25079
M73 P7 R57
G1 X182.553 Y195.484 E.02409
G1 X102.516 Y115.447 E4.21673
G1 X102.516 Y116.093 E.02409
G1 X181.907 Y195.484 E4.18266
G1 X181.26 Y195.484 E.02409
G1 X102.516 Y116.74 E4.1486
G1 X102.516 Y117.387 E.02409
G1 X180.613 Y195.484 E4.11454
G1 X179.967 Y195.484 E.02409
G1 X102.516 Y118.033 E4.08048
G1 X102.516 Y118.68 E.02409
G1 X179.32 Y195.484 E4.04641
G1 X178.674 Y195.484 E.02409
G1 X102.516 Y119.326 E4.01235
G1 X102.516 Y119.973 E.02409
G1 X178.027 Y195.484 E3.97829
G1 X177.381 Y195.484 E.02409
G1 X102.516 Y120.619 E3.94423
M73 P8 R57
G1 X102.516 Y121.266 E.02409
G1 X176.734 Y195.484 E3.91016
G1 X176.088 Y195.484 E.02409
G1 X102.516 Y121.912 E3.8761
G1 X102.516 Y122.559 E.02409
G1 X175.441 Y195.484 E3.84204
G1 X174.795 Y195.484 E.02409
G1 X102.516 Y123.205 E3.80797
G1 X102.516 Y123.852 E.02409
G1 X174.148 Y195.484 E3.77391
G1 X173.502 Y195.484 E.02409
G1 X102.516 Y124.498 E3.73985
G1 X102.516 Y125.145 E.02409
G1 X172.855 Y195.484 E3.70579
G1 X172.208 Y195.484 E.02409
G1 X102.516 Y125.792 E3.67172
G1 X102.516 Y126.438 E.02409
G1 X171.562 Y195.484 E3.63766
G1 X170.915 Y195.484 E.02409
G1 X102.516 Y127.085 E3.6036
G1 X102.516 Y127.731 E.02409
G1 X170.269 Y195.484 E3.56954
G1 X169.622 Y195.484 E.02409
G1 X102.516 Y128.378 E3.53547
G1 X102.516 Y129.024 E.02409
G1 X168.976 Y195.484 E3.50141
G1 X168.329 Y195.484 E.02409
G1 X102.516 Y129.671 E3.46735
G1 X102.516 Y130.317 E.02409
G1 X167.683 Y195.484 E3.43328
G1 X167.036 Y195.484 E.02409
G1 X102.516 Y130.964 E3.39922
G1 X102.516 Y131.61 E.02409
G1 X166.39 Y195.484 E3.36516
G1 X165.743 Y195.484 E.02409
G1 X102.516 Y132.257 E3.3311
M73 P9 R57
G1 X102.516 Y132.903 E.02409
G1 X165.097 Y195.484 E3.29703
G1 X164.45 Y195.484 E.02409
G1 X102.516 Y133.55 E3.26297
M73 P9 R56
G1 X102.516 Y134.197 E.02409
G1 X163.803 Y195.484 E3.22891
G1 X163.157 Y195.484 E.02409
G1 X102.516 Y134.843 E3.19485
G1 X102.516 Y135.49 E.02409
G1 X162.51 Y195.484 E3.16078
G1 X161.864 Y195.484 E.02409
G1 X102.516 Y136.136 E3.12672
G1 X102.516 Y136.783 E.02409
G1 X161.217 Y195.484 E3.09266
G1 X160.571 Y195.484 E.02409
G1 X102.516 Y137.429 E3.05859
G1 X102.516 Y138.076 E.02409
G1 X159.924 Y195.484 E3.02453
G1 X159.278 Y195.484 E.02409
G1 X102.516 Y138.722 E2.99047
G1 X102.516 Y139.369 E.02409
G1 X158.631 Y195.484 E2.95641
G1 X157.985 Y195.484 E.02409
G1 X102.516 Y140.015 E2.92234
G1 X102.516 Y140.662 E.02409
G1 X157.338 Y195.484 E2.88828
G1 X156.692 Y195.484 E.02409
G1 X102.516 Y141.308 E2.85422
G1 X102.516 Y141.955 E.02409
G1 X156.045 Y195.484 E2.82016
G1 X155.398 Y195.484 E.02409
G1 X102.516 Y142.602 E2.78609
G1 X102.516 Y143.248 E.02409
G1 X154.752 Y195.484 E2.75203
G1 X154.105 Y195.484 E.02409
G1 X102.516 Y143.895 E2.71797
G1 X102.516 Y144.541 E.02409
G1 X153.459 Y195.484 E2.6839
G1 X152.812 Y195.484 E.02409
G1 X102.516 Y145.188 E2.64984
G1 X102.516 Y145.834 E.02409
G1 X152.166 Y195.484 E2.61578
G1 X151.519 Y195.484 E.02409
G1 X102.516 Y146.481 E2.58172
G1 X102.516 Y147.127 E.02409
G1 X150.873 Y195.484 E2.54765
G1 X150.226 Y195.484 E.02409
G1 X102.516 Y147.774 E2.51359
M73 P10 R56
G1 X102.516 Y148.42 E.02409
G1 X149.58 Y195.484 E2.47953
G1 X148.933 Y195.484 E.02409
G1 X102.516 Y149.067 E2.44547
G1 X102.516 Y149.713 E.02409
G1 X148.287 Y195.484 E2.4114
G1 X147.64 Y195.484 E.02409
G1 X102.516 Y150.36 E2.37734
G1 X102.516 Y151.007 E.02409
G1 X146.993 Y195.484 E2.34328
G1 X146.347 Y195.484 E.02409
G1 X102.516 Y151.653 E2.30921
G1 X102.516 Y152.3 E.02409
G1 X145.7 Y195.484 E2.27515
G1 X145.054 Y195.484 E.02409
G1 X102.516 Y152.946 E2.24109
G1 X102.516 Y153.593 E.02409
G1 X144.407 Y195.484 E2.20703
G1 X143.761 Y195.484 E.02409
