; HEADER_BLOCK_START
; generated by OrcaSlicer 1.7.0-beta on 2023-09-11 at 13:34:55
; total layer number: 10
; HEADER_BLOCK_END

; THUMBNAIL_BLOCK_START
; THUMBNAIL_BLOCK_END

; external perimeters extrusion width = 0.40mm
; perimeters extrusion width = 0.45mm
; infill extrusion width = 0.45mm
; solid infill extrusion width = 0.40mm
; top infill extrusion width = 0.40mm
; support material extrusion width = 0.40mm
; first layer extrusion width = 0.50mm

; EXECUTABLE_BLOCK_START
EXCLUDE_OBJECT_DEFINE NAME=garbagelid.stl_id_0_copy_0 CENTER=155,155 POLYGON=[[101,197],[101,113],[209,113],[209,197],[101,197]]
M73 P0 R33
;TYPE:Custom
START_PRINT T_BED=60 T_EXTRUDER=220
G90
G21
M83 ; use relative distances for extrusion
; filament start gcode
PRESSURE_ADVANCE_SELECT FILAMENT=PLA
M106 S0
;LAYER_CHANGE
;Z:0.2
;HEIGHT:0.2
;BEFORE_LAYER_CHANGE
;0.2
G92 E0

;_SET_FAN_SPEED_CHANGING_LAYER
SET_VELOCITY_LIMIT ACCEL=1500 ACCEL_TO_DECEL=750
G1 E-.8 F3000
G1 Z.4 F9000
G1 X99.552 Y110.471
G1 Z.4
G1 Z.2
G1 E.8 F1800
;TYPE:Skirt
;WIDTH:0.5
G1 F3000
G1 X101 Y110.086 E.0558
G1 X209 Y110.086 E4.02259
G1 X210.462 Y110.479 E.05638
G1 X211.529 Y111.552 E.05638
G1 X211.914 Y113 E.0558
G1 X211.914 Y197 E3.12868
G1 X211.521 Y198.462 E.05638
G1 X210.448 Y199.529 E.05638
G1 X209 Y199.914 E.0558
G1 X101 Y199.914 E4.02259
G1 X99.538 Y199.521 E.05638
G1 X98.471 Y198.448 E.05638
G1 X98.086 Y197 E.0558
G1 X98.086 Y113 E3.12868
G1 X98.479 Y111.538 E.05638
G1 X99.524 Y110.499 E.05489
G1 X99.851 Y110.878 F9000
G1 F3000
G1 X99.985 Y110.762 E.00661
G1 X101 Y110.543 E.03866
G1 X209 Y110.543 E4.02259
G1 X210.331 Y110.935 E.05169
G1 X211.238 Y111.985 E.05169
G1 X211.457 Y113 E.03866
G1 X211.457 Y197 E3.12868
G1 X211.065 Y198.331 E.05169
G1 X210.015 Y199.238 E.05169
G1 X209 Y199.457 E.03866
G1 X101 Y199.457 E4.02259
G1 X99.669 Y199.065 E.05169
G1 X98.762 Y198.015 E.05169
G1 X98.543 Y197 E.03866
G1 X98.543 Y113 E3.12868
G1 X98.935 Y111.669 E.05169
G1 X99.821 Y110.904 E.04359
; printing object garbagelid.stl id:0 copy 0
G1 E-.8
EXCLUDE_OBJECT_START NAME=garbagelid.stl_id_0_copy_0
G1 Z.6 F9000
G1 X208.75 Y196.75 Z.6
G1 Z.2
G1 E.8 F1800
;TYPE:Outer wall
G1 F3000
G1 X101.25 Y196.75 E4.00397
M73 P1 R33
G1 X101.25 Y113.25 E3.11006
G1 X208.75 Y113.25 E4.00397
G1 X208.75 Y196.71 E3.10857
G1 X208.293 Y196.293 F9000
;TYPE:Inner wall
G1 F3000
G1 X101.707 Y196.293 E3.96992
G1 X101.707 Y113.707 E3.07601
G1 X208.293 Y113.707 E3.96992
G1 X208.293 Y196.253 E3.07452
G1 X207.836 Y195.836 F9000
M73 P1 R32
G1 F3000
G1 X102.164 Y195.836 E3.93587
G1 X102.164 Y114.164 E3.04196
G1 X207.836 Y114.164 E3.93587
M73 P2 R32
G1 X207.836 Y195.796 E3.04047
G1 E-.8
G1 Z.6 F9000
G1 X204.25 Y192.25 Z.6
G1 Z.2
G1 E.8 F1800
;TYPE:Outer wall
G1 F3000
G1 X106.25 Y192.25 E3.65013
G1 X106.25 Y117.75 E2.77484
G1 X204.25 Y117.75 E3.65013
G1 X204.25 Y192.21 E2.77335
G1 X204.707 Y192.707 F9000
;TYPE:Inner wall
G1 F3000
G1 X105.793 Y192.707 E3.68418
G1 X105.793 Y117.293 E2.80889
G1 X204.707 Y117.293 E3.68418
G1 X204.707 Y192.667 E2.8074
G1 X205.164 Y193.164 F9000
G1 F3000
G1 X105.336 Y193.164 E3.71823
G1 X105.336 Y116.836 E2.84294
M73 P3 R32
G1 X205.164 Y116.836 E3.71823
G1 X205.164 Y193.124 E2.84145
G1 E-.8
G1 Z.6 F9000
G1 X203.25 Y192 Z.6
G1 Z.2
G1 E.8 F1800
;TYPE:Outer wall
;WIDTH:0.54292
G1 F3000
G1 X203.25 Y118 E3.01503
G1 X202.25 Y118 F9000
G1 F3000
G1 X202.25 Y192 E3.01503
G1 X201.25 Y192 F9000
G1 F3000
G1 X201.25 Y118 E3.01503
G1 X200.25 Y118 F9000
G1 F3000
G1 X200.25 Y192 E3.01503
G1 X199.25 Y192 F9000
G1 F3000
G1 X199.25 Y118 E3.01503
G1 X198.25 Y118 F9000
G1 F3000
G1 X198.25 Y192 E3.01503
G1 X197.25 Y192 F9000
G1 F3000
G1 X197.25 Y118 E3.01503
G1 X196.25 Y118 F9000
G1 F3000
G1 X196.25 Y192 E3.01503
G1 X195.25 Y192 F9000
G1 F3000
G1 X195.25 Y118 E3.01503
G1 X194.25 Y118 F9000
G1 F3000
G1 X194.25 Y192 E3.01503
G1 X193.25 Y192 F9000
G1 F3000
G1 X193.25 Y118 E3.01503
M73 P4 R32
G1 X192.25 Y118 F9000
G1 F3000
G1 X192.25 Y192 E3.01503
G1 X191.25 Y192 F9000
G1 F3000
G1 X191.25 Y118 E3.01503
G1 X190.25 Y118 F9000
G1 F3000
G1 X190.25 Y192 E3.01503
G1 X189.25 Y192 F9000
G1 F3000
G1 X189.25 Y118 E3.01503
G1 X188.25 Y118 F9000
G1 F3000
G1 X188.25 Y192 E3.01503
G1 X187.25 Y192 F9000
G1 F3000
G1 X187.25 Y118 E3.01503
G1 X186.25 Y118 F9000
G1 F3000
G1 X186.25 Y192 E3.01503
G1 X185.25 Y192 F9000
G1 F3000
G1 X185.25 Y118 E3.01503
G1 X184.25 Y118 F9000
G1 F3000
G1 X184.25 Y192 E3.01503
M73 P4 R31
G1 E-.8
G1 Z.6 F9000
G1 X175.25 Y192 Z.6
G1 Z.2
G1 E.8 F1800
G1 F3000
G1 X175.25 Y118 E3.01503
G1 X176.25 Y118 F9000
G1 F3000
G1 X176.25 Y192 E3.01503
G1 X177.25 Y192 F9000
G1 F3000
G1 X177.25 Y118 E3.01503
M73 P5 R31
G1 X178.25 Y118 F9000
G1 F3000
G1 X178.25 Y192 E3.01503
G1 X179.25 Y192 F9000
G1 F3000
G1 X179.25 Y118 E3.01503
G1 X180.25 Y118 F9000
G1 F3000
G1 X180.25 Y192 E3.01503
G1 X181.25 Y192 F9000
G1 F3000
G1 X181.25 Y118 E3.01503
G1 X182.25 Y118 F9000
G1 F3000
G1 X182.25 Y192 E3.01503
G1 X183.25 Y192 F9000
G1 F3000
G1 X183.25 Y118 E3.01503
G1 E-.8
G1 Z.6 F9000
G1 X174.25 Y118 Z.6
G1 Z.2
G1 E.8 F1800
G1 F3000
G1 X174.25 Y192 E3.01503
G1 X173.25 Y192 F9000
G1 F3000
G1 X173.25 Y118 E3.01503
G1 X172.25 Y118 F9000
G1 F3000
G1 X172.25 Y192 E3.01503
G1 X171.25 Y192 F9000
G1 F3000
G1 X171.25 Y118 E3.01503
G1 X170.25 Y118 F9000
G1 F3000
G1 X170.25 Y192 E3.01503
G1 X169.25 Y192 F9000
G1 F3000
G1 X169.25 Y118 E3.01503
G1 X168.25 Y118 F9000
G1 F3000
G1 X168.25 Y192 E3.01503
M73 P6 R31
G1 X167.25 Y192 F9000
G1 F3000
G1 X167.25 Y118 E3.01503
G1 X166.25 Y118 F9000
G1 F3000
G1 X166.25 Y192 E3.01503
G1 X165.25 Y192 F9000
G1 F3000
G1 X165.25 Y118 E3.01503
G1 X164.25 Y118 F9000
G1 F3000
G1 X164.25 Y192 E3.01503
G1 X163.25 Y192 F9000
G1 F3000
G1 X163.25 Y118 E3.01503
G1 X162.25 Y118 F9000
G1 F3000
G1 X162.25 Y192 E3.01503
G1 X161.25 Y192 F9000
G1 F3000
G1 X161.25 Y118 E3.01503
G1 X160.25 Y118 F9000
G1 F3000
G1 X160.25 Y192 E3.01503
G1 X159.25 Y192 F9000
G1 F3000
G1 X159.25 Y118 E3.01503
G1 X158.25 Y118 F9000
G1 F3000
G1 X158.25 Y192 E3.01503
G1 X157.25 Y192 F9000
G1 F3000
G1 X157.25 Y118 E3.01503
G1 E-.8
G1 Z.6 F9000
G1 X146.25 Y118 Z.6
G1 Z.2
G1 E.8 F1800
G1 F3000
G1 X146.25 Y192 E3.01503
G1 X145.25 Y192 F9000
G1 F3000
G1 X145.25 Y118 E3.01503
M73 P7 R31
G1 E-.8
G1 Z.6 F9000
G1 X134.25 Y118 Z.6
G1 Z.2
G1 E.8 F1800
G1 F3000
G1 X134.25 Y192 E3.01503
G1 X135.25 Y192 F9000
G1 F3000
G1 X135.25 Y118 E3.01503
G1 X136.25 Y118 F9000
G1 F3000
G1 X136.25 Y192 E3.01503
G1 E-.8
G1 Z.6 F9000
G1 X133.25 Y192 Z.6
G1 Z.2
G1 E.8 F1800
G1 F3000
G1 X133.25 Y118 E3.01503
G1 X132.25 Y118 F9000
G1 F3000
G1 X132.25 Y192 E3.01503
G1 X131.25 Y192 F9000
G1 F3000
G1 X131.25 Y118 E3.01503
G1 X130.25 Y118 F9000
G1 F3000
G1 X130.25 Y192 E3.01503
G1 X129.25 Y192 F9000
G1 F3000
G1 X129.25 Y118 E3.01503
M73 P7 R30
G1 X128.25 Y118 F9000
G1 F3000
G1 X128.25 Y192 E3.01503
G1 X127.25 Y192 F9000
G1 F3000
G1 X127.25 Y118 E3.01503
G1 X126.25 Y118 F9000
G1 F3000
G1 X126.25 Y192 E3.01503
G1 X125.25 Y192 F9000
G1 F3000
G1 X125.25 Y118 E3.01503
M73 P8 R30
G1 X124.25 Y118 F9000
G1 F3000
G1 X124.25 Y192 E3.01503
G1 X123.25 Y192 F9000
G1 F3000
G1 X123.25 Y118 E3.01503
G1 X122.25 Y118 F9000
G1 F3000
G1 X122.25 Y192 E3.01503
G1 X121.25 Y192 F9000
G1 F3000
G1 X121.25 Y118 E3.01503
G1 X120.25 Y118 F9000
G1 F3000
G1 X120.25 Y192 E3.01503
G1 X119.25 Y192 F9000
G1 F3000
G1 X119.25 Y118 E3.01503
G1 X118.25 Y118 F9000
G1 F3000
G1 X118.25 Y192 E3.01503
G1 X117.25 Y192 F9000
G1 F3000
G1 X117.25 Y118 E3.01503
G1 X116.25 Y118 F9000
G1 F3000
G1 X116.25 Y192 E3.01503
G1 X115.25 Y192 F9000
G1 F3000
G1 X115.25 Y118 E3.01503
G1 X114.25 Y118 F9000
G1 F3000
G1 X114.25 Y192 E3.01503
G1 X113.25 Y192 F9000
G1 F3000
G1 X113.25 Y118 E3.01503
G1 E-.8
G1 Z.6 F9000
G1 X107.25 Y192 Z.6
M73 P9 R30
G1 Z.2
G1 E.8 F1800
G1 F3000
G1 X107.25 Y118 E3.01503
G1 X108.25 Y118 F9000
G1 F3000
G1 X108.25 Y192 E3.01503
G1 X109.25 Y192 F9000
G1 F3000
G1 X109.25 Y118 E3.01503
G1 X110.25 Y118 F9000
G1 F3000
G1 X110.25 Y192 E3.01503
G1 X111.25 Y192 F9000
G1 F3000
G1 X111.25 Y118 E3.01503
G1 X112.25 Y118 F9000
G1 F3000
G1 X112.25 Y192 E3.01503
G1 E-.8
G1 Z.6 F9000
G1 X139.25 Y192 Z.6
G1 Z.2
G1 E.8 F1800
G1 F3000
G1 X139.25 Y118 E3.01503
G1 X138.25 Y118 F9000
G1 F3000
G1 X138.25 Y192 E3.01503
G1 X137.25 Y192 F9000
G1 F3000
G1 X137.25 Y118 E3.01503
G1 E-.8
G1 Z.6 F9000
G1 X140.25 Y118 Z.6
G1 Z.2
G1 E.8 F1800
G1 F3000
G1 X140.25 Y192 E3.01503
G1 X141.25 Y192 F9000
G1 F3000
G1 X141.25 Y118 E3.01503
G1 X142.25 Y118 F9000
G1 F3000
G1 X142.25 Y192 E3.01503
M73 P10 R30
G1 X143.25 Y192 F9000
G1 F3000
G1 X143.25 Y118 E3.01503
G1 X144.25 Y118 F9000
G1 F3000
G1 X144.25 Y192 E3.01503
G1 E-.8
G1 Z.6 F9000
G1 X147.25 Y192 Z.6
G1 Z.2
G1 E.8 F1800
G1 F3000
G1 X147.25 Y118 E3.01503
G1 X148.25 Y118 F9000
G1 F3000
G1 X148.25 Y192 E3.01503
G1 X149.25 Y192 F9000
G1 F3000
G1 X149.25 Y118 E3.01503
G1 X150.25 Y118 F9000
G1 F3000
G1 X150.25 Y192 E3.01503
G1 X151.25 Y192 F9000
G1 F3000
G1 X151.25 Y118 E3.01503
G1 X152.25 Y118 F9000
G1 F3000
G1 X152.25 Y192 E3.01503
G1 X153.25 Y192 F9000
G1 F3000
G1 X153.25 Y118 E3.01503
M73 P10 R29
G1 X154.25 Y118 F9000
G1 F3000
G1 X154.25 Y192 E3.01503
G1 E-.8
G1 Z.6 F9000
G1 X156.25 Y192 Z.6
G1 Z.2
G1 E.8 F1800
G1 F3000
G1 X156.25 Y118 E3.01503
G1 X155.25 Y118 F9000
G1 F3000
G1 X155.25 Y192 E3.01503
G1 E-.8
G1 Z.6 F9000
G1 X206.765 Y114.31 Z.6
M73 P11 R29
G1 Z.2
G1 E.8 F1800
;TYPE:Bottom surface
;WIDTH:0.500092
G1 F3000
G1 X207.484 Y115.029 E.03785
G1 X207.484 Y115.675 E.02409
G1 X206.325 Y114.516 E.06108
G1 X205.678 Y114.516 E.02409
G1 X207.484 Y116.322 E.09514
G1 X207.484 Y116.969 E.02409
G1 X205.031 Y114.516 E.1292
G1 X204.385 Y114.516 E.02409
G1 X207.484 Y117.615 E.16327
G1 X207.484 Y118.262 E.02409
G1 X203.738 Y114.516 E.19733
G1 X203.092 Y114.516 E.02409
G1 X205.06 Y116.484 E.10367
G1 X205.516 Y116.484 E.017
G1 X205.516 Y116.94 E.017
G1 X207.484 Y118.908 E.10367
G1 X207.484 Y119.555 E.02409
G1 X205.516 Y117.587 E.10367
G1 X205.516 Y118.233 E.02409
G1 X207.484 Y120.201 E.10367
G1 X207.484 Y120.848 E.02409
G1 X205.516 Y118.88 E.10367
G1 X205.516 Y119.526 E.02409
G1 X207.484 Y121.494 E.10367
G1 X207.484 Y122.141 E.02409
G1 X205.516 Y120.173 E.10367
G1 X205.516 Y120.82 E.02409
G1 X207.484 Y122.787 E.10367
G1 X207.484 Y123.434 E.02409
G1 X205.516 Y121.466 E.10367
G1 X205.516 Y122.113 E.02409
G1 X207.484 Y124.08 E.10367
G1 X207.484 Y124.727 E.02409
G1 X205.516 Y122.759 E.10367
G1 X205.516 Y123.406 E.02409
G1 X207.484 Y125.374 E.10367
G1 X207.484 Y126.02 E.02409
G1 X205.516 Y124.052 E.10367
G1 X205.516 Y124.699 E.02409
G1 X207.484 Y126.667 E.10367
G1 X207.484 Y127.313 E.02409
G1 X205.516 Y125.345 E.10367
G1 X205.516 Y125.992 E.02409
G1 X207.484 Y127.96 E.10367
G1 X207.484 Y128.606 E.02409
G1 X205.516 Y126.638 E.10367
G1 X205.516 Y127.285 E.02409
G1 X207.484 Y129.253 E.10367
G1 X207.484 Y129.899 E.02409
G1 X205.516 Y127.931 E.10367
G1 X205.516 Y128.578 E.02409
G1 X207.484 Y130.546 E.10367
G1 X207.484 Y131.192 E.02409
G1 X205.516 Y129.225 E.10367
G1 X205.516 Y129.871 E.02409
G1 X207.484 Y131.839 E.10367
G1 X207.484 Y132.485 E.02409
G1 X205.516 Y130.518 E.10367
G1 X205.516 Y131.164 E.02409
G1 X207.484 Y133.132 E.10367
G1 X207.484 Y133.779 E.02409
G1 X205.516 Y131.811 E.10367
G1 X205.516 Y132.457 E.02409
G1 X207.484 Y134.425 E.10367
G1 X207.484 Y135.072 E.02409
G1 X205.516 Y133.104 E.10367
G1 X205.516 Y133.75 E.02409
G1 X207.484 Y135.718 E.10367
G1 X207.484 Y136.365 E.02409
G1 X205.516 Y134.397 E.10367
G1 X205.516 Y135.043 E.02409
G1 X207.484 Y137.011 E.10367
G1 X207.484 Y137.658 E.02409
G1 X205.516 Y135.69 E.10367
G1 X205.516 Y136.336 E.02409
G1 X207.484 Y138.304 E.10367
G1 X207.484 Y138.951 E.02409
G1 X205.516 Y136.983 E.10367
G1 X205.516 Y137.63 E.02409
G1 X207.484 Y139.597 E.10367
G1 X207.484 Y140.244 E.02409
G1 X205.516 Y138.276 E.10367
G1 X205.516 Y138.923 E.02409
G1 X207.484 Y140.89 E.10367
G1 X207.484 Y141.537 E.02409
G1 X205.516 Y139.569 E.10367
G1 X205.516 Y140.216 E.02409
G1 X207.484 Y142.184 E.10367
G1 X207.484 Y142.83 E.02409
G1 X205.516 Y140.862 E.10367
G1 X205.516 Y141.509 E.02409
G1 X207.484 Y143.477 E.10367
G1 X207.484 Y144.123 E.02409
G1 X205.516 Y142.155 E.10367
G1 X205.516 Y142.802 E.02409
G1 X207.484 Y144.77 E.10367
G1 X207.484 Y145.416 E.02409
G1 X205.516 Y143.448 E.10367
G1 X205.516 Y144.095 E.02409
G1 X207.484 Y146.063 E.10367
G1 X207.484 Y146.709 E.02409
G1 X205.516 Y144.741 E.10367
G1 X205.516 Y145.388 E.02409
G1 X207.484 Y147.356 E.10367
G1 X207.484 Y148.002 E.02409
G1 X205.516 Y146.035 E.10367
G1 X205.516 Y146.681 E.02409
G1 X207.484 Y148.649 E.10367
G1 X207.484 Y149.295 E.02409
G1 X205.516 Y147.328 E.10367
G1 X205.516 Y147.974 E.02409
G1 X207.484 Y149.942 E.10367
G1 X207.484 Y150.589 E.02409
G1 X205.516 Y148.621 E.10367
G1 X205.516 Y149.267 E.02409
G1 X207.484 Y151.235 E.10367
G1 X207.484 Y151.882 E.02409
G1 X205.516 Y149.914 E.10367
G1 X205.516 Y150.56 E.02409
G1 X207.484 Y152.528 E.10367
G1 X207.484 Y153.175 E.02409
G1 X205.516 Y151.207 E.10367
G1 X205.516 Y151.853 E.02409
G1 X207.484 Y153.821 E.10367
G1 X207.484 Y154.468 E.02409
G1 X205.516 Y152.5 E.10367
G1 X205.516 Y153.147 E.02409
G1 X207.484 Y155.114 E.10367
G1 X207.484 Y155.761 E.02409
G1 X205.516 Y153.793 E.10367
G1 X205.516 Y154.44 E.02409
G1 X207.484 Y156.407 E.10367
G1 X207.484 Y157.054 E.02409
G1 X205.516 Y155.086 E.10367
G1 X205.516 Y155.733 E.02409
G1 X207.484 Y157.7 E.10367
G1 X207.484 Y158.347 E.02409
G1 X205.516 Y156.379 E.10367
G1 X205.516 Y157.026 E.02409
G1 X207.484 Y158.994 E.10367
G1 X207.484 Y159.64 E.02409
G1 X205.516 Y157.672 E.10367
G1 X205.516 Y158.319 E.02409
G1 X207.484 Y160.287 E.10367
G1 X207.484 Y160.933 E.02409
G1 X205.516 Y158.965 E.10367
G1 X205.516 Y159.612 E.02409
G1 X207.484 Y161.58 E.10367
G1 X207.484 Y162.226 E.02409
G1 X205.516 Y160.258 E.10367
G1 X205.516 Y160.905 E.02409
G1 X207.484 Y162.873 E.10367
G1 X207.484 Y163.519 E.02409
G1 X205.516 Y161.552 E.10367
G1 X205.516 Y162.198 E.02409
G1 X207.484 Y164.166 E.10367
G1 X207.484 Y164.812 E.02409
G1 X205.516 Y162.845 E.10367
G1 X205.516 Y163.491 E.02409
G1 X207.484 Y165.459 E.10367
G1 X207.484 Y166.105 E.02409
G1 X205.516 Y164.138 E.10367
G1 X205.516 Y164.784 E.02409
G1 X207.484 Y166.752 E.10367
G1 X207.484 Y167.399 E.02409
G1 X205.516 Y165.431 E.10367
G1 X205.516 Y166.077 E.02409
G1 X207.484 Y168.045 E.10367
G1 X207.484 Y168.692 E.02409
G1 X205.516 Y166.724 E.10367
G1 X205.516 Y167.37 E.02409
G1 X207.484 Y169.338 E.10367
G1 X207.484 Y169.985 E.02409
G1 X205.516 Y168.017 E.10367
G1 X205.516 Y168.663 E.02409
G1 X207.484 Y170.631 E.10367
G1 X207.484 Y171.278 E.02409
G1 X205.516 Y169.31 E.10367
G1 X205.516 Y169.957 E.02409
G1 X207.484 Y171.924 E.10367
G1 X207.484 Y172.571 E.02409
G1 X205.516 Y170.603 E.10367
G1 X205.516 Y171.25 E.02409
G1 X207.484 Y173.217 E.10367
G1 X207.484 Y173.864 E.02409
G1 X205.516 Y171.896 E.10367
G1 X205.516 Y172.543 E.02409
G1 X207.484 Y174.51 E.10367
G1 X207.484 Y175.157 E.02409
G1 X205.516 Y173.189 E.10367
G1 X205.516 Y173.836 E.02409
G1 X207.484 Y175.804 E.10367
G1 X207.484 Y176.45 E.02409
G1 X205.516 Y174.482 E.10367
G1 X205.516 Y175.129 E.02409
G1 X207.484 Y177.097 E.10367
G1 X207.484 Y177.743 E.02409
G1 X205.516 Y175.775 E.10367
G1 X205.516 Y176.422 E.02409
G1 X207.484 Y178.39 E.10367
G1 X207.484 Y179.036 E.02409
G1 X205.516 Y177.068 E.10367
G1 X205.516 Y177.715 E.02409
G1 X207.484 Y179.683 E.10367
G1 X207.484 Y180.329 E.02409
G1 X205.516 Y178.362 E.10367
G1 X205.516 Y179.008 E.02409
G1 X207.484 Y180.976 E.10367
G1 X207.484 Y181.622 E.02409
G1 X205.516 Y179.655 E.10367
G1 X205.516 Y180.301 E.02409
G1 X207.484 Y182.269 E.10367
G1 X207.484 Y182.915 E.02409
G1 X205.516 Y180.948 E.10367
G1 X205.516 Y181.594 E.02409
G1 X207.484 Y183.562 E.10367
G1 X207.484 Y184.209 E.02409
G1 X205.516 Y182.241 E.10367
G1 X205.516 Y182.887 E.02409
G1 X207.484 Y184.855 E.10367
G1 X207.484 Y185.502 E.02409
G1 X205.516 Y183.534 E.10367
G1 X205.516 Y184.18 E.02409
G1 X207.484 Y186.148 E.10367
G1 X207.484 Y186.795 E.02409
G1 X205.516 Y184.827 E.10367
G1 X205.516 Y185.473 E.02409
G1 X207.484 Y187.441 E.10367
G1 X207.484 Y188.088 E.02409
G1 X205.516 Y186.12 E.10367
G1 X205.516 Y186.767 E.02409
G1 X207.484 Y188.734 E.10367
