; HEADER_BLOCK_START
; generated by OrcaSlicer 1.7.0-beta on 2023-09-11 at 15:26:39
; total layer number: 10
; HEADER_BLOCK_END

; THUMBNAIL_BLOCK_START
; THUMBNAIL_BLOCK_END

; external perimeters extrusion width = 0.40mm
; perimeters extrusion width = 0.45mm
; infill extrusion width = 0.45mm
; solid infill extrusion width = 0.40mm
; top infill extrusion width = 0.40mm
; support material extrusion width = 0.40mm
; first layer extrusion width = 0.50mm

; EXECUTABLE_BLOCK_START
EXCLUDE_OBJECT_DEFINE NAME=garbagelid.stl_id_0_copy_0 CENTER=155,155 POLYGON=[[101,113],[209,113],[209,197],[101,197],[101,113]]
M73 P0 R67
;TYPE:Custom
START_PRINT T_BED=60 T_EXTRUDER=220
G90
G21
M83 ; use relative distances for extrusion
; filament start gcode
PRESSURE_ADVANCE_SELECT FILAMENT=PLA
M106 S0
;LAYER_CHANGE
;Z:0.2
;HEIGHT:0.2
;BEFORE_LAYER_CHANGE
;0.2
G92 E0

;_SET_FAN_SPEED_CHANGING_LAYER
SET_VELOCITY_LIMIT ACCEL=1500 ACCEL_TO_DECEL=750
G1 E-.8 F3000
G1 Z.4 F9000
G1 X99.552 Y110.471
G1 Z.4
G1 Z.2
G1 E.8 F1800
;TYPE:Skirt
;WIDTH:0.5
G1 F3000
G1 X101 Y110.086 E.0558
G1 X209 Y110.086 E4.02259
G1 X210.462 Y110.479 E.05638
G1 X211.529 Y111.552 E.05638
G1 X211.914 Y113 E.0558
G1 X211.914 Y197 E3.12868
M73 P0 R66
G1 X211.521 Y198.462 E.05638
G1 X210.448 Y199.529 E.05638
G1 X209 Y199.914 E.0558
G1 X101 Y199.914 E4.02259
G1 X99.538 Y199.521 E.05638
G1 X98.471 Y198.448 E.05638
G1 X98.086 Y197 E.0558
G1 X98.086 Y113 E3.12868
G1 X98.479 Y111.538 E.05638
G1 X99.524 Y110.499 E.05489
G1 X99.851 Y110.878 F9000
G1 F3000
G1 X99.985 Y110.762 E.00661
G1 X101 Y110.543 E.03866
G1 X209 Y110.543 E4.02259
G1 X210.331 Y110.935 E.05169
G1 X211.238 Y111.985 E.05169
G1 X211.457 Y113 E.03866
G1 X211.457 Y197 E3.12868
G1 X211.065 Y198.331 E.05169
G1 X210.015 Y199.238 E.05169
G1 X209 Y199.457 E.03866
G1 X101 Y199.457 E4.02259
G1 X99.669 Y199.065 E.05169
G1 X98.762 Y198.015 E.05169
G1 X98.543 Y197 E.03866
G1 X98.543 Y113 E3.12868
G1 X98.935 Y111.669 E.05169
G1 X99.821 Y110.904 E.04359
; printing object garbagelid.stl id:0 copy 0
G1 E-.8
EXCLUDE_OBJECT_START NAME=garbagelid.stl_id_0_copy_0
G1 Z.6 F9000
G1 X107.25 Y118 Z.6
G1 Z.2
G1 E.8 F1800
;TYPE:Outer wall
;WIDTH:0.54292
G1 F3000
G1 X107.25 Y123 E.20372
G1 X108.25 Y123 F9000
G1 F3000
G1 X108.25 Y118 E.20372
G1 X109.25 Y118 F9000
G1 F3000
G1 X109.25 Y123 E.20372
G1 X110.25 Y123 F9000
G1 F3000
G1 X110.25 Y118 E.20372
G1 X111.25 Y118 F9000
G1 F3000
G1 X111.25 Y123 E.20372
G1 X112.25 Y123 F9000
G1 F3000
G1 X112.25 Y118 E.20372
G1 X113.25 Y118 F9000
G1 F3000
G1 X113.25 Y123 E.20372
G1 X114.25 Y123 F9000
G1 F3000
G1 X114.25 Y118 E.20372
G1 X115.25 Y118 F9000
G1 F3000
G1 X115.25 Y123 E.20372
G1 X116.25 Y123 F9000
G1 F3000
G1 X116.25 Y118 E.20372
G1 X117.25 Y118 F9000
G1 F3000
G1 X117.25 Y123 E.20372
G1 X118.25 Y123 F9000
G1 F3000
G1 X118.25 Y118 E.20372
G1 E-.8
G1 Z.6 F9000
G1 X121.25 Y118 Z.6
G1 Z.2
G1 E.8 F1800
G1 F3000
G1 X121.25 Y123 E.20372
G1 X122.25 Y123 F9000
G1 F3000
G1 X122.25 Y118 E.20372
G1 X123.25 Y118 F9000
G1 F3000
G1 X123.25 Y123 E.20372
G1 X124.25 Y123 F9000
G1 F3000
G1 X124.25 Y118 E.20372
G1 X125.25 Y118 F9000
G1 F3000
G1 X125.25 Y123 E.20372
G1 X126.25 Y123 F9000
G1 F3000
G1 X126.25 Y118 E.20372
G1 X127.25 Y118 F9000
G1 F3000
G1 X127.25 Y123 E.20372
G1 X128.25 Y123 F9000
G1 F3000
G1 X128.25 Y118 E.20372
G1 X129.25 Y118 F9000
G1 F3000
G1 X129.25 Y123 E.20372
G1 X130.25 Y123 F9000
G1 F3000
G1 X130.25 Y118 E.20372
G1 E-.8
G1 Z.6 F9000
G1 X131.25 Y123 Z.6
G1 Z.2
G1 E.8 F1800
G1 F3000
G1 X131.25 Y118 E.20372
G1 X132.25 Y118 F9000
G1 F3000
G1 X132.25 Y123 E.20372
G1 X133.25 Y123 F9000
G1 F3000
G1 X133.25 Y118 E.20372
G1 X134.25 Y118 F9000
G1 F3000
G1 X134.25 Y123 E.20372
G1 X135.25 Y123 F9000
G1 F3000
G1 X135.25 Y118 E.20372
G1 X136.25 Y118 F9000
G1 F3000
G1 X136.25 Y123 E.20372
G1 X137.25 Y123 F9000
G1 F3000
G1 X137.25 Y118 E.20372
G1 X138.25 Y118 F9000
G1 F3000
G1 X138.25 Y123 E.20372
G1 X139.25 Y123 F9000
G1 F3000
G1 X139.25 Y118 E.20372
G1 E-.8
G1 Z.6 F9000
G1 X140.25 Y123 Z.6
G1 Z.2
G1 E.8 F1800
G1 F3000
G1 X140.25 Y118 E.20372
G1 X141.25 Y118 F9000
G1 F3000
G1 X141.25 Y123 E.20372
G1 X142.25 Y123 F9000
G1 F3000
G1 X142.25 Y118 E.20372
G1 X143.25 Y118 F9000
G1 F3000
G1 X143.25 Y123 E.20372
G1 X144.25 Y123 F9000
G1 F3000
G1 X144.25 Y118 E.20372
G1 X145.25 Y118 F9000
G1 F3000
G1 X145.25 Y123 E.20372
G1 X146.25 Y123 F9000
G1 F3000
G1 X146.25 Y118 E.20372
G1 X147.25 Y118 F9000
G1 F3000
G1 X147.25 Y123 E.20372
G1 E-.8
G1 Z.6 F9000
G1 X154.25 Y118 Z.6
G1 Z.2
G1 E.8 F1800
G1 F3000
G1 X154.25 Y123 E.20372
G1 X153.25 Y123 F9000
G1 F3000
G1 X153.25 Y118 E.20372
G1 E-.8
G1 Z.6 F9000
G1 X148.25 Y118 Z.6
G1 Z.2
G1 E.8 F1800
G1 F3000
G1 X148.25 Y123 E.20372
G1 X149.25 Y123 F9000
G1 F3000
G1 X149.25 Y118 E.20372
G1 X150.25 Y118 F9000
G1 F3000
G1 X150.25 Y123 E.20372
G1 X151.25 Y123 F9000
G1 F3000
G1 X151.25 Y118 E.20372
G1 X152.25 Y118 F9000
G1 F3000
G1 X152.25 Y123 E.20372
G1 E-.8
G1 Z.6 F9000
G1 X155.25 Y123 Z.6
G1 Z.2
G1 E.8 F1800
G1 F3000
G1 X155.25 Y118 E.20372
G1 X156.25 Y118 F9000
G1 F3000
G1 X156.25 Y123 E.20372
G1 X157.25 Y123 F9000
G1 F3000
G1 X157.25 Y118 E.20372
G1 X158.25 Y118 F9000
G1 F3000
G1 X158.25 Y123 E.20372
G1 X159.25 Y123 F9000
G1 F3000
G1 X159.25 Y118 E.20372
G1 X160.25 Y118 F9000
G1 F3000
G1 X160.25 Y123 E.20372
G1 E-.8
G1 Z.6 F9000
G1 X161.25 Y118 Z.6
G1 Z.2
G1 E.8 F1800
G1 F3000
G1 X161.25 Y123 E.20372
G1 X162.25 Y123 F9000
G1 F3000
G1 X162.25 Y118 E.20372
G1 X163.25 Y118 F9000
G1 F3000
G1 X163.25 Y123 E.20372
G1 X164.25 Y123 F9000
G1 F3000
G1 X164.25 Y118 E.20372
G1 X165.25 Y118 F9000
G1 F3000
G1 X165.25 Y123 E.20372
G1 X166.25 Y123 F9000
G1 F3000
G1 X166.25 Y118 E.20372
G1 X167.25 Y118 F9000
G1 F3000
G1 X167.25 Y123 E.20372
G1 E-.8
G1 Z.6 F9000
G1 X170.25 Y123 Z.6
G1 Z.2
G1 E.8 F1800
G1 F3000
G1 X170.25 Y118 E.20372
G1 X169.25 Y118 F9000
G1 F3000
G1 X169.25 Y123 E.20372
G1 X168.25 Y123 F9000
G1 F3000
G1 X168.25 Y118 E.20372
G1 E-.8
G1 Z.6 F9000
G1 X171.25 Y118 Z.6
G1 Z.2
G1 E.8 F1800
G1 F3000
G1 X171.25 Y123 E.20372
G1 X172.25 Y123 F9000
G1 F3000
G1 X172.25 Y118 E.20372
G1 X173.25 Y118 F9000
G1 F3000
G1 X173.25 Y123 E.20372
G1 X174.25 Y123 F9000
G1 F3000
G1 X174.25 Y118 E.20372
G1 X175.25 Y118 F9000
G1 F3000
G1 X175.25 Y123 E.20372
G1 X176.25 Y123 F9000
G1 F3000
G1 X176.25 Y118 E.20372
G1 X177.25 Y118 F9000
G1 F3000
G1 X177.25 Y123 E.20372
G1 X178.25 Y123 F9000
G1 F3000
G1 X178.25 Y118 E.20372
G1 E-.8
G1 Z.6 F9000
G1 X185.25 Y123 Z.6
G1 Z.2
G1 E.8 F1800
G1 F3000
G1 X185.25 Y118 E.20372
G1 X184.25 Y118 F9000
G1 F3000
G1 X184.25 Y123 E.20372
G1 E-.8
G1 Z.6 F9000
G1 X179.25 Y123 Z.6
G1 Z.2
G1 E.8 F1800
G1 F3000
G1 X179.25 Y118 E.20372
G1 X180.25 Y118 F9000
G1 F3000
G1 X180.25 Y123 E.20372
G1 X181.25 Y123 F9000
G1 F3000
G1 X181.25 Y118 E.20372
G1 X182.25 Y118 F9000
G1 F3000
G1 X182.25 Y123 E.20372
G1 X183.25 Y123 F9000
G1 F3000
G1 X183.25 Y118 E.20372
G1 E-.8
G1 Z.6 F9000
G1 X186.25 Y118 Z.6
G1 Z.2
G1 E.8 F1800
G1 F3000
G1 X186.25 Y123 E.20372
G1 X187.25 Y123 F9000
G1 F3000
G1 X187.25 Y118 E.20372
G1 X188.25 Y118 F9000
G1 F3000
G1 X188.25 Y123 E.20372
G1 X189.25 Y123 F9000
G1 F3000
G1 X189.25 Y118 E.20372
G1 X190.25 Y118 F9000
G1 F3000
G1 X190.25 Y123 E.20372
G1 E-.8
G1 Z.6 F9000
G1 X193.25 Y123 Z.6
G1 Z.2
G1 E.8 F1800
G1 F3000
G1 X193.25 Y118 E.20372
G1 X192.25 Y118 F9000
G1 F3000
G1 X192.25 Y123 E.20372
G1 X191.25 Y123 F9000
G1 F3000
G1 X191.25 Y118 E.20372
G1 E-.8
G1 Z.6 F9000
G1 X194.25 Y118 Z.6
G1 Z.2
G1 E.8 F1800
G1 F3000
G1 X194.25 Y123 E.20372
G1 X195.25 Y123 F9000
G1 F3000
G1 X195.25 Y118 E.20372
G1 X196.25 Y118 F9000
G1 F3000
G1 X196.25 Y123 E.20372
G1 X197.25 Y123 F9000
G1 F3000
G1 X197.25 Y118 E.20372
G1 E-.8
G1 Z.6 F9000
G1 X198.25 Y123 Z.6
M73 P1 R66
G1 Z.2
G1 E.8 F1800
G1 F3000
G1 X198.25 Y118 E.20372
G1 X199.25 Y118 F9000
G1 F3000
G1 X199.25 Y123 E.20372
G1 X200.25 Y123 F9000
G1 F3000
G1 X200.25 Y118 E.20372
G1 X201.25 Y118 F9000
G1 F3000
G1 X201.25 Y123 E.20372
G1 X202.25 Y123 F9000
G1 F3000
G1 X202.25 Y118 E.20372
G1 X203.25 Y118 F9000
G1 F3000
G1 X203.25 Y123 E.20372
G1 E-.8
G1 Z.6 F9000
G1 X203.25 Y128 Z.6
G1 Z.2
G1 E.8 F1800
G1 F3000
G1 X203.25 Y133 E.20372
G1 X202.25 Y133 F9000
G1 F3000
G1 X202.25 Y128 E.20372
G1 X201.25 Y128 F9000
G1 F3000
G1 X201.25 Y133 E.20372
G1 X200.25 Y133 F9000
G1 F3000
G1 X200.25 Y128 E.20372
G1 E-.8
G1 Z.6 F9000
G1 X197.25 Y128 Z.6
G1 Z.2
G1 E.8 F1800
G1 F3000
G1 X197.25 Y133 E.20372
G1 X196.25 Y133 F9000
G1 F3000
G1 X196.25 Y128 E.20372
G1 X195.25 Y128 F9000
G1 F3000
G1 X195.25 Y133 E.20372
G1 X194.25 Y133 F9000
G1 F3000
G1 X194.25 Y128 E.20372
G1 X193.25 Y128 F9000
G1 F3000
G1 X193.25 Y133 E.20372
G1 X192.25 Y133 F9000
G1 F3000
G1 X192.25 Y128 E.20372
G1 E-.8
G1 Z.6 F9000
G1 X191.25 Y133 Z.6
G1 Z.2
G1 E.8 F1800
G1 F3000
G1 X191.25 Y128 E.20372
G1 X190.25 Y128 F9000
G1 F3000
G1 X190.25 Y133 E.20372
G1 X189.25 Y133 F9000
G1 F3000
G1 X189.25 Y128 E.20372
G1 X188.25 Y128 F9000
G1 F3000
G1 X188.25 Y133 E.20372
G1 X187.25 Y133 F9000
G1 F3000
G1 X187.25 Y128 E.20372
G1 X186.25 Y128 F9000
G1 F3000
G1 X186.25 Y133 E.20372
G1 X185.25 Y133 F9000
G1 F3000
G1 X185.25 Y128 E.20372
G1 X184.25 Y128 F9000
G1 F3000
G1 X184.25 Y133 E.20372
G1 X183.25 Y133 F9000
G1 F3000
G1 X183.25 Y128 E.20372
G1 E-.8
G1 Z.6 F9000
G1 X182.25 Y133 Z.6
G1 Z.2
G1 E.8 F1800
G1 F3000
G1 X182.25 Y128 E.20372
G1 X181.25 Y128 F9000
G1 F3000
G1 X181.25 Y133 E.20372
G1 X180.25 Y133 F9000
G1 F3000
G1 X180.25 Y128 E.20372
G1 X179.25 Y128 F9000
G1 F3000
G1 X179.25 Y133 E.20372
G1 X178.25 Y133 F9000
G1 F3000
G1 X178.25 Y128 E.20372
G1 X177.25 Y128 F9000
G1 F3000
G1 X177.25 Y133 E.20372
G1 X176.25 Y133 F9000
G1 F3000
G1 X176.25 Y128 E.20372
G1 X175.25 Y128 F9000
G1 F3000
G1 X175.25 Y133 E.20372
G1 X174.25 Y133 F9000
G1 F3000
G1 X174.25 Y128 E.20372
G1 X173.25 Y128 F9000
G1 F3000
G1 X173.25 Y133 E.20372
G1 E-.8
G1 Z.6 F9000
G1 X170.25 Y133 Z.6
G1 Z.2
G1 E.8 F1800
G1 F3000
G1 X170.25 Y128 E.20372
G1 X169.25 Y128 F9000
G1 F3000
G1 X169.25 Y133 E.20372
G1 X168.25 Y133 F9000
G1 F3000
G1 X168.25 Y128 E.20372
G1 X167.25 Y128 F9000
G1 F3000
G1 X167.25 Y133 E.20372
G1 X166.25 Y133 F9000
G1 F3000
G1 X166.25 Y128 E.20372
G1 X165.25 Y128 F9000
G1 F3000
G1 X165.25 Y133 E.20372
G1 X164.25 Y133 F9000
G1 F3000
G1 X164.25 Y128 E.20372
G1 X163.25 Y128 F9000
G1 F3000
G1 X163.25 Y133 E.20372
G1 X162.25 Y133 F9000
G1 F3000
G1 X162.25 Y128 E.20372
G1 X161.25 Y128 F9000
G1 F3000
G1 X161.25 Y133 E.20372
G1 X160.25 Y133 F9000
G1 F3000
G1 X160.25 Y128 E.20372
G1 X159.25 Y128 F9000
G1 F3000
G1 X159.25 Y133 E.20372
G1 X158.25 Y133 F9000
G1 F3000
G1 X158.25 Y128 E.20372
G1 X157.25 Y128 F9000
G1 F3000
G1 X157.25 Y133 E.20372
G1 X156.25 Y133 F9000
G1 F3000
G1 X156.25 Y128 E.20372
G1 X155.25 Y128 F9000
G1 F3000
G1 X155.25 Y133 E.20372
G1 X154.25 Y133 F9000
G1 F3000
G1 X154.25 Y128 E.20372
G1 X153.25 Y128 F9000
G1 F3000
G1 X153.25 Y133 E.20372
G1 X152.25 Y133 F9000
G1 F3000
G1 X152.25 Y128 E.20372
G1 E-.8
G1 Z.6 F9000
G1 X149.25 Y128 Z.6
G1 Z.2
G1 E.8 F1800
G1 F3000
G1 X149.25 Y133 E.20372
G1 X150.25 Y133 F9000
G1 F3000
G1 X150.25 Y128 E.20372
G1 X151.25 Y128 F9000
G1 F3000
G1 X151.25 Y133 E.20372
G1 E-.8
G1 Z.6 F9000
G1 X148.25 Y133 Z.6
G1 Z.2
G1 E.8 F1800
G1 F3000
G1 X148.25 Y128 E.20372
G1 X147.25 Y128 F9000
G1 F3000
G1 X147.25 Y133 E.20372
G1 E-.8
G1 Z.6 F9000
G1 X142.25 Y133 Z.6
G1 Z.2
G1 E.8 F1800
G1 F3000
G1 X142.25 Y128 E.20372
G1 X143.25 Y128 F9000
G1 F3000
G1 X143.25 Y133 E.20372
G1 X144.25 Y133 F9000
G1 F3000
G1 X144.25 Y128 E.20372
G1 X145.25 Y128 F9000
G1 F3000
G1 X145.25 Y133 E.20372
G1 X146.25 Y133 F9000
G1 F3000
G1 X146.25 Y128 E.20372
G1 E-.8
G1 Z.6 F9000
G1 X141.25 Y128 Z.6
G1 Z.2
G1 E.8 F1800
G1 F3000
G1 X141.25 Y133 E.20372
G1 X140.25 Y133 F9000
G1 F3000
G1 X140.25 Y128 E.20372
G1 X139.25 Y128 F9000
G1 F3000
G1 X139.25 Y133 E.20372
G1 X138.25 Y133 F9000
G1 F3000
G1 X138.25 Y128 E.20372
G1 E-.8
G1 Z.6 F9000
G1 X135.25 Y128 Z.6
G1 Z.2
G1 E.8 F1800
G1 F3000
G1 X135.25 Y133 E.20372
G1 X136.25 Y133 F9000
G1 F3000
G1 X136.25 Y128 E.20372
G1 X137.25 Y128 F9000
G1 F3000
G1 X137.25 Y133 E.20372
G1 E-.8
G1 Z.6 F9000
G1 X134.25 Y133 Z.6
G1 Z.2
G1 E.8 F1800
G1 F3000
G1 X134.25 Y128 E.20372
G1 X133.25 Y128 F9000
G1 F3000
G1 X133.25 Y133 E.20372
G1 X132.25 Y133 F9000
G1 F3000
G1 X132.25 Y128 E.20372
G1 X131.25 Y128 F9000
G1 F3000
G1 X131.25 Y133 E.20372
G1 X130.25 Y133 F9000
G1 F3000
G1 X130.25 Y128 E.20372
G1 X129.25 Y128 F9000
G1 F3000
G1 X129.25 Y133 E.20372
G1 X128.25 Y133 F9000
G1 F3000
G1 X128.25 Y128 E.20372
G1 X127.25 Y128 F9000
G1 F3000
G1 X127.25 Y133 E.20372
G1 X126.25 Y133 F9000
G1 F3000
G1 X126.25 Y128 E.20372
G1 X125.25 Y128 F9000
G1 F3000
G1 X125.25 Y133 E.20372
G1 X124.25 Y133 F9000
G1 F3000
G1 X124.25 Y128 E.20372
G1 X123.25 Y128 F9000
G1 F3000
G1 X123.25 Y133 E.20372
G1 X122.25 Y133 F9000
G1 F3000
G1 X122.25 Y128 E.20372
G1 X121.25 Y128 F9000
G1 F3000
G1 X121.25 Y133 E.20372
G1 X120.25 Y133 F9000
G1 F3000
G1 X120.25 Y128 E.20372
G1 X119.25 Y128 F9000
G1 F3000
G1 X119.25 Y133 E.20372
G1 X118.25 Y133 F9000
G1 F3000
G1 X118.25 Y128 E.20372
G1 X117.25 Y128 F9000
G1 F3000
G1 X117.25 Y133 E.20372
G1 E-.8
G1 Z.6 F9000
G1 X116.25 Y128 Z.6
G1 Z.2
G1 E.8 F1800
G1 F3000
G1 X116.25 Y133 E.20372
G1 X115.25 Y133 F9000
G1 F3000
G1 X115.25 Y128 E.20372
G1 X114.25 Y128 F9000
G1 F3000
G1 X114.25 Y133 E.20372
G1 X113.25 Y133 F9000
G1 F3000
G1 X113.25 Y128 E.20372
G1 X112.25 Y128 F9000
G1 F3000
G1 X112.25 Y133 E.20372
G1 X111.25 Y133 F9000
G1 F3000
G1 X111.25 Y128 E.20372
G1 X110.25 Y128 F9000
G1 F3000
G1 X110.25 Y133 E.20372
G1 E-.8
G1 Z.6 F9000
G1 X107.25 Y133 Z.6
G1 Z.2
G1 E.8 F1800
G1 F3000
G1 X107.25 Y128 E.20372
G1 X108.25 Y128 F9000
G1 F3000
G1 X108.25 Y133 E.20372
G1 X109.25 Y133 F9000
G1 F3000
G1 X109.25 Y128 E.20372
G1 E-.8
G1 Z.6 F9000
G1 X119.25 Y123 Z.6
G1 Z.2
G1 E.8 F1800
G1 F3000
G1 X119.25 Y118 E.20372
G1 X120.25 Y118 F9000
G1 F3000
G1 X120.25 Y123 E.20372
G1 E-.8
G1 Z.6 F9000
G1 X171.25 Y128 Z.6
M73 P1 R65
G1 Z.2
G1 E.8 F1800
G1 F3000
G1 X171.25 Y133 E.20372
G1 X172.25 Y133 F9000
G1 F3000
G1 X172.25 Y128 E.20372
G1 E-.8
G1 Z.6 F9000
G1 X184.25 Y143 Z.6
G1 Z.2
G1 E.8 F1800
G1 F3000
G1 X184.25 Y138 E.20372
G1 X185.25 Y138 F9000
G1 F3000
G1 X185.25 Y143 E.20372
G1 E-.8
G1 Z.6 F9000
G1 X198.25 Y133 Z.6
G1 Z.2
G1 E.8 F1800
G1 F3000
G1 X198.25 Y128 E.20372
G1 X199.25 Y128 F9000
G1 F3000
G1 X199.25 Y133 E.20372
G1 E-.8
G1 Z.6 F9000
G1 X208.75 Y196.75 Z.6
G1 Z.2
G1 E.8 F1800
;WIDTH:0.5
G1 F3000
G1 X101.25 Y196.75 E4.00397
G1 X101.25 Y113.25 E3.11006
G1 X208.75 Y113.25 E4.00397
G1 X208.75 Y196.71 E3.10857
G1 X208.293 Y196.293 F9000
;TYPE:Inner wall
G1 F3000
G1 X101.707 Y196.293 E3.96992
G1 X101.707 Y113.707 E3.07601
G1 X208.293 Y113.707 E3.96992
M73 P2 R65
G1 X208.293 Y196.253 E3.07452
G1 X207.836 Y195.836 F9000
G1 F3000
G1 X102.164 Y195.836 E3.93587
G1 X102.164 Y114.164 E3.04196
G1 X207.836 Y114.164 E3.93587
G1 X207.836 Y195.796 E3.04047
G1 E-.8
G1 Z.6 F9000
G1 X204.25 Y123.25 Z.6
G1 Z.2
G1 E.8 F1800
;TYPE:Outer wall
G1 F3000
G1 X106.25 Y123.25 E3.65013
G1 X106.25 Y117.75 E.20485
G1 X204.25 Y117.75 E3.65013
G1 X204.25 Y123.21 E.20336
G1 X204.707 Y123.707 F9000
;TYPE:Inner wall
G1 F3000
G1 X105.793 Y123.707 E3.68418
G1 X105.793 Y117.293 E.2389
G1 X204.707 Y117.293 E3.68418
G1 X204.707 Y123.667 E.23741
G1 X205.164 Y124.164 F9000
G1 F3000
G1 X105.336 Y124.164 E3.71823
G1 X105.336 Y116.836 E.27295
G1 X205.164 Y116.836 E3.71823
G1 X205.164 Y124.124 E.27146
G1 E-.8
G1 Z.6 F9000
G1 X204.25 Y127.75 Z.6
G1 Z.2
G1 E.8 F1800
;TYPE:Outer wall
G1 F3000
G1 X204.25 Y133.25 E.20485
G1 X106.25 Y133.25 E3.65013
G1 X106.25 Y127.75 E.20485
G1 X204.21 Y127.75 E3.64864
G1 X204.707 Y127.293 F9000
;TYPE:Inner wall
G1 F3000
G1 X204.707 Y133.707 E.2389
G1 X105.793 Y133.707 E3.68418
G1 X105.793 Y127.293 E.2389
G1 X204.667 Y127.293 E3.68269
G1 X205.164 Y126.836 F9000
G1 F3000
G1 X205.164 Y134.164 E.27295
G1 X105.336 Y134.164 E3.71823
G1 X105.336 Y126.836 E.27295
G1 X205.124 Y126.836 E3.71674
G1 E-.8
G1 Z.6 F9000
G1 X106.25 Y137.75 Z.6
G1 Z.2
G1 E.8 F1800
;TYPE:Outer wall
G1 F3000
G1 X204.25 Y137.75 E3.65013
M73 P3 R65
G1 X204.25 Y143.25 E.20485
G1 X106.25 Y143.25 E3.65013
G1 X106.25 Y137.79 E.20336
