; HEADER_BLOCK_START
; generated by OrcaSlicer 1.6.2 on 2023-05-21 at 13:16:20
; total layer number: 58
; HEADER_BLOCK_END

; THUMBNAIL_BLOCK_START
; THUMBNAIL_BLOCK_END

; external perimeters extrusion width = 0.40mm
; perimeters extrusion width = 0.45mm
; infill extrusion width = 0.45mm
; solid infill extrusion width = 0.40mm
; top infill extrusion width = 0.40mm
; first layer extrusion width = 0.50mm

; EXECUTABLE_BLOCK_START
EXCLUDE_OBJECT_DEFINE NAME=HDD_cage.stl_id_0_copy_0 CENTER=155,155 POLYGON=[[87.5,93.3802],[88,92.8802],[222,92.8802],[222.5,93.3802],[222.5,216.62],[222,217.12],[88,217.12],[87.5,216.62],[87.5,93.3802]]
M73 P0 R197
;TYPE:Custom
START_PRINT T_BED=70 T_EXTRUDER=240
G90
G21
M83 ; use relative distances for extrusion
; filament start gcode
PRESSURE_ADVANCE_SELECT FILAMENT=PETG
M106 S0
;LAYER_CHANGE
;Z:0.2
;HEIGHT:0.2
M204 S500
G1 E-1 F3000
G1 Z.4 F9000
G1 X86.263 Y91.543
G1 Z.2
G1 E1 F1800
;TYPE:Skirt
;WIDTH:0.5
G1 X88 Y90.823 E.0679
G1 X222 Y90.823 E4.83821
G1 X223.737 Y91.543 E.0679
G1 X223.837 Y91.643 E.00511
G1 X224.557 Y93.38 E.0679
G1 X224.557 Y216.62 E4.44969
G1 X223.837 Y218.357 E.0679
G1 X223.737 Y218.457 E.00511
G1 X222 Y219.177 E.0679
G1 X88 Y219.177 E4.83821
G1 X86.263 Y218.457 E.0679
G1 X86.163 Y218.357 E.00511
G1 X85.443 Y216.62 E.0679
G1 X85.443 Y93.38 E4.44969
M73 P0 R196
G1 X86.163 Y91.643 E.0679
G1 X86.22 Y91.585 E.00294
; printing object HDD cage.stl id:0 copy 0
EXCLUDE_OBJECT_START NAME=HDD_cage.stl_id_0_copy_0
G1 E-1 F3000
G1 Z.6 F9000
G1 X219.969 Y94.455 Z.2
G1 E1 F1800
;TYPE:Inner wall
;WIDTH:0.521052
G1 X220.925 Y94.455 E.03612
G1 X220.925 Y95.335 E.03323
G1 X220.637 Y94.996 E.0168
G1 X220.424 Y94.783 E.01137
G1 X220.018 Y94.49 E.01892
G1 E-1 F3000
G1 Z.6 F9000
G1 X217.15 Y94.444 Z.2
G1 E1 F1800
;WIDTH:0.499999
G1 X216.662 Y94.792 E.02161
G1 X216.18 Y95.359 E.02689
G1 X215.869 Y96.01 E.02604
G1 X215.735 Y96.731 E.02647
G1 X215.792 Y97.462 E.02647
G1 X216.036 Y98.153 E.02647
G1 X216.451 Y98.758 E.02647
G1 X217.008 Y99.235 E.02647
G1 X217.67 Y99.551 E.02647
G1 X218.031 Y99.638 E.01343
G1 X218.546 Y99.695 E.01868
G1 X219.052 Y99.636 E.0184
G1 X219.416 Y99.548 E.01354
G1 X220.071 Y99.234 E.02621
G1 X220.631 Y98.754 E.02664
G1 X220.936 Y98.338 E.0186
G1 X220.936 Y102.129 E.13684
;WIDTH:0.539325
G1 X220.916 Y102.311 E.0072
;WIDTH:0.57865
G1 X220.897 Y102.494 E.00777
;WIDTH:0.617976
G1 X220.877 Y102.676 E.00834
;WIDTH:0.657301
G1 X220.857 Y102.859 E.00891
G1 X220.857 Y207.202 E5.06394
;WIDTH:0.668882
G1 X220.851 Y207.468 E.01316
G1 X220.873 Y207.584 E.00583
;WIDTH:0.626662
G1 X220.894 Y207.7 E.00544
;WIDTH:0.584441
G1 X220.915 Y207.816 E.00504
;WIDTH:0.54222
G1 X220.936 Y207.932 E.00465
;WIDTH:0.499999
G1 X220.936 Y211.721 E.13681
G1 X220.894 Y211.649 E.00301
G1 X220.418 Y211.092 E.02647
G1 X219.813 Y210.677 E.02647
G1 X219.245 Y210.456 E.02199
G1 X218.677 Y210.376 E.02072
G1 X218.288 Y210.389 E.01404
G1 X217.67 Y210.51 E.02275
G1 X217.008 Y210.826 E.02647
G1 X216.448 Y211.306 E.02665
G1 X216.034 Y211.914 E.02655
G1 X215.792 Y212.598 E.02621
G1 X215.735 Y213.329 E.02647
G1 X215.869 Y214.05 E.02647
G1 X216.186 Y214.712 E.02647
G1 X216.666 Y215.272 E.02665
G1 X217.046 Y215.556 E.01711
G1 X156.54 Y215.556 E2.18463
G1 X157.133 Y215.058 E.02797
G1 X157.548 Y214.453 E.02647
G1 X157.792 Y213.762 E.02647
G1 X157.849 Y213.031 E.02647
G1 X157.762 Y212.449 E.02125
G1 X157.548 Y211.907 E.02104
G1 X157.364 Y211.603 E.01283
G1 X157.032 Y211.188 E.0192
G1 X156.576 Y210.826 E.02101
G1 X156.318 Y210.677 E.01077
G1 X155.784 Y210.465 E.02075
G1 X155.182 Y210.376 E.02196
G1 X154.888 Y210.377 E.0106
G1 X154.286 Y210.47 E.02202
G1 X153.787 Y210.671 E.01941
G1 X153.513 Y210.826 E.01136
G1 X152.956 Y211.303 E.02647
G1 X152.541 Y211.907 E.02647
G1 X152.297 Y212.598 E.02647
G1 X152.24 Y213.329 E.02647
G1 X152.374 Y214.05 E.02647
G1 X152.69 Y214.712 E.02647
G1 X153.171 Y215.272 E.02665
G1 X153.55 Y215.556 E.01711
G1 X93.051 Y215.556 E2.18438
G1 X93.39 Y215.269 E.01604
G1 X93.873 Y214.701 E.02689
G1 X94.183 Y214.05 E.02604
G1 X94.317 Y213.329 E.02647
G1 X94.26 Y212.598 E.02647
G1 X94.183 Y212.31 E.01077
G1 X93.953 Y211.778 E.02094
G1 X93.635 Y211.347 E.01935
G1 X93.39 Y211.092 E.01275
G1 X92.913 Y210.739 E.02143
G1 X92.383 Y210.51 E.02086
G1 X92.09 Y210.432 E.01094
G1 X91.356 Y210.377 E.02655
G1 X90.643 Y210.51 E.02621
G1 X89.981 Y210.826 E.02647
G1 X89.424 Y211.303 E.02647
G1 X89.064 Y211.812 E.02253
G1 X89.064 Y98.248 E4.10033
G1 X89.424 Y98.758 E.02253
G1 X89.981 Y99.235 E.02647
G1 X90.643 Y99.551 E.02647
G1 X91.364 Y99.685 E.02647
G1 X92.106 Y99.624 E.02689
G1 X92.389 Y99.548 E.0106
G1 X92.913 Y99.321 E.0206
G1 X93.39 Y98.969 E.02143
G1 X93.604 Y98.754 E.01094
G1 X93.957 Y98.274 E.0215
G1 X94.183 Y97.75 E.0206
G1 X94.264 Y97.432 E.01186
G1 X94.317 Y96.731 E.02537
G1 X94.183 Y96.01 E.02647
G1 X93.867 Y95.349 E.02647
G1 X93.39 Y94.792 E.02647
G1 X92.903 Y94.444 E.02161
G1 X153.654 Y94.444 E2.19349
G1 X153.513 Y94.526 E.00589
G1 X152.956 Y95.003 E.02647
G1 X152.541 Y95.607 E.02647
G1 X152.297 Y96.298 E.02647
G1 X152.24 Y97.029 E.02647
G1 X152.374 Y97.75 E.02647
G1 X152.69 Y98.412 E.02647
G1 X153.167 Y98.969 E.02647
G1 X153.66 Y99.33 E.02208
G1 X154.133 Y99.533 E.01858
G1 X154.463 Y99.628 E.01238
G1 X155.052 Y99.695 E.02141
G1 X155.638 Y99.624 E.02131
G1 X155.921 Y99.548 E.0106
G1 X156.509 Y99.282 E.02328
G1 X156.922 Y98.969 E.01874
G1 X157.136 Y98.754 E.01094
G1 X157.487 Y98.276 E.02141
G1 X157.715 Y97.75 E.0207
G1 X157.792 Y97.462 E.01077
G1 X157.849 Y96.731 E.02647
G1 X157.715 Y96.01 E.02647
G1 X157.399 Y95.349 E.02647
G1 X156.922 Y94.792 E.02647
G1 X156.435 Y94.444 E.02161
G1 X217.09 Y94.444 E2.19001
G1 E-1 F3000
G1 Z.6 F9000
G1 X219.233 Y94.623 Z.2
G1 E1 F1800
;WIDTH:0.571704
G1 X219.351 Y94.674 E.00536
;WIDTH:0.535852
G1 X219.638 Y94.799 E.01219
;WIDTH:0.499999
G1 X220.139 Y95.154 E.02218
G1 X220.531 Y95.627 E.02218
;WIDTH:0.518342
G1 X220.796 Y96.182 E.02308
;WIDTH:0.551977
G1 X220.86 Y96.355 E.00741
G1 X220.907 Y96.88 E.02122
;WIDTH:0.551972
G1 X220.86 Y97.406 E.02122
G1 X220.742 Y97.689 E.01233
;WIDTH:0.525986
G1 X220.624 Y97.972 E.0117
;WIDTH:0.499999
G1 X220.268 Y98.477 E.02233
G1 X219.793 Y98.872 E.02228
G1 X219.242 Y99.126 E.02192
G1 X218.632 Y99.231 E.02233
G1 X218.091 Y99.184 E.01961
G1 X217.845 Y99.128 E.00912
G1 X217.287 Y98.872 E.02218
G1 X216.814 Y98.48 E.02218
G1 X216.459 Y97.978 E.02218
G1 X216.245 Y97.402 E.02218
G1 X216.188 Y96.791 E.02218
G1 X216.292 Y96.185 E.02218
G1 X216.544 Y95.636 E.02182
G1 X216.94 Y95.154 E.02253
G1 X217.442 Y94.799 E.02218
;WIDTH:0.537605
G1 X217.712 Y94.676 E.0116
;WIDTH:0.57521
G1 X217.982 Y94.553 E.01249
G1 X218.533 Y94.504 E.02324
;WIDTH:0.571704
G1 X219.064 Y94.55 E.02226
G1 X219.178 Y94.599 E.00521
G1 X219.049 Y95.053 F9000
;TYPE:Outer wall
;WIDTH:0.499999
G1 F1800
G1 X219.06 Y95.054 E.00039
G1 X219.515 Y95.251 E.0179
G1 X219.903 Y95.559 E.01789
G1 X220.199 Y95.957 E.0179
G1 X220.381 Y96.418 E.01789
G1 X220.44 Y96.88 E.01683
G1 X220.366 Y97.4 E.01897
G1 X220.172 Y97.848 E.0176
G1 X219.861 Y98.244 E.01818
G1 X219.463 Y98.539 E.01789
G1 X218.929 Y98.73 E.02049
G1 X218.51 Y98.778 E.01522
G1 X218.02 Y98.706 E.0179
G1 X217.565 Y98.509 E.01789
G1 X217.177 Y98.201 E.01789
G1 X216.881 Y97.804 E.0179
G1 X216.695 Y97.312 E.01897
G1 X216.642 Y96.85 E.01679
G1 X216.714 Y96.36 E.01789
G1 X216.908 Y95.913 E.0176
G1 X217.219 Y95.517 E.01818
G1 X217.617 Y95.221 E.0179
G1 X218.077 Y95.039 E.01789
G1 X218.562 Y94.983 E.0176
G1 X218.99 Y95.044 E.01563
G1 X219.051 Y95.051
G1 E-1 F3000
G1 Z.6 F9000
G1 X219.398 Y208.255 Z.2
G1 E1 F1800
;TYPE:Inner wall
G1 X219.269 Y208.317 E.00516
G1 X218.718 Y208.344 E.01995
G1 X218.616 Y208.509 E.00698
G1 X218.271 Y208.69 E.01408
G1 X217.847 Y208.744 E.01542
G1 X210.079 Y208.744 E.2805
G1 X209.722 Y208.687 E.01303
G1 X209.345 Y208.477 E.0156
G1 X209.282 Y208.344 E.0053
G1 X208.748 Y208.321 E.0193
G1 X208.436 Y208.207 E.012
G1 X208.156 Y207.995 E.01267
G1 X207.985 Y207.766 E.01032
G1 X207.853 Y207.399 E.01409
G1 X207.836 Y207.202 E.00716
G1 X207.836 Y102.859 E3.7674
G1 X207.858 Y102.636 E.0081
G1 X207.986 Y102.292 E.01325
G1 X208.159 Y102.063 E.01036
G1 X208.439 Y101.851 E.01268
G1 X208.787 Y101.732 E.01328
G1 X209.282 Y101.716 E.01789
G1 X209.345 Y101.583 E.0053
G1 X209.723 Y101.373 E.01562
G1 X210.079 Y101.316 E.01301
G1 X217.921 Y101.316 E.28318
G1 X218.28 Y101.374 E.0131
G1 X218.585 Y101.528 E.01234
G1 X218.655 Y101.583 E.00323
G1 X218.718 Y101.716 E.0053
G1 X219.275 Y101.745 E.02017
G1 X219.739 Y101.97 E.01862
G1 X220.041 Y102.342 E.0173
;WIDTH:0.539325
G1 X220.091 Y102.471 E.00544
;WIDTH:0.57865
G1 X220.142 Y102.601 E.00587
;WIDTH:0.617976
G1 X220.192 Y102.73 E.0063
;WIDTH:0.657301
G1 X220.243 Y102.859 E.00673
G1 X220.243 Y207.202 E5.06394
;WIDTH:0.668882
G1 X220.23 Y207.414 E.0105
G1 X220.183 Y207.49 E.00443
;WIDTH:0.626662
G1 X220.135 Y207.566 E.00413
;WIDTH:0.584441
G1 X220.088 Y207.642 E.00383
;WIDTH:0.54222
G1 X220.041 Y207.718 E.00353
;WIDTH:0.499999
G1 X219.74 Y208.091 E.0173
G1 X219.452 Y208.229 E.01152
G1 X219.235 Y207.84 F9000
G1 F1800
G1 X219.17 Y207.871 E.00258
G1 X218.474 Y207.887 E.02515
G1 X218.319 Y208.16 E.01131
G1 X218.011 Y208.281 E.01197
G1 X210.079 Y208.287 E.28641
G1 X209.768 Y208.213 E.01155
G1 X209.638 Y208.127 E.0056
G1 X209.526 Y207.887 E.00956
G1 X208.979 Y207.887 E.01977
G1 X208.71 Y207.833 E.00988
G1 X208.485 Y207.678 E.00987
G1 X208.382 Y207.541 E.00619
G1 X208.293 Y207.202 E.01265
G1 X208.293 Y102.859 E3.7674
G1 X208.383 Y102.519 E.0127
G1 X208.58 Y102.301 E.01062
G1 X208.864 Y102.183 E.01108
G1 X209.526 Y102.173 E.02392
G1 X209.638 Y101.933 E.00956
G1 X209.865 Y101.807 E.00937
G1 X210.079 Y101.773 E.0078
G1 X217.921 Y101.773 E.28318
G1 X218.219 Y101.841 E.01102
G1 X218.319 Y101.9 E.0042
G1 X218.474 Y102.173 E.01132
G1 X219.021 Y102.173 E.01977
G1 X219.242 Y102.21 E.00806
G1 X219.452 Y102.325 E.00867
G1 X219.633 Y102.549 E.01038
G1 X219.707 Y102.859 E.0115
G1 X219.707 Y207.202 E3.7674
G1 X219.633 Y207.512 E.0115
G1 X219.452 Y207.735 E.01038
G1 X219.289 Y207.814 E.00656
G1 X219.071 Y207.425 F9000
;TYPE:Outer wall
G1 F1800
G1 X218.15 Y207.43 E.03326
G1 X218.15 Y207.602 E.00619
G1 X218.054 Y207.788 E.00756
G1 X217.847 Y207.83 E.00762
G1 X210.079 Y207.83 E.2805
G1 X209.932 Y207.777 E.00564
G1 X209.85 Y207.602 E.00698
G1 X209.85 Y207.43 E.00619
G1 X208.979 Y207.43 E.03146
G1 X208.814 Y207.36 E.00645
G1 X208.75 Y207.202 E.00618
G1 X208.75 Y102.859 E3.7674
G1 X208.815 Y102.7 E.0062
G1 X208.979 Y102.63 E.00643
G1 X209.85 Y102.63 E.03146
G1 X209.85 Y102.459 E.00619
G1 X209.975 Y102.255 E.00863
G1 X210.079 Y102.23 E.00384
G1 X217.921 Y102.23 E.28318
G1 X218.054 Y102.273 E.00503
G1 X218.15 Y102.459 E.00756
G1 X218.15 Y102.63 E.00619
G1 X219.021 Y102.63 E.03146
G1 X219.165 Y102.681 E.0055
G1 X219.25 Y102.859 E.00711
G1 X219.25 Y207.202 E3.7674
G1 X219.225 Y207.305 E.00383
G1 X219.118 Y207.388 E.00489
G1 X219.053 Y207.503
G1 E-1 F3000
G1 Z.6 F9000
G1 X162.432 Y208.723 Z.2
G1 E1 F1800
;TYPE:Inner wall
G1 X162.252 Y208.697 E.00656
G1 X161.897 Y208.519 E.01437
G1 X161.608 Y208.205 E.01537
G1 X161.456 Y207.816 E.01507
G1 X161.436 Y207.202 E.0222
G1 X161.436 Y102.459 E3.78184
G1 X161.485 Y102.127 E.01211
G1 X161.669 Y101.767 E.0146
G1 X161.898 Y101.541 E.01163
G1 X162.261 Y101.361 E.01464
G1 X162.579 Y101.316 E.01156
G1 X172.421 Y101.316 E.35539
G1 X172.819 Y101.388 E.01459
G1 X173.147 Y101.576 E.01366
G1 X173.381 Y101.838 E.01268
G1 X173.505 Y102.097 E.01036
G1 X173.564 Y102.459 E.01325
G1 X173.564 Y207.602 E3.79629
G1 X173.506 Y207.961 E.01316
G1 X173.383 Y208.219 E.01032
G1 X173.15 Y208.482 E.01267
G1 X172.821 Y208.672 E.01372
G1 X172.421 Y208.744 E.01466
G1 X162.579 Y208.744 E.35539
G1 X162.491 Y208.732 E.00318
G1 X162.49 Y208.269 F9000
G1 F1800
G1 X162.309 Y208.232 E.00668
G1 X162.077 Y208.069 E.01027
G1 X161.922 Y207.801 E.01116
G1 X161.893 Y207.202 E.02166
G1 X161.893 Y102.459 E3.78184
M73 P0 R195
G1 X161.954 Y102.176 E.01043
G1 X162.104 Y101.964 E.0094
G1 X162.388 Y101.8 E.01184
G1 X162.579 Y101.773 E.00694
G1 X172.421 Y101.773 E.35539
G1 X172.66 Y101.816 E.00875
G1 X172.857 Y101.929 E.0082
G1 X172.997 Y102.086 E.00761
G1 X173.072 Y102.242 E.00622
G1 X173.107 Y102.859 E.02232
G1 X173.107 Y207.602 E3.78184
G1 X173.072 Y207.818 E.0079
G1 X172.922 Y208.07 E.01059
G1 X172.661 Y208.244 E.01134
G1 X172.421 Y208.287 E.0088
G1 X162.579 Y208.287 E.35539
G1 X162.549 Y208.281 E.00108
G1 X162.579 Y207.83 F9000
;TYPE:Outer wall
G1 F1800
G1 X162.42 Y207.766 E.00618
G1 X162.35 Y207.602 E.00645
G1 X162.35 Y102.459 E3.79629
G1 X162.42 Y102.294 E.00648
G1 X162.579 Y102.23 E.00615
G1 X172.421 Y102.23 E.35539
G1 X172.567 Y102.282 E.00557
G1 X172.638 Y102.386 E.00456
G1 X172.65 Y102.859 E.01706
G1 X172.65 Y207.602 E3.78184
G1 X172.588 Y207.758 E.00605
G1 X172.421 Y207.83 E.00657
G1 X162.639 Y207.83 E.35322
G1 X162.555 Y207.855
G1 E-1 F3000
G1 Z.6 F9000
G1 X157.382 Y96.944 Z.2
G1 E1 F1800
;TYPE:Inner wall
G1 X157.339 Y97.402 E.01662
G1 X157.128 Y97.972 E.02192
G1 X156.772 Y98.477 E.02233
G1 X156.298 Y98.872 E.02228
G1 X155.746 Y99.126 E.02192
G1 X155.137 Y99.231 E.02233
G1 X154.522 Y99.175 E.02228
G1 X153.946 Y98.961 E.02218
G1 X153.445 Y98.606 E.02218
G1 X153.053 Y98.133 E.02218
G1 X152.796 Y97.575 E.02218
G1 X152.693 Y96.97 E.02218
G1 X152.75 Y96.358 E.02218
G1 X152.963 Y95.782 E.02218
G1 X153.319 Y95.281 E.02218
G1 X153.791 Y94.889 E.02218
;WIDTH:0.533483
G1 X154.343 Y94.617 E.02384
;WIDTH:0.571989
G1 X154.518 Y94.55 E.00781
G1 X155.037 Y94.504 E.0218
;WIDTH:0.571704
G1 X155.568 Y94.55 E.02226
G1 X155.856 Y94.674 E.01308
;WIDTH:0.535852
G1 X156.143 Y94.799 E.01219
;WIDTH:0.499999
G1 X156.644 Y95.154 E.02218
G1 X157.036 Y95.627 E.02218
G1 X157.293 Y96.185 E.02218
G1 X157.396 Y96.791 E.02218
G1 X157.387 Y96.884 E.00339
G1 X156.941 Y96.896 F9000
;TYPE:Outer wall
G1 F1800
G1 X156.943 Y96.91 E.00051
G1 X156.87 Y97.4 E.01789
G1 X156.677 Y97.848 E.0176
G1 X156.409 Y98.201 E.01601
G1 X156.006 Y98.519 E.01853
G1 X155.515 Y98.719 E.01915
G1 X155.015 Y98.778 E.01818
G1 X154.483 Y98.689 E.01947
G1 X154.07 Y98.509 E.01628
G1 X153.681 Y98.201 E.01789
G1 X153.386 Y97.804 E.01789
G1 X153.199 Y97.312 E.01897
G1 X153.146 Y96.85 E.01679
G1 X153.219 Y96.36 E.01789
G1 X153.416 Y95.905 E.01789
G1 X153.723 Y95.517 E.01789
G1 X154.121 Y95.221 E.0179
G1 X154.582 Y95.039 E.01789
G1 X155.066 Y94.983 E.0176
G1 X155.565 Y95.054 E.01818
G1 X156.02 Y95.251 E.0179
G1 X156.408 Y95.559 E.01789
G1 X156.703 Y95.957 E.01789
G1 X156.886 Y96.418 E.01789
G1 X156.934 Y96.837 E.01522
G1 X156.944 Y96.897
G1 E-1 F3000
G1 Z.6 F9000
G1 X141.039 Y207.755 Z.2
G1 E1 F1800
;TYPE:Inner wall
G1 X141.006 Y207.961 E.00756
G1 X140.883 Y208.219 E.01032
G1 X140.65 Y208.482 E.01267
G1 X140.321 Y208.672 E.01372
G1 X139.921 Y208.744 E.01466
G1 X130.079 Y208.744 E.35539
G1 X129.716 Y208.685 E.01328
G1 X129.405 Y208.525 E.01262
G1 X129.176 Y208.303 E.01149
G1 X129.016 Y208.022 E.01167
G1 X128.936 Y207.602 E.01546
G1 X128.936 Y102.459 E3.79629
G1 X129.018 Y102.034 E.01561
G1 X129.18 Y101.753 E.01173
G1 X129.408 Y101.533 E.01144
G1 X129.718 Y101.375 E.01256
G1 X129.881 Y101.333 E.00609
G1 X130.079 Y101.316 E.00716
G1 X139.921 Y101.316 E.35539
G1 X140.319 Y101.388 E.01459
G1 X140.647 Y101.576 E.01366
G1 X140.881 Y101.838 E.01268
G1 X141.005 Y102.097 E.01036
G1 X141.064 Y102.459 E.01325
G1 X141.064 Y207.602 E3.79629
G1 X141.049 Y207.695 E.00343
G1 X140.595 Y207.678 F9000
G1 F1800
G1 X140.572 Y207.818 E.0051
G1 X140.422 Y208.07 E.01059
G1 X140.161 Y208.244 E.01134
G1 X139.921 Y208.287 E.0088
G1 X130.079 Y208.287 E.35539
G1 X129.762 Y208.21 E.01176
G1 X129.537 Y208.023 E.01057
G1 X129.406 Y207.736 E.01138
G1 X129.393 Y207.202 E.0193
G1 X129.393 Y102.459 E3.78184
G1 X129.442 Y102.204 E.00936
G1 X129.601 Y101.966 E.01033
G1 X129.862 Y101.808 E.01101
G1 X129.96 Y101.783 E.00365
G1 X139.921 Y101.773 E.35967
G1 X140.16 Y101.816 E.00875
G1 X140.421 Y101.989 E.0113
G1 X140.572 Y102.242 E.01062
G1 X140.607 Y102.859 E.02232
G1 X140.607 Y207.602 E3.78184
G1 X140.604 Y207.619 E.00063
G1 X140.15 Y207.602 F9000
;TYPE:Outer wall
G1 F1800
G1 X140.088 Y207.758 E.00605
