; generated by SuperSlicer 2.5.59 on 2023-02-01 at 01:26:26 UTC


;
;

;
;
; 

; external perimeters extrusion width = 0.40mm
; perimeters extrusion width = 0.46mm
; infill extrusion width = 0.64mm
; solid infill extrusion width = 0.56mm
; top infill extrusion width = 0.40mm
; support material extrusion width = 0.46mm
; first layer extrusion width = 0.50mm

; external perimeters extrusion width = 0.40mm
; perimeters extrusion width = 0.46mm
; infill extrusion width = 0.64mm
; solid infill extrusion width = 0.56mm
; top infill extrusion width = 0.40mm
; support material extrusion width = 0.46mm
; first layer extrusion width = 0.50mm

; object:{"name":"hello-kitty-white","id":"hello-kitty-white.stl id:0 copy 0","object_center":[153.674529,193.808639,0.000000],"boundingbox_center":[153.674529,193.808639,0.950000],"boundingbox_size":[93.784103,82.692535,1.900000]}
; object:{"name":"hello-kitty-white","id":"hello-kitty-white.stl id:1 copy 0","object_center":[151.325214,106.190026,0.000000],"boundingbox_center":[151.325214,106.190026,0.950000],"boundingbox_size":[93.784103,82.692535,1.900000]}
; plater:{"center":[152.499871,149.999332,0.000000],"boundingbox_center":[152.499871,149.999332,0.950000],"boundingbox_size":[96.133418,170.311148,1.900000]}

M73 P0 R132


; Pre-Processed for Cancel-Object support by preprocess_cancellation v0.2.0
; 2 known objects
EXCLUDE_OBJECT_DEFINE NAME=hello_kitty_white_stl_id_0_copy_0 CENTER=151.540,187.857 POLYGON=[[106.983,152.662],[106.983,234.955],[200.361,234.955],[200.361,152.662]]
EXCLUDE_OBJECT_DEFINE NAME=hello_kitty_white_stl_id_1_copy_0 CENTER=149.191,100.238 POLYGON=[[104.634,65.044],[104.634,147.336],[198.012,147.336],[198.012,65.044]]
;TYPE:Custom
START_PRINT T_BED=60 T_EXTRUDER=200
M107
G21 ; set units to millimeters
G90 ; use absolute coordinates
M82 ; use absolute distances for extrusion
G92 E0
; Filament gcode

    PRESSURE_ADVANCE_SELECT FILAMENT=PLA
;_TOOLCHANGE 0
M104 S200 ; set temperature
M109 S200 ; set temperature and wait for it to be reached
M190 S60 ; set bed temperature and wait for it to be reached
M107
;LAYER_CHANGE
;Z:0.2
;HEIGHT:0.2
G1 Z0.2 F9000
G1 E-0.8 F3000
M204 S1000
G1 X109.012 Y76.059 F9000
G1 E0 F1800
;TYPE:Skirt
;WIDTH:0.52
G1 X108.333 Y77.057 E0.04599
G1 X106.218 Y81.105 E0.2199
G1 X104.881 Y83.932 E0.33899
G1 X103.744 Y86.851 E0.4583
G1 X102.86 Y89.681 E0.57118
G1 X102.146 Y92.504 E0.68211
G1 X101.538 Y95.259 E0.78955
G1 X101.104 Y98.126 E0.89997
G1 X100.872 Y100.905 E1.00615
G1 X100.828 Y107.121 E1.24289
G1 X103.202 Y195.163 E4.59696
G1 X103.607 Y198.596 E4.72864
G1 X107.849 Y229.438 E5.91423
G1 X108.302 Y231.447 E5.99264
G1 X109.14 Y233.826 E6.08872
G1 X110.047 Y235.675 E6.16713
G1 X110.61 Y236.5 E6.20515
G1 X111.413 Y237.321 E6.24891
G1 X112.224 Y237.901 E6.28688
G1 X112.859 Y238.232 E6.31415
G1 X113.947 Y238.602 E6.3579
G1 X115.38 Y238.769 E6.41283
G1 X193.924 Y236.665 E9.40506
G1 X195.215 Y236.417 E9.45515
G1 X196.351 Y235.949 E9.50194
G1 X197.371 Y235.31 E9.54778
G1 X198.55 Y234.198 E9.60948
G1 X199.038 Y233.549 E9.64038
G1 X199.631 Y232.473 E9.68717
G1 X200.714 Y229.011 E9.82534
G1 X201.13 Y226.644 E9.91685
G1 X204.048 Y192.778 E11.21134
G1 X204.178 Y188.065 E11.39088
G1 X201.827 Y100.199 E14.73827
G1 X201.701 Y97.086 E14.85688
G1 X201.419 Y94.207 E14.96706
G1 X200.767 Y90.827 E15.09816
G1 X199.158 Y85.512 E15.30964
G1 X198.214 Y82.913 E15.41494
G1 X196.951 Y80.163 E15.53017
G1 X195.505 Y77.613 E15.64182
G1 X193.354 Y74.773 E15.77748
G1 X191.369 Y72.752 E15.88538
G1 X189.167 Y70.937 E15.99402
G1 X186.795 Y69.353 E16.10266
G1 X184.164 Y67.957 E16.2161
G1 X179.826 Y65.885 E16.39919
G1 X175.315 Y64.229 E16.58217
G1 X171.01 Y63.078 E16.75189
G1 X166.271 Y62.26 E16.93501
G1 X161.907 Y61.618 E17.10302
G1 X157.834 Y61.291 E17.25859
G1 X154.859 Y61.245 E17.37193
G1 X148.293 Y61.294 E17.62196
G1 X142.95 Y61.72 E17.8261
G1 X137.646 Y62.509 E18.03031
G1 X132.585 Y63.453 E18.22637
G1 X127.118 Y64.993 E18.44267
G1 X119.605 Y67.936 E18.74995
G1 X116.646 Y69.505 E18.87751
G1 X113.868 Y71.378 E19.00508
G1 X111.302 Y73.533 E19.13269
G1 X109.993 Y74.848 E19.20337
G1 X109.012 Y76.059 E19.26271
G1 X109.406 Y76.327 F9000
G1 F1800
G1 X108.727 Y77.326 E19.3087
G1 X106.644 Y81.319 E19.48022
G1 X105.325 Y84.107 E19.59766
G1 X104.199 Y86.994 E19.71571
G1 X103.323 Y89.798 E19.82756
G1 X102.612 Y92.609 E19.93798
G1 X102.01 Y95.332 E20.0442
G1 X101.579 Y98.167 E20.15341
G1 X101.349 Y100.914 E20.25837
G1 X101.305 Y107.12 E20.4947
G1 X103.676 Y195.107 E23.84671
G1 X104.08 Y198.531 E23.97803
G1 X108.321 Y229.373 E25.16362
G1 X108.766 Y231.338 E25.24034
G1 X109.57 Y233.62 E25.33247
G1 X110.456 Y235.43 E25.40919
G1 X110.987 Y236.208 E25.44509
G1 X111.713 Y236.95 E25.48461
G1 X112.479 Y237.497 E25.52045
G1 X113.065 Y237.801 E25.5456
G1 X114.047 Y238.136 E25.58511
G1 X115.367 Y238.292 E25.63574
G1 X193.911 Y236.188 E28.62795
G1 X195.084 Y235.959 E28.67349
G1 X196.121 Y235.531 E28.71619
G1 X197.095 Y234.92 E28.75999
G1 X198.194 Y233.88 E28.8176
G1 X198.648 Y233.274 E28.84646
G1 X199.19 Y232.292 E28.88917
G1 X200.245 Y228.925 E29.02352
G1 X200.655 Y226.603 E29.11331
G1 X203.573 Y192.737 E30.4078
G1 X203.701 Y188.053 E30.58626
G1 X201.35 Y100.218 E33.93243
G1 X201.224 Y97.106 E34.05105
G1 X200.944 Y94.255 E34.16015
G1 X200.309 Y90.959 E34.28796
G1 X198.703 Y85.656 E34.49897
G1 X197.766 Y83.076 E34.6035
G1 X196.519 Y80.364 E34.71717
G1 X195.091 Y77.851 E34.82726
G1 X192.977 Y75.065 E34.96044
G1 X191.032 Y73.09 E35.06599
G1 X188.866 Y71.308 E35.17281
G1 X186.533 Y69.751 E35.27963
G1 X183.957 Y68.387 E35.39064
G1 X179.66 Y66.332 E35.57204
G1 X175.192 Y64.69 E35.75331
G1 X170.886 Y63.539 E35.92303
G1 X166.192 Y62.731 E36.10445
G1 X161.868 Y62.094 E36.27087
G1 X157.796 Y61.766 E36.42645
G1 X154.853 Y61.722 E36.53855
G1 X148.299 Y61.771 E36.78813
G1 X142.988 Y62.195 E36.99103
G1 X137.717 Y62.981 E37.19399
M73 P0 R132
G1 X132.673 Y63.922 E37.38941
G1 X127.288 Y65.439 E37.60245
G1 X119.786 Y68.377 E37.9093
G1 X116.872 Y69.925 E38.03495
G1 X114.138 Y71.772 E38.1606
G1 X111.612 Y73.896 E38.2863
G1 X110.36 Y75.152 E38.35381
G1 X109.406 Y76.327 E38.41144
G92 E0
G1 E-0.8 F3000
; printing object hello-kitty-white.stl id:0 copy 0
EXCLUDE_OBJECT_START NAME=hello_kitty_white_stl_id_0_copy_0
G1 X112.502 Y225.225 F9000
G1 E0 F1800
;TYPE:Internal perimeter
;WIDTH:0.5
G1 X112.807 Y225.266 E0.01124
G1 X114.497 Y225.303 E0.07289
G1 X116.179 Y225.152 E0.13454
G1 X117.835 Y224.814 E0.19618
G1 X119.443 Y224.294 E0.25783
G1 X120.982 Y223.597 E0.31948
G1 X121.477 Y223.302 E0.34052
G1 X121.61 Y223.451 E0.34781
G1 X122.588 Y224.328 E0.39572
G1 X123.657 Y225.09 E0.44362
G1 X124.804 Y225.729 E0.49152
G1 X126.015 Y226.236 E0.53942
G1 X127.275 Y226.605 E0.58732
G1 X128.568 Y226.832 E0.63522
G1 X129.878 Y226.914 E0.68312
G1 X130.036 Y226.906 E0.68891
G1 X130.078 Y227.106 E0.69635
G1 X130.437 Y228.389 E0.74497
G1 X130.512 Y228.6 E0.75314
G1 X128.219 Y229.897 E0.84926
G1 X124.91 Y231.43 E0.98233
G1 X119.917 Y233.267 E1.17644
G1 X118.409 Y233.64 E1.23312
G1 X116.868 Y233.849 E1.28984
G1 X115.322 Y233.889 E1.34627
G1 X115.193 Y233.877 E1.35101
G1 X114.9 Y233.796 E1.36208
G1 X114.646 Y233.656 E1.37267
G1 X114.432 Y233.461 E1.38324
G1 X114.252 Y233.198 E1.39488
G1 X113.566 Y231.77 E1.45266
G1 X113.039 Y230.274 E1.51055
G1 X112.678 Y228.729 E1.56843
G1 X112.487 Y227.154 E1.62632
G1 X112.469 Y225.567 E1.68421
G1 X112.502 Y225.225 E1.69678
G1 X112.093 Y224.708 F9000
G1 F1800
G1 X112.843 Y224.809 E1.72438
G1 X114.481 Y224.846 E1.78416
G1 X116.113 Y224.699 E1.84394
G1 X117.719 Y224.371 E1.90373
G1 X119.277 Y223.867 E1.96351
G1 X120.77 Y223.191 E2.02329
G1 X121.568 Y222.717 E2.05715
G1 X121.935 Y223.128 E2.07726
G1 X122.874 Y223.971 E2.1233
G1 X123.901 Y224.703 E2.16934
G1 X125.004 Y225.317 E2.21538
G1 X126.168 Y225.804 E2.26142
G1 X127.379 Y226.159 E2.30747
G1 X128.622 Y226.377 E2.35351
G1 X129.881 Y226.456 E2.39955
G1 X130.405 Y226.43 E2.4187
G1 X130.522 Y226.998 E2.43986
G1 X130.872 Y228.25 E2.4873
G1 X131.072 Y228.809 E2.50893
G1 X128.428 Y230.304 E2.61976
G1 X125.085 Y231.852 E2.75417
G1 X120.051 Y233.704 E2.94988
G1 X118.494 Y234.09 E3.00838
G1 X116.905 Y234.305 E3.0669
G1 X115.307 Y234.347 E3.12525
G1 X115.11 Y234.328 E3.13246
G1 X114.915 Y234.286 E3.13972
G1 X114.727 Y234.222 E3.14699
G1 X114.547 Y234.137 E3.15425
G1 X114.379 Y234.03 E3.16151
G1 X114.224 Y233.905 E3.16878
G1 X114.084 Y233.763 E3.17604
G1 X113.963 Y233.606 E3.1833
G1 X113.855 Y233.426 E3.19093
G1 X113.143 Y231.946 E3.25087
G1 X112.599 Y230.402 E3.31058
G1 X112.227 Y228.809 E3.37029
G1 X112.03 Y227.184 E3.43
G1 X112.011 Y225.548 E3.48971
G1 X112.093 Y224.708 E3.52048
G1 X111.685 Y224.192 F9000
;TYPE:External perimeter
G1 F1800
G1 X112.879 Y224.353 E3.56444
G1 X114.466 Y224.388 E3.62236
G1 X116.047 Y224.246 E3.68028
G1 X117.602 Y223.929 E3.73819
G1 X119.112 Y223.44 E3.79611
G1 X120.558 Y222.785 E3.85403
G1 X121.658 Y222.131 E3.9007
G1 X122.259 Y222.805 E3.93364
G1 X123.16 Y223.613 E3.97782
G1 X124.146 Y224.316 E4.022
G1 X125.204 Y224.905 E4.06618
G1 X126.321 Y225.373 E4.11036
G1 X127.483 Y225.714 E4.15454
G1 X128.676 Y225.923 E4.19872
G1 X129.884 Y225.998 E4.2429
G1 X130.774 Y225.954 E4.27542
G1 X130.967 Y226.891 E4.31029
G1 X131.308 Y228.112 E4.35656
G1 X131.632 Y229.017 E4.39164
G1 X128.636 Y230.711 E4.51718
G1 X125.26 Y232.275 E4.65294
G1 X120.185 Y234.142 E4.85024
G1 X118.58 Y234.54 E4.91057
G1 X116.942 Y234.761 E4.9709
G1 X115.291 Y234.804 E5.03115
G1 X115.04 Y234.781 E5.04034
G1 X114.793 Y234.728 E5.04956
G1 X114.554 Y234.646 E5.05878
G1 X114.326 Y234.538 E5.06799
G1 X114.112 Y234.403 E5.07721
G1 X113.916 Y234.244 E5.08643
G1 X113.739 Y234.064 E5.09564
G1 X113.585 Y233.864 E5.10486
G1 X113.452 Y233.644 E5.11423
G1 X112.721 Y232.121 E5.17587
G1 X112.16 Y230.531 E5.2374
G1 X111.776 Y228.888 E5.29893
G1 X111.573 Y227.214 E5.36045
G1 X111.554 Y225.528 E5.42198
G1 X111.685 Y224.192 E5.47097
;WIPE_START
M204 S3000
G1 X112.004 Y224.433 F9000
;WIPE_END
G92 E0
G1 E-0.8 F3000
M204 S1000
G1 X129.004 Y226.923 F9000
G1 E0 F1800
;TYPE:Solid infill
;WIDTH:0.490774
G1 F2400
G1 X130.347 Y228.265 E0.06798
G1 X130.157 Y228.722 F9000
G1 F2400
G1 X128.288 Y226.852 E0.16265
G1 X127.504 Y226.715 F9000
G1 F2400
G1 X129.744 Y228.955 E0.27612
G1 X129.331 Y229.189 F9000
G1 F2400
G1 X126.63 Y226.488 E0.41293
G1 X125.656 Y226.16 F9000
G1 F2400
G1 X128.918 Y229.422 E0.57815
G1 X128.506 Y229.656 F9000
G1 F2400
G1 X124.472 Y225.623 E0.78242
G92 E0
G1 E-0.8 F3000
G1 X122.684 Y224.48 F9000
G1 E0 F1800
G1 F2400
G1 X128.086 Y229.883 E0.27361
G1 X127.644 Y230.087 F9000
G1 F2400
G1 X121.113 Y223.556 E0.6044
G1 X120.678 Y223.768 F9000
G1 F2400
G1 X127.202 Y230.292 E0.93482
G1 X126.761 Y230.497 F9000
G1 F2400
G1 X120.244 Y223.98 E1.26489
G1 X119.809 Y224.191 F9000
G1 F2400
G1 X126.319 Y230.701 E1.5946
G1 X125.877 Y230.906 F9000
G1 F2400
G1 X119.363 Y224.391 E1.92454
G1 X118.875 Y224.55 F9000
G1 F2400
G1 X125.436 Y231.111 E2.25683
G1 X124.994 Y231.315 F9000
G1 F2400
G1 X118.386 Y224.708 E2.59148
G1 X117.898 Y224.866 F9000
G1 F2400
G1 X124.529 Y231.497 E2.92732
G1 X124.056 Y231.671 F9000
G1 F2400
G1 X117.366 Y224.98 E3.26618
G1 X116.829 Y225.09 F9000
G1 F2400
G1 X123.584 Y231.845 E3.6083
G1 X123.111 Y232.018 F9000
G1 F2400
G1 X116.292 Y225.199 E3.95368
G1 X115.71 Y225.263 F9000
G1 F2400
G1 X122.639 Y232.192 E4.30462
G1 X122.166 Y232.366 F9000
G1 F2400
G1 X115.116 Y225.316 E4.66166
G1 X114.523 Y225.37 F9000
G1 F2400
G1 X121.694 Y232.54 E5.02481
G1 X121.221 Y232.714 F9000
G1 F2400
G1 X113.854 Y225.346 E5.39795
G1 X113.181 Y225.32 F9000
G1 F2400
G1 X120.749 Y232.888 E5.78123
G1 X120.276 Y233.061 F9000
G1 F2400
G1 X112.57 Y225.355 E6.17153
G1 X112.564 Y225.996 F9000
G1 F2400
G1 X119.794 Y233.226 E6.53771
G1 X119.276 Y233.355 F9000
G1 F2400
G1 X112.559 Y226.638 E6.8779
G1 X112.573 Y227.298 F9000
G1 F2400
G1 X118.758 Y233.483 E7.19116
G1 X118.225 Y233.596 F9000
G1 F2400
G1 X112.662 Y228.033 E7.47289
G1 X112.759 Y228.777 F9000
G1 F2400
G1 X117.655 Y233.673 E7.72087
G1 X117.086 Y233.75 F9000
G1 F2400
G1 X112.956 Y229.62 E7.93003
G1 X113.192 Y230.502 F9000
G1 F2400
G1 X116.48 Y233.79 E8.09655
G1 X115.85 Y233.807 F9000
G1 F2400
G1 X113.544 Y231.501 E8.21335
G1 X114.082 Y232.685 F9000
G1 F2400
G1 X115.156 Y233.759 E8.26775
G92 E0
G1 E-0.8 F3000
G1 X156.285 Y173.638 F9000
G1 E0 F1800
;TYPE:Internal perimeter
;WIDTH:0.5
G1 X155.871 Y173.952 E0.01895
G1 X155.425 Y174.179 E0.03723
G1 X155.196 Y174.266 E0.04615
G1 X154.569 Y174.436 E0.06985
G1 X153.886 Y174.542 E0.09507
G1 X153.164 Y174.578 E0.12145
G1 X152.442 Y174.542 E0.14784
G1 X151.759 Y174.436 E0.17306
G1 X151.132 Y174.266 E0.19676
G1 X150.903 Y174.179 E0.20568
G1 X150.446 Y173.947 E0.22437
G1 X150.318 Y173.859 E0.23007
G1 X150.05 Y173.606 E0.24351
G1 X150.456 Y173.297 E0.26213
G1 X150.903 Y173.07 E0.28041
G1 X151.132 Y172.983 E0.28933
G1 X151.759 Y172.813 E0.31303
G1 X152.441 Y172.707 E0.33821
G1 X153.182 Y172.672 E0.3653
G1 X153.886 Y172.707 E0.39101
G1 X154.569 Y172.813 E0.41623
G1 X155.177 Y172.978 E0.4392
G1 X155.69 Y173.193 E0.45951
G1 X155.866 Y173.291 E0.46686
G1 X156.006 Y173.387 E0.47305
G1 X156.285 Y173.638 E0.48674
G1 X156.712 Y173.656 F9000
G1 F1800
G1 X156.698 Y173.725 E0.48929
G1 X156.671 Y173.793 E0.49198
G1 X156.553 Y173.976 E0.49991
G1 X156.45 Y174.086 E0.50542
G1 X156.298 Y174.215 E0.5127
G1 X156.115 Y174.341 E0.5208
G1 X155.61 Y174.598 E0.54149
G1 X155.337 Y174.701 E0.55212
G1 X154.664 Y174.884 E0.57756
G1 X153.933 Y174.997 E0.60458
G1 X153.164 Y175.035 E0.63266
G1 X152.395 Y174.997 E0.66074
G1 X151.663 Y174.884 E0.68776
G1 X150.991 Y174.701 E0.7132
G1 X150.718 Y174.598 E0.72383
G1 X150.213 Y174.341 E0.74452
G1 X150.03 Y174.215 E0.75262
G1 X149.877 Y174.086 E0.7599
G1 X149.764 Y173.965 E0.76596
G1 X149.688 Y173.856 E0.7708
G1 X149.651 Y173.781 E0.77386
G1 X149.621 Y173.656 E0.77854
G1 X149.626 Y173.56 E0.78206
G1 X149.666 Y173.441 E0.78665
G1 X149.775 Y173.273 E0.79393
G1 X149.877 Y173.163 E0.79944
G1 X150.03 Y173.034 E0.80672
G1 X150.213 Y172.908 E0.81482
G1 X150.718 Y172.651 E0.83551
G1 X150.991 Y172.548 E0.84614
G1 X151.663 Y172.365 E0.87158
G1 X152.395 Y172.252 E0.89858
G1 X153.183 Y172.214 E0.92736
G1 X153.933 Y172.252 E0.95475
G1 X154.664 Y172.365 E0.98177
G1 X155.325 Y172.545 E1.00676
G1 X155.891 Y172.781 E1.02913
G1 X156.107 Y172.903 E1.03819
G1 X156.289 Y173.027 E1.04622
G1 X156.509 Y173.224 E1.05699
G1 X156.646 Y173.406 E1.0653
G1 X156.677 Y173.468 E1.06783
G1 X156.712 Y173.612 E1.07323
G1 X156.712 Y173.656 E1.07483
G1 X157.169 Y173.7 F9000
;TYPE:External perimeter
G1 F1800
G1 X157.139 Y173.852 E1.0805
G1 X157.08 Y174.003 E1.08641
G1 X156.915 Y174.258 E1.09748
G1 X156.767 Y174.417 E1.10543
G1 X156.576 Y174.579 E1.11455
G1 X156.349 Y174.735 E1.12459
G1 X156.088 Y174.882 E1.13554
G1 X155.795 Y175.017 E1.14731
G1 X155.478 Y175.136 E1.15965
G1 X154.76 Y175.332 E1.18683
G1 X153.979 Y175.452 E1.21564
G1 X153.164 Y175.493 E1.24542
G1 X152.349 Y175.452 E1.27519
G1 X151.568 Y175.332 E1.30401
G1 X150.85 Y175.136 E1.33119
G1 X150.533 Y175.017 E1.34353
G1 X149.979 Y174.735 E1.36623
G1 X149.752 Y174.579 E1.37628
G1 X149.561 Y174.417 E1.3854
G1 X149.408 Y174.253 E1.39358
G1 X149.294 Y174.09 E1.40086
G1 X149.219 Y173.937 E1.40705
G1 X149.161 Y173.7 E1.41597
G1 X149.172 Y173.473 E1.42425
G1 X149.252 Y173.239 E1.43326
G1 X149.413 Y172.991 E1.44405
G1 X149.561 Y172.832 E1.452
G1 X149.752 Y172.67 E1.46112
G1 X149.979 Y172.514 E1.47117
G1 X150.533 Y172.232 E1.49387
G1 X150.85 Y172.113 E1.5062
G1 X151.568 Y171.917 E1.53338
G1 X152.349 Y171.797 E1.5622
G1 X153.183 Y171.757 E1.59268
G1 X153.979 Y171.797 E1.62174
G1 X154.76 Y171.917 E1.65056
G1 X155.474 Y172.111 E1.67758
G1 X156.092 Y172.369 E1.702
G1 X156.349 Y172.514 E1.71278
G1 X156.572 Y172.667 E1.72265
G1 X156.847 Y172.914 E1.7361
G1 X157.037 Y173.165 E1.7476
G1 X157.109 Y173.311 E1.75356
G1 X157.169 Y173.557 E1.7628
G1 X157.169 Y173.7 E1.76799
;WIPE_START
M204 S3000
G1 X156.8 Y173.854 F9000
;WIPE_END
M204 S1000
G1 X155.799 Y173.91
;TYPE:Solid infill
;WIDTH:0.475851
G1 F2400
G1 X154.874 Y172.984 E1.81344
G1 X154.056 Y172.813 F9000
G1 F2400
