; generated by SuperSlicer 2.5.59 on 2023-01-31 at 22:21:24 UTC


;
;

;
;
; 

; external perimeters extrusion width = 0.40mm
; perimeters extrusion width = 0.46mm
; infill extrusion width = 0.64mm
; solid infill extrusion width = 0.56mm
; top infill extrusion width = 0.40mm
; support material extrusion width = 0.46mm
; first layer extrusion width = 0.50mm

; external perimeters extrusion width = 0.40mm
; perimeters extrusion width = 0.46mm
; infill extrusion width = 0.64mm
; solid infill extrusion width = 0.56mm
; top infill extrusion width = 0.40mm
; support material extrusion width = 0.46mm
; first layer extrusion width = 0.50mm

; object:{"name":"hello-kitty-black","id":"hello-kitty-black.stl id:0 copy 0","object_center":[155.925235,102.918227,0.000000],"boundingbox_center":[155.925235,102.918227,2.000000],"boundingbox_size":[119.924202,89.099228,4.000000]}
; object:{"name":"hello-kitty-black","id":"hello-kitty-black.stl id:1 copy 0","object_center":[149.074848,197.081982,0.000000],"boundingbox_center":[149.074848,197.081982,2.000000],"boundingbox_size":[119.924202,89.099228,4.000000]}
; plater:{"center":[152.500042,150.000104,0.000000],"boundingbox_center":[152.500042,150.000104,2.000000],"boundingbox_size":[126.774589,183.262983,4.000000]}

M73 P0 R133


; Pre-Processed for Cancel-Object support by preprocess_cancellation v0.2.0
; 2 known objects
EXCLUDE_OBJECT_DEFINE NAME=hello_kitty_black_stl_id_0_copy_0 CENTER=163.600,105.215 POLYGON=[[96.17,58.569],[96.17,147.268],[215.682,147.268],[215.682,58.569]]
EXCLUDE_OBJECT_DEFINE NAME=hello_kitty_black_stl_id_1_copy_0 CENTER=156.749,199.379 POLYGON=[[89.32,152.732],[89.32,241.432],[208.831,241.432],[208.831,152.732]]
;TYPE:Custom
START_PRINT T_BED=60 T_EXTRUDER=200
M107
G21 ; set units to millimeters
G90 ; use absolute coordinates
M82 ; use absolute distances for extrusion
G92 E0
; Filament gcode

    PRESSURE_ADVANCE_SELECT FILAMENT=PLA
;_TOOLCHANGE 0
M104 S200 ; set temperature
M109 S200 ; set temperature and wait for it to be reached
M190 S60 ; set bed temperature and wait for it to be reached
M107
;LAYER_CHANGE
;Z:0.2
;HEIGHT:0.2
G1 Z0.2 F9000
M73 P0 R133
G1 E-0.8 F3000
M204 S1000
G1 X102.101 Y65.745 F9000
G1 E0 F1800
;TYPE:Skirt
;WIDTH:0.52
G1 X101.719 Y66.516 E0.03275
G1 X92.593 Y91.976 E1.06274
G1 X92.426 Y92.617 E1.088
G1 X85.508 Y187.833 E4.7236
G1 X85.749 Y189.168 E4.77529
G1 X100.415 Y234.895 E6.60404
G1 X101.39 Y236.99 E6.69204
G1 X101.859 Y237.802 E6.72776
G1 X102.459 Y238.617 E6.76629
G1 X103.149 Y239.356 E6.80483
G1 X103.922 Y240.01 E6.84336
G1 X104.765 Y240.569 E6.88189
G1 X106.071 Y241.189 E6.93694
G1 X107.038 Y241.489 E6.97548
G1 X108.101 Y241.679 E7.01662
G1 X157.284 Y245.247 E8.89455
G1 X187.448 Y243.912 E10.04442
G1 X188.461 Y243.815 E10.08316
G1 X189.457 Y243.607 E10.12189
G1 X190.983 Y243.052 E10.18376
G1 X192.224 Y242.351 E10.23803
G1 X193.488 Y241.331 E10.29989
G1 X194.435 Y240.266 E10.35416
G1 X195.17 Y239.085 E10.40711
G1 X196.191 Y236.685 E10.50645
G1 X212.476 Y193.212 E12.27437
G1 X212.635 Y192.341 E12.3081
G1 X219.495 Y97.876 E15.91501
G1 X219.364 Y96.616 E15.96327
G1 X213.226 Y70.98 E16.96714
G1 X212.866 Y69.942 E17.00899
G1 X212.317 Y69.074 E17.0481
G1 X211.712 Y68.436 E17.08157
G1 X210.873 Y67.843 E17.12069
G1 X210.033 Y67.487 E17.15544
G1 X178.366 Y57.888 E18.41559
G1 X172.123 Y56.449 E18.65956
G1 X166.092 Y55.464 E18.89229
G1 X159.995 Y54.897 E19.1255
G1 X155.337 Y54.786 E19.30292
G1 X153.662 Y54.755 E19.36672
G1 X147.065 Y54.984 E19.6181
G1 X139.859 Y55.907 E19.89476
G1 X105.288 Y63.42 E21.24206
G1 X104.334 Y63.753 E21.28052
G1 X103.565 Y64.19 E21.31422
G1 X102.692 Y64.944 E21.35814
G1 X102.101 Y65.745 E21.39605
G1 X102.501 Y66.005 F9000
G1 F1800
G1 X102.168 Y66.677 E21.4246
G1 X92.896 Y92.696 E22.47651
G1 X85.985 Y187.826 E26.10886
G1 X86.204 Y189.023 E26.1552
G1 X100.866 Y234.738 E27.9835
G1 X101.821 Y236.784 E28.06948
G1 X102.268 Y237.556 E28.10344
G1 X102.836 Y238.325 E28.13985
G1 X103.49 Y239.022 E28.17626
G1 X104.221 Y239.638 E28.21267
G1 X105.019 Y240.165 E28.24908
G1 X106.224 Y240.737 E28.29988
G1 X107.137 Y241.022 E28.33629
G1 X108.136 Y241.203 E28.37497
G1 X157.284 Y244.77 E30.25158
G1 X187.413 Y243.436 E31.40011
G1 X188.374 Y243.346 E31.43685
G1 X189.319 Y243.15 E31.47359
G1 X190.796 Y242.613 E31.53345
G1 X191.946 Y241.964 E31.58373
G1 X193.169 Y240.977 E31.6436
G1 X194.046 Y239.99 E31.69387
G1 X194.731 Y238.898 E31.74297
G1 X195.745 Y236.518 E31.8415
G1 X212.012 Y193.101 E33.60714
G1 X212.159 Y192.306 E33.63795
G1 X219.017 Y97.88 E37.24339
G1 X218.9 Y96.727 E37.28754
G1 X212.762 Y71.091 E38.29141
G1 X212.439 Y70.155 E38.32912
G1 X211.935 Y69.359 E38.36502
G1 X211.407 Y68.803 E38.39418
G1 X210.638 Y68.259 E38.43007
G1 X209.875 Y67.937 E38.4616
G1 X178.259 Y58.353 E39.71974
G1 X172.016 Y56.914 E39.96372
G1 X166.016 Y55.935 E40.19525
G1 X159.951 Y55.372 E40.4272
G1 X155.327 Y55.263 E40.60336
G1 X153.679 Y55.232 E40.66613
G1 X147.081 Y55.461 E40.91752
G1 X139.96 Y56.373 E41.19092
G1 X105.389 Y63.886 E42.53821
G1 X104.519 Y64.193 E42.57335
G1 X103.849 Y64.574 E42.60272
G1 X103.04 Y65.271 E42.64339
G1 X102.501 Y66.005 E42.67805
G92 E0
G1 E-0.8 F3000
; printing object hello-kitty-black.stl id:0 copy 0
EXCLUDE_OBJECT_START NAME=hello_kitty_black_stl_id_0_copy_0
G1 X202.798 Y88.955 F9000
G1 E0 F1800
;TYPE:Internal perimeter
;WIDTH:0.5
G1 X203.428 Y91.962 E0.11212
G1 X203.798 Y94.601 E0.20935
G1 X204.077 Y98.476 E0.35108
G1 X204.225 Y98.476 E0.35647
G1 X203.864 Y104.007 E0.55873
G1 X203.258 Y108.108 E0.70998
G1 X202.21 Y112.624 E0.87912
G1 X203.293 Y114.923 E0.97182
G1 X203.933 Y116.845 E1.04576
G1 X204.341 Y118.831 E1.11971
G1 X204.511 Y120.85 E1.19365
G1 X204.439 Y122.933 E1.26969
G1 X204.359 Y124.223 E1.31685
G1 X204.143 Y125.443 E1.36206
G1 X203.791 Y126.631 E1.40727
G1 X203.308 Y127.772 E1.45248
G1 X202.731 Y128.796 E1.49536
G1 X202.454 Y129.108 E1.51059
G1 X202.095 Y129.438 E1.52838
G1 X201.704 Y129.73 E1.54617
G1 X201.285 Y129.979 E1.56396
G1 X200.843 Y130.185 E1.58174
G1 X199.411 Y130.681 E1.63705
G1 X199.629 Y134.022 E1.7592
G1 X199.508 Y136.329 E1.84348
G1 X199.119 Y138.605 E1.92776
G1 X198.466 Y140.821 E2.01204
G1 X197.582 Y142.889 E2.0941
G1 X197.342 Y143.228 E2.10925
G1 X197.022 Y143.587 E2.12678
G1 X196.666 Y143.909 E2.14431
G1 X196.276 Y144.19 E2.16185
G1 X195.857 Y144.426 E2.17938
G1 X195.415 Y144.615 E2.19691
G1 X194.955 Y144.754 E2.21444
G1 X194.483 Y144.842 E2.23197
G1 X194.004 Y144.877 E2.2495
G1 X193.501 Y144.859 E2.26787
G1 X191.335 Y144.619 E2.34739
G1 X189.214 Y144.179 E2.42642
G1 X187.143 Y143.541 E2.50546
G1 X185.093 Y142.691 E2.58645
G1 X182.377 Y141.532 E2.69419
G1 X179.752 Y140.24 E2.80093
G1 X176.21 Y138.252 E2.94913
G1 X174.362 Y140.692 E3.0608
G1 X173.059 Y142.055 E3.1296
G1 X171.608 Y143.259 E3.1984
G1 X170.029 Y144.29 E3.2672
G1 X168.343 Y145.131 E3.33595
G1 X165.899 Y146.011 E3.43073
G1 X165.344 Y146.139 E3.45151
G1 X164.774 Y146.204 E3.47245
G1 X164.2 Y146.204 E3.49339
G1 X163.63 Y146.139 E3.51432
G1 X163.071 Y146.01 E3.53526
G1 X162.64 Y145.859 E3.55192
G1 X161.028 Y144.67 E3.62498
G1 X159.464 Y143.234 E3.70245
G1 X158.064 Y141.638 E3.77993
G1 X156.843 Y139.901 E3.8574
G1 X155.444 Y137.374 E3.96279
G1 X149.022 Y137.004 E4.1975
G1 X143.381 Y136.264 E4.40508
G1 X137.223 Y134.992 E4.63449
G1 X133.891 Y137.368 E4.7838
G1 X130.872 Y139.092 E4.91066
G1 X127.694 Y140.504 E5.03753
G1 X124.391 Y141.59 E5.16439
G1 X120.976 Y142.343 E5.292
G1 X119.092 Y142.626 E5.3615
G1 X117.207 Y142.727 E5.43037
G1 X115.367 Y142.65 E5.49757
G1 X114.967 Y142.565 E5.5125
G1 X114.549 Y142.424 E5.5286
G1 X114.151 Y142.235 E5.54469
G1 X113.777 Y142.001 E5.56078
G1 X113.433 Y141.724 E5.57687
G1 X113.124 Y141.41 E5.59296
G1 X112.854 Y141.061 E5.60905
G1 X112.62 Y140.672 E5.62561
G1 X111.853 Y139.068 E5.6905
G1 X111.272 Y137.396 E5.75507
G1 X110.88 Y135.67 E5.81964
G1 X110.68 Y133.912 E5.88421
G1 X110.676 Y132.115 E5.94978
G1 X110.963 Y127.738 E6.10982
G1 X111.626 Y123.414 E6.26942
G1 X112.772 Y118.706 E6.44622
G1 X110.37 Y112.997 E6.6722
G1 X108.814 Y107.513 E6.88017
G1 X107.935 Y101.882 E7.08813
G1 X107.707 Y94.999 E7.33941
G1 X103.32 Y94.574 E7.50025
G1 X100.92 Y94.183 E7.58895
G1 X100.965 Y93.833 E7.60182
G1 X103.318 Y94.046 E7.68804
G1 X107.807 Y94.565 E7.85291
G1 X108.197 Y90.392 E8.00583
G1 X108.734 Y87.605 E8.10938
G1 X109.88 Y83.725 E8.25698
G1 X109.814 Y83.698 E8.25958
G1 X111.308 Y79.739 E8.41396
G1 X112.466 Y77.243 E8.51437
G1 X114.446 Y73.685 E8.66294
G1 X114.305 Y73.608 E8.6688
G1 X117.53 Y70.478 E8.83277
G1 X119.979 Y68.576 E8.94589
G1 X122.642 Y66.939 E9.05995
G1 X126.442 Y64.953 E9.21638
G1 X130.397 Y63.343 E9.37221
G1 X134.503 Y62.111 E9.52861
G1 X140.85 Y60.686 E9.76596
G1 X147.287 Y59.859 E10.00275
G1 X153.966 Y59.637 E10.24655
G1 X159.59 Y59.76 E10.45182
G1 X165.351 Y60.287 E10.6629
G1 X171.064 Y61.213 E10.87406
G1 X177.209 Y62.63 E11.10414
G1 X183.144 Y64.683 E11.33328
G1 X188.838 Y67.36 E11.56284
G1 X190.992 Y68.616 E11.65382
G1 X192.973 Y70.102 E11.74417
G1 X194.77 Y71.806 E11.83452
G1 X196.359 Y73.705 E11.92487
G1 X198.356 Y76.745 E12.05758
G1 X202.48 Y74.846 E12.22325
G1 X205.522 Y73.486 E12.34482
G1 X205.677 Y73.804 E12.35772
G1 X202.785 Y75.337 E12.47716
G1 X198.474 Y77.099 E12.64708
G1 X200.252 Y81.08 E12.80616
G1 X201.314 Y83.903 E12.91621
G1 X202.522 Y87.813 E13.06552
G1 X202.558 Y87.809 E13.06685
G1 X202.798 Y88.955 E13.10955
G92 E0
G1 E-0.8 F3000
G1 X114.107 Y73.091 F9000
G1 E0 F1800
G1 X113.929 Y73.403 E0.0131
G1 X110.795 Y71.688 E0.14345
G1 X108.418 Y70.136 E0.24702
G1 X106.24 Y68.458 E0.34733
G1 X106.253 Y68.334 E0.35189
G1 X106.269 Y68.287 E0.3537
G1 X106.303 Y68.234 E0.35598
G1 X106.353 Y68.197 E0.35825
G1 X106.399 Y68.178 E0.36007
G1 X106.461 Y68.168 E0.36234
G1 X106.559 Y68.188 E0.36601
G1 X108.842 Y69.815 E0.46827
G1 X111.265 Y71.396 E0.57384
G1 X114.107 Y73.091 E0.69459
G92 E0
G1 E-0.8 F3000
G1 X203.148 Y88.394 F9000
G1 E0 F1800
G1 X203.879 Y91.884 E0.13011
G1 X204.253 Y94.553 E0.22846
G1 X204.502 Y98.019 E0.35522
G1 X208.305 Y98.017 E0.49397
G1 X211.378 Y97.783 E0.60644
G1 X214.492 Y97.3 E0.7214
G1 X214.649 Y97.298 E0.72711
G1 X214.761 Y97.325 E0.73132
G1 X214.858 Y97.374 E0.73531
G1 X214.988 Y97.504 E0.742
G1 X215.058 Y97.661 E0.74827
G1 X215.069 Y97.838 E0.75476
G1 X215.045 Y97.939 E0.75854
G1 X214.98 Y98.064 E0.76366
G1 X214.962 Y98.087 E0.76474
G1 X214.928 Y98.121 E0.76648
G1 X214.825 Y98.193 E0.77106
G1 X214.686 Y98.245 E0.77649
G1 X211.558 Y98.77 E0.8922
G1 X208.494 Y99.048 E1.00447
G1 X204.641 Y99.106 E1.14504
G1 X204.319 Y104.056 E1.32603
G1 X203.708 Y108.194 E1.47864
G1 X202.691 Y112.573 E1.64268
G1 X203.718 Y114.752 E1.73057
G1 X204.375 Y116.727 E1.8065
G1 X204.794 Y118.765 E1.88242
G1 X204.969 Y120.839 E1.95835
G1 X204.896 Y122.955 E2.03561
G1 X204.813 Y124.277 E2.08395
G1 X204.588 Y125.548 E2.13104
G1 X204.222 Y126.786 E2.17813
G1 X203.719 Y127.974 E2.22522
G1 X203.105 Y129.063 E2.27082
G1 X202.78 Y129.429 E2.28868
G1 X202.387 Y129.791 E2.30818
G1 X201.958 Y130.11 E2.32768
G1 X201.499 Y130.384 E2.34717
G1 X201.015 Y130.609 E2.36667
G1 X199.89 Y130.999 E2.41012
G1 X200.087 Y134.019 E2.52053
G1 X199.963 Y136.379 E2.60677
G1 X199.565 Y138.709 E2.69301
G1 X198.897 Y140.976 E2.77925
G1 X197.983 Y143.114 E2.86407
G1 X197.7 Y143.513 E2.88192
G1 X197.347 Y143.91 E2.90129
G1 X196.953 Y144.265 E2.92065
G1 X196.522 Y144.575 E2.94002
G1 X196.06 Y144.836 E2.95939
G1 X195.572 Y145.045 E2.97876
G1 X195.064 Y145.199 E2.99813
G1 X194.542 Y145.296 E3.0175
G1 X194.012 Y145.335 E3.03687
G1 X193.467 Y145.315 E3.05677
G1 X191.263 Y145.071 E3.13769
G1 X189.1 Y144.622 E3.2183
G1 X186.988 Y143.972 E3.29891
G1 X184.916 Y143.112 E3.38077
G1 X182.186 Y141.947 E3.48905
G1 X179.539 Y140.644 E3.59669
G1 X176.334 Y138.846 E3.7308
G1 X174.711 Y140.989 E3.82889
G1 X173.371 Y142.39 E3.89961
G1 X171.88 Y143.628 E3.97033
M73 P1 R132
G1 X170.257 Y144.687 E4.04105
G1 X168.523 Y145.552 E4.11173
G1 X166.028 Y146.451 E4.20849
G1 X165.421 Y146.59 E4.23122
G1 X164.8 Y146.661 E4.25404
G1 X164.174 Y146.661 E4.27686
G1 X163.553 Y146.59 E4.29969
G1 X162.943 Y146.45 E4.32251
G1 X162.424 Y146.267 E4.3426
G1 X160.737 Y145.024 E4.41905
G1 X159.137 Y143.554 E4.49832
G1 X157.704 Y141.921 E4.57759
G1 X156.454 Y140.144 E4.65685
G1 X155.166 Y137.816 E4.75394
G1 X148.979 Y137.46 E4.98007
G1 X143.305 Y136.715 E5.18887
G1 X137.326 Y135.48 E5.41161
G1 X134.138 Y137.753 E5.55448
G1 X131.078 Y139.5 E5.68302
G1 X127.859 Y140.931 E5.81156
M73 P1 R132
G1 X124.512 Y142.031 E5.94011
G1 X121.059 Y142.793 E6.06913
G1 X119.138 Y143.081 E6.13999
G1 X117.21 Y143.185 E6.21045
G1 X115.31 Y143.105 E6.27984
G1 X114.846 Y143.007 E6.29715
G1 X114.377 Y142.849 E6.3152
G1 X113.93 Y142.637 E6.33324
G1 X113.511 Y142.374 E6.35129
G1 X113.126 Y142.064 E6.36934
G1 X112.779 Y141.711 E6.38738
G1 X112.476 Y141.32 E6.40543
G1 X112.217 Y140.889 E6.42377
G1 X111.43 Y139.242 E6.4904
G1 X110.832 Y137.522 E6.55682
G1 X110.428 Y135.747 E6.62324
G1 X110.223 Y133.938 E6.68965
G1 X110.219 Y132.1 E6.75671
G1 X110.508 Y127.688 E6.91804
G1 X111.177 Y123.325 E7.07908
G1 X112.292 Y118.744 E7.25111
G1 X109.938 Y113.148 E7.47261
G1 X108.367 Y107.611 E7.68261
G1 X107.479 Y101.925 E7.89261
G1 X107.264 Y95.415 E8.13026
G1 X103.261 Y95.028 E8.27699
G1 X100.017 Y94.498 E8.39691
G1 X96.924 Y93.784 E8.51273
G1 X96.846 Y93.697 E8.51697
G1 X96.803 Y93.615 E8.52038
G1 X96.782 Y93.536 E8.52336
G1 X96.787 Y93.391 E8.52864
G1 X96.84 Y93.263 E8.53371
G1 X96.942 Y93.153 E8.53917
G1 X97.046 Y93.095 E8.5435
G1 X100.156 Y93.3 E8.65722
G1 X103.365 Y93.591 E8.77479
G1 X107.395 Y94.057 E8.92282
G1 X107.744 Y90.327 E9.05951
G1 X108.289 Y87.497 E9.16467
G1 X109.324 Y83.993 E9.29796
G1 X106.692 Y82.926 E9.4016
G1 X104.86 Y81.965 E9.47709
G1 X103.15 Y80.843 E9.5517
G1 X103.06 Y80.76 E9.55616
G1 X102.971 Y80.606 E9.56265
G1 X102.96 Y80.506 E9.56632
G1 X102.987 Y80.355 E9.57193
G1 X103.061 Y80.234 E9.57708
G1 X103.171 Y80.147 E9.58221
G1 X103.33 Y80.097 E9.5883
G1 X103.477 Y80.119 E9.59371
G1 X105.113 Y81.066 E9.66268
G1 X106.964 Y81.947 E9.73749
G1 X109.606 Y82.954 E9.84066
G1 X110.886 Y79.562 E9.97292
G1 X112.058 Y77.036 E10.07455
G1 X113.823 Y73.865 E10.20694
G1 X110.56 Y72.081 E10.34263
G1 X108.153 Y70.509 E10.44751
G1 X105.925 Y68.792 E10.55016
G1 X105.835 Y68.626 E10.55703
G1 X105.784 Y68.433 E10.56433
G1 X105.803 Y68.234 E10.57162
G1 X105.856 Y68.084 E10.57743
G1 X105.965 Y67.916 E10.58473
G1 X106.126 Y67.797 E10.59202
G1 X106.273 Y67.735 E10.59783
G1 X106.47 Y67.704 E10.60513
G1 X106.69 Y67.748 E10.61331
G1 X106.742 Y67.769 E10.61535
G1 X106.812 Y67.807 E10.61825
G1 X109.099 Y69.437 E10.72075
G1 X111.507 Y71.008 E10.82564
G1 X114.493 Y72.789 E10.9525
G1 X117.23 Y70.133 E11.09165
G1 X119.718 Y68.199 E11.2066
G1 X122.416 Y66.542 E11.32216
G1 X126.249 Y64.538 E11.47996
G1 X130.245 Y62.911 E11.63738
G1 X134.387 Y61.669 E11.79516
G1 X140.771 Y60.235 E12.03387
G1 X147.251 Y59.403 E12.27223
G1 X153.963 Y59.18 E12.51728
G1 X159.616 Y59.303 E12.72358
G1 X165.409 Y59.833 E12.93582
G1 X171.152 Y60.764 E13.14811
G1 X177.335 Y62.19 E13.37963
G1 X183.317 Y64.259 E13.61055
G1 X189.051 Y66.955 E13.84174
G1 X191.245 Y68.235 E13.93442
G1 X193.268 Y69.752 E14.02669
G1 X195.104 Y71.492 E14.11897
G1 X196.726 Y73.432 E14.21125
G1 X198.522 Y76.166 E14.33057
G1 X202.291 Y74.43 E14.48198
G1 X205.441 Y73.021 E14.60788
G1 X208.503 Y71.693 E14.72965
G1 X208.616 Y71.686 E14.7338
G1 X208.73 Y71.72 E14.73813
G1 X208.82 Y71.788 E14.74224
G1 X208.889 Y71.89 E14.74675
G1 X208.908 Y71.954 E14.74919
G1 X208.905 Y72.083 E14.75389
G1 X208.859 Y72.198 E14.75841
G1 X208.817 Y72.252 E14.76089
G1 X208.706 Y72.34 E14.76606
G1 X205.925 Y74.19 E14.88794
G1 X202.979 Y75.752 E15.0096
G1 X199.083 Y77.344 E15.16313
G1 X200.675 Y80.906 E15.30549
G1 X201.747 Y83.755 E15.41655
G1 X202.848 Y87.32 E15.55267
G1 X206.339 Y86.957 E15.68074
G1 X209.173 Y86.562 E15.78515
G1 X211.899 Y86.084 E15.88613
G1 X212.034 Y86.095 E15.89108
G1 X212.123 Y86.151 E15.89493
G1 X212.19 Y86.242 E15.89904
G1 X212.197 Y86.391 E15.90448
G1 X212.128 Y86.494 E15.90899
G1 X212.072 Y86.533 E15.91148
G1 X209.486 Y87.216 E16.00908
