; HEADER_BLOCK_START
; generated by OrcaSlicer 1.6.6 on 2023-08-31 at 14:29:23
; total layer number: 12
; HEADER_BLOCK_END

; THUMBNAIL_BLOCK_START
; THUMBNAIL_BLOCK_END

; external perimeters extrusion width = 0.40mm
; perimeters extrusion width = 0.45mm
; infill extrusion width = 0.45mm
; solid infill extrusion width = 0.40mm
; top infill extrusion width = 0.40mm
; support material extrusion width = 0.40mm
; first layer extrusion width = 0.50mm

; EXECUTABLE_BLOCK_START
EXCLUDE_OBJECT_DEFINE NAME=Hello_Kitty_Booba_Feet_2.4mm.stl_id_0_copy_0 CENTER=155.001,155 POLYGON=[[132.866,161.659],[132.873,161.497],[135.298,142.311],[135.403,141.687],[135.672,141.062],[142.484,128.082],[142.915,127.539],[143.223,127.151],[143.951,126.533],[144.129,126.382],[145.178,125.801],[145.859,125.542],[146.571,125.373],[147.456,125.267],[148.652,125.201],[149.218,125.191],[161.127,125],[161.234,125.001],[162.144,125.014],[163.121,125.082],[164.04,125.202],[164.886,125.374],[165.644,125.596],[166.127,125.796],[166.298,125.866],[167.096,126.356],[167.778,126.972],[168.344,127.712],[174.986,140.375],[175.35,141.681],[177.136,161.575],[177.134,161.784],[177.084,161.979],[177.08,161.997],[170.938,178.945],[170.74,179.375],[170.508,179.734],[170.282,179.982],[170.234,180.034],[169.912,180.286],[169.534,180.505],[169.178,180.664],[168.821,180.776],[168.442,180.841],[159.296,182.301],[144.814,184.59],[144.452,184.634],[143.962,184.681],[143.422,184.725],[142.924,184.765],[142.731,184.78],[142.722,184.78],[141.487,184.871],[140.597,184.928],[139.838,184.969],[139.202,184.993],[138.675,185],[138.249,184.992],[138.087,184.98],[137.911,184.967],[137.651,184.928],[137.127,184.768],[136.642,184.555],[136.556,184.517],[136.028,184.219],[135.634,183.92],[135.335,183.542],[135.252,183.145],[132.892,161.925],[132.866,161.659]]
M73 P0 R20
M73 C10
;TYPE:Custom
START_PRINT T_BED=60 T_EXTRUDER=220
G90
G21
M83 ; use relative distances for extrusion
; filament start gcode
PRESSURE_ADVANCE_SELECT FILAMENT=PLA
M106 S0
;LAYER_CHANGE
;Z:0.2
;HEIGHT:0.2
;BEFORE_LAYER_CHANGE
;0.2
G92 E0

SET_VELOCITY_LIMIT ACCEL=1500 ACCEL_TO_DECEL=750
G1 E-.8 F3000
G1 Z.4 F9000
G1 X140.942 Y125.338
G1 Z.4
G1 Z.2
G1 E.8 F1800
;TYPE:Skirt
;WIDTH:0.5
G1 F3000
G1 X141.338 Y124.929 E.02119
G1 X142.716 Y123.834 E.06558
G1 X143.765 Y123.252 E.04468
G1 X144.825 Y122.818 E.04265
G1 X145.897 Y122.538 E.04129
G1 X147.11 Y122.373 E.04559
G1 X148.603 Y122.287 E.0557
G1 X162.184 Y122.1 E.50588
G1 X164.619 Y122.347 E.09118
G1 X166.758 Y122.903 E.08233
G1 X167.821 Y123.382 E.04341
G1 X168.619 Y123.871 E.03487
G1 X170.094 Y125.203 E.07404
G1 X170.924 Y126.359 E.05298
G1 X177.566 Y139.021 E.53258
G1 X178.157 Y140.898 E.07329
G1 X180.048 Y161.814 E.78219
G1 X179.82 Y162.989 E.04461
G1 X173.678 Y179.938 E.67144
G1 X172.955 Y181.317 E.05799
G1 X172.033 Y182.326 E.05091
G1 X170.726 Y183.164 E.05783
G1 X169.313 Y183.649 E.05566
G1 X144.801 Y187.527 E.92434
G1 X140.784 Y187.837 E.15004
G1 X138.618 Y187.914 E.08074
G1 X137.211 Y187.808 E.05255
G1 X135.954 Y187.436 E.04881
G1 X134.596 Y186.758 E.05656
G1 X133.868 Y186.238 E.0333
G1 X133.05 Y185.351 E.04495
G1 X132.484 Y184.143 E.04967
G1 X132.355 Y183.468 E.02562
G1 X129.966 Y161.945 E.80655
G1 X129.982 Y161.132 E.03029
G1 X132.406 Y141.946 E.72029
G1 X132.726 Y140.536 E.05386
G1 X133.091 Y139.708 E.03371
G1 X139.903 Y126.728 E.54598
G1 X140.918 Y125.37 E.06313
G1 X141.31 Y125.683 F9000
G1 F3000
G1 X141.633 Y125.278 E.0193
G1 X142.938 Y124.234 E.06223
G1 X143.987 Y123.652 E.04468
G1 X144.987 Y123.245 E.04021
G1 X146.003 Y122.982 E.03909
G1 X147.32 Y122.814 E.04948
G1 X162.178 Y122.557 E.55345
G1 X164.528 Y122.794 E.08801
G1 X166.584 Y123.326 E.07907
G1 X167.582 Y123.772 E.04073
G1 X168.38 Y124.261 E.03487
G1 X169.731 Y125.481 E.06779
G1 X170.52 Y126.571 E.05011
G1 X177.162 Y139.234 E.53258
G1 X177.717 Y141.021 E.06972
G1 X179.591 Y161.809 E.77741
G1 X179.39 Y162.834 E.03889
G1 X173.248 Y179.782 E.67144
G1 X172.571 Y181.068 E.05414
G1 X171.751 Y181.966 E.0453
G1 X170.539 Y182.747 E.05369
G1 X169.236 Y183.198 E.05139
G1 X144.746 Y187.073 E.9235
G1 X140.755 Y187.38 E.14909
G1 X138.627 Y187.457 E.07931
G1 X137.28 Y187.356 E.0503
G1 X136.138 Y187.018 E.04436
G1 X134.82 Y186.359 E.05487
G1 X134.145 Y185.874 E.03096
G1 X133.409 Y185.067 E.04071
G1 X132.931 Y184.049 E.04188
G1 X130.42 Y161.9 E.83023
G1 X130.435 Y161.189 E.02649
G1 X132.86 Y142.003 E.72029
G1 X133.146 Y140.716 E.04911
G1 X133.496 Y139.92 E.0324
G1 X140.308 Y126.94 E.54598
G1 X141.285 Y125.714 E.0584
; printing object Hello_Kitty_Booba_Feet_2.4mm.stl id:0 copy 0
G1 E-.8
EXCLUDE_OBJECT_START NAME=Hello_Kitty_Booba_Feet_2.4mm.stl_id_0_copy_0
G1 Z.6 F9000
G1 X172.79 Y162.426 Z.6
G1 Z.2
G1 E.8 F1800
;TYPE:Outer wall
;WIDTH:0.499999
G1 F3000
G1 X172.717 Y162.562 E.00573
G1 X172.232 Y165.815 E.1225
G1 X172.109 Y166.792 E.03669
G1 X172.036 Y167.854 E.03963
G1 X172.033 Y168.947 E.04071
G1 X172.051 Y169.035 E.00338
G1 X172.67 Y170.496 E.05909
G1 X172.792 Y170.985 E.01875
G1 X172.828 Y171.958 E.03627
G1 X171.993 Y173.781 E.0747
G1 X171.619 Y174.842 E.04189
G1 X171.383 Y175.785 E.03622
G1 X170.928 Y178.115 E.08845
G1 X170.752 Y178.712 E.02318
G1 X170.521 Y179.255 E.02196
G1 X170.178 Y179.724 E.02164
G1 X169.776 Y180.075 E.01989
G1 X169.083 Y180.432 E.02902
G1 X168.422 Y180.591 E.02533
G1 X167.545 Y180.578 E.03265
G1 X166.985 Y180.502 E.02107
G1 X166.302 Y180.376 E.02585
G1 X164.7 Y180.034 E.06103
G1 X163.584 Y179.833 E.04223
G1 X163.039 Y179.779 E.02037
G1 X162.539 Y179.846 E.0188
G1 X162.098 Y180.1 E.01896
G1 X161.906 Y180.265 E.00942
G1 X161.293 Y180.928 E.03366
G1 X160.913 Y181.289 E.0195
G1 X160.505 Y181.593 E.01896
G1 X159.987 Y181.843 E.02141
G1 X159.505 Y181.993 E.01882
G1 X158.886 Y182.088 E.02333
G1 X158.331 Y182.094 E.02067
G1 X157.658 Y181.992 E.02534
G1 X157.096 Y181.756 E.0227
G1 X156.606 Y181.446 E.02162
G1 X156.17 Y181.048 E.02198
G1 X155.136 Y179.767 E.06132
G1 X154.81 Y179.506 E.01556
G1 X154.435 Y179.343 E.0152
G1 X153.368 Y179.146 E.04043
G1 X150.763 Y178.811 E.09783
G1 X149.196 Y178.664 E.05861
G1 X148.385 Y178.638 E.03021
G1 X147.883 Y178.68 E.01876
G1 X147.247 Y178.856 E.02459
G1 X144.49 Y179.84 E.10904
G1 X143.499 Y180.174 E.03896
G1 X142.909 Y180.326 E.02269
G1 X142.133 Y180.354 E.0289
G1 X141.984 Y180.453 E.00668
G1 X141.912 Y180.673 E.00861
G1 X141.986 Y180.841 E.00683
G1 X142.41 Y181.229 E.0214
G1 X142.756 Y181.695 E.0216
G1 X143.014 Y182.2 E.02114
G1 X143.848 Y182.977 E.04245
G1 X144.507 Y183.65 E.03508
G1 X145.05 Y184.284 E.03111
G1 X144.775 Y184.343 E.0105
G1 X143.939 Y184.432 E.03131
G1 X141.47 Y184.622 E.0922
G1 X139.827 Y184.719 E.0613
G1 X138.592 Y184.746 E.04603
G1 X137.706 Y184.683 E.03307
G1 X137.108 Y184.487 E.02347
G1 X136.521 Y184.211 E.02415
G1 X135.913 Y183.818 E.02694
G1 X135.568 Y183.433 E.01927
G1 X135.509 Y183.153 E.01064
G1 X135.618 Y182.756 E.01534
G1 X136.223 Y181.702 E.04528
G1 X136.49 Y181.19 E.02149
G1 X136.662 Y180.704 E.01921
G1 X136.747 Y180.213 E.01856
G1 X136.802 Y178.859 E.05047
G1 X136.866 Y174.038 E.17957
G1 X136.854 Y173.233 E.03001
G1 X136.818 Y172.593 E.02385
G1 X136.752 Y172.053 E.02028
G1 X136.521 Y171.101 E.03646
G1 X135.989 Y169.464 E.06412
G1 X135.989 Y166.294 E.11806
M73 P1 R20
G1 X136.035 Y163.777 E.09376
G1 X136.03 Y162.937 E.0313
G1 X135.857 Y162.801 E.00819
G1 X135.27 Y162.642 E.02263
G1 X134.119 Y162.456 E.04344
G1 X133.656 Y162.333 E.01786
G1 X133.384 Y162.206 E.01114
G1 X133.19 Y162.027 E.00986
G1 X133.136 Y161.743 E.01077
G1 X133.141 Y161.478 E.00985
G1 X133.373 Y161.206 E.01332
G1 X136.085 Y161.264 E.10103
G1 X137.12 Y161.251 E.03853
G1 X137.425 Y161.181 E.01165
G1 X137.543 Y161.031 E.00713
G1 X137.61 Y160.731 E.01145
G1 X137.63 Y159.474 E.04682
G1 X137.594 Y158.951 E.01951
G1 X137.511 Y158.693 E.0101
G1 X137.163 Y158.344 E.01837
G1 X136.334 Y157.891 E.03517
G1 X135.898 Y157.589 E.01977
G1 X135.707 Y157.366 E.01093
G1 X135.838 Y157.284 E.00577
G1 X136.272 Y157.23 E.01628
G1 X137.16 Y157.312 E.03321
G1 X137.365 Y157.228 E.00825
G1 X137.497 Y157.046 E.00838
G1 X137.609 Y156.517 E.02015
G1 X137.787 Y153.893 E.09797
G1 X137.862 Y153.551 E.01302
G1 X137.948 Y153.468 E.00447
G1 X138.754 Y153.055 E.03372
G1 X140.173 Y152.461 E.05729
G1 X140.912 Y152.079 E.031
G1 X141.115 Y151.891 E.01028
G1 X141.201 Y151.654 E.00941
G1 X141.034 Y151.249 E.0163
G1 X140.605 Y150.735 E.02494
G1 X138.449 Y148.475 E.11632
G1 X137.335 Y147.256 E.06153
G1 X136.699 Y146.404 E.03957
G1 X136.379 Y145.86 E.02351
G1 X136.104 Y145.307 E.02304
G1 X135.898 Y144.792 E.02063
G1 X135.681 Y143.963 E.03191
G1 X135.561 Y143.103 E.03234
G1 X135.548 Y142.33 E.02881
G1 X135.645 Y141.758 E.02162
G1 X135.897 Y141.17 E.02382
G1 X136.282 Y140.451 E.03039
G1 X136.703 Y139.771 E.02979
G1 X137.058 Y139.301 E.02194
G1 X137.663 Y138.844 E.02823
G1 X138.569 Y138.467 E.03657
G1 X139.684 Y138.086 E.04386
G1 X140.242 Y137.862 E.02239
G1 X140.768 Y137.573 E.02236
G1 X141.185 Y137.203 E.02079
G1 X141.378 Y136.75 E.01834
G1 X141.44 Y136.308 E.01663
G1 X141.54 Y134.824 E.05539
G1 X141.742 Y131.05 E.14074
G1 X141.83 Y130.383 E.02508
G1 X141.965 Y129.82 E.02157
G1 X142.166 Y129.248 E.02256
G1 X142.695 Y128.218 E.04313
G1 X143.404 Y127.326 E.04245
G1 X144.272 Y126.589 E.04242
G1 X145.284 Y126.028 E.04309
G1 X145.933 Y125.782 E.02585
G1 X146.615 Y125.619 E.02613
G1 X147.478 Y125.516 E.03236
G1 X148.66 Y125.451 E.04409
G1 X149.884 Y125.445 E.04558
G1 X152.032 Y125.519 E.08007
G1 X153.383 Y125.641 E.05051
G1 X154.25 Y126.04 E.03555
G1 X155.024 Y126.448 E.03259
G1 X155.521 Y126.505 E.01864
G1 X156.017 Y126.435 E.01866
G1 X156.386 Y126.3 E.01464
G1 X157.791 Y125.684 E.05713
G1 X158.504 Y125.475 E.02766
G1 X159.064 Y125.39 E.02113
G1 X160.102 Y125.292 E.03881
G1 X161.139 Y125.25 E.03868
G1 X162.134 Y125.264 E.03705
G1 X163.096 Y125.331 E.03591
G1 X163.998 Y125.449 E.03392
G1 X164.826 Y125.617 E.03147
G1 X165.561 Y125.832 E.02852
G1 X166.184 Y126.09 E.02509
G1 X166.945 Y126.557 E.03327
G1 X167.594 Y127.142 E.03252
G1 X168.132 Y127.847 E.03303
G1 X168.558 Y128.672 E.0346
G1 X168.702 Y129.119 E.0175
G1 X168.8 Y129.805 E.02583
G1 X168.837 Y130.324 E.01937
G1 X169.027 Y135.494 E.1927
G1 X169.141 Y136.137 E.02431
G1 X169.437 Y136.732 E.02477
G1 X169.652 Y137.026 E.01356
G1 X169.944 Y137.306 E.01507
G1 X170.296 Y137.525 E.01544
G1 X170.761 Y137.699 E.0185
G1 X171.75 Y137.925 E.03776
G1 X172.322 Y138.094 E.02225
G1 X173.049 Y138.494 E.03089
G1 X173.748 Y139.074 E.03382
G1 X174.342 Y139.76 E.03383
G1 X174.753 Y140.473 E.03063
G1 X175.101 Y141.721 E.04827
G1 X175.161 Y143.089 E.05102
G1 X174.935 Y144.434 E.05079
G1 X174.437 Y145.616 E.04776
G1 X174.116 Y146.052 E.0202
G1 X173.455 Y146.799 E.03713
G1 X172.405 Y147.904 E.05677
G1 X169.883 Y150.479 E.13426
G1 X169.395 Y151.06 E.02826
G1 X169.413 Y151.232 E.00647
G1 X169.785 Y151.511 E.01731
G1 X171.147 Y152.211 E.05702
G1 X171.632 Y152.496 E.02096
G1 X171.947 Y152.771 E.01556
G1 X172.04 Y152.971 E.00822
G1 X172.136 Y153.538 E.0214
G1 X172.244 Y154.997 E.05449
G1 X172.35 Y156.109 E.04163
G1 X172.465 Y157.064 E.0358
G1 X172.629 Y157.338 E.0119
G1 X172.893 Y157.462 E.01087
G1 X173.301 Y157.466 E.0152
G1 X174.326 Y157.284 E.03878
G1 X175.058 Y157.261 E.02727
G1 X175.284 Y157.335 E.00887
G1 X175.324 Y157.477 E.00549
G1 X175.292 Y157.705 E.00857
G1 X174.838 Y157.935 E.01897
G1 X173.501 Y158.323 E.05184
G1 X173.055 Y158.504 E.01794
G1 X172.768 Y158.738 E.01378
G1 X172.621 Y159.023 E.01194
G1 X172.59 Y159.707 E.02551
G1 X172.702 Y160.492 E.02952
G1 X172.81 Y160.757 E.01067
G1 X173.018 Y160.99 E.01162
G1 X173.37 Y161.052 E.01332
G1 X174.216 Y161.129 E.03164
G1 X175.413 Y161.168 E.04461
G1 X176.566 Y161.232 E.04303
G1 X176.79 Y161.396 E.01035
G1 X176.866 Y161.536 E.00593
G1 X176.851 Y161.83 E.01093
G1 X176.79 Y161.985 E.00622
G1 X176.542 Y162.105 E.01024
G1 X175.433 Y162.201 E.04148
G1 X174.182 Y162.271 E.04665
G1 X172.916 Y162.369 E.04732
G1 X172.826 Y162.41 E.00367
G1 E-.8
G1 Z.6 F9000
G1 X175.157 Y161.688 Z.6
G1 Z.2
G1 E.8 F1800
;TYPE:Inner wall
;WIDTH:0.642032
G1 F3000
G1 X175.548 Y161.678 E.01911
;WIDTH:0.597827
G1 X175.939 Y161.669 E.0177
;WIDTH:0.553622
G1 X176.33 Y161.66 E.01629
G1 E-.8
G1 Z.6 F9000
G1 X172.483 Y162.103 Z.6
G1 Z.2
G1 E.8 F1800
;WIDTH:0.499999
G1 F3000
G1 X172.387 Y162.195 E.00497
G1 X172.265 Y162.495 E.01204
G1 X171.779 Y165.758 E.12287
G1 X171.653 Y166.761 E.03767
G1 X171.579 Y167.856 E.04086
G1 X171.576 Y168.945 E.04059
G1 X171.629 Y169.212 E.01013
G1 X172.214 Y170.576 E.05529
G1 X172.336 Y171.032 E.01755
G1 X172.368 Y171.866 E.03111
G1 X171.555 Y173.639 E.07262
G1 X171.176 Y174.73 E.04305
G1 X170.933 Y175.701 E.03726
G1 X170.566 Y177.673 E.0747
G1 X170.428 Y178.236 E.02159
G1 X170.228 Y178.797 E.02219
G1 X169.947 Y179.3 E.02147
G1 X169.528 Y179.689 E.02128
G1 X168.909 Y180.008 E.02594
G1 X168.386 Y180.133 E.02002
G1 X167.579 Y180.121 E.03006
G1 X167.057 Y180.05 E.01965
G1 X166.392 Y179.928 E.02519
G1 X164.786 Y179.585 E.06115
G1 X163.632 Y179.379 E.04366
G1 X163.077 Y179.322 E.02079
G1 X162.561 Y179.371 E.01932
G1 X162.321 Y179.443 E.00931
G1 X161.869 Y179.704 E.01943
G1 X161.571 Y179.954 E.0145
G1 X160.86 Y180.723 E.03899
G1 X160.449 Y181.091 E.02058
G1 X159.901 Y181.386 E.02314
G1 X159.396 Y181.549 E.01977
G1 X158.856 Y181.631 E.02034
G1 X158.348 Y181.637 E.01895
G1 X157.794 Y181.553 E.02088
G1 X157.308 Y181.35 E.0196
G1 X156.884 Y181.081 E.01869
G1 X156.508 Y180.737 E.01901
G1 X155.745 Y179.755 E.04631
G1 X155.404 Y179.387 E.01869
G1 X154.993 Y179.082 E.01904
G1 X154.518 Y178.894 E.01903
G1 X153.426 Y178.693 E.04136
G1 X150.806 Y178.356 E.09841
G1 X149.211 Y178.207 E.05966
G1 X148.351 Y178.183 E.03204
G1 X147.762 Y178.24 E.02203
G1 X147.093 Y178.426 E.02585
G1 X144.34 Y179.408 E.10888
G1 X143.353 Y179.74 E.0388
G1 X142.848 Y179.871 E.0194
G1 X142.051 Y179.905 E.02973
G1 X141.822 Y179.991 E.00912
G1 X141.602 Y180.201 E.01133
G1 X141.461 Y180.586 E.01527
G1 X141.463 Y180.779 E.00718
G1 X141.552 Y181.024 E.00973
G1 X141.993 Y181.467 E.02327
G1 X142.275 Y181.786 E.01587
G1 X142.538 Y182.298 E.02144
G1 X142.703 Y182.534 E.01071
G1 X143.544 Y183.318 E.04281
G1 X144.161 Y183.949 E.03288
G1 X141.439 Y184.166 E.1017
G1 X139.808 Y184.263 E.06087
G1 X138.612 Y184.29 E.04457
G1 X137.808 Y184.236 E.03
G1 X137.292 Y184.068 E.02023
G1 X136.745 Y183.812 E.02246
G1 X136.175 Y183.443 E.02532
G1 X135.986 Y183.201 E.01142
G1 X136.07 Y182.884 E.01222
G1 X136.709 Y181.777 E.0476
G1 X136.965 Y181.245 E.02198
G1 X137.121 Y180.748 E.01941
G1 X137.204 Y180.231 E.0195
G1 X137.259 Y178.865 E.05093
G1 X137.323 Y174.031 E.18006
G1 X137.31 Y173.208 E.03068
G1 X137.272 Y172.539 E.02495
G1 X137.196 Y171.945 E.02229
G1 X136.956 Y170.961 E.03774
G1 X136.447 Y169.391 E.06145
G1 X136.446 Y166.298 E.11521
G1 X136.506 Y163.041 E.12136
G1 X136.449 Y162.754 E.01087
G1 X135.977 Y162.36 E.02289
;WIDTH:0.515383
G1 X135.345 Y162.183 E.02529
G1 X134.766 Y162.11 E.02247
;WIDTH:0.474702
G1 X134.187 Y162.037 E.02053
;WIDTH:0.434021
G1 X133.767 Y161.924 E.01385
G1 X133.585 Y161.833 E.0065
G1 X133.565 Y161.635 E.00634
G1 X134.222 Y161.649 E.02094
;WIDTH:0.474702
G1 X134.805 Y161.681 E.02053
;WIDTH:0.515383
G1 X135.487 Y161.714 E.02629
;WIDTH:0.511542
G1 X136.087 Y161.721 E.02291
;WIDTH:0.499999
G1 X137.125 Y161.708 E.03869
G1 X137.52 Y161.641 E.01491
G1 X137.778 Y161.479 E.01136
G1 X137.972 Y161.195 E.0128
G1 X138.068 Y160.735 E.01752
G1 X138.086 Y159.443 E.04813
G1 X138.05 Y158.92 E.01951
G1 X137.919 Y158.486 E.01689
G1 X137.536 Y158.058 E.0214
G1 X137.064 Y157.769 E.0206
G1 X137.374 Y157.73 E.01164
G1 X137.685 Y157.555 E.01329
G1 X137.896 Y157.285 E.01275
G1 X137.944 Y157.142 E.00561
G1 X138.065 Y156.548 E.0226
G1 X138.266 Y153.818 E.10193
G1 X138.947 Y153.469 E.02847
G1 X140.349 Y152.882 E.05663
G1 X141.228 Y152.417 E.03704
G1 X141.548 Y152.065 E.0177
G1 X141.656 Y151.701 E.01414
G1 X141.612 Y151.408 E.01106
G1 X141.385 Y150.956 E.01883
G1 X140.936 Y150.42 E.02605
G1 X138.784 Y148.163 E.11616
G1 X137.688 Y146.964 E.06051
G1 X137.081 Y146.151 E.0378
G1 X136.781 Y145.642 E.02198
G1 X136.521 Y145.12 E.02175
G1 X136.333 Y144.649 E.01888
G1 X136.13 Y143.874 E.02985
