; generated by SuperSlicer 2.5.59 on 2023-02-01 at 17:22:00 UTC


;
;

;
;
; 

; external perimeters extrusion width = 0.40mm
; perimeters extrusion width = 0.46mm
; infill extrusion width = 0.64mm
; solid infill extrusion width = 0.56mm
; top infill extrusion width = 0.40mm
; support material extrusion width = 0.46mm
; first layer extrusion width = 0.50mm

; external perimeters extrusion width = 0.40mm
; perimeters extrusion width = 0.46mm
; infill extrusion width = 0.64mm
; solid infill extrusion width = 0.56mm
; top infill extrusion width = 0.40mm
; support material extrusion width = 0.46mm
; first layer extrusion width = 0.50mm

; object:{"name":"hello-kitty-red","id":"hello-kitty-red.stl id:0 copy 0","object_center":[158.452210,135.842140,0.000000],"boundingbox_center":[158.452210,135.842140,0.950000],"boundingbox_size":[48.427671,36.108492,1.900000]}
; object:{"name":"hello-kitty-red","id":"hello-kitty-red.stl id:1 copy 0","object_center":[146.547946,164.157861,0.000000],"boundingbox_center":[146.547946,164.157861,0.950000],"boundingbox_size":[48.427671,36.108492,1.900000]}
; plater:{"center":[152.500078,150.000000,0.000000],"boundingbox_center":[152.500078,150.000000,0.950000],"boundingbox_size":[60.331935,64.424213,1.900000]}

M73 P0 R13


; Pre-Processed for Cancel-Object support by preprocess_cancellation v0.2.0
; 2 known objects
EXCLUDE_OBJECT_DEFINE NAME=hello_kitty_red_stl_id_0_copy_0 CENTER=157.774,133.286 POLYGON=[[134.439,117.988],[134.439,153.696],[182.466,153.696],[182.466,117.988]]
EXCLUDE_OBJECT_DEFINE NAME=hello_kitty_red_stl_id_1_copy_0 CENTER=145.870,161.602 POLYGON=[[122.534,146.304],[122.534,182.012],[170.562,182.012],[170.562,146.304]]
;TYPE:Custom
START_PRINT T_BED=60 T_EXTRUDER=200
M107
G21 ; set units to millimeters
G90 ; use absolute coordinates
M82 ; use absolute distances for extrusion
G92 E0
; Filament gcode

    PRESSURE_ADVANCE_SELECT FILAMENT=PLA
;_TOOLCHANGE 0
M104 S200 ; set temperature
M109 S200 ; set temperature and wait for it to be reached
M190 S60 ; set bed temperature and wait for it to be reached
M107
;LAYER_CHANGE
;Z:0.2
;HEIGHT:0.2
G1 Z0.2 F9000
M73 P0 R13
G1 E-0.8 F3000
M204 S1000
G1 X134.253 Y118.954 F9000
G1 E0 F1800
;TYPE:Skirt
;WIDTH:0.52
G1 X133.608 Y119.817 E0.04102
G1 X132.835 Y121.093 E0.09782
G1 X132.179 Y122.514 E0.15744
G1 X120.15 Y151.174 E1.34111
G1 X119.228 Y154.24 E1.46305
G1 X118.861 Y156.305 E1.54293
G1 X118.73 Y157.995 E1.60747
G1 X118.799 Y160.426 E1.70008
G1 X119.084 Y162.762 E1.7897
G1 X119.342 Y164.043 E1.83946
G1 X119.68 Y165.053 E1.88002
G1 X120.131 Y166.017 E1.92058
G1 X121.073 Y167.439 E1.98552
G1 X121.778 Y168.221 E2.02562
G1 X122.823 Y168.996 E2.07516
G1 X123.949 Y169.557 E2.12307
G1 X155.626 Y184.222 E3.45243
M73 P1 R13
G1 X157.28 Y184.92 E3.52077
G1 X159.214 Y185.535 E3.59808
G1 X160.325 Y185.765 E3.64126
G1 X161.528 Y185.828 E3.68716
G1 X163.089 Y185.624 E3.7471
G1 X164.539 Y184.969 E3.80768
G1 X166.331 Y183.61 E3.89334
G1 X167.711 Y182.338 E3.96479
G1 X169.464 Y180.344 E4.06592
G1 X170.756 Y178.482 E4.15221
G1 X171.674 Y176.846 E4.22366
G1 X184.504 Y146.427 E5.4809
G1 X185.254 Y144.332 E5.56567
G1 X185.839 Y142.008 E5.65691
G1 X186.214 Y139.256 E5.7627
G1 X186.272 Y136.861 E5.85394
G1 X186.13 Y134.852 E5.93063
G1 X185.59 Y131.858 E6.04651
G1 X184.997 Y130.359 E6.10788
G1 X184.342 Y129.336 E6.15415
G1 X183.817 Y128.723 E6.18488
G1 X182.921 Y127.927 E6.23051
G1 X182.169 Y127.465 E6.26414
G1 X180.846 Y126.853 E6.31967
G1 X149.252 Y115.114 E7.60318
G1 X147.481 Y114.553 E7.67395
G1 X145.289 Y114.196 E7.75852
G1 X143.788 Y114.172 E7.8157
G1 X141.877 Y114.391 E7.88894
G1 X140.42 Y114.753 E7.94613
G1 X139.402 Y115.114 E7.98724
G1 X138.044 Y115.752 E8.04437
G1 X136.705 Y116.614 E8.10504
G1 X135.256 Y117.85 E8.17759
G1 X134.253 Y118.954 E8.23438
G1 X134.643 Y119.254 F9000
G1 F1800
G1 X133.991 Y120.103 E8.27515
G1 X133.247 Y121.334 E8.32992
G1 X120.606 Y151.314 E9.569
G1 X119.697 Y154.328 E9.68889
G1 X119.337 Y156.342 E9.7668
G1 X119.205 Y158.032 E9.83133
G1 X119.272 Y160.368 E9.92034
G1 X119.557 Y162.704 E10.00996
G1 X119.797 Y163.901 E10.05647
G1 X120.375 Y165.448 E10.11934
G1 X120.867 Y166.331 E10.15783
G1 X121.455 Y167.153 E10.19632
G1 X122.125 Y167.893 E10.23435
G1 X123.036 Y168.569 E10.27753
G1 X124.162 Y169.13 E10.32543
G1 X155.827 Y183.789 E11.65427
G1 X157.465 Y184.48 E11.72197
G1 X159.355 Y185.079 E11.79748
M73 P2 R13
G1 X160.374 Y185.29 E11.83713
G1 X161.528 Y185.351 E11.88114
G1 X162.99 Y185.157 E11.93731
G1 X164.254 Y184.586 E11.99011
G1 X166.008 Y183.259 E12.07386
G1 X167.625 Y181.744 E12.15825
G1 X168.863 Y180.335 E12.2297
G1 X170.158 Y178.537 E12.31409
G1 X171.257 Y176.612 E12.39847
G1 X184.064 Y146.242 E13.65366
G1 X184.805 Y144.172 E13.73741
G1 X185.376 Y141.896 E13.82678
G1 X185.737 Y139.241 E13.92883
G1 X185.803 Y137.228 E14.00552
G1 X185.654 Y134.886 E14.09489
G1 X185.127 Y131.971 E14.20771
G1 X184.747 Y130.928 E14.24998
G1 X184.394 Y130.261 E14.27871
G1 X183.481 Y129.062 E14.33609
G1 X182.625 Y128.301 E14.37973
G1 X181.969 Y127.898 E14.40904
G1 X180.646 Y127.286 E14.46456
G1 X149.093 Y115.564 E15.74643
G1 X147.373 Y115.018 E15.81512
G1 X145.235 Y114.67 E15.89763
G1 X143.788 Y114.649 E15.95275
G1 X141.985 Y114.855 E16.02186
G1 X140.579 Y115.202 E16.07698
G1 X139.562 Y115.564 E16.11809
G1 X138.254 Y116.18 E16.17316
G1 X136.972 Y117.009 E16.2313
G1 X135.604 Y118.177 E16.2998
G1 X134.867 Y118.963 E16.34083
G1 X134.643 Y119.254 E16.35483
G92 E0
G1 E-0.8 F3000
; printing object hello-kitty-red.stl id:0 copy 0
EXCLUDE_OBJECT_START NAME=hello_kitty_red_stl_id_0_copy_0
G1 X162.827 Y143.01 F9000
G1 E0 F1800
;TYPE:Internal perimeter
;WIDTH:0.5
G1 X163.335 Y142.766 E0.02054
G1 X163.687 Y142.923 E0.03459
G1 X164.716 Y143.282 E0.07437
G1 X166.403 Y143.697 E0.13777
G1 X167.17 Y143.783 E0.16592
G1 X167.931 Y143.783 E0.19368
G1 X168.687 Y143.698 E0.22144
G1 X169.465 Y143.521 E0.25056
G1 X170.077 Y143.266 E0.27474
G1 X170.623 Y142.962 E0.29754
G1 X171.133 Y142.6 E0.32034
G1 X171.598 Y142.184 E0.34314
G1 X172.015 Y141.718 E0.36594
G1 X172.377 Y141.209 E0.38875
G1 X172.68 Y140.662 E0.41155
G1 X172.911 Y140.108 E0.43344
G1 X173.111 Y139.511 E0.45643
G1 X173.25 Y138.873 E0.48023
G1 X173.32 Y138.225 E0.50403
G1 X173.32 Y137.572 E0.52784
G1 X173.25 Y136.924 E0.55164
G1 X173.111 Y136.286 E0.57544
G1 X172.899 Y135.651 E0.59989
G1 X172.411 Y134.662 E0.64012
G1 X171.811 Y133.747 E0.68002
G1 X171.106 Y132.912 E0.71992
G1 X170.303 Y132.169 E0.75982
G1 X169.426 Y131.535 E0.79932
G1 X169.732 Y131.387 E0.81171
G1 X170.992 Y130.943 E0.86045
G1 X172.293 Y130.639 E0.9092
G1 X173.62 Y130.481 E0.95795
G1 X174.956 Y130.47 E1.0067
G1 X175.376 Y130.513 E1.0221
G1 X176.285 Y130.606 E1.05544
G1 X177.591 Y130.887 E1.10419
G1 X178.858 Y131.31 E1.15294
G1 X179.997 Y131.836 E1.19871
G1 X180.145 Y131.954 E1.20559
G1 X180.337 Y132.144 E1.21545
G1 X180.507 Y132.354 E1.22532
G1 X180.653 Y132.582 E1.23518
G1 X180.772 Y132.824 E1.24504
G1 X180.865 Y133.078 E1.25491
G1 X180.936 Y133.368 E1.26578
G1 X181.267 Y135.256 E1.33574
G1 X181.4 Y137.145 E1.40483
G1 X181.339 Y139.038 E1.47393
G1 X181.083 Y140.914 E1.54303
G1 X180.636 Y142.755 E1.61213
G1 X179.994 Y144.562 E1.68212
G1 X179.291 Y146.197 E1.74704
G1 X178.434 Y147.727 E1.81104
G1 X177.42 Y149.159 E1.87503
G1 X176.262 Y150.476 E1.93903
G1 X174.973 Y151.665 E2.00302
G1 X173.735 Y152.586 E2.05933
G1 X173.659 Y152.602 E2.06216
G1 X173.372 Y152.632 E2.07268
G1 X173.083 Y152.632 E2.08321
G1 X172.797 Y152.602 E2.09374
G1 X172.506 Y152.541 E2.10457
G1 X171.022 Y152.083 E2.16122
G1 X169.596 Y151.484 E2.21768
G1 X168.235 Y150.746 E2.27414
G1 X166.96 Y149.881 E2.33035
G1 X165.964 Y149.033 E2.37809
G1 X165.083 Y148.076 E2.42556
G1 X164.324 Y147.019 E2.47302
G1 X163.699 Y145.878 E2.52049
G1 X163.216 Y144.67 E2.56796
G1 X162.883 Y143.413 E2.61543
G1 X162.827 Y143.01 E2.63027
G1 X162.329 Y142.742 F9000
G1 F1800
G1 X163.049 Y142.397 E2.6594
G1 X163.304 Y142.252 E2.67011
G1 X163.855 Y142.498 E2.69214
G1 X164.846 Y142.844 E2.73042
G1 X166.484 Y143.246 E2.79195
G1 X167.196 Y143.326 E2.81809
G1 X167.905 Y143.326 E2.84398
G1 X168.61 Y143.247 E2.86987
G1 X169.325 Y143.084 E2.89663
G1 X169.877 Y142.854 E2.91844
G1 X170.379 Y142.575 E2.93938
G1 X170.847 Y142.243 E2.96032
G1 X171.275 Y141.86 E2.98126
G1 X171.657 Y141.432 E3.0022
G1 X171.99 Y140.965 E3.02314
G1 X172.268 Y140.463 E3.04408
G1 X172.483 Y139.948 E3.06444
G1 X172.67 Y139.389 E3.08593
G1 X172.798 Y138.8 E3.10793
G1 X172.863 Y138.2 E3.12994
G1 X172.863 Y137.597 E3.15195
G1 X172.798 Y136.997 E3.17395
G1 X172.67 Y136.408 E3.19596
G1 X172.475 Y135.825 E3.21838
G1 X172.013 Y134.889 E3.25646
G1 X171.444 Y134.021 E3.29433
G1 X170.774 Y133.229 E3.3322
G1 X170.013 Y132.523 E3.37006
G1 X169.172 Y131.915 E3.40793
G1 X168.723 Y131.668 E3.42662
G1 X168.723 Y131.366 E3.43763
G1 X169.556 Y130.965 E3.47135
G1 X170.863 Y130.503 E3.52194
G1 X172.214 Y130.189 E3.57252
G1 X173.591 Y130.024 E3.62311
G1 X174.977 Y130.013 E3.6737
M73 P3 R13
G1 X175.422 Y130.058 E3.69002
G1 X176.356 Y130.154 E3.72429
G1 X177.712 Y130.446 E3.77487
G1 X179.027 Y130.885 E3.82546
G1 X180.238 Y131.444 E3.87415
G1 X180.449 Y131.611 E3.88395
G1 X180.676 Y131.837 E3.89565
G1 X180.878 Y132.086 E3.90735
G1 X181.051 Y132.356 E3.91905
G1 X181.193 Y132.644 E3.93075
G1 X181.303 Y132.945 E3.94245
G1 X181.383 Y133.274 E3.9548
G1 X181.721 Y135.2 E4.02616
G1 X181.858 Y137.136 E4.09698
G1 X181.795 Y139.076 E4.16779
G1 X181.533 Y140.999 E4.23861
G1 X181.075 Y142.886 E4.30943
G1 X180.42 Y144.729 E4.38081
G1 X179.702 Y146.4 E4.44716
G1 X178.821 Y147.972 E4.5129
G1 X177.779 Y149.442 E4.57865
G1 X176.59 Y150.796 E4.6444
G1 X175.265 Y152.017 E4.71014
G1 X173.927 Y153.013 E4.77099
G1 X173.73 Y153.054 E4.77833
G1 X173.396 Y153.089 E4.7906
G1 X173.06 Y153.089 E4.80287
G1 X172.725 Y153.054 E4.81513
G1 X172.391 Y152.984 E4.82759
G1 X170.866 Y152.513 E4.88582
G1 X169.398 Y151.896 E4.94393
G1 X167.998 Y151.137 E5.00205
G1 X166.683 Y150.246 E5.06
G1 X165.647 Y149.363 E5.10966
G1 X164.728 Y148.365 E5.15916
G1 X164.429 Y147.949 E5.17783
G1 X163.937 Y147.263 E5.20865
G1 X163.285 Y146.074 E5.25814
G1 X162.781 Y144.814 E5.30764
G1 X162.434 Y143.503 E5.35713
G1 X162.329 Y142.742 E5.38516
G1 X161.826 Y142.445 F9000
;TYPE:External perimeter
G1 F1800
G1 X162.208 Y142.293 E5.40016
G1 X162.837 Y141.991 E5.4256
G1 X163.28 Y141.741 E5.44416
G1 X164.024 Y142.073 E5.47391
G1 X164.976 Y142.405 E5.5107
G1 X166.564 Y142.795 E5.57036
G1 X167.221 Y142.869 E5.59449
G1 X167.88 Y142.869 E5.61851
G1 X168.534 Y142.795 E5.64253
G1 X169.186 Y142.647 E5.66692
G1 X169.678 Y142.442 E5.68638
G1 X170.135 Y142.188 E5.70546
G1 X170.561 Y141.885 E5.72453
G1 X170.951 Y141.536 E5.74361
G1 X171.3 Y141.147 E5.76269
G1 X171.603 Y140.72 E5.78177
G1 X171.856 Y140.263 E5.80084
G1 X172.055 Y139.787 E5.81967
G1 X172.228 Y139.267 E5.83965
G1 X172.347 Y138.726 E5.85987
G1 X172.406 Y138.176 E5.88008
G1 X172.406 Y137.622 E5.90029
G1 X172.347 Y137.071 E5.9205
G1 X172.228 Y136.53 E5.94071
G1 X172.051 Y136 E5.9611
G1 X171.616 Y135.117 E5.99703
G1 X171.077 Y134.295 E6.03287
G1 X170.443 Y133.545 E6.0687
G1 X169.723 Y132.877 E6.10454
G1 X168.927 Y132.302 E6.14038
G1 X168.266 Y131.937 E6.1679
G1 X168.266 Y131.079 E6.19922
G1 X169.38 Y130.542 E6.24433
G1 X170.735 Y130.064 E6.29676
G1 X172.135 Y129.738 E6.34919
G1 X173.561 Y129.568 E6.40162
G1 X174.998 Y129.556 E6.45405
G1 X175.468 Y129.604 E6.47129
G1 X176.428 Y129.702 E6.50647
G1 X177.833 Y130.004 E6.5589
G1 X179.196 Y130.459 E6.61133
G1 X180.48 Y131.052 E6.66294
G1 X180.753 Y131.269 E6.67565
G1 X181.016 Y131.53 E6.68918
G1 X181.249 Y131.819 E6.70272
G1 X181.449 Y132.131 E6.71626
G1 X181.614 Y132.464 E6.7298
G1 X181.741 Y132.812 E6.74333
G1 X181.831 Y133.18 E6.75715
G1 X182.175 Y135.145 E6.82992
G1 X182.316 Y137.128 E6.90246
G1 X182.251 Y139.115 E6.975
G1 X181.983 Y141.085 E7.04753
G1 X181.513 Y143.016 E7.12007
G1 X180.846 Y144.896 E7.19285
G1 X180.112 Y146.602 E7.26061
G1 X179.208 Y148.216 E7.32811
G1 X178.139 Y149.726 E7.39561
G1 X176.917 Y151.116 E7.46311
G1 X175.557 Y152.37 E7.53061
G1 X174.12 Y153.439 E7.59599
G1 X173.801 Y153.506 E7.60786
G1 X173.42 Y153.546 E7.62186
G1 X173.036 Y153.546 E7.63586
G1 X172.654 Y153.506 E7.64987
G1 X172.276 Y153.427 E7.66396
G1 X170.71 Y152.944 E7.72377
G1 X169.2 Y152.309 E7.78353
G1 X167.76 Y151.528 E7.8433
G1 X166.406 Y150.61 E7.90299
G1 X165.329 Y149.693 E7.95458
G1 X164.373 Y148.654 E8.0061
G1 X164.058 Y148.216 E8.02579
G1 X163.549 Y147.507 E8.05762
G1 X162.87 Y146.269 E8.10914
G1 X162.347 Y144.958 E8.16066
G1 X161.985 Y143.593 E8.21217
G1 X161.826 Y142.445 E8.25446
;WIPE_START
M204 S3000
G1 X162.216 Y142.534 F9000
;WIPE_END
G92 E0
G1 E-0.8 F3000
M204 S1000
G1 X179.416 Y131.644 F9000
G1 E0 F1800
;TYPE:Solid infill
;WIDTH:0.491427
G1 F2400
G1 X180.728 Y132.955 E0.06651
G1 X180.929 Y133.803 F9000
G1 F2400
G1 X178.334 Y131.208 E0.19812
G1 X177.395 Y130.915 F9000
G1 F2400
G1 X181.075 Y134.596 E0.38477
G1 X181.206 Y135.373 F9000
G1 F2400
G1 X176.571 Y130.738 E0.61985
G1 X175.814 Y130.627 F9000
G1 F2400
G1 X181.256 Y136.069 E0.89583
G1 X181.305 Y136.764 F9000
G1 F2400
G1 X175.118 Y130.577 E1.20962
G1 X174.459 Y130.565 F9000
G1 F2400
G1 X181.323 Y137.428 E1.55769
G1 X181.302 Y138.055 F9000
G1 F2400
G1 X173.801 Y130.553 E1.93812
G1 X173.202 Y130.6 F9000
G1 F2400
G1 X181.282 Y138.681 E2.34792
G1 X181.237 Y139.282 F9000
G1 F2400
G1 X172.624 Y130.669 E2.7847
G1 X172.07 Y130.762 F9000
G1 F2400
G1 X181.159 Y139.851 E3.24564
G1 X181.082 Y140.419 F9000
G1 F2400
G1 X171.546 Y130.884 E3.72923
M73 P4 R13
G1 X171.022 Y131.006 F9000
G1 F2400
G1 X180.997 Y140.981 E4.2351
G1 X180.87 Y141.501 F9000
G1 F2400
G1 X170.552 Y131.182 E4.7584
G1 X170.083 Y131.36 F9000
G1 F2400
G1 X180.744 Y142.021 E5.29908
G1 X180.618 Y142.541 F9000
G1 F2400
G1 X172.025 Y133.949 E5.73485
G1 X172.872 Y135.441 F9000
G1 F2400
G1 X180.464 Y143.034 E6.1199
G1 X180.295 Y143.511 F9000
G1 F2400
G1 X173.174 Y136.39 E6.48103
G1 X173.334 Y137.196 F9000
G1 F2400
G1 X180.125 Y143.988 E6.82547
G1 X179.956 Y144.465 F9000
G1 F2400
G1 X173.37 Y137.879 E7.15945
G1 X173.345 Y138.5 F9000
G1 F2400
G1 X179.765 Y144.921 E7.48506
G1 X179.571 Y145.373 F9000
G1 F2400
G1 X173.254 Y139.056 E7.8054
G1 X173.151 Y139.599 F9000
G1 F2400
G1 X179.377 Y145.825 E8.12113
G1 X179.173 Y146.268 F9000
G1 F2400
G1 X172.975 Y140.07 E8.43546
G1 X172.799 Y140.54 F9000
G1 F2400
G1 X178.941 Y146.682 E8.74694
G1 X178.709 Y147.096 F9000
G1 F2400
G1 X172.586 Y140.973 E9.05745
G1 X172.336 Y141.37 F9000
G1 F2400
G1 X178.477 Y147.51 E9.36887
G1 X178.224 Y147.904 F9000
G1 F2400
G1 X172.049 Y141.729 E9.68203
G1 X171.762 Y142.089 F9000
G1 F2400
G1 X177.956 Y148.283 E9.99617
G1 X177.688 Y148.661 F9000
G1 F2400
G1 X171.442 Y142.415 E10.31293
G1 X171.089 Y142.709 F9000
G1 F2400
G1 X177.42 Y149.04 E10.63401
G1 X177.125 Y149.391 F9000
G1 F2400
G1 X170.693 Y142.959 E10.96022
G1 X170.296 Y143.208 F9000
G1 F2400
G1 X176.823 Y149.735 E11.29121
G1 X176.52 Y150.079 F9000
G1 F2400
G1 X169.868 Y143.427 E11.62856
G1 X169.397 Y143.602 F9000
G1 F2400
G1 X176.218 Y150.423 E11.9745
G1 X175.882 Y150.734 F9000
G1 F2400
G1 X168.845 Y143.696 E12.33139
G1 X168.293 Y143.791 F9000
G1 F2400
G1 X175.546 Y151.044 E12.69922
G1 X175.209 Y151.354 F9000
G1 F2400
G1 X167.694 Y143.838 E13.08035
M73 P5 R12
G1 X167.009 Y143.8 F9000
G1 F2400
G1 X174.867 Y151.658 E13.47889
G1 X174.497 Y151.934 F9000
G1 F2400
G1 X166.306 Y143.744 E13.89425
G1 X165.449 Y143.533 F9000
G1 F2400
G1 X174.126 Y152.21 E14.33428
G1 X173.755 Y152.485 F9000
G1 F2400
G1 X164.571 Y143.301 E14.80004
G1 X163.539 Y142.916 F9000
G1 F2400
G1 X173.151 Y152.528 E15.28749
G1 X172.389 Y152.412 F9000
G1 F2400
G1 X162.87 Y142.893 E15.77021
G1 X163.068 Y143.737 F9000
G1 F2400
G1 X171.475 Y152.144 E16.19657
G1 X170.455 Y151.77 F9000
G1 F2400
G1 X163.266 Y144.581 E16.56115
G1 X163.677 Y145.639 F9000
G1 F2400
G1 X169.263 Y151.225 E16.84446
G1 X167.674 Y150.283 F9000
G1 F2400
G1 X164.403 Y147.011 E17.01037
G92 E0
G1 E-0.8 F3000
G1 X166.852 Y139.173 F9000
G1 E0 F1800
;TYPE:Internal perimeter
;WIDTH:0.5
G1 X167.406 Y138.284 E0.03822
G1 X167.881 Y137.261 E0.07937
