; HEADER_BLOCK_START
; generated by OrcaSlicer 1.6.4-beta3 on 2023-08-20 at 16:20:59
; total layer number: 188
; HEADER_BLOCK_END

; THUMBNAIL_BLOCK_START
; THUMBNAIL_BLOCK_END

; external perimeters extrusion width = 0.40mm
; perimeters extrusion width = 0.45mm
; infill extrusion width = 0.45mm
; solid infill extrusion width = 0.40mm
; top infill extrusion width = 0.40mm
; support material extrusion width = 0.40mm
; first layer extrusion width = 0.50mm

; EXECUTABLE_BLOCK_START
EXCLUDE_OBJECT_DEFINE NAME=hook.stl_id_0_copy_0 CENTER=155,155 POLYGON=[[142,111.5],[168,111.5],[168,198.5],[158,198.5],[142,175.5],[142,111.5]]
M73 P0 R34
;TYPE:Custom
START_PRINT T_BED=60 T_EXTRUDER=220
G90
G21
M83 ; use relative distances for extrusion
; filament start gcode
PRESSURE_ADVANCE_SELECT FILAMENT=PLA
M106 S0
;LAYER_CHANGE
;Z:0.2
;HEIGHT:0.2
;BEFORE_LAYER_CHANGE
;0.2
G92 E0

SET_VELOCITY_LIMIT ACCEL=500 ACCEL_TO_DECEL=250
G1 E-.8 F3000
G1 Z.4 F9000
G1 X139.935 Y110.169
G1 Z.4
G1 Z.2
G1 E.8 F1800
;TYPE:Skirt
;WIDTH:0.5
G1 F3000
G1 X140.985 Y109.262 E.05169
G1 X142 Y109.043 E.03866
G1 X168 Y109.043 E.9684
G1 X169.331 Y109.435 E.05169
G1 X170.238 Y110.485 E.05169
G1 X170.455 Y111.388 E.03456
G1 X173.668 Y181.53 E2.61528
G1 X173.671 Y196.928 E.5735
G1 X173.279 Y198.259 E.05169
G1 X172.294 Y199.135 E.0491
G1 X169.08 Y200.707 E.13326
G1 X168 Y200.957 E.04128
G1 X158 Y200.957 E.37246
G1 X156.669 Y200.565 E.05169
G1 X155.983 Y199.903 E.0355
G1 X139.983 Y176.903 E1.04356
G1 X139.543 Y175.5 E.05477
G1 X139.543 Y111.5 E2.38376
G1 X139.923 Y110.207 E.0502
; printing object hook.stl id:0 copy 0
G1 E-.8
EXCLUDE_OBJECT_START NAME=hook.stl_id_0_copy_0
G1 Z.6 F9000
G1 X171.214 Y196.928 Z.6
G1 Z.2
G1 E.8 F1800
;TYPE:Support
G1 F3000
G1 X168.6 Y196.928 E.09736
G1 X168.6 Y181.642 E.56932
G1 X171.214 Y181.642 E.09736
G1 X171.214 Y196.859 E.56676
G1 X169.011 Y182.054 F9000
G1 F3000
G1 X170.802 Y182.054 E.06671
G1 X170.802 Y196.516 E.53867
G1 X169.011 Y196.516 E.06671
G1 X169.011 Y182.054 E.53867
G1 X169.519 Y182.562 F9000
G1 F3000
G1 X170.295 Y182.562 E.02888
G1 X170.295 Y196.008 E.50084
G1 X169.519 Y196.008 E.02888
G1 X169.519 Y182.562 E.50084
G1 E-.8
G1 Z.6 F9000
G1 X158.021 Y175.25 Z.6
G1 Z.2
G1 E.8 F1800
;TYPE:Outer wall
;WIDTH:0.499999
G1 F3000
G1 X142.25 Y175.25 E.58743
G1 X142.25 Y111.75 E2.36513
G1 X167.75 Y111.75 E.94978
G1 X167.75 Y124.5 E.47489
G1 X167.75 Y198.25 E2.7469
G1 X158.25 Y198.25 E.35384
G1 X158.25 Y175.479 E.84815
G1 X158.182 Y175.316 E.00655
G1 X158.058 Y175.265 E.00499
G1 X158.109 Y174.81 F9000
;TYPE:Inner wall
G1 F3000
G1 X158.021 Y174.793 E.00333
G1 X142.707 Y174.793 E.5704
G1 X142.707 Y112.207 E2.33108
G1 X167.293 Y112.207 E.91573
G1 X167.293 Y124.5 E.45786
G1 X167.293 Y197.793 E2.72988
G1 X158.707 Y197.793 E.31979
M73 P1 R34
G1 X158.707 Y175.479 E.83112
G1 X158.67 Y175.256 E.0084
G1 X158.504 Y174.992 E.01163
G1 X158.285 Y174.846 E.00981
G1 X158.148 Y174.818 E.0052
G1 E-.8
G1 Z.6 F9000
G1 X167.147 Y113.284 Z.6
G1 Z.2
G1 E.8 F1800
;TYPE:Internal solid infill
;WIDTH:0.502922
G1 F3000
G1 X166.422 Y112.559 E.03841
G1 X165.772 Y112.559 E.02439
G1 X166.941 Y113.728 E.06199
G1 X166.941 Y114.379 E.02439
G1 X165.121 Y112.559 E.09647
G1 X164.471 Y112.559 E.02439
G1 X166.941 Y115.029 E.13096
G1 X166.941 Y115.68 E.02439
G1 X163.82 Y112.559 E.16545
G1 X163.169 Y112.559 E.02439
G1 X166.941 Y116.331 E.19993
G1 X166.941 Y116.981 E.02439
G1 X162.519 Y112.559 E.23442
G1 X161.868 Y112.559 E.02439
G1 X166.941 Y117.632 E.2689
G1 X166.941 Y118.282 E.02439
G1 X161.218 Y112.559 E.30339
G1 X160.567 Y112.559 E.02439
G1 X166.941 Y118.933 E.33787
G1 X166.941 Y119.583 E.02439
G1 X159.917 Y112.559 E.37236
G1 X159.266 Y112.559 E.02439
G1 X166.941 Y120.234 E.40685
G1 X166.941 Y120.884 E.02439
G1 X158.616 Y112.559 E.44133
G1 X157.965 Y112.559 E.02439
G1 X166.941 Y121.535 E.47582
G1 X166.941 Y122.185 E.02439
G1 X157.315 Y112.559 E.5103
G1 X156.664 Y112.559 E.02439
G1 X166.941 Y122.836 E.54479
G1 X166.941 Y123.486 E.02439
G1 X156.014 Y112.559 E.57927
G1 X155.363 Y112.559 E.02439
G1 X166.941 Y124.137 E.61376
G1 X166.941 Y124.788 E.02439
G1 X154.712 Y112.559 E.64825
G1 X154.062 Y112.559 E.02439
G1 X166.941 Y125.438 E.68273
G1 X166.941 Y126.089 E.02439
G1 X153.411 Y112.559 E.71722
G1 X152.761 Y112.559 E.02439
G1 X166.941 Y126.739 E.7517
G1 X166.941 Y127.39 E.02439
G1 X152.11 Y112.559 E.78619
G1 X151.46 Y112.559 E.02439
G1 X166.941 Y128.04 E.82067
G1 X166.941 Y128.691 E.02439
G1 X150.809 Y112.559 E.85516
G1 X150.159 Y112.559 E.02439
G1 X166.941 Y129.341 E.88965
G1 X166.941 Y129.992 E.02439
G1 X149.508 Y112.559 E.92413
G1 X148.858 Y112.559 E.02439
G1 X166.941 Y130.642 E.95862
G1 X166.941 Y131.293 E.02439
G1 X148.207 Y112.559 E.9931
G1 X147.556 Y112.559 E.02439
G1 X166.941 Y131.944 E1.02759
G1 X166.941 Y132.594 E.02439
G1 X146.906 Y112.559 E1.06207
G1 X146.255 Y112.559 E.02439
G1 X166.941 Y133.245 E1.09656
G1 X166.941 Y133.895 E.02439
G1 X145.605 Y112.559 E1.13105
G1 X144.954 Y112.559 E.02439
G1 X166.941 Y134.546 E1.16553
M73 P1 R33
G1 X166.941 Y135.196 E.02439
G1 X144.304 Y112.559 E1.20002
G1 X143.653 Y112.559 E.02439
G1 X166.941 Y135.847 E1.2345
G1 X166.941 Y136.497 E.02439
G1 X143.059 Y112.615 E1.266
G1 X143.059 Y113.266 E.02439
G1 X166.941 Y137.148 E1.266
G1 X166.941 Y137.798 E.02439
G1 X143.059 Y113.916 E1.266
G1 X143.059 Y114.567 E.02439
G1 X166.941 Y138.449 E1.266
G1 X166.941 Y139.099 E.02439
M73 P2 R33
G1 X143.059 Y115.217 E1.266
G1 X143.059 Y115.868 E.02439
G1 X166.941 Y139.75 E1.266
G1 X166.941 Y140.401 E.02439
G1 X143.059 Y116.519 E1.266
G1 X143.059 Y117.169 E.02439
G1 X166.941 Y141.051 E1.266
G1 X166.941 Y141.702 E.02439
G1 X143.059 Y117.82 E1.266
G1 X143.059 Y118.47 E.02439
G1 X166.941 Y142.352 E1.266
G1 X166.941 Y143.003 E.02439
G1 X143.059 Y119.121 E1.266
G1 X143.059 Y119.771 E.02439
G1 X166.941 Y143.653 E1.266
G1 X166.941 Y144.304 E.02439
G1 X143.059 Y120.422 E1.266
G1 X143.059 Y121.072 E.02439
G1 X166.941 Y144.954 E1.266
G1 X166.941 Y145.605 E.02439
G1 X143.059 Y121.723 E1.266
G1 X143.059 Y122.373 E.02439
G1 X166.941 Y146.255 E1.266
G1 X166.941 Y146.906 E.02439
G1 X143.059 Y123.024 E1.266
G1 X143.059 Y123.675 E.02439
G1 X166.941 Y147.556 E1.266
G1 X166.941 Y148.207 E.02439
G1 X143.059 Y124.325 E1.266
G1 X143.059 Y124.976 E.02439
G1 X166.941 Y148.858 E1.266
G1 X166.941 Y149.508 E.02439
G1 X143.059 Y125.626 E1.266
G1 X143.059 Y126.277 E.02439
G1 X166.941 Y150.159 E1.266
G1 X166.941 Y150.809 E.02439
G1 X143.059 Y126.927 E1.266
G1 X143.059 Y127.578 E.02439
G1 X166.941 Y151.46 E1.266
G1 X166.941 Y152.11 E.02439
G1 X143.059 Y128.228 E1.266
G1 X143.059 Y128.879 E.02439
G1 X166.941 Y152.761 E1.266
G1 X166.941 Y153.411 E.02439
G1 X143.059 Y129.529 E1.266
G1 X143.059 Y130.18 E.02439
G1 X166.941 Y154.062 E1.266
G1 X166.941 Y154.712 E.02439
G1 X143.059 Y130.83 E1.266
G1 X143.059 Y131.481 E.02439
G1 X166.941 Y155.363 E1.266
G1 X166.941 Y156.014 E.02439
G1 X143.059 Y132.132 E1.266
M73 P3 R33
G1 X143.059 Y132.782 E.02439
G1 X166.941 Y156.664 E1.266
G1 X166.941 Y157.315 E.02439
G1 X143.059 Y133.433 E1.266
G1 X143.059 Y134.083 E.02439
G1 X166.941 Y157.965 E1.266
G1 X166.941 Y158.616 E.02439
G1 X143.059 Y134.734 E1.266
G1 X143.059 Y135.384 E.02439
G1 X166.941 Y159.266 E1.266
G1 X166.941 Y159.917 E.02439
G1 X143.059 Y136.035 E1.266
G1 X143.059 Y136.685 E.02439
G1 X166.941 Y160.567 E1.266
G1 X166.941 Y161.218 E.02439
G1 X143.059 Y137.336 E1.266
G1 X143.059 Y137.986 E.02439
G1 X166.941 Y161.868 E1.266
G1 X166.941 Y162.519 E.02439
G1 X143.059 Y138.637 E1.266
G1 X143.059 Y139.288 E.02439
G1 X166.941 Y163.169 E1.266
G1 X166.941 Y163.82 E.02439
G1 X143.059 Y139.938 E1.266
G1 X143.059 Y140.589 E.02439
G1 X166.941 Y164.471 E1.266
G1 X166.941 Y165.121 E.02439
G1 X143.059 Y141.239 E1.266
G1 X143.059 Y141.89 E.02439
G1 X166.941 Y165.772 E1.266
G1 X166.941 Y166.422 E.02439
G1 X143.059 Y142.54 E1.266
G1 X143.059 Y143.191 E.02439
G1 X166.941 Y167.073 E1.266
G1 X166.941 Y167.723 E.02439
G1 X143.059 Y143.841 E1.266
G1 X143.059 Y144.492 E.02439
G1 X166.941 Y168.374 E1.266
G1 X166.941 Y169.024 E.02439
G1 X143.059 Y145.142 E1.266
G1 X143.059 Y145.793 E.02439
G1 X166.941 Y169.675 E1.266
G1 X166.941 Y170.325 E.02439
G1 X143.059 Y146.443 E1.266
G1 X143.059 Y147.094 E.02439
G1 X166.941 Y170.976 E1.266
G1 X166.941 Y171.627 E.02439
G1 X143.059 Y147.745 E1.266
G1 X143.059 Y148.395 E.02439
G1 X166.941 Y172.277 E1.266
G1 X166.941 Y172.928 E.02439
G1 X143.059 Y149.046 E1.266
M73 P4 R33
G1 X143.059 Y149.696 E.02439
G1 X166.941 Y173.578 E1.266
G1 X166.941 Y174.229 E.02439
G1 X143.059 Y150.347 E1.266
G1 X143.059 Y150.997 E.02439
G1 X166.941 Y174.879 E1.266
G1 X166.941 Y175.53 E.02439
G1 X143.059 Y151.648 E1.266
G1 X143.059 Y152.298 E.02439
G1 X166.941 Y176.18 E1.266
G1 X166.941 Y176.831 E.02439
G1 X143.059 Y152.949 E1.266
G1 X143.059 Y153.599 E.02439
G1 X166.941 Y177.481 E1.266
G1 X166.941 Y178.132 E.02439
G1 X143.059 Y154.25 E1.266
G1 X143.059 Y154.901 E.02439
G1 X166.941 Y178.782 E1.266
G1 X166.941 Y179.433 E.02439
G1 X143.059 Y155.551 E1.266
G1 X143.059 Y156.202 E.02439
G1 X166.941 Y180.084 E1.266
G1 X166.941 Y180.734 E.02439
G1 X143.059 Y156.852 E1.266
G1 X143.059 Y157.503 E.02439
G1 X166.941 Y181.385 E1.266
G1 X166.941 Y182.035 E.02439
G1 X143.059 Y158.153 E1.266
G1 X143.059 Y158.804 E.02439
G1 X166.941 Y182.686 E1.266
G1 X166.941 Y183.336 E.02439
G1 X159.057 Y175.453 E.41792
G1 X159.045 Y175.307 E.00548
G1 X159.003 Y175.142 E.00637
G1 X158.936 Y174.986 E.00637
G1 X158.756 Y174.745 E.01127
G1 X158.642 Y174.646 E.00567
G1 X158.422 Y174.52 E.00949
G1 X158.21 Y174.458 E.0083
G1 X158.048 Y174.443 E.0061
G1 X143.059 Y159.454 E.79456
G1 X143.059 Y160.105 E.02439
G1 X157.395 Y174.441 E.75997
M73 P4 R32
G1 X156.745 Y174.441 E.02439
G1 X143.059 Y160.755 E.72549
G1 X143.059 Y161.406 E.02439
G1 X156.094 Y174.441 E.691
G1 X155.444 Y174.441 E.02439
G1 X143.059 Y162.056 E.65651
G1 X143.059 Y162.707 E.02439
G1 X154.793 Y174.441 E.62203
G1 X154.142 Y174.441 E.02439
G1 X143.059 Y163.358 E.58754
G1 X143.059 Y164.008 E.02439
G1 X153.492 Y174.441 E.55306
G1 X152.841 Y174.441 E.02439
G1 X143.059 Y164.659 E.51857
G1 X143.059 Y165.309 E.02439
G1 X152.191 Y174.441 E.48409
G1 X151.54 Y174.441 E.02439
G1 X143.059 Y165.96 E.4496
G1 X143.059 Y166.61 E.02439
G1 X150.89 Y174.441 E.41511
G1 X150.239 Y174.441 E.02439
G1 X143.059 Y167.261 E.38063
G1 X143.059 Y167.911 E.02439
G1 X149.589 Y174.441 E.34614
G1 X148.938 Y174.441 E.02439
G1 X143.059 Y168.562 E.31166
G1 X143.059 Y169.212 E.02439
G1 X148.288 Y174.441 E.27717
G1 X147.637 Y174.441 E.02439
G1 X143.059 Y169.863 E.24269
G1 X143.059 Y170.513 E.02439
G1 X146.987 Y174.441 E.2082
G1 X146.336 Y174.441 E.02439
G1 X143.059 Y171.164 E.17371
G1 X143.059 Y171.815 E.02439
G1 X145.685 Y174.441 E.13923
G1 X145.035 Y174.441 E.02439
G1 X143.059 Y172.465 E.10474
G1 X143.059 Y173.116 E.02439
G1 X144.384 Y174.441 E.07026
G1 X143.734 Y174.441 E.02439
G1 X143.059 Y173.766 E.03577
G1 X143.059 Y174.417 E.02439
G1 X143.289 Y174.647 E.01219
G1 E-.8
G1 Z.6 F9000
G1 X158.853 Y175.899 Z.6
G1 Z.2
G1 E.8 F1800
G1 F3000
G1 X166.941 Y183.987 E.42873
G1 X166.941 Y184.637 E.02439
G1 X159.059 Y176.755 E.41783
M73 P5 R32
G1 X159.059 Y177.406 E.02439
G1 X166.941 Y185.288 E.41783
G1 X166.941 Y185.938 E.02439
G1 X159.059 Y178.056 E.41783
G1 X159.059 Y178.707 E.02439
G1 X166.941 Y186.589 E.41783
G1 X166.941 Y187.24 E.02439
G1 X159.059 Y179.358 E.41783
G1 X159.059 Y180.008 E.02439
G1 X166.941 Y187.89 E.41783
G1 X166.941 Y188.541 E.02439
G1 X159.059 Y180.659 E.41783
G1 X159.059 Y181.309 E.02439
G1 X166.941 Y189.191 E.41783
G1 X166.941 Y189.842 E.02439
G1 X159.059 Y181.96 E.41783
G1 X159.059 Y182.61 E.02439
G1 X166.941 Y190.492 E.41783
G1 X166.941 Y191.143 E.02439
G1 X159.059 Y183.261 E.41783
G1 X159.059 Y183.911 E.02439
G1 X166.941 Y191.793 E.41783
G1 X166.941 Y192.444 E.02439
G1 X159.059 Y184.562 E.41783
G1 X159.059 Y185.212 E.02439
G1 X166.941 Y193.094 E.41783
G1 X166.941 Y193.745 E.02439
G1 X159.059 Y185.863 E.41783
G1 X159.059 Y186.513 E.02439
G1 X166.941 Y194.395 E.41783
G1 X166.941 Y195.046 E.02439
G1 X159.059 Y187.164 E.41783
G1 X159.059 Y187.815 E.02439
G1 X166.941 Y195.697 E.41783
G1 X166.941 Y196.347 E.02439
G1 X159.059 Y188.465 E.41783
G1 X159.059 Y189.116 E.02439
G1 X166.941 Y196.998 E.41783
G1 X166.941 Y197.441 E.01662
G1 X166.734 Y197.441 E.00777
G1 X159.059 Y189.766 E.40685
G1 X159.059 Y190.417 E.02439
G1 X166.083 Y197.441 E.37236
G1 X165.433 Y197.441 E.02439
G1 X159.059 Y191.067 E.33788
G1 X159.059 Y191.718 E.02439
G1 X164.782 Y197.441 E.30339
G1 X164.132 Y197.441 E.02439
G1 X159.059 Y192.368 E.2689
G1 X159.059 Y193.019 E.02439
G1 X163.481 Y197.441 E.23442
G1 X162.831 Y197.441 E.02439
G1 X159.059 Y193.669 E.19993
G1 X159.059 Y194.32 E.02439
G1 X162.18 Y197.441 E.16545
G1 X161.529 Y197.441 E.02439
G1 X159.059 Y194.971 E.13096
G1 X159.059 Y195.621 E.02439
G1 X160.879 Y197.441 E.09648
G1 X160.228 Y197.441 E.02439
G1 X159.059 Y196.272 E.06199
G1 X159.059 Y196.922 E.02439
G1 X159.784 Y197.647 E.03841
; stop printing object hook.stl id:0 copy 0
M106 S255
;LAYER_CHANGE
;Z:0.4
;HEIGHT:0.2
;BEFORE_LAYER_CHANGE
;0.4
G92 E0

EXCLUDE_OBJECT_END NAME=hook.stl_id_0_copy_0
M140 S60 ; set bed temperature
; printing object hook.stl id:0 copy 0
G1 E-.8 F3000
EXCLUDE_OBJECT_START NAME=hook.stl_id_0_copy_0
G1 Z.6 F9000
G1 X158.021 Y175.3 Z.6
G1 Z.4
G1 E.8 F1800
;TYPE:Outer wall
;WIDTH:0.399999
G1 F4200
G1 X142.2 Y175.3 E.46036
G1 X142.2 Y111.7 E1.8506
G1 X167.8 Y111.7 E.74489
G1 X167.8 Y124.5 E.37245
G1 X167.8 Y198.3 E2.14739
G1 X158.2 Y198.3 E.27934
G1 X158.2 Y175.479 E.66405
G1 X158.16 Y175.369 E.00339
G1 X158.101 Y175.34 E.0019
G1 X158.057 Y175.318 E.00144
G1 X158.111 Y174.942 F9000
;TYPE:Inner wall
;WIDTH:0.449999
G1 F4800
G1 X158.021 Y174.918 E.00308
G1 X142.582 Y174.918 E.51215
G1 X142.582 Y112.082 E2.08438
G1 X167.418 Y112.082 E.82385
G1 X167.418 Y124.5 E.41192
G1 X167.418 Y197.918 E2.4354
G1 X158.582 Y197.918 E.2931
G1 X158.582 Y175.479 E.74435
G1 X158.574 Y175.386 E.00309
G1 X158.47 Y175.142 E.00879
G1 X158.297 Y174.991 E.00762
G1 X158.15 Y174.952 E.00506
G1 X166.567 Y197.79 F9000
;TYPE:Internal solid infill
;WIDTH:0.400469
G1 F3600
G1 X167.129 Y197.228 E.02316
G1 X167.129 Y196.722 E.01473
G1 X166.222 Y197.629 E.03738
G1 X165.717 Y197.629 E.01473
G1 X167.129 Y196.217 E.05821
G1 X167.129 Y195.711 E.01473
G1 X165.211 Y197.629 E.07905
G1 X164.705 Y197.629 E.01473
G1 X167.129 Y195.205 E.09988
G1 X167.129 Y194.7 E.01473
G1 X164.2 Y197.629 E.12072
G1 X163.694 Y197.629 E.01473
G1 X167.129 Y194.194 E.14155
G1 X167.129 Y193.688 E.01473
G1 X163.188 Y197.629 E.16239
G1 X162.683 Y197.629 E.01473
G1 X167.129 Y193.183 E.18322
G1 X167.129 Y192.677 E.01473
G1 X162.177 Y197.629 E.20406
G1 X161.671 Y197.629 E.01473
G1 X167.129 Y192.171 E.22489
G1 X167.129 Y191.666 E.01473
G1 X161.166 Y197.629 E.24573
G1 X160.66 Y197.629 E.01473
G1 X167.129 Y191.16 E.26656
G1 X167.129 Y190.655 E.01473
G1 X160.155 Y197.629 E.2874
G1 X159.649 Y197.629 E.01473
G1 X167.129 Y190.149 E.30823
M73 P6 R32
G1 X167.129 Y189.643 E.01473
G1 X159.143 Y197.629 E.32907
G1 X158.871 Y197.629 E.00795
G1 X158.871 Y197.397 E.00679
G1 X167.129 Y189.138 E.3403
G1 X167.129 Y188.632 E.01473
G1 X158.871 Y196.891 E.3403
G1 X158.871 Y196.385 E.01473
G1 X167.129 Y188.126 E.3403
G1 X167.129 Y187.621 E.01473
G1 X158.871 Y195.88 E.3403
G1 X158.871 Y195.374 E.01473
G1 X167.129 Y187.115 E.3403
G1 X167.129 Y186.609 E.01473
G1 X158.871 Y194.868 E.3403
G1 X158.871 Y194.363 E.01473
G1 X167.129 Y186.104 E.3403
G1 X167.129 Y185.598 E.01473
G1 X158.871 Y193.857 E.3403
G1 X158.871 Y193.351 E.01473
G1 X167.129 Y185.092 E.3403
G1 X167.129 Y184.587 E.01473
G1 X158.871 Y192.846 E.3403
G1 X158.871 Y192.34 E.01473
G1 X167.129 Y184.081 E.3403
G1 X167.129 Y183.575 E.01473
G1 X158.871 Y191.834 E.3403
G1 X158.871 Y191.329 E.01473
G1 X167.129 Y183.07 E.3403
G1 X167.129 Y182.564 E.01473
G1 X158.871 Y190.823 E.3403
G1 X158.871 Y190.317 E.01473
G1 X167.129 Y182.058 E.3403
G1 X167.129 Y181.553 E.01473
G1 X158.871 Y189.812 E.3403
G1 X158.871 Y189.306 E.01473
G1 X167.129 Y181.047 E.3403
G1 X167.129 Y180.542 E.01473
G1 X158.871 Y188.8 E.3403
G1 X158.871 Y188.295 E.01473
