; HEADER_BLOCK_START
; generated by OrcaSlicer 1.6.4-beta3 on 2023-08-21 at 18:05:17
; total layer number: 203
; HEADER_BLOCK_END

; THUMBNAIL_BLOCK_START
; THUMBNAIL_BLOCK_END

; external perimeters extrusion width = 0.40mm
; perimeters extrusion width = 0.45mm
; infill extrusion width = 0.45mm
; solid infill extrusion width = 0.40mm
; top infill extrusion width = 0.40mm
; support material extrusion width = 0.40mm
; first layer extrusion width = 0.50mm

; EXECUTABLE_BLOCK_START
EXCLUDE_OBJECT_DEFINE NAME=hook2.stl_id_0_copy_0 CENTER=155,155 POLYGON=[[24,111.5],[286,111.5],[286,198.5],[24,198.5],[24,111.5]]
M73 P0 R130
;TYPE:Custom
START_PRINT T_BED=70 T_EXTRUDER=235
G90
G21
M83 ; use relative distances for extrusion
; Filament gcode
PRESSURE_ADVANCE_SELECT FILAMENT=PETG
M106 S0
;LAYER_CHANGE
;Z:0.2
;HEIGHT:0.2
;BEFORE_LAYER_CHANGE
;0.2
G92 E0

SET_VELOCITY_LIMIT ACCEL=1500 ACCEL_TO_DECEL=750
G1 E-.8 F3000
G1 Z.4 F9000
G1 X23.061 Y109.229
G1 Z.4
G1 Z.2
G1 E.8 F1800
;TYPE:Skirt
;WIDTH:0.5
G1 F3000
G1 X24 Y109.043 E.03457
G1 X286 Y109.043 E9.45977
G1 X287.331 Y109.435 E.0501
G1 X288.238 Y110.485 E.0501
G1 X288.456 Y111.418 E.03457
G1 X290.811 Y181.642 E2.53696
G1 X290.811 Y196.928 E.55189
G1 X290.419 Y198.259 E.0501
G1 X289.719 Y198.971 E.03606
G1 X287.365 Y200.543 E.10222
G1 X286 Y200.957 E.05149
G1 X24 Y200.957 E9.45977
G1 X22.635 Y200.543 E.05149
G1 X20.281 Y198.971 E.10221
G1 X19.392 Y197.905 E.0501
G1 X19.189 Y196.928 E.03606
G1 X19.19 Y181.56 E.55486
G1 X21.544 Y111.418 E2.53399
G1 X21.981 Y110.1 E.0501
G1 X23.03 Y109.255 E.04866
; printing object hook2.stl id:0 copy 0
G1 E-.8
EXCLUDE_OBJECT_START NAME=hook2.stl_id_0_copy_0
G1 Z.6 F9000
G1 X23.4 Y196.928 Z.6
G1 Z.2
G1 E.8 F1800
;TYPE:Support
G1 F3000
G1 X21.646 Y196.928 E.06333
G1 X21.646 Y181.642 E.55189
G1 X23.4 Y181.642 E.06333
G1 X23.4 Y196.859 E.54941
G1 X22.989 Y182.054 F9000
G1 F3000
G1 X22.989 Y196.516 E.52218
G1 X22.057 Y196.516 E.03363
G1 X22.057 Y182.054 E.52218
G1 X22.989 Y182.054 E.03363
G1 E-.8
G1 Z.6 F9000
G1 X36.931 Y196.928 Z.6
G1 Z.2
G1 E.8 F1800
G1 F3000
G1 X34.6 Y196.928 E.08417
G1 X34.6 Y181.642 E.55189
G1 X36.931 Y181.642 E.08417
G1 X36.931 Y196.859 E.54941
G1 X36.52 Y182.054 F9000
G1 F3000
G1 X36.52 Y196.516 E.52218
G1 X35.011 Y196.516 E.05446
G1 X35.011 Y182.054 E.52218
G1 X36.52 Y182.054 E.05446
G1 X36.012 Y182.562 F9000
G1 F3000
G1 X36.012 Y196.008 E.48551
G1 X35.519 Y196.008 E.01779
G1 X35.519 Y182.562 E.48551
G1 X36.012 Y182.562 E.01779
G1 E-.8
G1 Z.6 F9000
G1 X275.4 Y196.928 Z.6
M73 P0 R129
G1 Z.2
G1 E.8 F1800
G1 F3000
G1 X273.069 Y196.928 E.08417
G1 X273.069 Y181.642 E.55189
G1 X275.4 Y181.642 E.08417
G1 X275.4 Y196.859 E.54941
G1 X273.48 Y182.054 F9000
G1 F3000
G1 X274.989 Y182.054 E.05446
G1 X274.989 Y196.516 E.52218
G1 X273.48 Y196.516 E.05446
G1 X273.48 Y182.054 E.52218
G1 X273.988 Y182.562 F9000
G1 F3000
G1 X274.481 Y182.562 E.01779
G1 X274.481 Y196.008 E.48551
G1 X273.988 Y196.008 E.01779
G1 X273.988 Y182.562 E.48551
G1 E-.8
G1 Z.6 F9000
G1 X288.354 Y196.928 Z.6
G1 Z.2
G1 E.8 F1800
G1 F3000
G1 X286.6 Y196.928 E.06333
G1 X286.6 Y181.642 E.55189
G1 X288.354 Y181.642 E.06333
G1 X288.354 Y196.859 E.54941
G1 X287.011 Y182.054 F9000
G1 F3000
G1 X287.943 Y182.054 E.03363
G1 X287.943 Y196.516 E.52218
G1 X287.011 Y196.516 E.03363
G1 X287.011 Y182.054 E.52218
G1 E-.8
G1 Z.6 F9000
G1 X33.818 Y175.316 Z.6
G1 Z.2
G1 E.8 F1800
;TYPE:Outer wall
;WIDTH:0.499999
G1 F3000
G1 X33.75 Y175.479 E.00635
G1 X33.75 Y198.25 E.82219
G1 X24.25 Y198.25 E.34301
G1 X24.25 Y111.75 E3.12317
G1 X285.75 Y111.75 E9.44171
G1 X285.75 Y143.5 E1.14636
G1 X285.75 Y198.25 E1.9768
G1 X276.25 Y198.25 E.34301
G1 X276.25 Y175.479 E.82219
G1 X276.182 Y175.316 E.00635
G1 X276.021 Y175.25 E.00628
G1 X33.979 Y175.25 E8.73919
G1 X33.855 Y175.301 E.00484
G1 X33.5 Y175.009 F9000
;TYPE:Inner wall
G1 F3000
G1 X33.374 Y175.156 E.007
G1 X33.293 Y175.479 E.01201
G1 X33.293 Y197.793 E.80568
G1 X24.707 Y197.793 E.31
G1 X24.707 Y112.207 E3.09016
G1 X285.293 Y112.207 E9.4087
G1 X285.293 Y143.5 E1.12986
G1 X285.293 Y197.793 E1.9603
G1 X276.707 Y197.793 E.31
G1 X276.707 Y175.479 E.80568
G1 X276.67 Y175.256 E.00814
G1 X276.504 Y174.992 E.01127
G1 X276.285 Y174.846 E.00951
G1 X276.021 Y174.793 E.00971
G1 X33.855 Y174.804 E8.74366
G1 X33.567 Y174.93 E.01134
G1 X33.526 Y174.978 E.0023
G1 E-.8
G1 Z.6 F9000
G1 X284.221 Y112.353 Z.6
G1 Z.2
G1 E.8 F1800
;TYPE:Internal solid infill
;WIDTH:0.500656
G1 F3000
G1 X284.941 Y113.073 E.0368
G1 X284.941 Y113.72 E.02341
G1 X283.78 Y112.559 E.05938
G1 X283.132 Y112.559 E.02341
G1 X284.941 Y114.368 E.09249
G1 X284.941 Y115.015 E.02341
G1 X282.485 Y112.559 E.12559
G1 X281.838 Y112.559 E.02341
G1 X284.941 Y115.662 E.15869
G1 X284.941 Y116.31 E.02341
G1 X281.19 Y112.559 E.19179
G1 X280.543 Y112.559 E.02341
G1 X284.941 Y116.957 E.22489
G1 X284.941 Y117.604 E.02341
G1 X279.896 Y112.559 E.25799
G1 X279.248 Y112.559 E.02341
G1 X284.941 Y118.252 E.2911
G1 X284.941 Y118.899 E.02341
G1 X278.601 Y112.559 E.3242
G1 X277.954 Y112.559 E.02341
G1 X284.941 Y119.546 E.3573
G1 X284.941 Y120.194 E.02341
G1 X277.306 Y112.559 E.3904
G1 X276.659 Y112.559 E.02341
G1 X284.941 Y120.841 E.4235
G1 X284.941 Y121.488 E.02341
G1 X276.012 Y112.559 E.4566
G1 X275.364 Y112.559 E.02341
G1 X284.941 Y122.136 E.4897
G1 X284.941 Y122.783 E.02341
G1 X274.717 Y112.559 E.52281
G1 X274.07 Y112.559 E.02341
G1 X284.941 Y123.43 E.55591
G1 X284.941 Y124.078 E.02341
G1 X273.422 Y112.559 E.58901
G1 X272.775 Y112.559 E.02341
G1 X284.941 Y124.725 E.62211
G1 X284.941 Y125.372 E.02341
G1 X272.128 Y112.559 E.65521
G1 X271.48 Y112.559 E.02341
G1 X284.941 Y126.02 E.68831
G1 X284.941 Y126.667 E.02341
G1 X270.833 Y112.559 E.72141
G1 X270.186 Y112.559 E.02341
G1 X284.941 Y127.314 E.75452
G1 X284.941 Y127.962 E.02341
G1 X269.538 Y112.559 E.78762
G1 X268.891 Y112.559 E.02341
G1 X284.941 Y128.609 E.82072
G1 X284.941 Y129.256 E.02341
G1 X268.244 Y112.559 E.85382
G1 X267.596 Y112.559 E.02341
G1 X284.941 Y129.904 E.88692
G1 X284.941 Y130.551 E.02341
G1 X266.949 Y112.559 E.92002
G1 X266.302 Y112.559 E.02341
G1 X284.941 Y131.198 E.95313
G1 X284.941 Y131.846 E.02341
G1 X265.654 Y112.559 E.98623
G1 X265.007 Y112.559 E.02341
G1 X284.941 Y132.493 E1.01933
G1 X284.941 Y133.14 E.02341
G1 X264.36 Y112.559 E1.05243
G1 X263.712 Y112.559 E.02341
G1 X284.941 Y133.788 E1.08553
G1 X284.941 Y134.435 E.02341
G1 X263.065 Y112.559 E1.11863
G1 X262.418 Y112.559 E.02341
G1 X284.941 Y135.082 E1.15173
G1 X284.941 Y135.73 E.02341
G1 X261.77 Y112.559 E1.18484
G1 X261.123 Y112.559 E.02341
G1 X284.941 Y136.377 E1.21794
G1 X284.941 Y137.024 E.02341
G1 X260.476 Y112.559 E1.25104
M73 P1 R129
G1 X259.828 Y112.559 E.02341
G1 X284.941 Y137.672 E1.28414
G1 X284.941 Y138.319 E.02341
G1 X259.181 Y112.559 E1.31724
G1 X258.534 Y112.559 E.02341
G1 X284.941 Y138.966 E1.35034
G1 X284.941 Y139.614 E.02341
G1 X257.886 Y112.559 E1.38344
G1 X257.239 Y112.559 E.02341
G1 X284.941 Y140.261 E1.41655
M73 P1 R128
G1 X284.941 Y140.908 E.02341
G1 X256.592 Y112.559 E1.44965
G1 X255.944 Y112.559 E.02341
G1 X284.941 Y141.556 E1.48275
G1 X284.941 Y142.203 E.02341
G1 X255.297 Y112.559 E1.51585
G1 X254.65 Y112.559 E.02341
G1 X284.941 Y142.85 E1.54895
G1 X284.941 Y143.498 E.02341
G1 X254.002 Y112.559 E1.58205
G1 X253.355 Y112.559 E.02341
G1 X284.941 Y144.145 E1.61516
G1 X284.941 Y144.793 E.02341
G1 X252.707 Y112.559 E1.64826
G1 X252.06 Y112.559 E.02341
G1 X284.941 Y145.44 E1.68136
G1 X284.941 Y146.087 E.02341
G1 X251.413 Y112.559 E1.71446
G1 X250.765 Y112.559 E.02341
G1 X284.941 Y146.735 E1.74756
G1 X284.941 Y147.382 E.02341
G1 X250.118 Y112.559 E1.78066
G1 X249.471 Y112.559 E.02341
G1 X284.941 Y148.029 E1.81376
G1 X284.941 Y148.677 E.02341
G1 X248.823 Y112.559 E1.84687
G1 X248.176 Y112.559 E.02341
G1 X284.941 Y149.324 E1.87997
G1 X284.941 Y149.971 E.02341
G1 X247.529 Y112.559 E1.91307
G1 X246.881 Y112.559 E.02341
G1 X284.941 Y150.619 E1.94617
G1 X284.941 Y151.266 E.02341
G1 X246.234 Y112.559 E1.97927
G1 X245.587 Y112.559 E.02341
G1 X284.941 Y151.913 E2.01237
G1 X284.941 Y152.561 E.02341
G1 X244.939 Y112.559 E2.04548
G1 X244.292 Y112.559 E.02341
G1 X284.941 Y153.208 E2.07858
G1 X284.941 Y153.855 E.02341
G1 X243.645 Y112.559 E2.11168
G1 X242.997 Y112.559 E.02341
G1 X284.941 Y154.503 E2.14478
G1 X284.941 Y155.15 E.02341
G1 X242.35 Y112.559 E2.17788
G1 X241.703 Y112.559 E.02341
G1 X284.941 Y155.797 E2.21098
G1 X284.941 Y156.445 E.02341
G1 X241.055 Y112.559 E2.24408
G1 X240.408 Y112.559 E.02341
G1 X284.941 Y157.092 E2.27719
G1 X284.941 Y157.739 E.02341
G1 X239.761 Y112.559 E2.31029
G1 X239.113 Y112.559 E.02341
G1 X284.941 Y158.387 E2.34339
G1 X284.941 Y159.034 E.02341
G1 X238.466 Y112.559 E2.37649
G1 X237.819 Y112.559 E.02341
G1 X284.941 Y159.681 E2.40959
G1 X284.941 Y160.329 E.02341
G1 X237.171 Y112.559 E2.44269
G1 X236.524 Y112.559 E.02341
G1 X284.941 Y160.976 E2.47579
G1 X284.941 Y161.623 E.02341
G1 X235.877 Y112.559 E2.5089
G1 X235.229 Y112.559 E.02341
G1 X284.941 Y162.271 E2.542
G1 X284.941 Y162.918 E.02341
G1 X234.582 Y112.559 E2.5751
G1 X233.935 Y112.559 E.02341
G1 X284.941 Y163.565 E2.6082
G1 X284.941 Y164.213 E.02341
G1 X233.287 Y112.559 E2.6413
G1 X232.64 Y112.559 E.02341
G1 X284.941 Y164.86 E2.6744
G1 X284.941 Y165.507 E.02341
G1 X231.993 Y112.559 E2.70751
G1 X231.345 Y112.559 E.02341
G1 X284.941 Y166.155 E2.74061
G1 X284.941 Y166.802 E.02341
G1 X230.698 Y112.559 E2.77371
G1 X230.051 Y112.559 E.02341
G1 X284.941 Y167.449 E2.80681
G1 X284.941 Y168.097 E.02341
G1 X229.403 Y112.559 E2.83991
G1 X228.756 Y112.559 E.02341
G1 X284.941 Y168.744 E2.87301
G1 X284.941 Y169.391 E.02341
G1 X228.109 Y112.559 E2.90611
G1 X227.461 Y112.559 E.02341
G1 X284.941 Y170.039 E2.93922
G1 X284.941 Y170.686 E.02341
G1 X226.814 Y112.559 E2.97232
M73 P1 R127
G1 X226.167 Y112.559 E.02341
G1 X284.941 Y171.333 E3.00542
G1 X284.941 Y171.981 E.02341
G1 X225.519 Y112.559 E3.03852
G1 X224.872 Y112.559 E.02341
G1 X284.941 Y172.628 E3.07162
G1 X284.941 Y173.275 E.02341
G1 X224.225 Y112.559 E3.10472
G1 X223.577 Y112.559 E.02341
G1 X284.941 Y173.923 E3.13782
G1 X284.941 Y174.57 E.02341
G1 X222.93 Y112.559 E3.17093
G1 X222.283 Y112.559 E.02341
G1 X284.941 Y175.217 E3.20403
G1 X284.941 Y175.865 E.02341
G1 X221.635 Y112.559 E3.23713
M73 P2 R127
G1 X220.988 Y112.559 E.02341
G1 X284.941 Y176.512 E3.27023
G1 X284.941 Y177.159 E.02341
G1 X220.341 Y112.559 E3.30333
G1 X219.693 Y112.559 E.02341
G1 X284.941 Y177.807 E3.33643
G1 X284.941 Y178.454 E.02341
G1 X219.046 Y112.559 E3.36954
G1 X218.399 Y112.559 E.02341
G1 X284.941 Y179.101 E3.40264
G1 X284.941 Y179.749 E.02341
G1 X217.751 Y112.559 E3.43574
G1 X217.104 Y112.559 E.02341
G1 X284.941 Y180.396 E3.46884
G1 X284.941 Y181.043 E.02341
G1 X216.457 Y112.559 E3.50194
G1 X215.809 Y112.559 E.02341
G1 X284.941 Y181.691 E3.53504
G1 X284.941 Y182.338 E.02341
G1 X215.162 Y112.559 E3.56814
G1 X214.515 Y112.559 E.02341
G1 X284.941 Y182.985 E3.60125
G1 X284.941 Y183.633 E.02341
G1 X277.059 Y175.751 E.40304
G1 X277.059 Y176.398 E.02341
G1 X284.941 Y184.28 E.40304
G1 X284.941 Y184.927 E.02341
G1 X277.059 Y177.045 E.40304
G1 X277.059 Y177.693 E.02341
G1 X284.941 Y185.575 E.40304
G1 X284.941 Y186.222 E.02341
G1 X277.059 Y178.34 E.40304
G1 X277.059 Y178.987 E.02341
G1 X284.941 Y186.869 E.40304
G1 X284.941 Y187.517 E.02341
G1 X277.059 Y179.635 E.40304
G1 X277.059 Y180.282 E.02341
G1 X284.941 Y188.164 E.40304
G1 X284.941 Y188.811 E.02341
G1 X277.059 Y180.929 E.40304
G1 X277.059 Y181.577 E.02341
G1 X284.941 Y189.459 E.40304
G1 X284.941 Y190.106 E.02341
G1 X277.059 Y182.224 E.40304
G1 X277.059 Y182.871 E.02341
G1 X284.941 Y190.753 E.40304
G1 X284.941 Y191.401 E.02341
G1 X277.059 Y183.519 E.40304
G1 X277.059 Y184.166 E.02341
G1 X284.941 Y192.048 E.40304
G1 X284.941 Y192.695 E.02341
G1 X277.059 Y184.813 E.40304
G1 X277.059 Y185.461 E.02341
G1 X284.941 Y193.343 E.40304
G1 X284.941 Y193.99 E.02341
G1 X277.059 Y186.108 E.40304
G1 X277.059 Y186.755 E.02341
G1 X284.941 Y194.637 E.40304
G1 X284.941 Y195.285 E.02341
G1 X277.059 Y187.403 E.40304
G1 X277.059 Y188.05 E.02341
G1 X284.941 Y195.932 E.40304
G1 X284.941 Y196.579 E.02341
G1 X277.059 Y188.697 E.40304
G1 X277.059 Y189.345 E.02341
G1 X284.941 Y197.227 E.40304
G1 X284.941 Y197.441 E.00775
G1 X284.508 Y197.441 E.01566
G1 X277.059 Y189.992 E.3809
G1 X277.059 Y190.639 E.02341
G1 X283.861 Y197.441 E.3478
G1 X283.213 Y197.441 E.02341
G1 X277.059 Y191.287 E.31469
G1 X277.059 Y191.934 E.02341
G1 X282.566 Y197.441 E.28159
G1 X281.919 Y197.441 E.02341
G1 X277.059 Y192.581 E.24849
G1 X277.059 Y193.229 E.02341
G1 X281.271 Y197.441 E.21539
G1 X280.624 Y197.441 E.02341
G1 X277.059 Y193.876 E.18229
G1 X277.059 Y194.523 E.02341
G1 X279.977 Y197.441 E.14919
G1 X279.329 Y197.441 E.02341
G1 X277.059 Y195.171 E.11608
G1 X277.059 Y195.818 E.02341
G1 X278.682 Y197.441 E.08298
G1 X278.035 Y197.441 E.02341
G1 X277.059 Y196.465 E.04988
G1 X277.059 Y197.113 E.02341
G1 X277.593 Y197.647 E.0273
G1 E-.8
G1 Z.6 F9000
G1 X275.955 Y174.647 Z.6
G1 Z.2
G1 E.8 F1800
G1 F3000
G1 X213.867 Y112.559 E3.17485
G1 X213.22 Y112.559 E.02341
G1 X275.102 Y174.441 E3.16433
G1 X274.455 Y174.441 E.02341
G1 X212.573 Y112.559 E3.16433
G1 X211.925 Y112.559 E.02341
G1 X273.807 Y174.441 E3.16433
G1 X273.16 Y174.441 E.02341
G1 X211.278 Y112.559 E3.16433
G1 X210.631 Y112.559 E.02341
G1 X272.513 Y174.441 E3.16433
G1 X271.865 Y174.441 E.02341
G1 X209.983 Y112.559 E3.16433
G1 X209.336 Y112.559 E.02341
G1 X271.218 Y174.441 E3.16433
G1 X270.571 Y174.441 E.02341
G1 X208.689 Y112.559 E3.16433
M73 P2 R126
G1 X208.041 Y112.559 E.02341
G1 X269.923 Y174.441 E3.16433
G1 X269.276 Y174.441 E.02341
G1 X207.394 Y112.559 E3.16433
G1 X206.747 Y112.559 E.02341
G1 X268.629 Y174.441 E3.16434
G1 X267.981 Y174.441 E.02341
G1 X206.099 Y112.559 E3.16434
G1 X205.452 Y112.559 E.02341
G1 X267.334 Y174.441 E3.16434
G1 X266.687 Y174.441 E.02341
G1 X204.805 Y112.559 E3.16434
G1 X204.157 Y112.559 E.02341
G1 X266.039 Y174.441 E3.16434
G1 X265.392 Y174.441 E.02341
G1 X203.51 Y112.559 E3.16434
G1 X202.863 Y112.559 E.02341
G1 X264.745 Y174.441 E3.16434
G1 X264.097 Y174.441 E.02341
G1 X202.215 Y112.559 E3.16434
G1 X201.568 Y112.559 E.02341
G1 X263.45 Y174.441 E3.16434
G1 X262.803 Y174.441 E.02341
G1 X200.921 Y112.559 E3.16434
G1 X200.273 Y112.559 E.02341
G1 X262.155 Y174.441 E3.16434
G1 X261.508 Y174.441 E.02341
G1 X199.626 Y112.559 E3.16434
G1 X198.979 Y112.559 E.02341
G1 X260.861 Y174.441 E3.16434
G1 X260.213 Y174.441 E.02341
G1 X198.331 Y112.559 E3.16434
G1 X197.684 Y112.559 E.02341
G1 X259.566 Y174.441 E3.16434
G1 X258.919 Y174.441 E.02341
G1 X197.037 Y112.559 E3.16434
M73 P3 R126
G1 X196.389 Y112.559 E.02341
G1 X258.271 Y174.441 E3.16434
G1 X257.624 Y174.441 E.02341
G1 X195.742 Y112.559 E3.16434
G1 X195.095 Y112.559 E.02341
G1 X256.977 Y174.441 E3.16434
G1 X256.329 Y174.441 E.02341
G1 X194.447 Y112.559 E3.16434
G1 X193.8 Y112.559 E.02341
G1 X255.682 Y174.441 E3.16434
G1 X255.035 Y174.441 E.02341
G1 X193.153 Y112.559 E3.16435
G1 X192.505 Y112.559 E.02341
G1 X254.387 Y174.441 E3.16435
G1 X253.74 Y174.441 E.02341
G1 X191.858 Y112.559 E3.16435
G1 X191.211 Y112.559 E.02341
G1 X253.093 Y174.441 E3.16435
G1 X252.445 Y174.441 E.02341
G1 X190.563 Y112.559 E3.16435
G1 X189.916 Y112.559 E.02341
G1 X251.798 Y174.441 E3.16435
G1 X251.151 Y174.441 E.02341
G1 X189.269 Y112.559 E3.16435
G1 X188.621 Y112.559 E.02341
G1 X250.504 Y174.441 E3.16435
G1 X249.856 Y174.441 E.02341
G1 X187.974 Y112.559 E3.16435
G1 X187.327 Y112.559 E.02341
G1 X249.209 Y174.441 E3.16435
M73 P3 R125
G1 X248.562 Y174.441 E.02341
G1 X186.679 Y112.559 E3.16435
G1 X186.032 Y112.559 E.02341
G1 X247.914 Y174.441 E3.16435
G1 X247.267 Y174.441 E.02341
G1 X185.385 Y112.559 E3.16435
G1 X184.737 Y112.559 E.02341
G1 X246.62 Y174.441 E3.16435
G1 X245.972 Y174.441 E.02341
G1 X184.09 Y112.559 E3.16435
G1 X183.442 Y112.559 E.02341
G1 X245.325 Y174.441 E3.16435
G1 X244.678 Y174.441 E.02341
G1 X182.795 Y112.559 E3.16435
G1 X182.148 Y112.559 E.02341
G1 X244.03 Y174.441 E3.16435
G1 X243.383 Y174.441 E.02341
G1 X181.5 Y112.559 E3.16435
G1 X180.853 Y112.559 E.02341
G1 X242.736 Y174.441 E3.16435
G1 X242.088 Y174.441 E.02341
G1 X180.206 Y112.559 E3.16435
