; HEADER_BLOCK_START
; generated by OrcaSlicer 1.6.4-beta3 on 2023-08-21 at 15:38:13
; total layer number: 204
; HEADER_BLOCK_END

; THUMBNAIL_BLOCK_START
; THUMBNAIL_BLOCK_END

; external perimeters extrusion width = 0.40mm
; perimeters extrusion width = 0.45mm
; infill extrusion width = 0.45mm
; solid infill extrusion width = 0.40mm
; top infill extrusion width = 0.40mm
; support material extrusion width = 0.40mm
; first layer extrusion width = 0.50mm

; EXECUTABLE_BLOCK_START
EXCLUDE_OBJECT_DEFINE NAME=hook2.stl_id_0_copy_0 CENTER=155,155 POLYGON=[[31.6099,93.1282],[93.1282,31.6099],[278.39,216.872],[216.872,278.39],[31.6099,93.1282]]
M73 P0 R133
;TYPE:Custom
START_PRINT T_BED=70 T_EXTRUDER=235
G90
G21
M83 ; use relative distances for extrusion
; Filament gcode
PRESSURE_ADVANCE_SELECT FILAMENT=PETG
M106 S0
;LAYER_CHANGE
;Z:0.2
;HEIGHT:0.2
;BEFORE_LAYER_CHANGE
;0.2
G92 E0

SET_VELOCITY_LIMIT ACCEL=1500 ACCEL_TO_DECEL=750
G1 E-.8 F3000
G1 Z.4 F9000
G1 X54.425 Y62.207
G1 Z.4
G1 Z.2
G1 E.8 F1800
;TYPE:Skirt
;WIDTH:0.5
G1 F3000
G1 X91.51 Y29.761 E1.77914
G1 X92.77 Y29.179 E.0501
G1 X94.144 Y29.373 E.0501
G1 X94.866 Y29.872 E.03168
G1 X280.128 Y215.134 E9.45977
G1 X280.792 Y216.353 E.0501
G1 X280.69 Y217.737 E.0501
G1 X280.239 Y218.49 E.03168
G1 X230.205 Y275.686 E2.74381
G1 X227.236 Y278.663 E.1518
G1 X225.91 Y279.348 E.05389
G1 X217.283 Y280.813 E.31593
G1 X215.905 Y280.649 E.0501
G1 X215.134 Y280.128 E.0336
M73 P0 R132
G1 X29.872 Y94.866 E9.45977
G1 X29.208 Y93.647 E.0501
G1 X29.187 Y92.717 E.0336
G1 X30.652 Y84.09 E.31592
G1 X31.337 Y82.764 E.05389
G1 X34.194 Y79.907 E.14589
G1 X54.395 Y62.233 E.96913
; printing object hook2.stl id:0 copy 0
G1 E-.8
EXCLUDE_OBJECT_START NAME=hook2.stl_id_0_copy_0
G1 Z.6 F9000
G1 X51.217 Y96.93 Z.6
G1 Z.2
G1 E.8 F1800
;TYPE:Support
G1 F3000
G1 X48.359 Y96.93 E.10316
G1 X48.359 Y99.787 E.10316
G1 X39.942 Y99.787 E.30393
G1 X51.217 Y88.512 E.5757
G1 X51.217 Y96.861 E.30145
G1 X50.805 Y96.518 F9000
G1 F3000
G1 X47.948 Y96.518 E.10316
G1 X47.948 Y99.375 E.10316
G1 X40.935 Y99.375 E.25322
G1 X50.805 Y89.505 E.50399
G1 X50.805 Y96.518 E.25322
G1 X50.297 Y96.011 F9000
G1 F3000
G1 X47.44 Y96.011 E.10316
G1 X47.44 Y98.868 E.10316
G1 X42.161 Y98.868 E.19061
G1 X50.297 Y90.731 E.41545
G1 X50.297 Y96.011 E.19061
G1 X49.789 Y95.503 F9000
G1 F3000
G1 X46.932 Y95.503 E.10316
G1 X46.932 Y98.36 E.10316
G1 X43.387 Y98.36 E.128
G1 X49.789 Y91.957 E.32691
G1 X49.789 Y95.503 E.128
G1 X46.424 Y96.041 F9000
G1 F3000
G1 X46.424 Y97.852 E.0654
G1 X44.613 Y97.852 E.0654
G1 X46.424 Y96.041 E.09248
G1 X47.47 Y94.995 F9000
G1 F3000
G1 X49.282 Y93.184 E.09248
G1 X49.282 Y94.995 E.0654
G1 X47.47 Y94.995 E.0654
G1 E-.8
G1 Z.6 F9000
G1 X33.074 Y90.815 Z.6
G1 Z.2
G1 E.8 F1800
G1 F3000
G1 X33.074 Y84.502 E.22796
G1 X35.931 Y84.502 E.10316
G1 X35.931 Y81.645 E.10316
G1 X42.245 Y81.645 E.22796
G1 X33.123 Y90.767 E.46579
G1 X41.252 Y82.056 F9000
G1 F3000
G1 X33.486 Y89.822 E.39655
G1 X33.486 Y84.913 E.17725
G1 X36.343 Y84.913 E.10316
G1 X36.343 Y82.056 E.10316
G1 X41.252 Y82.056 E.17725
G1 X40.026 Y82.564 F9000
G1 F3000
G1 X33.993 Y88.596 E.30801
G1 X33.993 Y85.421 E.11464
G1 X36.851 Y85.421 E.10316
G1 X36.851 Y82.564 E.10316
G1 X40.026 Y82.564 E.11464
G1 X35.943 Y85.929 F9000
G1 F3000
G1 X34.501 Y87.37 E.07359
G1 X34.501 Y85.929 E.05204
G1 X35.943 Y85.929 E.05204
G1 X37.358 Y84.513 F9000
G1 F3000
G1 X37.358 Y83.072 E.05204
G1 X38.8 Y83.072 E.05204
G1 X37.358 Y84.513 E.07359
G1 E-.8
G1 Z.6 F9000
G1 X210.213 Y270.058 Z.6
G1 Z.2
G1 E.8 F1800
G1 F3000
G1 X210.213 Y261.641 E.30392
G1 X213.07 Y261.641 E.10316
G1 X213.07 Y258.784 E.10316
G1 X221.488 Y258.784 E.30392
G1 X210.262 Y270.01 E.57322
G1 X213.482 Y259.195 F9000
G1 F3000
G1 X220.495 Y259.195 E.25321
G1 X210.625 Y269.065 E.50398
G1 X210.625 Y262.052 E.25321
G1 X213.482 Y262.052 E.10316
G1 X213.482 Y259.195 E.10316
G1 X213.989 Y259.703 F9000
G1 F3000
G1 X219.269 Y259.703 E.19061
G1 X211.132 Y267.839 E.41544
G1 X211.132 Y262.56 E.19061
G1 X213.989 Y262.56 E.10316
G1 X213.989 Y259.703 E.10316
G1 X214.497 Y260.211 F9000
G1 F3000
G1 X218.042 Y260.211 E.128
G1 X211.64 Y266.613 E.32691
G1 X211.64 Y263.068 E.128
G1 X214.497 Y263.068 E.10316
G1 X214.497 Y260.211 E.10316
G1 X213.959 Y263.576 F9000
G1 F3000
G1 X212.148 Y265.387 E.09248
G1 X212.148 Y263.576 E.06539
G1 X213.959 Y263.576 E.06539
G1 X215.005 Y262.53 F9000
G1 F3000
G1 X215.005 Y260.718 E.06539
G1 X216.816 Y260.718 E.06539
G1 X215.005 Y262.53 E.09248
G1 E-.8
G1 Z.6 F9000
G1 X228.355 Y274.069 Z.6
G1 Z.2
G1 E.8 F1800
G1 F3000
G1 X225.498 Y274.069 E.10316
G1 X225.498 Y276.926 E.10316
G1 X219.185 Y276.926 E.22796
G1 X228.355 Y267.755 E.46827
G1 X228.355 Y274 E.22549
G1 X227.944 Y268.748 F9000
G1 F3000
G1 X227.944 Y273.657 E.17725
G1 X225.087 Y273.657 E.10316
G1 X225.087 Y276.514 E.10316
G1 X220.178 Y276.514 E.17725
G1 X227.944 Y268.748 E.39656
G1 X227.436 Y269.974 F9000
G1 F3000
G1 X227.436 Y273.149 E.11464
G1 X224.579 Y273.149 E.10316
G1 X224.579 Y276.007 E.10316
G1 X221.404 Y276.007 E.11464
G1 X227.436 Y269.974 E.30802
G1 X224.071 Y274.057 F9000
G1 F3000
G1 X224.071 Y275.499 E.05204
G1 X222.63 Y275.499 E.05204
G1 X224.071 Y274.057 E.07359
G1 X225.487 Y272.642 F9000
G1 F3000
G1 X226.928 Y271.2 E.07359
G1 X226.928 Y272.642 E.05204
G1 X225.487 Y272.642 E.05204
G1 E-.8
G1 Z.6 F9000
G1 X55.106 Y83.744 Z.6
G1 Z.2
G1 E.8 F1800
;TYPE:Outer wall
;WIDTH:0.499999
G1 F3000
G1 X54.945 Y83.677 E.00628
G1 X54.783 Y83.744 E.00635
G1 X38.681 Y99.846 E.82219
G1 X31.963 Y93.128 E.34301
G1 X93.128 Y31.963 E3.12317
G1 X278.037 Y216.872 E9.44171
G1 X216.872 Y278.037 E3.12317
G1 X210.154 Y271.319 E.34301
G1 X226.256 Y255.217 E.82219
G1 X226.323 Y255.055 E.00635
G1 X226.256 Y254.894 E.00628
G1 X55.134 Y83.772 E8.73775
G1 X55.398 Y83.405 F9000
;TYPE:Inner wall
G1 F3000
G1 X55.334 Y83.341 E.00326
G1 X55.041 Y83.227 E.01134
G1 X54.745 Y83.25 E.01074
G1 X54.46 Y83.421 E.01201
G1 X38.681 Y99.199 E.80568
G1 X32.61 Y93.128 E.31
G1 X93.128 Y32.61 E3.09016
G1 X277.39 Y216.872 E9.4087
G1 X216.872 Y277.39 E3.09016
G1 X210.801 Y271.319 E.31
G1 X226.579 Y255.54 E.80568
G1 X226.71 Y255.357 E.00814
G1 X226.78 Y255.053 E.01127
G1 X226.729 Y254.795 E.00951
G1 X226.579 Y254.571 E.00971
G1 X55.426 Y83.433 E8.73895
G1 E-.8
G1 Z.6 F9000
G1 X92.982 Y32.963 Z.6
G1 Z.2
G1 E.8 F1800
;TYPE:Internal solid infill
;WIDTH:0.501732
G1 F3000
G1 X276.892 Y216.872 E9.42632
M73 P0 R131
G1 X276.567 Y217.197 E.01663
G1 X92.803 Y33.433 E9.41886
G1 X92.479 Y33.757 E.01663
G1 X276.243 Y217.521 E9.41886
M73 P1 R131
G1 X275.919 Y217.846 E.01663
G1 X92.154 Y34.081 E9.41886
G1 X91.83 Y34.406 E.01663
G1 X275.594 Y218.17 E9.41886
G1 X275.27 Y218.495 E.01663
G1 X91.505 Y34.73 E9.41886
G1 X91.181 Y35.055 E.01663
G1 X274.945 Y218.819 E9.41886
G1 X274.621 Y219.143 E.01663
G1 X90.857 Y35.379 E9.41886
G1 X90.532 Y35.704 E.01663
G1 X274.296 Y219.468 E9.41886
G1 X273.972 Y219.792 E.01663
G1 X90.208 Y36.028 E9.41886
G1 X89.883 Y36.352 E.01663
G1 X273.648 Y220.117 E9.41886
G1 X273.323 Y220.441 E.01663
G1 X89.559 Y36.677 E9.41886
G1 X89.234 Y37.001 E.01663
G1 X272.999 Y220.766 E9.41886
M73 P1 R130
G1 X272.674 Y221.09 E.01663
G1 X88.91 Y37.326 E9.41886
G1 X88.586 Y37.65 E.01663
G1 X272.35 Y221.414 E9.41886
G1 X272.025 Y221.739 E.01663
G1 X88.261 Y37.975 E9.41886
G1 X87.937 Y38.299 E.01663
G1 X271.701 Y222.063 E9.41886
G1 X271.377 Y222.388 E.01663
G1 X87.612 Y38.623 E9.41886
M73 P2 R130
G1 X87.288 Y38.948 E.01663
G1 X271.052 Y222.712 E9.41886
G1 X270.728 Y223.037 E.01663
G1 X86.963 Y39.272 E9.41886
G1 X86.639 Y39.597 E.01663
G1 X270.403 Y223.361 E9.41886
G1 X270.079 Y223.686 E.01663
G1 X86.315 Y39.921 E9.41886
G1 X85.99 Y40.246 E.01663
G1 X269.754 Y224.01 E9.41886
G1 X269.43 Y224.334 E.01663
G1 X85.666 Y40.57 E9.41886
M73 P2 R129
G1 X85.341 Y40.894 E.01663
G1 X269.106 Y224.659 E9.41886
G1 X268.781 Y224.983 E.01663
G1 X85.017 Y41.219 E9.41886
G1 X84.692 Y41.543 E.01663
G1 X268.457 Y225.308 E9.41886
G1 X268.132 Y225.632 E.01663
G1 X84.368 Y41.868 E9.41886
G1 X84.043 Y42.192 E.01663
G1 X267.808 Y225.957 E9.41886
G1 X267.483 Y226.281 E.01663
G1 X83.719 Y42.517 E9.41886
G1 X83.395 Y42.841 E.01663
G1 X267.159 Y226.605 E9.41886
G1 X266.834 Y226.93 E.01663
G1 X83.07 Y43.166 E9.41886
G1 X82.746 Y43.49 E.01663
G1 X266.51 Y227.254 E9.41886
G1 X266.186 Y227.579 E.01663
G1 X82.421 Y43.814 E9.41886
M73 P3 R129
G1 X82.097 Y44.139 E.01663
G1 X265.861 Y227.903 E9.41886
M73 P3 R128
G1 X265.537 Y228.228 E.01663
G1 X81.772 Y44.463 E9.41886
G1 X81.448 Y44.788 E.01663
G1 X265.212 Y228.552 E9.41886
G1 X264.888 Y228.876 E.01663
G1 X81.124 Y45.112 E9.41886
G1 X80.799 Y45.437 E.01663
G1 X264.563 Y229.201 E9.41886
G1 X264.239 Y229.525 E.01663
G1 X80.475 Y45.761 E9.41886
G1 X80.15 Y46.085 E.01663
G1 X263.915 Y229.85 E9.41886
G1 X263.59 Y230.174 E.01663
G1 X79.826 Y46.41 E9.41886
G1 X79.501 Y46.734 E.01663
G1 X263.266 Y230.499 E9.41886
G1 X262.941 Y230.823 E.01663
G1 X79.177 Y47.059 E9.41886
G1 X78.853 Y47.383 E.01663
G1 X262.617 Y231.147 E9.41886
G1 X262.292 Y231.472 E.01663
G1 X78.528 Y47.708 E9.41886
G1 X78.204 Y48.032 E.01663
G1 X261.968 Y231.796 E9.41886
M73 P3 R127
G1 X261.644 Y232.121 E.01663
G1 X77.879 Y48.356 E9.41886
G1 X77.555 Y48.681 E.01663
G1 X261.319 Y232.445 E9.41886
M73 P4 R127
G1 X260.995 Y232.77 E.01663
G1 X77.23 Y49.005 E9.41886
G1 X76.906 Y49.33 E.01663
G1 X260.67 Y233.094 E9.41886
G1 X260.346 Y233.418 E.01663
G1 X76.582 Y49.654 E9.41886
G1 X76.257 Y49.979 E.01663
G1 X260.021 Y233.743 E9.41886
G1 X259.697 Y234.067 E.01663
G1 X75.933 Y50.303 E9.41886
G1 X75.608 Y50.627 E.01663
G1 X259.373 Y234.392 E9.41886
G1 X259.048 Y234.716 E.01663
G1 X75.284 Y50.952 E9.41886
G1 X74.959 Y51.276 E.01663
G1 X258.724 Y235.041 E9.41886
G1 X258.399 Y235.365 E.01663
G1 X74.635 Y51.601 E9.41886
M73 P4 R126
G1 X74.311 Y51.925 E.01663
G1 X258.075 Y235.689 E9.41886
G1 X257.75 Y236.014 E.01663
G1 X73.986 Y52.25 E9.41886
G1 X73.662 Y52.574 E.01663
G1 X257.426 Y236.338 E9.41886
G1 X257.102 Y236.663 E.01663
G1 X73.337 Y52.898 E9.41886
G1 X73.013 Y53.223 E.01663
G1 X256.777 Y236.987 E9.41886
G1 X256.453 Y237.312 E.01663
G1 X72.688 Y53.547 E9.41886
M73 P5 R126
G1 X72.364 Y53.872 E.01663
G1 X256.128 Y237.636 E9.41886
G1 X255.804 Y237.96 E.01663
G1 X72.04 Y54.196 E9.41886
G1 X71.715 Y54.521 E.01663
G1 X255.479 Y238.285 E9.41886
G1 X255.155 Y238.609 E.01663
G1 X71.391 Y54.845 E9.41886
G1 X71.066 Y55.169 E.01663
G1 X254.831 Y238.934 E9.41886
G1 X254.506 Y239.258 E.01663
G1 X70.742 Y55.494 E9.41886
M73 P5 R125
G1 X70.417 Y55.818 E.01663
G1 X254.182 Y239.583 E9.41886
G1 X253.857 Y239.907 E.01663
G1 X70.093 Y56.143 E9.41886
G1 X69.769 Y56.467 E.01663
G1 X253.533 Y240.231 E9.41886
G1 X253.208 Y240.556 E.01663
G1 X69.444 Y56.792 E9.41886
G1 X69.12 Y57.116 E.01663
G1 X252.884 Y240.88 E9.41886
G1 X252.56 Y241.205 E.01663
G1 X68.795 Y57.44 E9.41886
G1 X68.471 Y57.765 E.01663
G1 X252.235 Y241.529 E9.41886
G1 X251.911 Y241.854 E.01663
G1 X68.146 Y58.089 E9.41886
G1 X67.822 Y58.414 E.01663
G1 X251.586 Y242.178 E9.41886
M73 P6 R125
G1 X251.262 Y242.502 E.01663
G1 X67.498 Y58.738 E9.41886
G1 X67.173 Y59.063 E.01663
G1 X250.937 Y242.827 E9.41886
M73 P6 R124
G1 X250.613 Y243.151 E.01663
G1 X66.849 Y59.387 E9.41886
G1 X66.524 Y59.711 E.01663
G1 X250.289 Y243.476 E9.41886
G1 X249.964 Y243.8 E.01663
G1 X66.2 Y60.036 E9.41886
G1 X65.875 Y60.36 E.01663
G1 X249.64 Y244.125 E9.41886
G1 X249.315 Y244.449 E.01663
G1 X65.551 Y60.685 E9.41886
G1 X65.227 Y61.009 E.01663
G1 X248.991 Y244.773 E9.41886
G1 X248.666 Y245.098 E.01663
G1 X64.902 Y61.334 E9.41886
G1 X64.578 Y61.658 E.01663
G1 X248.342 Y245.422 E9.41886
G1 X248.018 Y245.747 E.01663
G1 X64.253 Y61.982 E9.41886
G1 X63.929 Y62.307 E.01663
G1 X247.693 Y246.071 E9.41886
G1 X247.369 Y246.396 E.01663
G1 X63.604 Y62.631 E9.41886
G1 X63.28 Y62.956 E.01663
G1 X247.044 Y246.72 E9.41886
M73 P6 R123
G1 X246.72 Y247.044 E.01663
G1 X62.956 Y63.28 E9.41886
M73 P7 R123
G1 X62.631 Y63.605 E.01663
G1 X246.395 Y247.369 E9.41886
G1 X246.071 Y247.693 E.01663
G1 X62.307 Y63.929 E9.41886
G1 X61.982 Y64.253 E.01663
G1 X245.747 Y248.018 E9.41886
G1 X245.422 Y248.342 E.01663
G1 X61.658 Y64.578 E9.41886
G1 X61.333 Y64.902 E.01663
G1 X245.098 Y248.667 E9.41886
G1 X244.773 Y248.991 E.01663
G1 X61.009 Y65.227 E9.41886
G1 X60.685 Y65.551 E.01663
G1 X244.449 Y249.315 E9.41886
G1 X244.124 Y249.64 E.01663
G1 X60.36 Y65.876 E9.41886
G1 X60.036 Y66.2 E.01663
G1 X243.8 Y249.964 E9.41886
G1 X243.476 Y250.289 E.01663
G1 X59.711 Y66.524 E9.41886
M73 P7 R122
G1 X59.387 Y66.849 E.01663
G1 X243.151 Y250.613 E9.41886
G1 X242.827 Y250.938 E.01663
G1 X59.062 Y67.173 E9.41886
G1 X58.738 Y67.498 E.01663
G1 X242.502 Y251.262 E9.41886
G1 X242.178 Y251.586 E.01663
G1 X58.414 Y67.822 E9.41886
G1 X58.089 Y68.147 E.01663
G1 X241.853 Y251.911 E9.41886
G1 X241.529 Y252.235 E.01663
G1 X57.765 Y68.471 E9.41886
M73 P8 R122
G1 X57.44 Y68.795 E.01663
G1 X241.205 Y252.56 E9.41886
G1 X240.88 Y252.884 E.01663
G1 X57.116 Y69.12 E9.41886
G1 X56.791 Y69.444 E.01663
G1 X240.556 Y253.209 E9.41886
G1 X240.231 Y253.533 E.01663
G1 X56.467 Y69.769 E9.41886
G1 X56.143 Y70.093 E.01663
G1 X239.907 Y253.857 E9.41886
M73 P8 R121
G1 X239.582 Y254.182 E.01663
G1 X55.818 Y70.418 E9.41886
G1 X55.494 Y70.742 E.01663
G1 X239.258 Y254.506 E9.41886
G1 X238.934 Y254.831 E.01663
G1 X55.169 Y71.066 E9.41886
G1 X54.845 Y71.391 E.01663
G1 X238.609 Y255.155 E9.41886
G1 X238.285 Y255.48 E.01663
G1 X54.52 Y71.715 E9.41886
G1 X54.196 Y72.04 E.01663
G1 X237.96 Y255.804 E9.41886
G1 X237.636 Y256.128 E.01663
G1 X53.872 Y72.364 E9.41886
G1 X53.547 Y72.689 E.01663
G1 X237.311 Y256.453 E9.41886
G1 X236.987 Y256.777 E.01663
G1 X53.223 Y73.013 E9.41886
G1 X52.898 Y73.337 E.01663
G1 X236.663 Y257.102 E9.41886
M73 P9 R121
G1 X236.338 Y257.426 E.01663
G1 X52.574 Y73.662 E9.41886
G1 X52.249 Y73.986 E.01663
G1 X236.014 Y257.751 E9.41886
M73 P9 R120
G1 X235.689 Y258.075 E.01663
G1 X51.925 Y74.311 E9.41886
G1 X51.601 Y74.635 E.01663
G1 X235.365 Y258.399 E9.41886
G1 X235.04 Y258.724 E.01663
G1 X51.276 Y74.96 E9.41886
G1 X50.952 Y75.284 E.01663
G1 X234.716 Y259.048 E9.41886
G1 X234.392 Y259.373 E.01663
G1 X50.627 Y75.608 E9.41886
G1 X50.303 Y75.933 E.01663
G1 X234.067 Y259.697 E9.41886
G1 X233.743 Y260.022 E.01663
G1 X49.978 Y76.257 E9.41886
G1 X49.654 Y76.582 E.01663
G1 X233.418 Y260.346 E9.41886
G1 X233.094 Y260.67 E.01663
G1 X49.33 Y76.906 E9.41886
G1 X49.005 Y77.231 E.01663
G1 X54.68 Y82.906 E.29089
G1 X54.488 Y82.973 E.00739
G1 X54.257 Y83.132 E.01014
G1 X48.681 Y77.555 E.28583
G1 X48.356 Y77.879 E.01663
G1 X53.93 Y83.453 E.28566
G1 X53.605 Y83.777 E.01663
G1 X48.032 Y78.204 E.28566
G1 X47.707 Y78.528 E.01663
G1 X53.281 Y84.102 E.28566
G1 X52.956 Y84.426 E.01663
G1 X47.383 Y78.853 E.28566
G1 X47.059 Y79.177 E.01663
G1 X52.632 Y84.751 E.28566
G1 X52.308 Y85.075 E.01663
G1 X46.734 Y79.502 E.28566
G1 X46.41 Y79.826 E.01663
G1 X51.983 Y85.399 E.28566
G1 X51.659 Y85.724 E.01663
G1 X46.085 Y80.15 E.28566
G1 X45.761 Y80.475 E.01663
G1 X51.334 Y86.048 E.28566
G1 X51.01 Y86.373 E.01663
G1 X45.436 Y80.799 E.28566
G1 X45.112 Y81.124 E.01663
G1 X50.685 Y86.697 E.28566
G1 X50.361 Y87.022 E.01663
G1 X44.788 Y81.448 E.28566
G1 X44.463 Y81.773 E.01663
G1 X50.037 Y87.346 E.28566
G1 X49.712 Y87.67 E.01663
G1 X44.139 Y82.097 E.28566
G1 X43.814 Y82.421 E.01663
G1 X49.388 Y87.995 E.28566
G1 X49.063 Y88.319 E.01663
G1 X43.49 Y82.746 E.28566
G1 X43.165 Y83.07 E.01663
G1 X48.739 Y88.644 E.28566
G1 X48.414 Y88.968 E.01663
G1 X42.841 Y83.395 E.28566
G1 X42.517 Y83.719 E.01663
G1 X48.09 Y89.293 E.28566
G1 X47.766 Y89.617 E.01663
G1 X42.192 Y84.044 E.28566
G1 X41.868 Y84.368 E.01663
G1 X47.441 Y89.941 E.28566
G1 X47.117 Y90.266 E.01663
G1 X41.543 Y84.692 E.28566
G1 X41.219 Y85.017 E.01663
G1 X46.792 Y90.59 E.28566
G1 X46.468 Y90.915 E.01663
G1 X40.894 Y85.341 E.28566
G1 X40.57 Y85.666 E.01663
G1 X46.143 Y91.239 E.28566
G1 X45.819 Y91.564 E.01663
G1 X40.246 Y85.99 E.28566
G1 X39.921 Y86.315 E.01663
G1 X45.495 Y91.888 E.28566
G1 X45.17 Y92.212 E.01663
G1 X39.597 Y86.639 E.28566
G1 X39.272 Y86.963 E.01663
G1 X44.846 Y92.537 E.28566
G1 X44.521 Y92.861 E.01663
G1 X38.948 Y87.288 E.28566
G1 X38.623 Y87.612 E.01663
