; HEADER_BLOCK_START
; generated by OrcaSlicer 1.6.4-beta3 on 2023-08-20 at 14:07:19
; total layer number: 188
; HEADER_BLOCK_END

; THUMBNAIL_BLOCK_START
; THUMBNAIL_BLOCK_END

; external perimeters extrusion width = 0.40mm
; perimeters extrusion width = 0.45mm
; infill extrusion width = 0.45mm
; solid infill extrusion width = 0.40mm
; top infill extrusion width = 0.40mm
; support material extrusion width = 0.40mm
; first layer extrusion width = 0.50mm

; EXECUTABLE_BLOCK_START
EXCLUDE_OBJECT_DEFINE NAME=hook.stl_id_0_copy_0 CENTER=155,155 POLYGON=[[80,110],[230,110],[230,200],[220,200],[80,177],[80,110]]
M73 P0 R92
;TYPE:Custom
START_PRINT T_BED=60 T_EXTRUDER=220
G90
G21
M83 ; use relative distances for extrusion
; filament start gcode
PRESSURE_ADVANCE_SELECT FILAMENT=PLA
M106 S0
;LAYER_CHANGE
;Z:0.2
;HEIGHT:0.2
;BEFORE_LAYER_CHANGE
;0.2
G92 E0

SET_VELOCITY_LIMIT ACCEL=500 ACCEL_TO_DECEL=250
G1 E-.8 F3000
G1 Z.4 F9000
G1 X78.985 Y107.762
G1 Z.4
G1 Z.2
G1 E.8 F1800
;TYPE:Skirt
;WIDTH:0.5
G1 F3000
G1 X80 Y107.543 E.03866
G1 X230 Y107.543 E5.58693
G1 X231.331 Y107.935 E.05169
G1 X232.238 Y108.985 E.05169
G1 X232.453 Y109.866 E.03377
G1 X236.523 Y184.365 E2.77896
G1 X236.527 Y199.785 E.57431
G1 X236.135 Y201.116 E.05169
G1 X235.084 Y202.022 E.05169
G1 X234.199 Y202.238 E.03392
G1 X230 Y202.457 E.15662
G1 X220 Y202.457 E.37246
G1 X215.521 Y202.208 E.16708
G1 X79.594 Y179.423 E5.13341
G1 X78.346 Y178.817 E.05169
G1 X77.543 Y177 E.07398
G1 X77.543 Y110 E2.4955
G1 X77.935 Y108.669 E.05169
G1 X78.955 Y107.788 E.0502
; printing object hook.stl id:0 copy 0
G1 E-.8
EXCLUDE_OBJECT_START NAME=hook.stl_id_0_copy_0
M73 P0 R91
G1 Z.6 F9000
G1 X219.4 Y199.785 Z.6
G1 Z.2
G1 E.8 F1800
;TYPE:Support
G1 F3000
G1 X215.927 Y199.785 E.12935
G1 X215.927 Y184.499 E.56932
G1 X219.4 Y184.499 E.12935
G1 X219.4 Y199.716 E.56676
G1 X216.339 Y184.911 F9000
G1 F3000
G1 X218.989 Y184.911 E.0987
G1 X218.989 Y199.373 E.53867
G1 X216.339 Y199.373 E.0987
G1 X216.339 Y184.911 E.53867
G1 X216.847 Y185.419 F9000
G1 F3000
G1 X218.481 Y185.419 E.06087
G1 X218.481 Y198.865 E.50084
G1 X216.847 Y198.865 E.06087
G1 X216.847 Y185.419 E.50084
G1 X217.354 Y185.927 F9000
G1 F3000
G1 X217.973 Y185.927 E.02304
G1 X217.973 Y198.358 E.46301
G1 X217.354 Y198.358 E.02304
G1 X217.354 Y185.927 E.46301
G1 E-.8
G1 Z.6 F9000
G1 X234.07 Y199.785 Z.6
G1 Z.2
G1 E.8 F1800
G1 F3000
G1 X230.6 Y199.785 E.12923
G1 X230.6 Y184.499 E.56932
G1 X234.07 Y184.499 E.12923
G1 X234.07 Y199.716 E.56676
G1 X231.011 Y184.911 F9000
G1 F3000
G1 X233.658 Y184.911 E.09858
G1 X233.658 Y199.373 E.53867
G1 X231.011 Y199.373 E.09858
G1 X231.011 Y184.911 E.53867
G1 X231.519 Y185.419 F9000
G1 F3000
G1 X233.15 Y185.419 E.06075
G1 X233.15 Y198.865 E.50084
G1 X231.519 Y198.865 E.06075
G1 X231.519 Y185.419 E.50084
G1 X232.027 Y185.927 F9000
G1 F3000
G1 X232.642 Y185.927 E.02292
G1 X232.642 Y198.358 E.46301
G1 X232.027 Y198.358 E.02292
G1 X232.027 Y185.927 E.46301
G1 E-.8
G1 Z.6 F9000
G1 X220.182 Y176.816 Z.6
G1 Z.2
G1 E.8 F1800
;TYPE:Outer wall
;WIDTH:0.499999
G1 F3000
G1 X220.021 Y176.75 E.00648
G1 X80.25 Y176.75 E5.20595
G1 X80.25 Y110.25 E2.47687
G1 X229.75 Y110.25 E5.5683
G1 X229.75 Y143.5 E1.23843
G1 X229.75 Y199.75 E2.0951
G1 X220.25 Y199.75 E.35384
G1 X220.25 Y176.979 E.84815
G1 X220.198 Y176.853 E.00506
G1 X220.519 Y176.515 F9000
;TYPE:Inner wall
G1 F3000
G1 X220.504 Y176.492 E.00102
G1 X220.285 Y176.346 E.00981
G1 X220.021 Y176.293 E.01002
G1 X80.707 Y176.293 E5.18892
G1 X80.707 Y110.707 E2.44282
G1 X229.293 Y110.707 E5.53425
G1 X229.293 Y143.5 E1.22141
G1 X229.293 Y199.293 E2.07807
G1 X220.707 Y199.293 E.31979
G1 X220.707 Y176.979 E.83112
G1 X220.67 Y176.756 E.0084
G1 X220.54 Y176.549 E.00912
G1 E-.8
G1 Z.6 F9000
G1 X229.147 Y111.779 Z.6
G1 Z.2
G1 E.8 F1800
;TYPE:Internal solid infill
;WIDTH:0.500778
G1 F3000
G1 X228.427 Y111.059 E.03799
G1 X227.779 Y111.059 E.02416
G1 X228.941 Y112.221 E.0613
G1 X228.941 Y112.868 E.02416
G1 X227.132 Y111.059 E.09546
G1 X226.484 Y111.059 E.02416
G1 X228.941 Y113.516 E.12963
G1 X228.941 Y114.163 E.02416
G1 X225.837 Y111.059 E.16379
G1 X225.189 Y111.059 E.02416
G1 X228.941 Y114.811 E.19796
G1 X228.941 Y115.458 E.02416
G1 X224.542 Y111.059 E.23212
G1 X223.894 Y111.059 E.02416
G1 X228.941 Y116.106 E.26629
G1 X228.941 Y116.753 E.02416
G1 X223.247 Y111.059 E.30045
G1 X222.599 Y111.059 E.02416
G1 X228.941 Y117.401 E.33462
G1 X228.941 Y118.048 E.02416
G1 X221.952 Y111.059 E.36878
G1 X221.304 Y111.059 E.02416
G1 X228.941 Y118.696 E.40295
G1 X228.941 Y119.343 E.02416
G1 X220.657 Y111.059 E.43711
G1 X220.009 Y111.059 E.02416
G1 X228.941 Y119.991 E.47128
G1 X228.941 Y120.638 E.02416
G1 X219.362 Y111.059 E.50544
G1 X218.714 Y111.059 E.02416
G1 X228.941 Y121.286 E.53961
G1 X228.941 Y121.933 E.02416
G1 X218.067 Y111.059 E.57377
G1 X217.419 Y111.059 E.02416
G1 X228.941 Y122.581 E.60794
G1 X228.941 Y123.228 E.02416
G1 X216.772 Y111.059 E.6421
G1 X216.124 Y111.059 E.02416
G1 X228.941 Y123.876 E.67627
G1 X228.941 Y124.523 E.02416
G1 X215.477 Y111.059 E.71043
G1 X214.829 Y111.059 E.02416
G1 X228.941 Y125.171 E.7446
G1 X228.941 Y125.818 E.02416
G1 X214.182 Y111.059 E.77876
G1 X213.534 Y111.059 E.02416
G1 X228.941 Y126.466 E.81293
G1 X228.941 Y127.113 E.02416
G1 X212.887 Y111.059 E.84709
G1 X212.239 Y111.059 E.02416
G1 X228.941 Y127.761 E.88126
G1 X228.941 Y128.409 E.02416
G1 X211.591 Y111.059 E.91542
G1 X210.944 Y111.059 E.02416
G1 X228.941 Y129.056 E.94959
G1 X228.941 Y129.704 E.02416
G1 X210.296 Y111.059 E.98375
G1 X209.649 Y111.059 E.02416
G1 X228.941 Y130.351 E1.01792
G1 X228.941 Y130.999 E.02416
G1 X209.001 Y111.059 E1.05208
M73 P1 R91
G1 X208.354 Y111.059 E.02416
G1 X228.941 Y131.646 E1.08625
G1 X228.941 Y132.294 E.02416
G1 X207.706 Y111.059 E1.12041
G1 X207.059 Y111.059 E.02416
G1 X228.941 Y132.941 E1.15458
G1 X228.941 Y133.589 E.02416
G1 X206.411 Y111.059 E1.18874
G1 X205.764 Y111.059 E.02416
G1 X228.941 Y134.236 E1.22291
G1 X228.941 Y134.884 E.02416
G1 X205.116 Y111.059 E1.25707
G1 X204.469 Y111.059 E.02416
G1 X228.941 Y135.531 E1.29124
G1 X228.941 Y136.179 E.02416
G1 X203.821 Y111.059 E1.3254
G1 X203.174 Y111.059 E.02416
G1 X228.941 Y136.826 E1.35957
G1 X228.941 Y137.474 E.02416
G1 X202.526 Y111.059 E1.39373
G1 X201.879 Y111.059 E.02416
G1 X228.941 Y138.121 E1.4279
G1 X228.941 Y138.769 E.02416
G1 X201.231 Y111.059 E1.46206
G1 X200.584 Y111.059 E.02416
G1 X228.941 Y139.416 E1.49623
G1 X228.941 Y140.064 E.02416
G1 X199.936 Y111.059 E1.53039
G1 X199.289 Y111.059 E.02416
G1 X228.941 Y140.711 E1.56456
G1 X228.941 Y141.359 E.02416
G1 X198.641 Y111.059 E1.59872
G1 X197.994 Y111.059 E.02416
G1 X228.941 Y142.006 E1.63289
G1 X228.941 Y142.654 E.02416
G1 X197.346 Y111.059 E1.66705
G1 X196.699 Y111.059 E.02416
G1 X228.941 Y143.301 E1.70122
M73 P1 R90
G1 X228.941 Y143.949 E.02416
G1 X196.051 Y111.059 E1.73538
G1 X195.404 Y111.059 E.02416
G1 X228.941 Y144.596 E1.76955
G1 X228.941 Y145.244 E.02416
G1 X194.756 Y111.059 E1.80372
G1 X194.109 Y111.059 E.02416
G1 X228.941 Y145.891 E1.83788
G1 X228.941 Y146.539 E.02416
G1 X193.461 Y111.059 E1.87205
G1 X192.814 Y111.059 E.02416
G1 X228.941 Y147.186 E1.90621
G1 X228.941 Y147.834 E.02416
G1 X192.166 Y111.059 E1.94038
G1 X191.519 Y111.059 E.02416
G1 X228.941 Y148.481 E1.97454
G1 X228.941 Y149.129 E.02416
G1 X190.871 Y111.059 E2.00871
G1 X190.224 Y111.059 E.02416
G1 X228.941 Y149.776 E2.04287
G1 X228.941 Y150.424 E.02416
G1 X189.576 Y111.059 E2.07704
G1 X188.929 Y111.059 E.02416
G1 X228.941 Y151.071 E2.1112
G1 X228.941 Y151.719 E.02416
G1 X188.281 Y111.059 E2.14537
G1 X187.634 Y111.059 E.02416
G1 X228.941 Y152.366 E2.17953
G1 X228.941 Y153.014 E.02416
G1 X186.986 Y111.059 E2.2137
G1 X186.339 Y111.059 E.02416
G1 X228.941 Y153.661 E2.24786
G1 X228.941 Y154.309 E.02416
G1 X185.691 Y111.059 E2.28203
G1 X185.044 Y111.059 E.02416
G1 X228.941 Y154.956 E2.31619
G1 X228.941 Y155.604 E.02416
G1 X184.396 Y111.059 E2.35036
G1 X183.749 Y111.059 E.02416
G1 X228.941 Y156.251 E2.38452
G1 X228.941 Y156.899 E.02416
G1 X183.101 Y111.059 E2.41869
G1 X182.454 Y111.059 E.02416
G1 X228.941 Y157.546 E2.45285
G1 X228.941 Y158.194 E.02416
G1 X181.806 Y111.059 E2.48702
G1 X181.159 Y111.059 E.02416
G1 X228.941 Y158.841 E2.52118
G1 X228.941 Y159.489 E.02416
G1 X180.511 Y111.059 E2.55535
G1 X179.864 Y111.059 E.02416
G1 X228.941 Y160.136 E2.58951
G1 X228.941 Y160.784 E.02416
G1 X179.216 Y111.059 E2.62368
G1 X178.569 Y111.059 E.02416
G1 X228.941 Y161.431 E2.65784
G1 X228.941 Y162.079 E.02416
G1 X177.921 Y111.059 E2.69201
G1 X177.274 Y111.059 E.02416
G1 X228.941 Y162.726 E2.72617
M73 P2 R90
G1 X228.941 Y163.374 E.02416
G1 X176.626 Y111.059 E2.76034
G1 X175.979 Y111.059 E.02416
G1 X228.941 Y164.022 E2.7945
G1 X228.941 Y164.669 E.02416
G1 X175.331 Y111.059 E2.82867
G1 X174.683 Y111.059 E.02416
G1 X228.941 Y165.317 E2.86283
G1 X228.941 Y165.964 E.02416
G1 X174.036 Y111.059 E2.897
G1 X173.388 Y111.059 E.02416
G1 X228.941 Y166.612 E2.93116
G1 X228.941 Y167.259 E.02416
G1 X172.741 Y111.059 E2.96533
G1 X172.093 Y111.059 E.02416
G1 X228.941 Y167.907 E2.99949
G1 X228.941 Y168.554 E.02416
G1 X171.446 Y111.059 E3.03366
G1 X170.798 Y111.059 E.02416
G1 X228.941 Y169.202 E3.06782
G1 X228.941 Y169.849 E.02416
G1 X170.151 Y111.059 E3.10199
G1 X169.503 Y111.059 E.02416
G1 X228.941 Y170.497 E3.13615
G1 X228.941 Y171.144 E.02416
G1 X168.856 Y111.059 E3.17032
M73 P2 R89
G1 X168.208 Y111.059 E.02416
G1 X228.941 Y171.792 E3.20448
G1 X228.941 Y172.439 E.02416
G1 X167.561 Y111.059 E3.23865
G1 X166.913 Y111.059 E.02416
G1 X228.941 Y173.087 E3.27281
G1 X228.941 Y173.734 E.02416
G1 X166.266 Y111.059 E3.30698
G1 X165.618 Y111.059 E.02416
G1 X228.941 Y174.382 E3.34114
G1 X228.941 Y175.029 E.02416
G1 X164.971 Y111.059 E3.37531
G1 X164.323 Y111.059 E.02416
G1 X228.941 Y175.677 E3.40947
G1 X228.941 Y176.324 E.02416
G1 X163.676 Y111.059 E3.44364
G1 X163.028 Y111.059 E.02416
G1 X228.941 Y176.972 E3.4778
G1 X228.941 Y177.619 E.02416
G1 X162.381 Y111.059 E3.51197
G1 X161.733 Y111.059 E.02416
G1 X228.941 Y178.267 E3.54613
G1 X228.941 Y178.914 E.02416
G1 X161.086 Y111.059 E3.5803
G1 X160.438 Y111.059 E.02416
G1 X228.941 Y179.562 E3.61446
G1 X228.941 Y180.209 E.02416
G1 X159.791 Y111.059 E3.64863
G1 X159.143 Y111.059 E.02416
G1 X228.941 Y180.857 E3.68279
G1 X228.941 Y181.504 E.02416
G1 X158.496 Y111.059 E3.71696
G1 X157.848 Y111.059 E.02416
G1 X228.941 Y182.152 E3.75112
M73 P3 R89
G1 X228.941 Y182.799 E.02416
G1 X157.201 Y111.059 E3.78529
G1 X156.553 Y111.059 E.02416
G1 X228.941 Y183.447 E3.81945
G1 X228.941 Y184.094 E.02416
G1 X155.906 Y111.059 E3.85362
G1 X155.258 Y111.059 E.02416
G1 X220.151 Y175.952 E3.42401
G1 X220.213 Y175.958 E.00232
G1 X220.531 Y176.073 E.01261
G1 X220.75 Y176.239 E.01024
G1 X220.855 Y176.36 E.00599
G1 X221.002 Y176.637 E.01172
G1 X221.049 Y176.85 E.0081
G1 X228.941 Y184.742 E.41643
G1 X228.941 Y185.389 E.02416
G1 X221.059 Y177.507 E.41588
G1 X221.059 Y178.155 E.02416
G1 X228.941 Y186.037 E.41588
G1 X228.941 Y186.684 E.02416
G1 X221.059 Y178.802 E.41588
G1 X221.059 Y179.45 E.02416
G1 X228.941 Y187.332 E.41588
G1 X228.941 Y187.979 E.02416
G1 X221.059 Y180.097 E.41588
G1 X221.059 Y180.745 E.02416
G1 X228.941 Y188.627 E.41588
G1 X228.941 Y189.274 E.02416
G1 X221.059 Y181.392 E.41588
G1 X221.059 Y182.04 E.02416
G1 X228.941 Y189.922 E.41588
G1 X228.941 Y190.569 E.02416
G1 X221.059 Y182.687 E.41588
G1 X221.059 Y183.335 E.02416
G1 X228.941 Y191.217 E.41588
G1 X228.941 Y191.864 E.02416
G1 X221.059 Y183.982 E.41588
G1 X221.059 Y184.63 E.02416
G1 X228.941 Y192.512 E.41588
G1 X228.941 Y193.159 E.02416
G1 X221.059 Y185.277 E.41588
G1 X221.059 Y185.925 E.02416
G1 X228.941 Y193.807 E.41588
G1 X228.941 Y194.454 E.02416
G1 X221.059 Y186.572 E.41588
G1 X221.059 Y187.22 E.02416
G1 X228.941 Y195.102 E.41588
G1 X228.941 Y195.749 E.02416
G1 X221.059 Y187.867 E.41588
G1 X221.059 Y188.515 E.02416
G1 X228.941 Y196.397 E.41588
G1 X228.941 Y197.044 E.02416
G1 X221.059 Y189.162 E.41588
G1 X221.059 Y189.81 E.02416
G1 X228.941 Y197.692 E.41588
G1 X228.941 Y198.339 E.02416
G1 X221.059 Y190.458 E.41588
G1 X221.059 Y191.105 E.02416
G1 X228.895 Y198.941 E.41345
G1 X228.247 Y198.941 E.02416
G1 X221.059 Y191.753 E.37929
G1 X221.059 Y192.4 E.02416
G1 X227.6 Y198.941 E.34512
G1 X226.952 Y198.941 E.02416
G1 X221.059 Y193.048 E.31096
G1 X221.059 Y193.695 E.02416
G1 X226.305 Y198.941 E.27679
G1 X225.657 Y198.941 E.02416
G1 X221.059 Y194.343 E.24263
G1 X221.059 Y194.99 E.02416
G1 X225.01 Y198.941 E.20846
G1 X224.362 Y198.941 E.02416
G1 X221.059 Y195.638 E.1743
G1 X221.059 Y196.285 E.02416
G1 X223.715 Y198.941 E.14013
G1 X223.067 Y198.941 E.02416
G1 X221.059 Y196.933 E.10597
G1 X221.059 Y197.58 E.02416
G1 X222.42 Y198.941 E.0718
G1 X221.772 Y198.941 E.02416
G1 X221.059 Y198.228 E.03764
G1 X221.059 Y198.875 E.02416
G1 X221.331 Y199.147 E.01433
G1 E-.8
G1 Z.6 F9000
G1 X219.698 Y176.147 Z.6
G1 Z.2
G1 E.8 F1800
G1 F3000
G1 X154.611 Y111.059 E3.43427
G1 X153.963 Y111.059 E.02416
G1 X218.845 Y175.941 E3.42342
G1 X218.198 Y175.941 E.02416
G1 X153.316 Y111.059 E3.42342
M73 P3 R88
G1 X152.668 Y111.059 E.02416
G1 X217.55 Y175.941 E3.42342
G1 X216.903 Y175.941 E.02416
G1 X152.021 Y111.059 E3.42342
G1 X151.373 Y111.059 E.02416
G1 X216.255 Y175.941 E3.42342
G1 X215.608 Y175.941 E.02416
G1 X150.726 Y111.059 E3.42342
G1 X150.078 Y111.059 E.02416
G1 X214.96 Y175.941 E3.42342
G1 X214.313 Y175.941 E.02416
G1 X149.431 Y111.059 E3.42342
G1 X148.783 Y111.059 E.02416
G1 X213.665 Y175.941 E3.42342
G1 X213.018 Y175.941 E.02416
G1 X148.136 Y111.059 E3.42342
G1 X147.488 Y111.059 E.02416
G1 X212.37 Y175.941 E3.42342
G1 X211.723 Y175.941 E.02416
G1 X146.841 Y111.059 E3.42342
G1 X146.193 Y111.059 E.02416
G1 X211.075 Y175.941 E3.42342
G1 X210.428 Y175.941 E.02416
G1 X145.546 Y111.059 E3.42342
G1 X144.898 Y111.059 E.02416
G1 X209.78 Y175.941 E3.42342
G1 X209.133 Y175.941 E.02416
G1 X144.251 Y111.059 E3.42342
G1 X143.603 Y111.059 E.02416
G1 X208.485 Y175.941 E3.42342
G1 X207.838 Y175.941 E.02416
G1 X142.956 Y111.059 E3.42342
M73 P4 R88
G1 X142.308 Y111.059 E.02416
G1 X207.19 Y175.941 E3.42342
G1 X206.542 Y175.941 E.02416
G1 X141.661 Y111.059 E3.42342
G1 X141.013 Y111.059 E.02416
G1 X205.895 Y175.941 E3.42342
G1 X205.247 Y175.941 E.02416
G1 X140.366 Y111.059 E3.42342
G1 X139.718 Y111.059 E.02416
G1 X204.6 Y175.941 E3.42342
G1 X203.952 Y175.941 E.02416
G1 X139.07 Y111.059 E3.42342
G1 X138.423 Y111.059 E.02416
G1 X203.305 Y175.941 E3.42342
G1 X202.657 Y175.941 E.02416
G1 X137.775 Y111.059 E3.42342
G1 X137.128 Y111.059 E.02416
G1 X202.01 Y175.941 E3.42342
G1 X201.362 Y175.941 E.02416
G1 X136.48 Y111.059 E3.42342
G1 X135.833 Y111.059 E.02416
G1 X200.715 Y175.941 E3.42342
G1 X200.067 Y175.941 E.02416
G1 X135.185 Y111.059 E3.42342
G1 X134.538 Y111.059 E.02416
G1 X199.42 Y175.941 E3.42342
G1 X198.772 Y175.941 E.02416
G1 X133.89 Y111.059 E3.42342
G1 X133.243 Y111.059 E.02416
G1 X198.125 Y175.941 E3.42342
M73 P4 R87
G1 X197.477 Y175.941 E.02416
G1 X132.595 Y111.059 E3.42342
G1 X131.948 Y111.059 E.02416
G1 X196.83 Y175.941 E3.42342
G1 X196.182 Y175.941 E.02416
G1 X131.3 Y111.059 E3.42342
G1 X130.653 Y111.059 E.02416
G1 X195.535 Y175.941 E3.42342
G1 X194.887 Y175.941 E.02416
G1 X130.005 Y111.059 E3.42342
G1 X129.358 Y111.059 E.02416
G1 X194.24 Y175.941 E3.42342
G1 X193.592 Y175.941 E.02416
G1 X128.71 Y111.059 E3.42342
G1 X128.063 Y111.059 E.02416
G1 X192.945 Y175.941 E3.42342
G1 X192.297 Y175.941 E.02416
G1 X127.415 Y111.059 E3.42342
G1 X126.768 Y111.059 E.02416
G1 X191.65 Y175.941 E3.42342
G1 X191.002 Y175.941 E.02416
G1 X126.12 Y111.059 E3.42342
G1 X125.473 Y111.059 E.02416
G1 X190.355 Y175.941 E3.42342
G1 X189.707 Y175.941 E.02416
G1 X124.825 Y111.059 E3.42342
M73 P5 R87
G1 X124.178 Y111.059 E.02416
G1 X189.06 Y175.941 E3.42342
G1 X188.412 Y175.941 E.02416
G1 X123.53 Y111.059 E3.42342
G1 X122.883 Y111.059 E.02416
G1 X187.765 Y175.941 E3.42342
G1 X187.117 Y175.941 E.02416
G1 X122.235 Y111.059 E3.42342
G1 X121.588 Y111.059 E.02416
G1 X186.47 Y175.941 E3.42342
G1 X185.822 Y175.941 E.02416
G1 X120.94 Y111.059 E3.42342
G1 X120.293 Y111.059 E.02416
G1 X185.175 Y175.941 E3.42342
G1 X184.527 Y175.941 E.02416
G1 X119.645 Y111.059 E3.42342
