; HEADER_BLOCK_START
; generated by OrcaSlicer 1.6.4-beta3 on 2023-08-21 at 20:33:39
; total layer number: 208
; HEADER_BLOCK_END

; THUMBNAIL_BLOCK_START
; THUMBNAIL_BLOCK_END

; external perimeters extrusion width = 0.40mm
; perimeters extrusion width = 0.45mm
; infill extrusion width = 0.45mm
; solid infill extrusion width = 0.40mm
; top infill extrusion width = 0.40mm
; support material extrusion width = 0.40mm
; first layer extrusion width = 0.50mm

; EXECUTABLE_BLOCK_START
EXCLUDE_OBJECT_DEFINE NAME=hook21.stl_id_0_copy_0 CENTER=155,155 POLYGON=[[24,110.5],[286,110.5],[286,199.5],[276,199.5],[24,197.5],[24,110.5]]
M73 P0 R131
;TYPE:Custom
START_PRINT T_BED=70 T_EXTRUDER=235
G90
G21
M83 ; use relative distances for extrusion
; Filament gcode
PRESSURE_ADVANCE_SELECT FILAMENT=PETG
M106 S0
;LAYER_CHANGE
;Z:0.2
;HEIGHT:0.2
;BEFORE_LAYER_CHANGE
;0.2
G92 E0

SET_VELOCITY_LIMIT ACCEL=1500 ACCEL_TO_DECEL=750
G1 E-.8 F3000
G1 Z.4 F9000
G1 X23.06 Y108.23
G1 Z.4
G1 Z.2
G1 E.8 F1800
;TYPE:Skirt
;WIDTH:0.5
G1 F3000
G1 X24 Y108.043 E.03461
G1 X286 Y108.043 E9.45977
G1 X287.331 Y108.435 E.0501
G1 X288.238 Y109.485 E.0501
G1 X288.456 Y110.419 E.03461
G1 X290.81 Y181.561 E2.57007
G1 X290.811 Y196.928 E.55482
G1 X290.167 Y198.586 E.06425
G1 X287.813 Y201.159 E.1259
G1 X286 Y201.957 E.07151
G1 X275.981 Y201.957 E.36176
G1 X23.981 Y199.957 E9.099
G1 X23.419 Y199.888 E.02041
G1 X21.065 Y199.315 E.08747
G1 X19.864 Y198.62 E.0501
G1 X19.189 Y196.928 E.06579
G1 X19.19 Y181.561 E.55482
G1 X21.544 Y110.419 E2.57007
G1 X21.98 Y109.101 E.0501
G1 X23.029 Y108.255 E.04866
; printing object hook21.stl id:0 copy 0
G1 E-.8
EXCLUDE_OBJECT_START NAME=hook21.stl_id_0_copy_0
G1 Z.6 F9000
G1 X23.4 Y196.928 Z.6
G1 Z.2
G1 E.8 F1800
;TYPE:Support
G1 F3000
G1 X21.646 Y196.928 E.06333
G1 X21.646 Y181.642 E.55189
G1 X23.4 Y181.642 E.06333
G1 X23.4 Y196.859 E.54941
G1 X22.989 Y182.054 F9000
G1 F3000
G1 X22.989 Y196.516 E.52218
G1 X22.057 Y196.516 E.03363
G1 X22.057 Y182.054 E.52218
G1 X22.989 Y182.054 E.03363
G1 E-.8
G1 Z.6 F9000
G1 X36.931 Y196.928 Z.6
G1 Z.2
G1 E.8 F1800
G1 F3000
G1 X34.6 Y196.928 E.08417
G1 X34.6 Y181.642 E.55189
G1 X36.931 Y181.642 E.08417
G1 X36.931 Y196.859 E.54941
G1 X36.52 Y182.054 F9000
G1 F3000
G1 X36.52 Y196.516 E.52218
G1 X35.011 Y196.516 E.05446
G1 X35.011 Y182.054 E.52218
G1 X36.52 Y182.054 E.05446
G1 X36.012 Y182.562 F9000
G1 F3000
G1 X36.012 Y196.008 E.48551
G1 X35.519 Y196.008 E.01779
G1 X35.519 Y182.562 E.48551
G1 X36.012 Y182.562 E.01779
G1 E-.8
G1 Z.6 F9000
G1 X275.4 Y196.928 Z.6
G1 Z.2
G1 E.8 F1800
G1 F3000
G1 X273.069 Y196.928 E.08417
G1 X273.069 Y181.642 E.55189
G1 X275.4 Y181.642 E.08417
G1 X275.4 Y196.859 E.54941
G1 X273.48 Y182.054 F9000
G1 F3000
G1 X274.989 Y182.054 E.05446
G1 X274.989 Y196.516 E.52218
G1 X273.48 Y196.516 E.05446
G1 X273.48 Y182.054 E.52218
G1 X273.988 Y182.562 F9000
G1 F3000
G1 X274.481 Y182.562 E.01779
G1 X274.481 Y196.008 E.48551
G1 X273.988 Y196.008 E.01779
G1 X273.988 Y182.562 E.48551
G1 E-.8
G1 Z.6 F9000
G1 X288.354 Y196.928 Z.6
G1 Z.2
G1 E.8 F1800
G1 F3000
G1 X286.6 Y196.928 E.06333
G1 X286.6 Y181.642 E.55189
G1 X288.354 Y181.642 E.06333
G1 X288.354 Y196.859 E.54941
G1 X287.011 Y182.054 F9000
G1 F3000
G1 X287.943 Y182.054 E.03363
G1 X287.943 Y196.516 E.52218
G1 X287.011 Y196.516 E.03363
G1 X287.011 Y182.054 E.52218
G1 E-.8
G1 Z.6 F9000
G1 X33.818 Y174.316 Z.6
G1 Z.2
G1 E.8 F1800
;TYPE:Outer wall
;WIDTH:0.499999
G1 F3000
G1 X33.75 Y174.479 E.00635
G1 X33.75 Y197.25 E.82219
G1 X24.25 Y197.25 E.34301
G1 X24.25 Y110.75 E3.12317
G1 X285.75 Y110.75 E9.44171
G1 X285.75 Y142.5 E1.14636
G1 X285.75 Y199.25 E2.04901
G1 X276.25 Y199.25 E.34301
G1 X276.25 Y174.479 E.8944
G1 X276.182 Y174.316 E.00635
G1 X276.021 Y174.25 E.00628
G1 X33.979 Y174.25 E8.73919
M73 P0 R130
G1 X33.855 Y174.301 E.00484
G1 X33.5 Y174.009 F9000
;TYPE:Inner wall
G1 F3000
G1 X33.374 Y174.156 E.007
G1 X33.293 Y174.479 E.01201
G1 X33.293 Y196.793 E.80568
G1 X24.707 Y196.793 E.31
G1 X24.707 Y111.207 E3.09016
G1 X285.293 Y111.207 E9.4087
G1 X285.293 Y142.5 E1.12986
G1 X285.293 Y198.793 E2.03251
G1 X276.707 Y198.793 E.31
G1 X276.707 Y174.479 E.87789
G1 X276.67 Y174.256 E.00814
G1 X276.504 Y173.992 E.01127
G1 X276.285 Y173.846 E.00951
G1 X276.021 Y173.793 E.00971
G1 X33.855 Y173.804 E8.74366
G1 X33.567 Y173.93 E.01134
G1 X33.526 Y173.978 E.0023
G1 E-.8
G1 Z.6 F9000
G1 X284.221 Y111.353 Z.6
G1 Z.2
G1 E.8 F1800
;TYPE:Internal solid infill
;WIDTH:0.500656
G1 F3000
G1 X284.941 Y112.073 E.0368
G1 X284.941 Y112.72 E.02341
G1 X283.78 Y111.559 E.05938
G1 X283.132 Y111.559 E.02341
G1 X284.941 Y113.368 E.09249
G1 X284.941 Y114.015 E.02341
G1 X282.485 Y111.559 E.12559
G1 X281.838 Y111.559 E.02341
G1 X284.941 Y114.662 E.15869
G1 X284.941 Y115.31 E.02341
G1 X281.19 Y111.559 E.19179
G1 X280.543 Y111.559 E.02341
G1 X284.941 Y115.957 E.22489
G1 X284.941 Y116.604 E.02341
G1 X279.896 Y111.559 E.25799
G1 X279.248 Y111.559 E.02341
G1 X284.941 Y117.252 E.2911
G1 X284.941 Y117.899 E.02341
G1 X278.601 Y111.559 E.3242
G1 X277.954 Y111.559 E.02341
G1 X284.941 Y118.546 E.3573
G1 X284.941 Y119.194 E.02341
G1 X277.306 Y111.559 E.3904
G1 X276.659 Y111.559 E.02341
G1 X284.941 Y119.841 E.4235
G1 X284.941 Y120.488 E.02341
G1 X276.012 Y111.559 E.4566
G1 X275.364 Y111.559 E.02341
G1 X284.941 Y121.136 E.4897
G1 X284.941 Y121.783 E.02341
G1 X274.717 Y111.559 E.52281
G1 X274.07 Y111.559 E.02341
G1 X284.941 Y122.43 E.55591
G1 X284.941 Y123.078 E.02341
G1 X273.422 Y111.559 E.58901
G1 X272.775 Y111.559 E.02341
G1 X284.941 Y123.725 E.62211
G1 X284.941 Y124.372 E.02341
G1 X272.128 Y111.559 E.65521
G1 X271.48 Y111.559 E.02341
G1 X284.941 Y125.02 E.68831
G1 X284.941 Y125.667 E.02341
G1 X270.833 Y111.559 E.72141
G1 X270.186 Y111.559 E.02341
G1 X284.941 Y126.314 E.75452
G1 X284.941 Y126.962 E.02341
G1 X269.538 Y111.559 E.78762
G1 X268.891 Y111.559 E.02341
G1 X284.941 Y127.609 E.82072
G1 X284.941 Y128.256 E.02341
G1 X268.244 Y111.559 E.85382
G1 X267.596 Y111.559 E.02341
G1 X284.941 Y128.904 E.88692
G1 X284.941 Y129.551 E.02341
G1 X266.949 Y111.559 E.92002
G1 X266.302 Y111.559 E.02341
G1 X284.941 Y130.198 E.95313
G1 X284.941 Y130.846 E.02341
G1 X265.654 Y111.559 E.98623
G1 X265.007 Y111.559 E.02341
G1 X284.941 Y131.493 E1.01933
G1 X284.941 Y132.14 E.02341
G1 X264.36 Y111.559 E1.05243
G1 X263.712 Y111.559 E.02341
G1 X284.941 Y132.788 E1.08553
G1 X284.941 Y133.435 E.02341
G1 X263.065 Y111.559 E1.11863
G1 X262.418 Y111.559 E.02341
G1 X284.941 Y134.082 E1.15173
G1 X284.941 Y134.73 E.02341
G1 X261.77 Y111.559 E1.18484
G1 X261.123 Y111.559 E.02341
G1 X284.941 Y135.377 E1.21794
G1 X284.941 Y136.024 E.02341
G1 X260.476 Y111.559 E1.25104
G1 X259.828 Y111.559 E.02341
G1 X284.941 Y136.672 E1.28414
M73 P1 R130
G1 X284.941 Y137.319 E.02341
G1 X259.181 Y111.559 E1.31724
G1 X258.534 Y111.559 E.02341
G1 X284.941 Y137.966 E1.35034
G1 X284.941 Y138.614 E.02341
G1 X257.886 Y111.559 E1.38344
G1 X257.239 Y111.559 E.02341
G1 X284.941 Y139.261 E1.41655
G1 X284.941 Y139.908 E.02341
G1 X256.592 Y111.559 E1.44965
G1 X255.944 Y111.559 E.02341
G1 X284.941 Y140.556 E1.48275
G1 X284.941 Y141.203 E.02341
G1 X255.297 Y111.559 E1.51585
G1 X254.65 Y111.559 E.02341
G1 X284.941 Y141.85 E1.54895
G1 X284.941 Y142.498 E.02341
G1 X254.002 Y111.559 E1.58205
G1 X253.355 Y111.559 E.02341
G1 X284.941 Y143.145 E1.61516
G1 X284.941 Y143.793 E.02341
G1 X252.707 Y111.559 E1.64826
G1 X252.06 Y111.559 E.02341
G1 X284.941 Y144.44 E1.68136
G1 X284.941 Y145.087 E.02341
G1 X251.413 Y111.559 E1.71446
G1 X250.765 Y111.559 E.02341
G1 X284.941 Y145.735 E1.74756
G1 X284.941 Y146.382 E.02341
G1 X250.118 Y111.559 E1.78066
G1 X249.471 Y111.559 E.02341
G1 X284.941 Y147.029 E1.81376
G1 X284.941 Y147.677 E.02341
G1 X248.823 Y111.559 E1.84687
G1 X248.176 Y111.559 E.02341
G1 X284.941 Y148.324 E1.87997
G1 X284.941 Y148.971 E.02341
G1 X247.529 Y111.559 E1.91307
G1 X246.881 Y111.559 E.02341
G1 X284.941 Y149.619 E1.94617
G1 X284.941 Y150.266 E.02341
G1 X246.234 Y111.559 E1.97927
G1 X245.587 Y111.559 E.02341
G1 X284.941 Y150.913 E2.01237
G1 X284.941 Y151.561 E.02341
G1 X244.939 Y111.559 E2.04548
M73 P1 R129
G1 X244.292 Y111.559 E.02341
G1 X284.941 Y152.208 E2.07858
G1 X284.941 Y152.855 E.02341
G1 X243.645 Y111.559 E2.11168
G1 X242.997 Y111.559 E.02341
G1 X284.941 Y153.503 E2.14478
G1 X284.941 Y154.15 E.02341
G1 X242.35 Y111.559 E2.17788
G1 X241.703 Y111.559 E.02341
G1 X284.941 Y154.797 E2.21098
G1 X284.941 Y155.445 E.02341
G1 X241.055 Y111.559 E2.24408
G1 X240.408 Y111.559 E.02341
G1 X284.941 Y156.092 E2.27719
G1 X284.941 Y156.739 E.02341
G1 X239.761 Y111.559 E2.31029
G1 X239.113 Y111.559 E.02341
G1 X284.941 Y157.387 E2.34339
G1 X284.941 Y158.034 E.02341
G1 X238.466 Y111.559 E2.37649
G1 X237.819 Y111.559 E.02341
G1 X284.941 Y158.681 E2.40959
G1 X284.941 Y159.329 E.02341
G1 X237.171 Y111.559 E2.44269
G1 X236.524 Y111.559 E.02341
G1 X284.941 Y159.976 E2.47579
G1 X284.941 Y160.623 E.02341
G1 X235.877 Y111.559 E2.5089
G1 X235.229 Y111.559 E.02341
G1 X284.941 Y161.271 E2.542
G1 X284.941 Y161.918 E.02341
G1 X234.582 Y111.559 E2.5751
G1 X233.935 Y111.559 E.02341
G1 X284.941 Y162.565 E2.6082
G1 X284.941 Y163.213 E.02341
G1 X233.287 Y111.559 E2.6413
G1 X232.64 Y111.559 E.02341
G1 X284.941 Y163.86 E2.6744
G1 X284.941 Y164.507 E.02341
G1 X231.993 Y111.559 E2.70751
G1 X231.345 Y111.559 E.02341
G1 X284.941 Y165.155 E2.74061
G1 X284.941 Y165.802 E.02341
G1 X230.698 Y111.559 E2.77371
G1 X230.051 Y111.559 E.02341
G1 X284.941 Y166.449 E2.80681
G1 X284.941 Y167.097 E.02341
G1 X229.403 Y111.559 E2.83991
G1 X228.756 Y111.559 E.02341
G1 X284.941 Y167.744 E2.87301
G1 X284.941 Y168.391 E.02341
G1 X228.109 Y111.559 E2.90611
G1 X227.461 Y111.559 E.02341
G1 X284.941 Y169.039 E2.93922
G1 X284.941 Y169.686 E.02341
G1 X226.814 Y111.559 E2.97232
G1 X226.167 Y111.559 E.02341
G1 X284.941 Y170.333 E3.00542
G1 X284.941 Y170.981 E.02341
G1 X225.519 Y111.559 E3.03852
G1 X224.872 Y111.559 E.02341
G1 X284.941 Y171.628 E3.07162
G1 X284.941 Y172.275 E.02341
G1 X224.225 Y111.559 E3.10472
G1 X223.577 Y111.559 E.02341
G1 X284.941 Y172.923 E3.13782
G1 X284.941 Y173.57 E.02341
G1 X222.93 Y111.559 E3.17093
G1 X222.283 Y111.559 E.02341
G1 X284.941 Y174.217 E3.20403
G1 X284.941 Y174.865 E.02341
G1 X221.635 Y111.559 E3.23713
G1 X220.988 Y111.559 E.02341
G1 X284.941 Y175.512 E3.27023
M73 P2 R129
G1 X284.941 Y176.159 E.02341
G1 X220.341 Y111.559 E3.30333
G1 X219.693 Y111.559 E.02341
G1 X284.941 Y176.807 E3.33643
M73 P2 R128
G1 X284.941 Y177.454 E.02341
G1 X219.046 Y111.559 E3.36954
G1 X218.399 Y111.559 E.02341
G1 X284.941 Y178.101 E3.40264
G1 X284.941 Y178.749 E.02341
G1 X217.751 Y111.559 E3.43574
G1 X217.104 Y111.559 E.02341
G1 X284.941 Y179.396 E3.46884
G1 X284.941 Y180.043 E.02341
G1 X216.457 Y111.559 E3.50194
G1 X215.809 Y111.559 E.02341
G1 X284.941 Y180.691 E3.53504
G1 X284.941 Y181.338 E.02341
G1 X215.162 Y111.559 E3.56814
G1 X214.515 Y111.559 E.02341
G1 X284.941 Y181.985 E3.60125
G1 X284.941 Y182.633 E.02341
G1 X277.059 Y174.751 E.40304
G1 X277.059 Y175.398 E.02341
G1 X284.941 Y183.28 E.40304
G1 X284.941 Y183.927 E.02341
G1 X277.059 Y176.045 E.40304
G1 X277.059 Y176.693 E.02341
G1 X284.941 Y184.575 E.40304
G1 X284.941 Y185.222 E.02341
G1 X277.059 Y177.34 E.40304
G1 X277.059 Y177.987 E.02341
G1 X284.941 Y185.869 E.40304
G1 X284.941 Y186.517 E.02341
G1 X277.059 Y178.635 E.40304
G1 X277.059 Y179.282 E.02341
G1 X284.941 Y187.164 E.40304
G1 X284.941 Y187.811 E.02341
G1 X277.059 Y179.929 E.40304
G1 X277.059 Y180.577 E.02341
G1 X284.941 Y188.459 E.40304
G1 X284.941 Y189.106 E.02341
G1 X277.059 Y181.224 E.40304
G1 X277.059 Y181.871 E.02341
G1 X284.941 Y189.753 E.40304
G1 X284.941 Y190.401 E.02341
G1 X277.059 Y182.519 E.40304
G1 X277.059 Y183.166 E.02341
G1 X284.941 Y191.048 E.40304
G1 X284.941 Y191.695 E.02341
G1 X277.059 Y183.813 E.40304
G1 X277.059 Y184.461 E.02341
G1 X284.941 Y192.343 E.40304
G1 X284.941 Y192.99 E.02341
G1 X277.059 Y185.108 E.40304
G1 X277.059 Y185.755 E.02341
G1 X284.941 Y193.637 E.40304
G1 X284.941 Y194.285 E.02341
G1 X277.059 Y186.403 E.40304
G1 X277.059 Y187.05 E.02341
G1 X284.941 Y194.932 E.40304
G1 X284.941 Y195.579 E.02341
G1 X277.059 Y187.697 E.40304
G1 X277.059 Y188.345 E.02341
G1 X284.941 Y196.227 E.40304
G1 X284.941 Y196.874 E.02341
G1 X277.059 Y188.992 E.40304
G1 X277.059 Y189.639 E.02341
G1 X284.941 Y197.521 E.40304
G1 X284.941 Y198.169 E.02341
G1 X277.059 Y190.287 E.40304
G1 X277.059 Y190.934 E.02341
G1 X284.566 Y198.441 E.38386
G1 X283.919 Y198.441 E.02341
G1 X277.059 Y191.581 E.35076
G1 X277.059 Y192.229 E.02341
G1 X283.271 Y198.441 E.31766
G1 X282.624 Y198.441 E.02341
G1 X277.059 Y192.876 E.28456
G1 X277.059 Y193.523 E.02341
G1 X281.977 Y198.441 E.25146
G1 X281.329 Y198.441 E.02341
G1 X277.059 Y194.171 E.21835
G1 X277.059 Y194.818 E.02341
G1 X280.682 Y198.441 E.18525
G1 X280.035 Y198.441 E.02341
G1 X277.059 Y195.465 E.15215
G1 X277.059 Y196.113 E.02341
G1 X279.387 Y198.441 E.11905
G1 X278.74 Y198.441 E.02341
G1 X277.059 Y196.76 E.08595
G1 X277.059 Y197.408 E.02341
G1 X278.093 Y198.441 E.05285
G1 X277.445 Y198.441 E.02341
G1 X276.853 Y197.849 E.03026
G1 E-.8
G1 Z.6 F9000
G1 X275.955 Y173.647 Z.6
G1 Z.2
G1 E.8 F1800
G1 F3000
G1 X213.867 Y111.559 E3.17485
G1 X213.22 Y111.559 E.02341
G1 X275.102 Y173.441 E3.16433
G1 X274.455 Y173.441 E.02341
G1 X212.573 Y111.559 E3.16433
G1 X211.925 Y111.559 E.02341
G1 X273.807 Y173.441 E3.16433
G1 X273.16 Y173.441 E.02341
G1 X211.278 Y111.559 E3.16433
G1 X210.631 Y111.559 E.02341
G1 X272.513 Y173.441 E3.16433
G1 X271.865 Y173.441 E.02341
G1 X209.983 Y111.559 E3.16433
G1 X209.336 Y111.559 E.02341
G1 X271.218 Y173.441 E3.16433
G1 X270.571 Y173.441 E.02341
G1 X208.689 Y111.559 E3.16433
G1 X208.041 Y111.559 E.02341
G1 X269.923 Y173.441 E3.16433
G1 X269.276 Y173.441 E.02341
G1 X207.394 Y111.559 E3.16433
G1 X206.747 Y111.559 E.02341
G1 X268.629 Y173.441 E3.16434
G1 X267.981 Y173.441 E.02341
G1 X206.099 Y111.559 E3.16434
G1 X205.452 Y111.559 E.02341
G1 X267.334 Y173.441 E3.16434
G1 X266.687 Y173.441 E.02341
G1 X204.805 Y111.559 E3.16434
G1 X204.157 Y111.559 E.02341
G1 X266.039 Y173.441 E3.16434
G1 X265.392 Y173.441 E.02341
G1 X203.51 Y111.559 E3.16434
G1 X202.863 Y111.559 E.02341
G1 X264.745 Y173.441 E3.16434
G1 X264.097 Y173.441 E.02341
G1 X202.215 Y111.559 E3.16434
M73 P2 R127
G1 X201.568 Y111.559 E.02341
G1 X263.45 Y173.441 E3.16434
G1 X262.803 Y173.441 E.02341
G1 X200.921 Y111.559 E3.16434
G1 X200.273 Y111.559 E.02341
G1 X262.155 Y173.441 E3.16434
G1 X261.508 Y173.441 E.02341
G1 X199.626 Y111.559 E3.16434
G1 X198.979 Y111.559 E.02341
G1 X260.861 Y173.441 E3.16434
G1 X260.213 Y173.441 E.02341
G1 X198.331 Y111.559 E3.16434
G1 X197.684 Y111.559 E.02341
G1 X259.566 Y173.441 E3.16434
G1 X258.919 Y173.441 E.02341
G1 X197.037 Y111.559 E3.16434
G1 X196.389 Y111.559 E.02341
G1 X258.271 Y173.441 E3.16434
M73 P3 R127
G1 X257.624 Y173.441 E.02341
G1 X195.742 Y111.559 E3.16434
G1 X195.095 Y111.559 E.02341
G1 X256.977 Y173.441 E3.16434
G1 X256.329 Y173.441 E.02341
G1 X194.447 Y111.559 E3.16434
G1 X193.8 Y111.559 E.02341
G1 X255.682 Y173.441 E3.16434
G1 X255.035 Y173.441 E.02341
G1 X193.153 Y111.559 E3.16435
G1 X192.505 Y111.559 E.02341
G1 X254.387 Y173.441 E3.16435
G1 X253.74 Y173.441 E.02341
G1 X191.858 Y111.559 E3.16435
G1 X191.211 Y111.559 E.02341
G1 X253.093 Y173.441 E3.16435
G1 X252.445 Y173.441 E.02341
G1 X190.563 Y111.559 E3.16435
G1 X189.916 Y111.559 E.02341
G1 X251.798 Y173.441 E3.16435
G1 X251.151 Y173.441 E.02341
G1 X189.269 Y111.559 E3.16435
G1 X188.621 Y111.559 E.02341
G1 X250.504 Y173.441 E3.16435
G1 X249.856 Y173.441 E.02341
G1 X187.974 Y111.559 E3.16435
G1 X187.327 Y111.559 E.02341
G1 X249.209 Y173.441 E3.16435
G1 X248.562 Y173.441 E.02341
G1 X186.679 Y111.559 E3.16435
G1 X186.032 Y111.559 E.02341
G1 X247.914 Y173.441 E3.16435
G1 X247.267 Y173.441 E.02341
G1 X185.385 Y111.559 E3.16435
G1 X184.737 Y111.559 E.02341
G1 X246.62 Y173.441 E3.16435
G1 X245.972 Y173.441 E.02341
G1 X184.09 Y111.559 E3.16435
G1 X183.442 Y111.559 E.02341
G1 X245.325 Y173.441 E3.16435
G1 X244.678 Y173.441 E.02341
G1 X182.795 Y111.559 E3.16435
G1 X182.148 Y111.559 E.02341
G1 X244.03 Y173.441 E3.16435
G1 X243.383 Y173.441 E.02341
