; HEADER_BLOCK_START
; generated by OrcaSlicer 1.6.6 on 2023-08-31 at 20:50:08
; total layer number: 23
; HEADER_BLOCK_END

; THUMBNAIL_BLOCK_START
; THUMBNAIL_BLOCK_END

; external perimeters extrusion width = 0.40mm
; perimeters extrusion width = 0.45mm
; infill extrusion width = 0.45mm
; solid infill extrusion width = 0.40mm
; top infill extrusion width = 0.40mm
; support material extrusion width = 0.40mm
; first layer extrusion width = 0.50mm

; external perimeters extrusion width = 0.40mm
; perimeters extrusion width = 0.45mm
; infill extrusion width = 0.45mm
; solid infill extrusion width = 0.40mm
; top infill extrusion width = 0.40mm
; support material extrusion width = 0.40mm
; first layer extrusion width = 0.50mm

; external perimeters extrusion width = 0.40mm
; perimeters extrusion width = 0.45mm
; infill extrusion width = 0.45mm
; solid infill extrusion width = 0.40mm
; top infill extrusion width = 0.40mm
; support material extrusion width = 0.40mm
; first layer extrusion width = 0.50mm

; external perimeters extrusion width = 0.40mm
; perimeters extrusion width = 0.45mm
; infill extrusion width = 0.45mm
; solid infill extrusion width = 0.40mm
; top infill extrusion width = 0.40mm
; support material extrusion width = 0.40mm
; first layer extrusion width = 0.50mm

; EXECUTABLE_BLOCK_START
EXCLUDE_OBJECT_DEFINE NAME=Hook_-_V2_-_Medium.STL_id_0_copy_0 CENTER=184.225,183.107 POLYGON=[[151.937,160.132],[151.943,160.045],[151.954,159.958],[151.973,159.873],[151.999,159.79],[152.033,159.709],[152.073,159.632],[152.12,159.558],[152.173,159.489],[152.232,159.425],[152.296,159.366],[152.365,159.313],[152.439,159.266],[152.516,159.226],[152.596,159.192],[152.679,159.166],[152.765,159.147],[152.851,159.136],[152.938,159.132],[156.435,159.132],[156.522,159.136],[156.608,159.147],[156.693,159.166],[156.777,159.192],[215.856,181.849],[215.936,181.883],[216.013,181.923],[216.087,181.97],[216.156,182.023],[216.221,182.082],[216.28,182.146],[216.333,182.215],[216.38,182.289],[216.42,182.366],[216.453,182.447],[216.479,182.53],[216.498,182.615],[216.51,182.702],[216.513,182.789],[216.51,182.876],[216.498,182.963],[216.479,183.048],[213.914,192.622],[213.799,193.013],[213.745,193.172],[213.663,193.397],[213.538,193.708],[213.509,193.774],[213.336,194.142],[213.292,194.227],[213.144,194.501],[213.01,194.728],[212.934,194.85],[212.706,195.188],[212.692,195.207],[212.462,195.514],[212.341,195.663],[212.201,195.827],[211.958,196.091],[211.925,196.126],[211.634,196.41],[211.546,196.491],[211.329,196.68],[211.105,196.861],[211.01,196.934],[210.679,197.171],[210.64,197.198],[210.337,197.391],[210.151,197.5],[209.983,197.593],[209.642,197.767],[209.62,197.777],[209.248,197.943],[209.115,197.997],[208.868,198.089],[208.573,198.188],[208.481,198.216],[208.088,198.322],[208.018,198.339],[207.69,198.409],[165.36,207.067],[165.274,207.078],[165.187,207.082],[163.187,207.082],[163.099,207.078],[163.013,207.067],[162.928,207.048],[162.844,207.022],[162.764,206.988],[162.687,206.948],[162.613,206.901],[162.544,206.848],[162.479,206.789],[162.42,206.725],[162.393,206.691],[162.367,206.655],[162.343,206.619],[154.367,194.653],[154.32,194.58],[154.28,194.503],[154.247,194.422],[154.221,194.339],[154.202,194.254],[154.19,194.167],[151.947,163.31],[151.937,162.932],[151.937,160.132]]
EXCLUDE_OBJECT_DEFINE NAME=Hook_-_V2_-_Medium.STL_id_1_copy_0 CENTER=184.225,126.893 POLYGON=[[151.937,103.918],[151.943,103.831],[151.954,103.744],[151.973,103.659],[151.999,103.576],[152.033,103.496],[152.073,103.418],[152.12,103.345],[152.173,103.275],[152.232,103.211],[152.296,103.152],[152.365,103.099],[152.439,103.052],[152.516,103.012],[152.596,102.978],[152.679,102.952],[152.765,102.933],[152.851,102.922],[152.938,102.918],[156.435,102.918],[156.522,102.922],[156.608,102.933],[156.693,102.952],[156.777,102.978],[215.856,125.636],[215.936,125.669],[216.013,125.709],[216.087,125.756],[216.156,125.809],[216.221,125.868],[216.28,125.932],[216.333,126.002],[216.38,126.075],[216.42,126.153],[216.453,126.233],[216.479,126.316],[216.498,126.402],[216.51,126.488],[216.513,126.575],[216.51,126.662],[216.498,126.749],[216.479,126.834],[213.914,136.409],[213.799,136.799],[213.745,136.958],[213.663,137.183],[213.538,137.494],[213.509,137.56],[213.336,137.928],[213.292,138.014],[213.144,138.288],[213.01,138.515],[212.934,138.636],[212.706,138.974],[212.692,138.994],[212.462,139.3],[212.341,139.449],[212.201,139.613],[211.958,139.878],[211.925,139.912],[211.634,140.197],[211.546,140.278],[211.329,140.466],[211.105,140.647],[211.01,140.72],[210.679,140.957],[210.64,140.984],[210.337,141.177],[210.151,141.287],[209.983,141.38],[209.642,141.553],[209.62,141.564],[209.248,141.729],[209.115,141.783],[208.868,141.875],[208.573,141.974],[208.481,142.002],[208.088,142.109],[208.018,142.126],[207.69,142.195],[165.36,150.853],[165.274,150.864],[165.187,150.868],[163.187,150.868],[163.099,150.864],[163.013,150.853],[162.928,150.834],[162.844,150.808],[162.764,150.774],[162.687,150.734],[162.613,150.687],[162.544,150.634],[162.479,150.575],[162.42,150.511],[162.393,150.477],[162.367,150.442],[162.343,150.405],[154.367,138.44],[154.32,138.366],[154.28,138.289],[154.247,138.208],[154.221,138.125],[154.202,138.04],[154.19,137.954],[151.947,107.097],[151.937,106.718],[151.937,103.918]]
EXCLUDE_OBJECT_DEFINE NAME=Pegboard_Hook_Secure_v2.stl_id_2_copy_0 CENTER=117.712,187.002 POLYGON=[[93.4865,203.272],[93.5262,202.366],[95.0865,166.922],[134.317,166.922],[135.063,166.959],[135.803,167.068],[136.528,167.25],[137.233,167.502],[137.909,167.822],[138.55,168.206],[139.151,168.652],[139.705,169.154],[140.207,169.708],[140.652,170.308],[141.037,170.95],[141.356,171.626],[141.608,172.33],[141.79,173.055],[141.9,173.795],[141.937,174.542],[141.937,181.182],[97.4865,207.082],[93.4865,207.082],[93.4865,203.272]]
EXCLUDE_OBJECT_DEFINE NAME=Pegboard_Hook_Secure_v2.stl_id_3_copy_0 CENTER=118.933,136.842 POLYGON=[[94.7082,153.112],[94.7479,152.206],[96.3082,116.762],[135.538,116.762],[136.285,116.799],[137.025,116.908],[137.75,117.09],[138.454,117.342],[139.13,117.662],[139.772,118.046],[140.372,118.492],[140.926,118.994],[141.429,119.548],[141.874,120.148],[142.258,120.79],[142.578,121.466],[142.83,122.17],[143.012,122.895],[143.122,123.635],[143.158,124.382],[143.158,131.022],[98.7082,156.922],[94.7082,156.922],[94.7082,153.112]]
M73 P0 R27
;TYPE:Custom
START_PRINT T_BED=70 T_EXTRUDER=235
G90
G21
M83 ; use relative distances for extrusion
; Filament gcode
PRESSURE_ADVANCE_SELECT FILAMENT=PETG
M106 S0
;LAYER_CHANGE
;Z:0.2
;HEIGHT:0.2
;BEFORE_LAYER_CHANGE
;0.2
G92 E0

SET_VELOCITY_LIMIT ACCEL=1500 ACCEL_TO_DECEL=750
G1 E-.8 F3000
G1 Z.4 F9000
G1 X93.979 Y209.603
G1 Z.4
G1 Z.2
G1 E.8 F1800
;TYPE:Skirt
;WIDTH:0.5
G1 F3000
G1 X92.912 Y208.53 E.05465
G1 X92.527 Y207.109 E.05314
G1 X92.172 Y168.968 E1.37719
G1 X93.395 Y118.645 E1.81747
G1 X93.824 Y117.193 E.05465
G1 X94.615 Y116.344 E.04192
G1 X97.241 Y114.47 E.11646
G1 X98.236 Y114.013 E.03956
G1 X152.44 Y100.653 E2.01565
G1 X153.137 Y100.569 E.02536
G1 X154.854 Y100.569 E.06198
G1 X156.04 Y100.588 E.04284
G1 X156.96 Y100.805 E.03411
G1 X216.294 Y123.343 E2.29166
G1 X216.816 Y123.604 E.02109
G1 X217.342 Y123.992 E.02359
G1 X217.963 Y124.727 E.03473
G1 X218.265 Y125.344 E.0248
G1 X218.475 Y126.498 E.04236
G1 X218.475 Y182.712 E2.02965
G1 X218.363 Y183.553 E.03063
G1 X215.778 Y193.198 E.36057
G1 X215.459 Y194.16 E.03656
G1 X214.875 Y195.399 E.04947
G1 X213.945 Y196.781 E.06015
G1 X213.272 Y197.537 E.03656
G1 X212.525 Y198.221 E.03656
G1 X211.713 Y198.826 E.03656
G1 X210.843 Y199.344 E.03656
G1 X209.925 Y199.772 E.03656
G1 X208.969 Y200.104 E.03656
G1 X165.053 Y209.41 E1.62086
G1 X95.532 Y209.996 E2.51019
G1 X94.018 Y209.613 E.0564
G1 X94.144 Y209.156 F9000
G1 F3000
G1 X94.11 Y209.147 E.00127
G1 X93.203 Y208.096 E.0501
G1 X92.984 Y207.105 E.03667
G1 X92.629 Y168.876 E1.38034
G1 X93.852 Y118.656 E1.81377
G1 X94.276 Y117.335 E.0501
G1 X94.881 Y116.716 E.03124
G1 X97.506 Y114.842 E.11646
G1 X98.346 Y114.457 E.03336
G1 X152.549 Y101.097 E2.01565
G1 X153.137 Y101.026 E.02139
G1 X154.854 Y101.026 E.06198
G1 X156.003 Y101.044 E.0415
G1 X156.797 Y101.232 E.02947
G1 X216.131 Y123.771 E2.29166
G1 X217.032 Y124.329 E.03827
G1 X217.572 Y124.965 E.03012
G1 X217.84 Y125.51 E.02194
G1 X218.018 Y126.498 E.03624
G1 X218.018 Y182.712 E2.02965
G1 X217.922 Y183.434 E.02633
G1 X215.339 Y193.069 E.36015
M73 P1 R27
G1 X215.036 Y193.986 E.03488
G1 X214.472 Y195.184 E.04779
G1 X213.594 Y196.488 E.05679
G1 X212.24 Y197.863 E.06967
G1 X210.637 Y198.937 E.06967
G1 X208.849 Y199.663 E.06967
G1 X165.014 Y208.955 E1.61786
G1 X95.532 Y209.539 E2.50881
G1 X94.182 Y209.167 E.05056
; printing object Hook_-_V2_-_Medium.STL id:0 copy 0
G1 E-.8
EXCLUDE_OBJECT_START NAME=Hook_-_V2_-_Medium.STL_id_0_copy_0
G1 Z.6 F9000
G1 X162.437 Y190.642 Z.6
G1 Z.2
G1 E.8 F1800
;TYPE:Outer wall
;WIDTH:0.499999
G1 F3000
G1 X162.437 Y168.621 E.79508
G1 X162.356 Y168.447 E.00693
G1 X162.209 Y168.393 E.00568
G1 X158.381 Y168.384 E.13821
G1 X157.772 Y168.315 E.02212
G1 X157.178 Y168.18 E.022
G1 X156.314 Y167.85 E.03336
G1 X155.781 Y167.556 E.02199
G1 X155.282 Y167.201 E.02212
G1 X154.825 Y166.793 E.02209
G1 X154.417 Y166.336 E.02212
G1 X154.063 Y165.837 E.02211
G1 X153.767 Y165.301 E.02211
G1 X153.533 Y164.738 E.022
G1 X153.303 Y163.846 E.03325
G1 X153.226 Y162.922 E.0335
G1 X153.229 Y160.14 E.10044
G1 X153.298 Y159.946 E.00741
G1 X155.7 Y159.956 E.08673
G1 X155.898 Y160.017 E.00751
G1 X155.972 Y160.161 E.00582
G1 X155.973 Y162.961 E.1011
G1 X156.063 Y163.625 E.0242
G1 X156.314 Y164.248 E.02424
G1 X156.618 Y164.674 E.01892
G1 X156.989 Y165.046 E.01895
G1 X157.568 Y165.403 E.02456
G1 X157.972 Y165.548 E.01548
G1 X158.478 Y165.638 E.01856
G1 X164.631 Y165.65 E.22217
G1 X164.769 Y165.675 E.00505
G1 X164.906 Y165.773 E.00609
G1 X164.974 Y165.958 E.00712
G1 X164.984 Y194.095 E1.01594
G1 X165.066 Y194.671 E.021
G1 X165.23 Y195.237 E.02127
G1 X165.609 Y196.014 E.0312
G1 X165.955 Y196.491 E.02128
G1 X166.606 Y197.117 E.03261
G1 X167.054 Y197.423 E.01957
G1 X167.581 Y197.684 E.02123
G1 X168.358 Y197.919 E.02933
G1 X168.988 Y197.998 E.0229
G1 X169.553 Y197.987 E.02041
G1 X206.555 Y194.75 E1.34108
G1 X207.134 Y194.657 E.02117
G1 X207.687 Y194.488 E.0209
G1 X208.478 Y194.083 E.03208
G1 X209.172 Y193.515 E.03239
G1 X209.674 Y192.915 E.02823
G1 X210.077 Y192.168 E.03065
G1 X210.257 Y191.643 E.02004
G1 X212.813 Y182.104 E.35657
G1 X212.904 Y182.002 E.00494
G1 X213.072 Y181.954 E.00629
G1 X215.144 Y182.509 E.07745
G1 X215.28 Y182.66 E.00733
G1 X215.301 Y182.719 E.00226
G1 X212.743 Y192.302 E.35813
G1 X212.528 Y192.965 E.02517
G1 X212.281 Y193.533 E.02237
G1 X211.715 Y194.485 E.03997
G1 X211.098 Y195.232 E.03499
G1 X210.548 Y195.75 E.0273
G1 X209.997 Y196.166 E.0249
G1 X209.409 Y196.523 E.02485
G1 X208.522 Y196.921 E.03512
G1 X207.799 Y197.143 E.0273
G1 X207.121 Y197.273 E.0249
G1 X168.803 Y200.635 E1.38882
M73 P1 R26
G1 X168.236 Y200.727 E.02074
G1 X167.623 Y200.932 E.02336
G1 X167.166 Y201.155 E.01834
G1 X166.697 Y201.432 E.01967
G1 X166.065 Y202.002 E.03072
G1 X165.561 Y202.686 E.03068
G1 X165.224 Y203.403 E.02862
G1 X165.056 Y203.999 E.02236
G1 X164.982 Y204.561 E.02045
G1 X164.973 Y206.025 E.05288
G1 X164.907 Y206.189 E.00635
G1 X164.676 Y206.267 E.00881
G1 X162.484 Y206.267 E.07913
G1 X162.437 Y206.055 E.00785
G1 X162.437 Y194.272 E.42545
G1 X162.403 Y193.902 E.0134
G1 X162.327 Y193.826 E.0039
G1 X162.208 Y193.793 E.00445
G1 X155.236 Y193.795 E.25172
G1 X155.001 Y193.739 E.00872
G1 X155.001 Y190.933 E.10131
G1 X155.204 Y190.869 E.00768
G1 X162.208 Y190.871 E.25289
G1 X162.274 Y190.861 E.00242
G1 X162.403 Y190.761 E.00587
G1 X162.426 Y190.681 E.00303
G1 X162.864 Y190.746 F9000
;TYPE:Inner wall
G1 F3000
G1 X162.894 Y190.642 E.00389
G1 X162.894 Y168.621 E.79508
G1 X162.824 Y168.32 E.01115
G1 X162.652 Y168.099 E.01012
G1 X162.21 Y167.936 E.01703
G1 X158.407 Y167.927 E.1373
G1 X157.849 Y167.864 E.02029
G1 X157.311 Y167.741 E.01992
G1 X156.507 Y167.435 E.03104
G1 X156.025 Y167.168 E.01991
G1 X155.567 Y166.843 E.02027
G1 X155.149 Y166.47 E.02023
G1 X154.775 Y166.051 E.02027
G1 X154.45 Y165.594 E.02026
G1 X154.179 Y165.102 E.02026
G1 X153.968 Y164.593 E.01992
G1 X153.756 Y163.77 E.0307
G1 X153.683 Y162.903 E.0314
G1 X153.686 Y160.404 E.09024
G1 X155.515 Y160.411 E.06602
G1 X155.52 Y163.018 E.09412
G1 X155.638 Y163.791 E.02825
G1 X155.861 Y164.364 E.02222
G1 X155.981 Y164.568 E.00852
G1 X156.346 Y165.073 E.02252
G1 X156.749 Y165.435 E.01955
G1 X157.349 Y165.804 E.02543
G1 X157.889 Y165.998 E.02071
G1 X158.479 Y166.095 E.02161
G1 X164.517 Y166.107 E.21798
G1 X164.531 Y194.158 E1.01283
G1 X164.627 Y194.796 E.02328
G1 X164.819 Y195.436 E.02411
G1 X165.237 Y196.28 E.03404
G1 X165.635 Y196.818 E.02412
G1 X166.347 Y197.493 E.03545
G1 X166.849 Y197.831 E.02184
G1 X167.447 Y198.121 E.024
G1 X168.3 Y198.372 E.0321
G1 X168.996 Y198.455 E.02532
G1 X169.593 Y198.442 E.02155
G1 X206.594 Y195.205 E1.34108
G1 X207.265 Y195.095 E.02452
G1 X207.89 Y194.898 E.02369
G1 X208.76 Y194.443 E.03543
G1 X209.521 Y193.81 E.03573
G1 X210.075 Y193.134 E.03157
G1 X210.536 Y192.239 E.03635
G1 X210.698 Y191.761 E.01822
G1 X213.191 Y182.459 E.34771
G1 X214.783 Y182.886 E.05952
G1 X212.304 Y192.173 E.34705
G1 X212.101 Y192.803 E.02393
G1 X211.873 Y193.324 E.02053
G1 X211.341 Y194.221 E.03766
G1 X210.764 Y194.919 E.03268
G1 X210.252 Y195.401 E.02538
G1 X209.74 Y195.788 E.02317
G1 X209.196 Y196.118 E.02299
G1 X208.36 Y196.493 E.03307
G1 X207.688 Y196.699 E.02538
G1 X207.058 Y196.82 E.02317
G1 X169.633 Y200.103 E1.35645
G1 X168.733 Y200.183 E.03264
G1 X168.091 Y200.293 E.02351
G1 X167.328 Y200.549 E.02907
G1 X166.937 Y200.759 E.01603
G1 X166.393 Y201.091 E.02299
G1 X165.698 Y201.729 E.03404
G1 X165.148 Y202.49 E.03392
G1 X164.784 Y203.278 E.03133
G1 X164.603 Y203.938 E.02472
G1 X164.525 Y204.558 E.02258
G1 X164.517 Y205.81 E.04518
G1 X162.894 Y205.81 E.05862
G1 X162.894 Y194.064 E.42409
G1 X162.793 Y193.664 E.01491
G1 X162.564 Y193.435 E.01169
G1 X162.407 Y193.365 E.0062
G1 X162.208 Y193.336 E.00727
G1 X155.458 Y193.338 E.2437
G1 X155.458 Y191.326 E.07263
G1 X162.208 Y191.328 E.2437
G1 X162.407 Y191.298 E.00727
G1 X162.564 Y191.228 E.0062
G1 X162.793 Y191 E.01169
G1 X162.854 Y190.784 E.00808
G1 X163.303 Y191.027 F9000
;WIDTH:0.59395
G1 F3000
G1 X163.33 Y190.98 E.00233
;WIDTH:0.640925
G1 X163.403 Y190.852 E.007
G1 X163.415 Y190.642 E.0099
;WIDTH:0.629555
G1 X163.414 Y168.621 E1.02044
;WIDTH:0.62631
G1 X163.354 Y168.454 E.00819
;WIDTH:0.584207
G1 X163.294 Y168.287 E.00759
;WIDTH:0.542103
G1 X163.235 Y168.12 E.007
;WIDTH:0.499999
G1 X162.948 Y167.751 E.01687
G1 X162.211 Y167.479 E.02838
G1 X158.458 Y167.47 E.13548
G1 X157.951 Y167.416 E.01842
G1 X157.444 Y167.303 E.01877
G1 X156.959 Y167.118 E.01872
G1 X156.292 Y166.793 E.02681
G1 X155.874 Y166.5 E.01843
G1 X155.492 Y166.163 E.01837
G1 X155.15 Y165.785 E.0184
G1 X154.853 Y165.371 E.0184
G1 X154.604 Y164.927 E.0184
G1 X154.403 Y164.448 E.01876
G1 X154.208 Y163.693 E.02815
G1 X154.14 Y162.884 E.0293
G1 X154.143 Y160.861 E.07306
G1 X155.058 Y160.863 E.03304
G1 X155.058 Y162.865 E.07229
G1 X155.066 Y163.074 E.00756
G1 X155.142 Y163.683 E.02217
G1 X155.279 Y164.13 E.01688
G1 X155.57 Y164.779 E.02568
G1 X155.928 Y165.28 E.02222
G1 X156.348 Y165.703 E.02154
G1 X156.766 Y165.982 E.01813
G1 X157.309 Y166.287 E.02248
G1 X157.806 Y166.447 E.01887
G1 X158.478 Y166.552 E.02458
G1 X164.06 Y166.563 E.20152
G1 X164.06 Y167.929 E.04932
;WIDTH:0.542104
G1 X164.039 Y168.16 E.00914
;WIDTH:0.584208
G1 X164.018 Y168.391 E.00991
;WIDTH:0.626312
G1 X163.997 Y168.621 E.01068
;WIDTH:0.629555
G1 X164.002 Y190.642 E1.02044
;WIDTH:0.640925
G1 X163.996 Y190.903 E.01232
G1 X164.02 Y191.098 E.00926
;WIDTH:0.59395
G1 X164.044 Y191.292 E.00853
;WIDTH:0.546975
G1 X164.067 Y191.487 E.00781
;WIDTH:0.499999
G1 X164.068 Y193.176 E.061
;WIDTH:0.545749
G1 X164.049 Y193.528 E.01398
;WIDTH:0.591499
G1 X164.03 Y193.879 E.01525
;WIDTH:0.637248
G1 X164.011 Y194.231 E.01652
;WIDTH:0.675322
G1 X164.068 Y194.778 E.0275
G1 X164.102 Y194.857 E.00427
