; HEADER_BLOCK_START
; generated by OrcaSlicer 1.6.6 on 2023-08-31 at 20:45:53
; total layer number: 22
; HEADER_BLOCK_END

; THUMBNAIL_BLOCK_START
; THUMBNAIL_BLOCK_END

; external perimeters extrusion width = 0.40mm
; perimeters extrusion width = 0.45mm
; infill extrusion width = 0.45mm
; solid infill extrusion width = 0.40mm
; top infill extrusion width = 0.40mm
; support material extrusion width = 0.40mm
; first layer extrusion width = 0.50mm

; external perimeters extrusion width = 0.40mm
; perimeters extrusion width = 0.45mm
; infill extrusion width = 0.45mm
; solid infill extrusion width = 0.40mm
; top infill extrusion width = 0.40mm
; support material extrusion width = 0.40mm
; first layer extrusion width = 0.50mm

; external perimeters extrusion width = 0.40mm
; perimeters extrusion width = 0.45mm
; infill extrusion width = 0.45mm
; solid infill extrusion width = 0.40mm
; top infill extrusion width = 0.40mm
; support material extrusion width = 0.40mm
; first layer extrusion width = 0.50mm

; external perimeters extrusion width = 0.40mm
; perimeters extrusion width = 0.45mm
; infill extrusion width = 0.45mm
; solid infill extrusion width = 0.40mm
; top infill extrusion width = 0.40mm
; support material extrusion width = 0.40mm
; first layer extrusion width = 0.50mm

; external perimeters extrusion width = 0.40mm
; perimeters extrusion width = 0.45mm
; infill extrusion width = 0.45mm
; solid infill extrusion width = 0.40mm
; top infill extrusion width = 0.40mm
; support material extrusion width = 0.40mm
; first layer extrusion width = 0.50mm

; external perimeters extrusion width = 0.40mm
; perimeters extrusion width = 0.45mm
; infill extrusion width = 0.45mm
; solid infill extrusion width = 0.40mm
; top infill extrusion width = 0.40mm
; support material extrusion width = 0.40mm
; first layer extrusion width = 0.50mm

; EXECUTABLE_BLOCK_START
EXCLUDE_OBJECT_DEFINE NAME=Hook_-_V2_-_Medium.STL_id_0_copy_0 CENTER=195.71,204.439 POLYGON=[[163.422,224.614],[163.432,224.235],[165.676,193.378],[165.687,193.292],[165.706,193.207],[165.732,193.124],[165.766,193.043],[165.806,192.966],[165.853,192.892],[173.828,180.927],[173.853,180.89],[173.879,180.855],[173.906,180.821],[173.965,180.757],[174.029,180.698],[174.098,180.645],[174.172,180.598],[174.249,180.558],[174.33,180.524],[174.413,180.498],[174.498,180.479],[174.585,180.468],[174.672,180.464],[176.672,180.464],[176.759,180.468],[176.846,180.479],[219.175,189.137],[219.503,189.207],[219.573,189.223],[219.966,189.33],[220.058,189.358],[220.353,189.457],[220.6,189.549],[220.733,189.603],[221.105,189.768],[221.127,189.779],[221.469,189.952],[221.636,190.045],[221.822,190.155],[222.125,190.348],[222.165,190.375],[222.496,190.612],[222.591,190.685],[222.814,190.866],[223.031,191.054],[223.119,191.135],[223.41,191.42],[223.444,191.455],[223.687,191.719],[223.827,191.883],[223.947,192.032],[224.178,192.338],[224.192,192.358],[224.419,192.696],[224.495,192.818],[224.629,193.045],[224.777,193.318],[224.821,193.404],[224.994,193.772],[225.023,193.838],[225.149,194.149],[225.231,194.374],[225.284,194.533],[225.399,194.924],[227.965,204.498],[227.984,204.583],[227.995,204.67],[227.999,204.757],[227.995,204.844],[227.984,204.93],[227.965,205.016],[227.939,205.099],[227.905,205.179],[227.865,205.257],[227.818,205.33],[227.765,205.4],[227.706,205.464],[227.642,205.523],[227.572,205.576],[227.499,205.623],[227.421,205.663],[227.341,205.697],[168.262,228.354],[168.179,228.38],[168.094,228.399],[168.007,228.41],[167.92,228.414],[164.423,228.414],[164.336,228.41],[164.25,228.399],[164.165,228.38],[164.082,228.354],[164.001,228.32],[163.924,228.28],[163.85,228.233],[163.781,228.18],[163.717,228.121],[163.658,228.057],[163.605,227.988],[163.558,227.914],[163.518,227.837],[163.485,227.756],[163.458,227.673],[163.439,227.588],[163.428,227.501],[163.422,227.414],[163.422,224.614]]
EXCLUDE_OBJECT_DEFINE NAME=Hook_-_V2_-_Medium.STL_id_1_copy_0 CENTER=195.71,148.225 POLYGON=[[163.422,168.4],[163.432,168.022],[165.676,137.165],[165.687,137.078],[165.706,136.993],[165.732,136.91],[165.766,136.83],[165.806,136.752],[165.853,136.679],[173.828,124.713],[173.853,124.677],[173.879,124.641],[173.906,124.607],[173.965,124.543],[174.029,124.484],[174.098,124.431],[174.172,124.384],[174.249,124.344],[174.33,124.311],[174.413,124.284],[174.498,124.265],[174.585,124.254],[174.672,124.25],[176.672,124.25],[176.759,124.254],[176.846,124.265],[219.175,132.923],[219.503,132.993],[219.573,133.01],[219.966,133.116],[220.058,133.144],[220.353,133.243],[220.6,133.336],[220.733,133.389],[221.105,133.555],[221.127,133.565],[221.469,133.739],[221.636,133.832],[221.822,133.941],[222.125,134.134],[222.165,134.161],[222.496,134.398],[222.591,134.471],[222.814,134.652],[223.031,134.841],[223.119,134.922],[223.41,135.206],[223.444,135.241],[223.687,135.506],[223.827,135.67],[223.947,135.818],[224.178,136.125],[224.192,136.144],[224.419,136.482],[224.495,136.604],[224.629,136.831],[224.777,137.105],[224.821,137.19],[224.994,137.558],[225.023,137.624],[225.149,137.935],[225.231,138.16],[225.284,138.319],[225.399,138.71],[227.965,148.284],[227.984,148.37],[227.995,148.456],[227.999,148.543],[227.995,148.63],[227.984,148.717],[227.965,148.802],[227.939,148.885],[227.905,148.966],[227.865,149.043],[227.818,149.117],[227.765,149.186],[227.706,149.25],[227.642,149.309],[227.572,149.362],[227.499,149.409],[227.421,149.449],[227.341,149.483],[168.262,172.14],[168.179,172.166],[168.094,172.185],[168.007,172.196],[167.92,172.2],[164.423,172.2],[164.336,172.196],[164.25,172.185],[164.165,172.166],[164.082,172.14],[164.001,172.107],[163.924,172.066],[163.85,172.019],[163.781,171.966],[163.717,171.907],[163.658,171.843],[163.605,171.774],[163.558,171.7],[163.518,171.623],[163.485,171.542],[163.458,171.459],[163.439,171.374],[163.428,171.287],[163.422,171.2],[163.422,168.4]]
EXCLUDE_OBJECT_DEFINE NAME=Hook_-_V2_-_Medium.STL_id_2_copy_0 CENTER=122.53,148.225 POLYGON=[[90.2416,168.4],[90.2522,168.022],[92.4954,137.165],[92.5068,137.078],[92.5256,136.993],[92.5519,136.91],[92.5853,136.83],[92.6255,136.752],[92.6724,136.679],[100.648,124.713],[100.672,124.677],[100.698,124.641],[100.726,124.607],[100.784,124.543],[100.849,124.484],[100.918,124.431],[100.992,124.384],[101.069,124.344],[101.15,124.311],[101.233,124.284],[101.318,124.265],[101.404,124.254],[101.492,124.25],[103.492,124.25],[103.579,124.254],[103.665,124.265],[145.995,132.923],[146.323,132.993],[146.393,133.01],[146.786,133.116],[146.878,133.144],[147.173,133.243],[147.42,133.336],[147.553,133.389],[147.925,133.555],[147.947,133.565],[148.288,133.739],[148.456,133.832],[148.642,133.941],[148.945,134.134],[148.984,134.161],[149.315,134.398],[149.41,134.471],[149.634,134.652],[149.851,134.841],[149.939,134.922],[150.23,135.206],[150.263,135.241],[150.506,135.506],[150.646,135.67],[150.767,135.818],[150.997,136.125],[151.011,136.144],[151.239,136.482],[151.315,136.604],[151.449,136.831],[151.597,137.105],[151.641,137.19],[151.814,137.558],[151.843,137.624],[151.969,137.935],[152.05,138.16],[152.104,138.319],[152.219,138.71],[154.784,148.284],[154.803,148.37],[154.815,148.456],[154.819,148.543],[154.815,148.63],[154.803,148.717],[154.784,148.802],[154.758,148.885],[154.725,148.966],[154.685,149.043],[154.638,149.117],[154.585,149.186],[154.526,149.25],[154.461,149.309],[154.392,149.362],[154.319,149.409],[154.241,149.449],[154.161,149.483],[95.0817,172.14],[94.9985,172.166],[94.9134,172.185],[94.827,172.196],[94.74,172.2],[91.2431,172.2],[91.156,172.196],[91.0696,172.185],[90.9845,172.166],[90.9014,172.14],[90.8209,172.107],[90.7436,172.066],[90.67,172.019],[90.6009,171.966],[90.5366,171.907],[90.4778,171.843],[90.4247,171.774],[90.3779,171.7],[90.3376,171.623],[90.3043,171.542],[90.278,171.459],[90.2592,171.374],[90.2478,171.287],[90.2416,171.2],[90.2416,168.4]]
EXCLUDE_OBJECT_DEFINE NAME=Pegboard_L_1.5in_v2.stl_id_3_copy_0 CENTER=122.847,208.334 POLYGON=[[92.2719,224.604],[93.8719,188.254],[152.787,188.254],[152.951,188.276],[153.104,188.339],[153.236,188.44],[153.337,188.571],[153.4,188.725],[153.422,188.889],[153.422,193.588],[153.403,193.74],[153.349,193.883],[153.262,194.009],[153.147,194.11],[96.2719,228.414],[92.2719,228.414],[92.2719,224.604]]
EXCLUDE_OBJECT_DEFINE NAME=Pegboard_L_1.5in_v2.stl_id_4_copy_0 CENTER=182.28,103.763 POLYGON=[[151.705,120.033],[153.305,83.6827],[212.22,83.6827],[212.384,83.7044],[212.538,83.7678],[212.669,83.8687],[212.77,84.0002],[212.834,84.1534],[212.855,84.3177],[212.855,89.0164],[212.837,89.1684],[212.782,89.3117],[212.695,89.4377],[212.58,89.5392],[155.705,123.843],[151.705,123.843],[151.705,120.033]]
EXCLUDE_OBJECT_DEFINE NAME=Pegboard_L_1.5in_v2.stl_id_5_copy_0 CENTER=112.576,101.666 POLYGON=[[82.0012,117.936],[83.6012,81.586],[142.516,81.586],[142.681,81.6077],[142.834,81.6711],[142.965,81.772],[143.066,81.9035],[143.13,82.0567],[143.151,82.221],[143.151,86.9197],[143.133,87.0717],[143.078,87.215],[142.991,87.341],[142.877,87.4425],[86.0012,121.746],[82.0012,121.746],[82.0012,117.936]]
M73 P0 R41
;TYPE:Custom
START_PRINT T_BED=60 T_EXTRUDER=220
G90
G21
M83 ; use relative distances for extrusion
; filament start gcode
PRESSURE_ADVANCE_SELECT FILAMENT=PLA
M106 S0
;LAYER_CHANGE
;Z:0.2
;HEIGHT:0.2
;BEFORE_LAYER_CHANGE
;0.2
G92 E0

SET_VELOCITY_LIMIT ACCEL=1500 ACCEL_TO_DECEL=750
G1 E-.8 F3000
G1 Z.4 F9000
G1 X85.876 Y83.5
G1 Z.4
G1 Z.2
G1 E.8 F1800
;TYPE:Skirt
;WIDTH:0.5
G1 F3000
G1 X86.269 Y82.038 E.05638
G1 X87.467 Y80.904 E.06145
G1 X91.183 Y79.01 E.15534
G1 X91.681 Y78.811 E.02001
G1 X92.309 Y78.687 E.02383
G1 X142.524 Y78.673 E1.87032
G1 X212.316 Y80.771 E2.60064
G1 X212.765 Y80.815 E.01682
G1 X213.653 Y81.075 E.03446
G1 X214.443 Y81.557 E.03447
G1 X215.106 Y82.261 E.03601
G1 X215.465 Y82.892 E.02707
G1 X215.679 Y83.526 E.0249
G1 X229.932 Y148.215 E2.46723
G1 X229.961 Y204.834 E2.10885
G1 X229.918 Y205.364 E.01978
G1 X229.751 Y205.989 E.0241
G1 X229.488 Y206.54 E.02276
G1 X229.139 Y207.024 E.0222
G1 X228.412 Y207.658 E.03595
G1 X227.779 Y207.989 E.02659
G1 X168.445 Y230.527 E2.36403
G1 X167.525 Y230.744 E.03518
G1 X164.175 Y230.729 E.12478
G1 X102.378 Y221.128 E2.32934
G1 X101.329 Y220.763 E.04137
G1 X100.848 Y220.432 E.02174
G1 X100.423 Y220.003 E.02251
G1 X99.844 Y218.842 E.0483
G1 X88.385 Y171.56 E1.81207
G1 X85.877 Y83.755 E3.27174
G1 X85.876 Y83.54 E.00799
G1 X86.333 Y83.538 F9000
G1 F3000
G1 X86.333 Y83.5 E.00142
G1 X86.725 Y82.169 E.05169
G1 X87.674 Y81.311 E.04766
G1 X91.39 Y79.417 E.15534
G1 X92.355 Y79.142 E.03739
G1 X142.524 Y79.13 E1.86859
G1 X212.302 Y81.228 E2.60013
G1 X212.705 Y81.268 E.0151
G1 X213.478 Y81.498 E.03002
G1 X214.165 Y81.919 E.03002
G1 X214.74 Y82.535 E.03137
G1 X215.043 Y83.067 E.02282
G1 X215.233 Y83.624 E.02191
G1 X229.48 Y148.279 E2.46591
G1 X229.504 Y204.834 E2.10648
G1 X229.325 Y205.822 E.03738
G1 X229.097 Y206.303 E.01981
G1 X228.792 Y206.727 E.01948
G1 X228.167 Y207.272 E.03086
G1 X227.617 Y207.561 E.02318
G1 X168.283 Y230.1 E2.36403
G1 X167.489 Y230.288 E.0304
G1 X164.245 Y230.277 E.12079
G1 X102.448 Y220.677 E2.32934
G1 X101.549 Y220.363 E.03547
G1 X100.776 Y219.713 E.03761
G1 X100.288 Y218.734 E.04072
G1 X88.84 Y171.519 E1.80953
G1 X86.334 Y83.742 E3.27071
G1 X86.333 Y83.578 E.00609
; printing object Pegboard_L_1.5in v2.stl id:3 copy 0
G1 E-.8
EXCLUDE_OBJECT_START NAME=Pegboard_L_1.5in_v2.stl_id_3_copy_0
G1 Z.6 F9000
G1 X99.146 Y190.254 Z.6
G1 Z.2
G1 E.8 F1800
;TYPE:Outer wall
;WIDTH:0.38292
G1 F3000
G1 X100.324 Y190.254 E.03265
G1 E-.8
G1 Z.6 F9000
G1 X102.43 Y216.268 Z.6
G1 Z.2
G1 E.8 F1800
G1 F3000
G1 X102.694 Y216.264 E.00733
G1 X102.925 Y218.001 F9000
;WIDTH:0.499999
G1 F3000
G1 X102.924 Y216.321 E.06257
G1 X102.847 Y216.302 E.00294
;WIDTH:0.460973
G1 X102.771 Y216.283 E.00269
;WIDTH:0.421947
G1 X102.694 Y216.264 E.00244
G1 X102.771 Y216.246 E.00243
;WIDTH:0.460973
G1 X102.847 Y216.227 E.00268
;WIDTH:0.499999
G1 X102.924 Y216.209 E.00293
G1 X102.931 Y188.504 E1.03191
M73 P1 R41
G1 X152.695 Y188.505 E1.85351
G1 X152.974 Y188.562 E.0106
G1 X153.116 Y188.706 E.00753
G1 X153.172 Y188.982 E.01047
G1 X153.172 Y193.505 E.16847
G1 X153.121 Y193.763 E.00981
G1 X153.001 Y193.899 E.00674
G1 X152.832 Y193.963 E.00674
G1 X152.623 Y193.937 E.00786
G1 X150.028 Y192.949 E.1034
G1 X149.136 Y192.647 E.03508
G1 X148.224 Y192.41 E.0351
G1 X147.297 Y192.24 E.0351
G1 X146.361 Y192.138 E.0351
G1 X145.428 Y192.104 E.03477
G1 X110.531 Y192.104 E1.29976
G1 X109.938 Y192.148 E.02215
G1 X109.373 Y192.274 E.02157
G1 X108.831 Y192.478 E.02157
G1 X108.323 Y192.758 E.02157
G1 X107.861 Y193.107 E.02157
G1 X107.453 Y193.518 E.02157
G1 X107.108 Y193.983 E.02157
G1 X106.832 Y194.492 E.02157
G1 X106.632 Y195.036 E.02157
G1 X106.511 Y195.602 E.02157
G1 X106.472 Y196.163 E.02094
G1 X106.472 Y217.525 E.79563
G1 X106.413 Y217.807 E.01076
G1 X106.275 Y217.945 E.00726
G1 X106.055 Y218.004 E.00848
G1 X102.965 Y218.001 E.1151
G1 X103.382 Y217.547 F9000
;TYPE:Inner wall
G1 F3000
G1 X103.382 Y188.961 E1.06471
G1 X152.695 Y188.962 E1.83672
G1 X152.715 Y188.982 E.00104
G1 X152.715 Y193.483 E.16765
G1 X150.176 Y192.516 E.1012
G1 X149.252 Y192.204 E.03632
G1 X148.307 Y191.96 E.03634
G1 X147.347 Y191.785 E.03634
G1 X146.377 Y191.681 E.03634
G1 X145.428 Y191.647 E.03539
G1 X110.531 Y191.647 E1.29976
G1 X109.841 Y191.701 E.02579
G1 X109.213 Y191.845 E.024
G1 X108.612 Y192.077 E.024
G1 X108.05 Y192.392 E.024
G1 X107.538 Y192.783 E.024
G1 X107.087 Y193.244 E.024
G1 X106.707 Y193.764 E.024
G1 X106.404 Y194.333 E.024
G1 X106.186 Y194.939 E.024
G1 X106.055 Y195.57 E.024
G1 X106.015 Y196.163 E.02215
G1 X106.015 Y217.525 E.79563
G1 X105.995 Y217.547 E.0011
G1 X103.422 Y217.547 E.09586
G1 X103.839 Y217.09 F9000
G1 F3000
G1 X103.839 Y189.418 E1.03066
G1 X152.258 Y189.419 E1.80342
G1 X152.258 Y192.82 E.12666
G1 X150.323 Y192.084 E.07712
G1 X149.367 Y191.762 E.03756
G1 X148.39 Y191.511 E.03757
G1 X147.397 Y191.331 E.03757
G1 X146.394 Y191.224 E.03757
G1 X145.428 Y191.19 E.03601
G1 X110.531 Y191.19 E1.29976
G1 X109.744 Y191.255 E.02943
G1 X109.053 Y191.417 E.02642
G1 X108.393 Y191.676 E.02642
G1 X107.776 Y192.026 E.02642
G1 X107.215 Y192.46 E.02642
G1 X106.721 Y192.97 E.02642
G1 X106.306 Y193.545 E.02642
G1 X105.976 Y194.173 E.02642
G1 X105.739 Y194.842 E.02642
G1 X105.6 Y195.537 E.02642
G1 X105.558 Y196.163 E.02337
G1 X105.558 Y217.09 E.77944
G1 X103.879 Y217.09 E.06254
G1 E-.8
G1 Z.6 F9000
G1 X151.18 Y189.565 Z.6
G1 Z.2
G1 E.8 F1800
;TYPE:Bottom surface
;WIDTH:0.503736
G1 F3000
G1 X151.906 Y190.292 E.03857
G1 X151.906 Y190.943 E.02447
G1 X150.734 Y189.771 E.06225
G1 X150.082 Y189.771 E.02447
G1 X151.906 Y191.595 E.09686
G1 X151.906 Y192.247 E.02447
G1 X149.43 Y189.771 E.13147
G1 X148.778 Y189.771 E.02447
G1 X150.954 Y191.947 E.11554
G1 X149.937 Y191.581 E.04058
G1 X148.127 Y189.771 E.09613
G1 X147.475 Y189.771 E.02447
G1 X149.012 Y191.308 E.0816
G1 X148.555 Y191.187 E.01771
G1 X148.168 Y191.116 E.01479
G1 X146.823 Y189.771 E.07142
G1 X146.172 Y189.771 E.02447
G1 X147.375 Y190.975 E.06392
G1 X146.643 Y190.894 E.02765
G1 X145.52 Y189.771 E.05967
G1 X144.868 Y189.771 E.02447
G1 X145.955 Y190.858 E.05772
G1 X145.284 Y190.839 E.02519
G1 X144.216 Y189.771 E.05671
G1 X143.565 Y189.771 E.02447
G1 X144.633 Y190.839 E.05671
G1 X143.981 Y190.839 E.02447
G1 X142.913 Y189.771 E.05671
G1 X142.261 Y189.771 E.02447
G1 X143.329 Y190.839 E.05671
G1 X142.677 Y190.839 E.02447
G1 X141.61 Y189.771 E.05671
G1 X140.958 Y189.771 E.02447
G1 X142.026 Y190.839 E.05671
G1 X141.374 Y190.839 E.02447
G1 X140.306 Y189.771 E.05671
G1 X139.655 Y189.771 E.02447
G1 X140.722 Y190.839 E.05671
G1 X140.071 Y190.839 E.02447
G1 X139.003 Y189.771 E.05671
G1 X138.351 Y189.771 E.02447
G1 X139.419 Y190.839 E.05671
G1 X138.767 Y190.839 E.02447
G1 X137.699 Y189.771 E.05671
G1 X137.048 Y189.771 E.02447
G1 X138.116 Y190.839 E.05671
G1 X137.464 Y190.839 E.02447
G1 X136.396 Y189.771 E.05671
G1 X135.744 Y189.771 E.02447
G1 X136.812 Y190.839 E.05671
G1 X136.16 Y190.839 E.02447
G1 X135.093 Y189.771 E.05671
G1 X134.441 Y189.771 E.02447
G1 X135.509 Y190.839 E.05671
