; HEADER_BLOCK_START
; generated by OrcaSlicer 1.6.4-beta3 on 2023-08-20 at 22:23:08
; total layer number: 204
; HEADER_BLOCK_END

; THUMBNAIL_BLOCK_START
; THUMBNAIL_BLOCK_END

; external perimeters extrusion width = 0.40mm
; perimeters extrusion width = 0.45mm
; infill extrusion width = 0.45mm
; solid infill extrusion width = 0.40mm
; top infill extrusion width = 0.40mm
; support material extrusion width = 0.40mm
; first layer extrusion width = 0.50mm

; EXECUTABLE_BLOCK_START
EXCLUDE_OBJECT_DEFINE NAME=hook2.stl_id_0_copy_0 CENTER=155,155 POLYGON=[[30.5492,94.1888],[94.1888,30.5492],[279.451,215.811],[215.811,279.451],[30.5492,94.1888]]
M73 P0 R157
;TYPE:Custom
START_PRINT T_BED=70 T_EXTRUDER=235
G90
G21
M83 ; use relative distances for extrusion
; Filament gcode
PRESSURE_ADVANCE_SELECT FILAMENT=PETG
M106 S0
;LAYER_CHANGE
;Z:0.2
;HEIGHT:0.2
;BEFORE_LAYER_CHANGE
;0.2
G92 E0

SET_VELOCITY_LIMIT ACCEL=500 ACCEL_TO_DECEL=250
G1 E-.8 F3000
G1 Z.4 F9000
G1 X54.482 Y62.111
G1 Z.4
G1 Z.2
G1 E.8 F1800
;TYPE:Skirt
;WIDTH:0.5
G1 F3000
G1 X92.569 Y28.702 E1.82923
G1 X93.828 Y28.119 E.0501
G1 X95.202 Y28.311 E.0501
G1 X95.926 Y28.812 E.03179
G1 X281.188 Y214.074 E9.45977
G1 X281.852 Y215.292 E.0501
G1 X281.751 Y216.676 E.0501
G1 X281.298 Y217.431 E.03179
G1 X230.203 Y275.689 E2.79785
G1 X224.379 Y281.52 E.29757
G1 X222.641 Y282.24 E.0679
G1 X216.328 Y282.24 E.22796
G1 X214.999 Y281.85 E.05001
G1 X214.074 Y281.188 E.04105
G1 X28.812 Y95.926 E9.45977
G1 X28.15 Y95.001 E.04106
G1 X27.76 Y93.672 E.05
G1 X27.76 Y87.359 E.22796
G1 X28.48 Y85.621 E.0679
G1 X34.194 Y79.907 E.29177
G1 X54.452 Y62.137 E.97297
; printing object hook2.stl id:0 copy 0
G1 E-.8
EXCLUDE_OBJECT_START NAME=hook2.stl_id_0_copy_0
G1 Z.6 F9000
G1 X51.217 Y96.93 Z.6
G1 Z.2
G1 E.8 F1800
;TYPE:Support
G1 F3000
G1 X48.359 Y96.93 E.10316
G1 X48.359 Y99.787 E.10316
G1 X39.942 Y99.787 E.30393
G1 X51.217 Y88.512 E.5757
G1 X51.217 Y96.861 E.30145
G1 X50.805 Y96.518 F9000
G1 F3000
G1 X47.948 Y96.518 E.10316
G1 X47.948 Y99.375 E.10316
G1 X40.935 Y99.375 E.25322
G1 X50.805 Y89.505 E.50399
G1 X50.805 Y96.518 E.25322
G1 X50.297 Y96.011 F9000
G1 F3000
G1 X47.44 Y96.011 E.10316
G1 X47.44 Y98.868 E.10316
G1 X42.161 Y98.868 E.19061
G1 X50.297 Y90.731 E.41545
G1 X50.297 Y96.011 E.19061
G1 X49.789 Y95.503 F9000
G1 F3000
G1 X46.932 Y95.503 E.10316
G1 X46.932 Y98.36 E.10316
G1 X43.387 Y98.36 E.128
G1 X49.789 Y91.957 E.32691
G1 X49.789 Y95.503 E.128
G1 X46.424 Y96.041 F9000
G1 F3000
G1 X46.424 Y97.852 E.0654
G1 X44.613 Y97.852 E.0654
G1 X46.424 Y96.041 E.09248
G1 X47.47 Y94.995 F9000
G1 F3000
G1 X49.282 Y93.184 E.09248
G1 X49.282 Y94.995 E.0654
G1 X47.47 Y94.995 E.0654
G1 E-.8
G1 Z.6 F9000
G1 X30.217 Y93.672 Z.6
G1 Z.2
G1 E.8 F1800
G1 F3000
G1 X30.217 Y87.359 E.22796
G1 X33.074 Y87.359 E.10316
G1 X33.074 Y84.502 E.10316
G1 X35.931 Y84.502 E.10316
G1 X35.931 Y81.645 E.10316
G1 X42.245 Y81.645 E.22796
G1 X30.266 Y93.624 E.61168
G1 X41.252 Y82.056 F9000
G1 F3000
G1 X30.629 Y92.679 E.54244
G1 X30.629 Y87.77 E.17725
G1 X33.486 Y87.77 E.10316
G1 X33.486 Y84.913 E.10316
G1 X36.343 Y84.913 E.10316
G1 X36.343 Y82.056 E.10316
G1 X41.252 Y82.056 E.17725
G1 X40.026 Y82.564 F9000
G1 F3000
G1 X31.136 Y91.453 E.4539
G1 X31.136 Y88.278 E.11464
G1 X33.993 Y88.278 E.10316
G1 X33.993 Y85.421 E.10316
G1 X36.851 Y85.421 E.10316
G1 X36.851 Y82.564 E.10316
G1 X40.026 Y82.564 E.11464
G1 X33.085 Y88.786 F9000
G1 F3000
G1 X31.644 Y90.227 E.07359
G1 X31.644 Y88.786 E.05204
G1 X33.085 Y88.786 E.05204
G1 X34.501 Y87.37 F9000
G1 F3000
G1 X34.501 Y85.929 E.05204
G1 X35.943 Y85.929 E.05204
G1 X34.501 Y87.37 E.07359
G1 X37.358 Y84.513 F9000
G1 F3000
G1 X37.358 Y83.072 E.05204
G1 X38.8 Y83.072 E.05204
G1 X37.358 Y84.513 E.07359
G1 E-.8
G1 Z.6 F9000
G1 X210.213 Y270.058 Z.6
G1 Z.2
G1 E.8 F1800
G1 F3000
G1 X210.213 Y261.641 E.30392
G1 X213.07 Y261.641 E.10316
G1 X213.07 Y258.784 E.10316
G1 X221.488 Y258.784 E.30392
G1 X210.262 Y270.01 E.57322
G1 X213.482 Y259.195 F9000
G1 F3000
G1 X220.495 Y259.195 E.25321
G1 X210.625 Y269.065 E.50398
G1 X210.625 Y262.052 E.25321
G1 X213.482 Y262.052 E.10316
G1 X213.482 Y259.195 E.10316
G1 X213.989 Y259.703 F9000
G1 F3000
G1 X219.269 Y259.703 E.19061
G1 X211.132 Y267.839 E.41544
G1 X211.132 Y262.56 E.19061
G1 X213.989 Y262.56 E.10316
G1 X213.989 Y259.703 E.10316
G1 X214.497 Y260.211 F9000
G1 F3000
G1 X218.042 Y260.211 E.128
G1 X211.64 Y266.613 E.32691
G1 X211.64 Y263.068 E.128
G1 X214.497 Y263.068 E.10316
G1 X214.497 Y260.211 E.10316
G1 X213.959 Y263.576 F9000
G1 F3000
G1 X212.148 Y265.387 E.09248
G1 X212.148 Y263.576 E.06539
G1 X213.959 Y263.576 E.06539
G1 X215.005 Y262.53 F9000
G1 F3000
G1 X215.005 Y260.718 E.06539
G1 X216.816 Y260.718 E.06539
G1 X215.005 Y262.53 E.09248
G1 E-.8
G1 Z.6 F9000
G1 X228.355 Y274.069 Z.6
G1 Z.2
G1 E.8 F1800
G1 F3000
G1 X225.498 Y274.069 E.10316
G1 X225.498 Y276.926 E.10316
G1 X222.641 Y276.926 E.10316
G1 X222.641 Y279.783 E.10316
G1 X216.328 Y279.783 E.22796
G1 X228.355 Y267.755 E.61416
G1 X228.355 Y274 E.22549
G1 X227.944 Y268.748 F9000
G1 F3000
G1 X227.944 Y273.657 E.17725
G1 X225.087 Y273.657 E.10316
G1 X225.087 Y276.514 E.10316
G1 X222.23 Y276.514 E.10316
G1 X222.23 Y279.372 E.10316
M73 P0 R156
G1 X217.321 Y279.372 E.17725
G1 X227.944 Y268.748 E.54245
G1 X227.436 Y269.974 F9000
G1 F3000
G1 X227.436 Y273.149 E.11464
G1 X224.579 Y273.149 E.10316
G1 X224.579 Y276.007 E.10316
G1 X221.722 Y276.007 E.10316
G1 X221.722 Y278.864 E.10316
G1 X218.547 Y278.864 E.11464
G1 X227.436 Y269.974 E.45391
G1 X221.214 Y276.915 F9000
G1 F3000
G1 X221.214 Y278.356 E.05204
G1 X219.773 Y278.356 E.05204
G1 X221.214 Y276.915 E.07359
G1 X222.63 Y275.499 F9000
G1 F3000
G1 X224.071 Y274.057 E.07359
G1 X224.071 Y275.499 E.05204
G1 X222.63 Y275.499 E.05204
G1 X225.487 Y272.642 F9000
G1 F3000
G1 X226.928 Y271.2 E.07359
G1 X226.928 Y272.642 E.05204
G1 X225.487 Y272.642 E.05204
G1 E-.8
G1 Z.6 F9000
G1 X225.2 Y255.965 Z.6
G1 Z.2
G1 E.8 F1800
;TYPE:Outer wall
;WIDTH:0.499999
G1 F3000
G1 X225.196 Y255.955 E.00039
G1 X54.045 Y84.804 E8.73919
G1 X53.885 Y84.738 E.00628
G1 X53.722 Y84.804 E.00635
G1 X37.62 Y100.906 E.82219
G1 X30.903 Y94.189 E.34301
G1 X94.189 Y30.903 E3.23148
G1 X279.097 Y215.811 E9.44171
G1 X215.811 Y279.097 E3.23148
G1 X209.094 Y272.38 E.34301
G1 X225.22 Y256.249 E.82355
G1 X225.262 Y256.115 E.00506
G1 X225.215 Y256.001 E.00445
G1 X225.568 Y255.706 F9000
;TYPE:Inner wall
G1 F3000
G1 X225.519 Y255.631 E.00323
G1 X54.369 Y84.481 E8.73919
G1 X54.273 Y84.402 E.00448
G1 X53.981 Y84.287 E.01134
G1 X53.684 Y84.31 E.01074
G1 X53.399 Y84.481 E.01201
G1 X37.62 Y100.26 E.80568
G1 X31.549 Y94.189 E.31
G1 X94.189 Y31.549 E3.19848
G1 X278.451 Y215.811 E9.4087
G1 X215.811 Y278.451 E3.19848
G1 X209.74 Y272.38 E.31
G1 X225.592 Y256.514 E.80978
G1 X225.65 Y256.418 E.00406
G1 X225.72 Y256.113 E.01127
G1 X225.668 Y255.855 E.00951
G1 X225.59 Y255.739 E.00504
G1 E-.8
G1 Z.6 F9000
G1 X94.043 Y31.902 Z.6
G1 Z.2
G1 E.8 F1800
;TYPE:Internal solid infill
;WIDTH:0.500635
G1 F3000
G1 X277.953 Y215.811 E9.40378
G1 X277.629 Y216.135 E.01655
G1 X93.865 Y32.371 E9.39634
G1 X93.541 Y32.694 E.01655
G1 X277.306 Y216.459 E9.39634
G1 X276.982 Y216.782 E.01655
G1 X93.218 Y33.018 E9.39634
M73 P1 R156
G1 X92.894 Y33.342 E.01655
G1 X276.658 Y217.106 E9.39634
M73 P1 R155
G1 X276.335 Y217.43 E.01655
G1 X92.57 Y33.665 E9.39634
G1 X92.247 Y33.989 E.01655
G1 X276.011 Y217.753 E9.39634
G1 X275.687 Y218.077 E.01655
G1 X91.923 Y34.313 E9.39634
G1 X91.599 Y34.636 E.01655
G1 X275.364 Y218.401 E9.39634
G1 X275.04 Y218.724 E.01655
G1 X91.276 Y34.96 E9.39634
G1 X90.952 Y35.284 E.01655
G1 X274.716 Y219.048 E9.39634
G1 X274.393 Y219.372 E.01655
G1 X90.628 Y35.607 E9.39634
G1 X90.305 Y35.931 E.01655
G1 X274.069 Y219.695 E9.39634
G1 X273.745 Y220.019 E.01655
G1 X89.981 Y36.255 E9.39634
G1 X89.657 Y36.578 E.01655
G1 X273.422 Y220.343 E9.39634
G1 X273.098 Y220.666 E.01655
G1 X89.334 Y36.902 E9.39634
M73 P1 R154
G1 X89.01 Y37.226 E.01655
G1 X272.774 Y220.99 E9.39634
G1 X272.451 Y221.314 E.01655
G1 X88.686 Y37.549 E9.39634
G1 X88.363 Y37.873 E.01655
G1 X272.127 Y221.637 E9.39634
G1 X271.803 Y221.961 E.01655
G1 X88.039 Y38.197 E9.39634
G1 X87.715 Y38.52 E.01655
G1 X271.48 Y222.285 E9.39634
G1 X271.156 Y222.608 E.01655
G1 X87.392 Y38.844 E9.39634
M73 P2 R154
G1 X87.068 Y39.168 E.01655
G1 X270.832 Y222.932 E9.39634
G1 X270.509 Y223.255 E.01655
G1 X86.745 Y39.491 E9.39634
G1 X86.421 Y39.815 E.01655
G1 X270.185 Y223.579 E9.39634
G1 X269.862 Y223.903 E.01655
G1 X86.097 Y40.138 E9.39634
G1 X85.774 Y40.462 E.01655
G1 X269.538 Y224.226 E9.39634
M73 P2 R153
G1 X269.214 Y224.55 E.01655
G1 X85.45 Y40.786 E9.39634
G1 X85.126 Y41.109 E.01655
G1 X268.891 Y224.874 E9.39634
G1 X268.567 Y225.197 E.01655
G1 X84.803 Y41.433 E9.39634
G1 X84.479 Y41.757 E.01655
G1 X268.243 Y225.521 E9.39634
G1 X267.92 Y225.845 E.01655
G1 X84.155 Y42.08 E9.39634
G1 X83.832 Y42.404 E.01655
G1 X267.596 Y226.168 E9.39634
G1 X267.272 Y226.492 E.01655
G1 X83.508 Y42.728 E9.39634
G1 X83.184 Y43.051 E.01655
G1 X266.949 Y226.816 E9.39634
G1 X266.625 Y227.139 E.01655
G1 X82.861 Y43.375 E9.39634
G1 X82.537 Y43.699 E.01655
G1 X266.301 Y227.463 E9.39634
G1 X265.978 Y227.787 E.01655
G1 X82.213 Y44.022 E9.39634
G1 X81.89 Y44.346 E.01655
G1 X265.654 Y228.11 E9.39634
M73 P2 R152
G1 X265.33 Y228.434 E.01655
G1 X81.566 Y44.67 E9.39634
M73 P3 R152
G1 X81.242 Y44.993 E.01655
G1 X265.007 Y228.758 E9.39634
G1 X264.683 Y229.081 E.01655
G1 X80.919 Y45.317 E9.39634
G1 X80.595 Y45.641 E.01655
G1 X264.359 Y229.405 E9.39634
G1 X264.036 Y229.729 E.01655
G1 X80.271 Y45.964 E9.39634
G1 X79.948 Y46.288 E.01655
G1 X263.712 Y230.052 E9.39634
G1 X263.388 Y230.376 E.01655
G1 X79.624 Y46.612 E9.39634
G1 X79.301 Y46.935 E.01655
G1 X263.065 Y230.699 E9.39634
G1 X262.741 Y231.023 E.01655
G1 X78.977 Y47.259 E9.39634
G1 X78.653 Y47.583 E.01655
G1 X262.417 Y231.347 E9.39634
G1 X262.094 Y231.67 E.01655
G1 X78.33 Y47.906 E9.39634
M73 P3 R151
G1 X78.006 Y48.23 E.01655
G1 X261.77 Y231.994 E9.39634
G1 X261.447 Y232.318 E.01655
G1 X77.682 Y48.553 E9.39634
G1 X77.359 Y48.877 E.01655
G1 X261.123 Y232.641 E9.39634
G1 X260.799 Y232.965 E.01655
G1 X77.035 Y49.201 E9.39634
G1 X76.711 Y49.524 E.01655
G1 X260.476 Y233.289 E9.39634
G1 X260.152 Y233.612 E.01655
G1 X76.388 Y49.848 E9.39634
G1 X76.064 Y50.172 E.01655
G1 X259.828 Y233.936 E9.39634
G1 X259.505 Y234.26 E.01655
G1 X75.74 Y50.495 E9.39634
M73 P4 R151
G1 X75.417 Y50.819 E.01655
G1 X259.181 Y234.583 E9.39634
G1 X258.857 Y234.907 E.01655
G1 X75.093 Y51.143 E9.39634
G1 X74.769 Y51.466 E.01655
G1 X258.534 Y235.231 E9.39634
M73 P4 R150
G1 X258.21 Y235.554 E.01655
G1 X74.446 Y51.79 E9.39634
G1 X74.122 Y52.114 E.01655
G1 X257.886 Y235.878 E9.39634
G1 X257.563 Y236.202 E.01655
G1 X73.798 Y52.437 E9.39634
G1 X73.475 Y52.761 E.01655
G1 X257.239 Y236.525 E9.39634
G1 X256.915 Y236.849 E.01655
G1 X73.151 Y53.085 E9.39634
G1 X72.827 Y53.408 E.01655
G1 X256.592 Y237.173 E9.39634
G1 X256.268 Y237.496 E.01655
G1 X72.504 Y53.732 E9.39634
G1 X72.18 Y54.056 E.01655
G1 X255.944 Y237.82 E9.39634
G1 X255.621 Y238.144 E.01655
G1 X71.856 Y54.379 E9.39634
G1 X71.533 Y54.703 E.01655
G1 X255.297 Y238.467 E9.39634
G1 X254.973 Y238.791 E.01655
G1 X71.209 Y55.027 E9.39634
G1 X70.886 Y55.35 E.01655
G1 X254.65 Y239.114 E9.39634
M73 P4 R149
G1 X254.326 Y239.438 E.01655
G1 X70.562 Y55.674 E9.39634
G1 X70.238 Y55.998 E.01655
G1 X254.002 Y239.762 E9.39634
G1 X253.679 Y240.085 E.01655
G1 X69.915 Y56.321 E9.39634
M73 P5 R149
G1 X69.591 Y56.645 E.01655
G1 X253.355 Y240.409 E9.39634
G1 X253.032 Y240.733 E.01655
G1 X69.267 Y56.968 E9.39634
G1 X68.944 Y57.292 E.01655
G1 X252.708 Y241.056 E9.39634
G1 X252.384 Y241.38 E.01655
G1 X68.62 Y57.616 E9.39634
G1 X68.296 Y57.939 E.01655
G1 X252.061 Y241.704 E9.39634
G1 X251.737 Y242.027 E.01655
G1 X67.973 Y58.263 E9.39634
G1 X67.649 Y58.587 E.01655
G1 X251.413 Y242.351 E9.39634
G1 X251.09 Y242.675 E.01655
G1 X67.325 Y58.91 E9.39634
M73 P5 R148
G1 X67.002 Y59.234 E.01655
G1 X250.766 Y242.998 E9.39634
G1 X250.442 Y243.322 E.01655
G1 X66.678 Y59.558 E9.39634
G1 X66.354 Y59.881 E.01655
G1 X250.119 Y243.646 E9.39634
G1 X249.795 Y243.969 E.01655
G1 X66.031 Y60.205 E9.39634
G1 X65.707 Y60.529 E.01655
G1 X249.471 Y244.293 E9.39634
G1 X249.148 Y244.617 E.01655
G1 X65.383 Y60.852 E9.39634
G1 X65.06 Y61.176 E.01655
G1 X248.824 Y244.94 E9.39634
G1 X248.5 Y245.264 E.01655
G1 X64.736 Y61.5 E9.39634
G1 X64.412 Y61.823 E.01655
G1 X248.177 Y245.588 E9.39634
M73 P6 R148
G1 X247.853 Y245.911 E.01655
G1 X64.089 Y62.147 E9.39634
G1 X63.765 Y62.471 E.01655
G1 X247.529 Y246.235 E9.39634
M73 P6 R147
G1 X247.206 Y246.559 E.01655
G1 X63.441 Y62.794 E9.39634
G1 X63.118 Y63.118 E.01655
G1 X246.882 Y246.882 E9.39634
G1 X246.558 Y247.206 E.01655
G1 X62.794 Y63.442 E9.39634
G1 X62.471 Y63.765 E.01655
G1 X246.235 Y247.529 E9.39634
G1 X245.911 Y247.853 E.01655
G1 X62.147 Y64.089 E9.39634
G1 X61.823 Y64.412 E.01655
G1 X245.588 Y248.177 E9.39634
G1 X245.264 Y248.5 E.01655
G1 X61.5 Y64.736 E9.39634
G1 X61.176 Y65.06 E.01655
G1 X244.94 Y248.824 E9.39634
G1 X244.617 Y249.148 E.01655
G1 X60.852 Y65.383 E9.39634
G1 X60.529 Y65.707 E.01655
G1 X244.293 Y249.471 E9.39634
G1 X243.969 Y249.795 E.01655
G1 X60.205 Y66.031 E9.39634
G1 X59.881 Y66.354 E.01655
G1 X243.646 Y250.119 E9.39634
M73 P6 R146
G1 X243.322 Y250.442 E.01655
G1 X59.558 Y66.678 E9.39634
G1 X59.234 Y67.002 E.01655
G1 X242.998 Y250.766 E9.39634
G1 X242.675 Y251.09 E.01655
G1 X58.91 Y67.325 E9.39634
G1 X58.587 Y67.649 E.01655
G1 X242.351 Y251.413 E9.39634
M73 P7 R146
G1 X242.027 Y251.737 E.01655
G1 X58.263 Y67.973 E9.39634
G1 X57.939 Y68.296 E.01655
G1 X241.704 Y252.061 E9.39634
G1 X241.38 Y252.384 E.01655
G1 X57.616 Y68.62 E9.39634
G1 X57.292 Y68.944 E.01655
G1 X241.056 Y252.708 E9.39634
G1 X240.733 Y253.032 E.01655
G1 X56.968 Y69.267 E9.39634
G1 X56.645 Y69.591 E.01655
G1 X240.409 Y253.355 E9.39634
G1 X240.085 Y253.679 E.01655
G1 X56.321 Y69.915 E9.39634
M73 P7 R145
G1 X55.997 Y70.238 E.01655
G1 X239.762 Y254.003 E9.39634
G1 X239.438 Y254.326 E.01655
G1 X55.674 Y70.562 E9.39634
G1 X55.35 Y70.886 E.01655
G1 X239.114 Y254.65 E9.39634
G1 X238.791 Y254.973 E.01655
G1 X55.027 Y71.209 E9.39634
G1 X54.703 Y71.533 E.01655
G1 X238.467 Y255.297 E9.39634
G1 X238.143 Y255.621 E.01655
G1 X54.379 Y71.857 E9.39634
G1 X54.056 Y72.18 E.01655
G1 X237.82 Y255.944 E9.39634
G1 X237.496 Y256.268 E.01655
G1 X53.732 Y72.504 E9.39634
G1 X53.408 Y72.827 E.01655
G1 X237.173 Y256.592 E9.39634
G1 X236.849 Y256.915 E.01655
G1 X53.085 Y73.151 E9.39634
G1 X52.761 Y73.475 E.01655
G1 X236.525 Y257.239 E9.39634
M73 P8 R144
G1 X236.202 Y257.563 E.01655
G1 X52.437 Y73.798 E9.39634
G1 X52.114 Y74.122 E.01655
G1 X235.878 Y257.886 E9.39634
G1 X235.554 Y258.21 E.01655
G1 X51.79 Y74.446 E9.39634
G1 X51.466 Y74.769 E.01655
G1 X235.231 Y258.534 E9.39634
G1 X234.907 Y258.857 E.01655
G1 X51.143 Y75.093 E9.39634
G1 X50.819 Y75.417 E.01655
G1 X234.583 Y259.181 E9.39634
G1 X234.26 Y259.505 E.01655
G1 X50.495 Y75.74 E9.39634
G1 X50.172 Y76.064 E.01655
G1 X233.936 Y259.828 E9.39634
G1 X233.612 Y260.152 E.01655
G1 X49.848 Y76.388 E9.39634
G1 X49.524 Y76.711 E.01655
G1 X233.289 Y260.476 E9.39634
G1 X232.965 Y260.799 E.01655
G1 X49.201 Y77.035 E9.39634
G1 X48.877 Y77.359 E.01655
G1 X232.641 Y261.123 E9.39634
M73 P8 R143
G1 X232.318 Y261.447 E.01655
G1 X48.553 Y77.682 E9.39634
G1 X48.23 Y78.006 E.01655
G1 X231.994 Y261.77 E9.39634
G1 X231.67 Y262.094 E.01655
G1 X226.018 Y256.441 E.28903
G1 X225.966 Y256.573 E.0051
G1 X225.879 Y256.719 E.00615
G1 X225.773 Y256.844 E.00593
G1 X231.347 Y262.418 E.28499
G1 X231.023 Y262.741 E.01655
G1 X225.45 Y257.168 E.28498
G1 X225.126 Y257.491 E.01655
G1 X230.699 Y263.065 E.28498
G1 X230.376 Y263.388 E.01655
G1 X224.802 Y257.815 E.28498
G1 X224.479 Y258.139 E.01655
G1 X230.052 Y263.712 E.28498
G1 X229.728 Y264.036 E.01655
G1 X224.155 Y258.462 E.28498
G1 X223.831 Y258.786 E.01655
G1 X229.405 Y264.359 E.28498
G1 X229.081 Y264.683 E.01655
G1 X223.508 Y259.11 E.28498
G1 X223.184 Y259.433 E.01655
G1 X228.758 Y265.007 E.28498
G1 X228.434 Y265.33 E.01655
G1 X222.86 Y259.757 E.28498
G1 X222.537 Y260.081 E.01655
G1 X228.11 Y265.654 E.28498
