; HEADER_BLOCK_START
; generated by OrcaSlicer 1.6.4-beta3 on 2023-08-22 at 06:51:57
; total layer number: 208
; HEADER_BLOCK_END

; THUMBNAIL_BLOCK_START
; THUMBNAIL_BLOCK_END

; external perimeters extrusion width = 0.40mm
; perimeters extrusion width = 0.45mm
; infill extrusion width = 0.45mm
; solid infill extrusion width = 0.40mm
; top infill extrusion width = 0.40mm
; support material extrusion width = 0.40mm
; first layer extrusion width = 0.50mm

; EXECUTABLE_BLOCK_START
EXCLUDE_OBJECT_DEFINE NAME=hook21.stl_id_0_copy_0 CENTER=155,155 POLYGON=[[24,110.5],[286,110.5],[286,197.5],[34,199.5],[24,199.5],[24,110.5]]
M73 P0 R132
;TYPE:Custom
START_PRINT T_BED=70 T_EXTRUDER=235
G90
G21
M83 ; use relative distances for extrusion
; Filament gcode
PRESSURE_ADVANCE_SELECT FILAMENT=PETG
M106 S0
;LAYER_CHANGE
;Z:0.2
;HEIGHT:0.2
;BEFORE_LAYER_CHANGE
;0.2
G92 E0

SET_VELOCITY_LIMIT ACCEL=1500 ACCEL_TO_DECEL=750
G1 E-.8 F3000
G1 Z.4 F9000
G1 X23.06 Y108.23
G1 Z.4
G1 Z.2
G1 E.8 F1800
;TYPE:Skirt
;WIDTH:0.5
G1 F3000
G1 X24 Y108.043 E.03461
G1 X286 Y108.043 E9.45977
G1 X287.331 Y108.435 E.0501
G1 X288.238 Y109.485 E.0501
G1 X288.456 Y110.419 E.03461
G1 X290.81 Y181.561 E2.57007
G1 X290.811 Y196.928 E.55482
G1 X290.419 Y198.259 E.0501
G1 X288.935 Y199.315 E.06579
G1 X286.581 Y199.888 E.08748
G1 X286.02 Y199.957 E.02041
G1 X34.02 Y201.957 E9.099
G1 X24 Y201.957 E.36176
G1 X22.187 Y201.159 E.07151
G1 X19.833 Y198.586 E.1259
G1 X19.189 Y196.928 E.06425
G1 X19.19 Y181.561 E.55482
G1 X21.544 Y110.419 E2.57007
G1 X21.98 Y109.101 E.0501
G1 X23.029 Y108.255 E.04866
; printing object hook21.stl id:0 copy 0
G1 E-.8
EXCLUDE_OBJECT_START NAME=hook21.stl_id_0_copy_0
G1 Z.6 F9000
G1 X23.4 Y196.928 Z.6
G1 Z.2
G1 E.8 F1800
;TYPE:Support
G1 F3000
G1 X21.646 Y196.928 E.06333
G1 X21.646 Y181.642 E.55189
G1 X23.4 Y181.642 E.06333
G1 X23.4 Y196.859 E.54941
G1 X22.989 Y182.054 F9000
G1 F3000
G1 X22.989 Y196.516 E.52218
G1 X22.057 Y196.516 E.03363
G1 X22.057 Y182.054 E.52218
G1 X22.989 Y182.054 E.03363
G1 E-.8
G1 Z.6 F9000
G1 X36.931 Y196.928 Z.6
G1 Z.2
G1 E.8 F1800
G1 F3000
G1 X34.6 Y196.928 E.08417
G1 X34.6 Y181.642 E.55189
G1 X36.931 Y181.642 E.08417
G1 X36.931 Y196.859 E.54941
G1 X36.52 Y182.054 F9000
G1 F3000
G1 X36.52 Y196.516 E.52218
G1 X35.011 Y196.516 E.05446
G1 X35.011 Y182.054 E.52218
G1 X36.52 Y182.054 E.05446
G1 X36.012 Y182.562 F9000
G1 F3000
G1 X36.012 Y196.008 E.48551
G1 X35.519 Y196.008 E.01779
G1 X35.519 Y182.562 E.48551
G1 X36.012 Y182.562 E.01779
G1 E-.8
G1 Z.6 F9000
G1 X275.4 Y196.928 Z.6
G1 Z.2
G1 E.8 F1800
G1 F3000
G1 X273.069 Y196.928 E.08417
G1 X273.069 Y181.642 E.55189
G1 X275.4 Y181.642 E.08417
G1 X275.4 Y196.859 E.54941
G1 X273.48 Y182.054 F9000
G1 F3000
G1 X274.989 Y182.054 E.05446
G1 X274.989 Y196.516 E.52218
G1 X273.48 Y196.516 E.05446
G1 X273.48 Y182.054 E.52218
G1 X273.988 Y182.562 F9000
G1 F3000
G1 X274.481 Y182.562 E.01779
G1 X274.481 Y196.008 E.48551
G1 X273.988 Y196.008 E.01779
G1 X273.988 Y182.562 E.48551
G1 E-.8
G1 Z.6 F9000
G1 X288.354 Y196.928 Z.6
G1 Z.2
G1 E.8 F1800
G1 F3000
G1 X286.6 Y196.928 E.06333
G1 X286.6 Y181.642 E.55189
G1 X288.354 Y181.642 E.06333
G1 X288.354 Y196.859 E.54941
G1 X287.011 Y182.054 F9000
G1 F3000
G1 X287.943 Y182.054 E.03363
G1 X287.943 Y196.516 E.52218
G1 X287.011 Y196.516 E.03363
G1 X287.011 Y182.054 E.52218
G1 E-.8
G1 Z.6 F9000
G1 X276.25 Y174.479 Z.6
G1 Z.2
G1 E.8 F1800
;TYPE:Outer wall
;WIDTH:0.499999
G1 F3000
G1 X276.182 Y174.316 E.00635
G1 X276.021 Y174.25 E.00628
G1 X33.979 Y174.25 E8.73919
M73 P0 R131
G1 X33.818 Y174.316 E.00628
G1 X33.75 Y174.479 E.00635
G1 X33.75 Y199.25 E.8944
G1 X24.25 Y199.25 E.34301
G1 X24.25 Y110.75 E3.19538
G1 X285.75 Y110.75 E9.44171
G1 X285.75 Y142.5 E1.14636
G1 X285.75 Y197.25 E1.9768
G1 X276.25 Y197.25 E.34301
G1 X276.25 Y174.519 E.82074
G1 X276.694 Y174.399 F9000
;TYPE:Inner wall
G1 F3000
G1 X276.67 Y174.256 E.00522
G1 X276.504 Y173.992 E.01127
G1 X276.285 Y173.846 E.00951
G1 X276.021 Y173.793 E.00971
G1 X33.979 Y173.793 E8.73919
G1 X33.855 Y173.804 E.00448
G1 X33.567 Y173.93 E.01134
G1 X33.374 Y174.156 E.01074
G1 X33.293 Y174.479 E.01201
G1 X33.293 Y198.793 E.87789
G1 X24.707 Y198.793 E.31
G1 X24.707 Y111.207 E3.16237
G1 X285.293 Y111.207 E9.4087
G1 X285.293 Y142.5 E1.12986
G1 X285.293 Y196.793 E1.9603
G1 X276.707 Y196.793 E.31
G1 X276.707 Y174.479 E.80568
G1 X276.7 Y174.438 E.00147
G1 E-.8
G1 Z.6 F9000
G1 X284.221 Y111.353 Z.6
G1 Z.2
G1 E.8 F1800
;TYPE:Internal solid infill
;WIDTH:0.500732
G1 F3000
G1 X284.941 Y112.073 E.03682
G1 X284.941 Y112.721 E.02341
G1 X283.779 Y111.559 E.05941
G1 X283.132 Y111.559 E.02341
G1 X284.941 Y113.368 E.09252
G1 X284.941 Y114.016 E.02341
G1 X282.484 Y111.559 E.12563
G1 X281.837 Y111.559 E.02341
G1 X284.941 Y114.663 E.15875
G1 X284.941 Y115.31 E.02341
G1 X281.19 Y111.559 E.19186
G1 X280.542 Y111.559 E.02341
G1 X284.941 Y115.958 E.22497
G1 X284.941 Y116.605 E.02341
G1 X279.895 Y111.559 E.25808
G1 X279.247 Y111.559 E.02341
G1 X284.941 Y117.253 E.2912
G1 X284.941 Y117.9 E.02341
G1 X278.6 Y111.559 E.32431
G1 X277.952 Y111.559 E.02341
G1 X284.941 Y118.548 E.35742
G1 X284.941 Y119.195 E.02341
G1 X277.305 Y111.559 E.39053
G1 X276.657 Y111.559 E.02341
G1 X284.941 Y119.843 E.42365
G1 X284.941 Y120.49 E.02341
G1 X276.01 Y111.559 E.45676
G1 X275.363 Y111.559 E.02341
G1 X284.941 Y121.137 E.48987
G1 X284.941 Y121.785 E.02341
G1 X274.715 Y111.559 E.52298
G1 X274.068 Y111.559 E.02341
G1 X284.941 Y122.432 E.5561
G1 X284.941 Y123.08 E.02341
G1 X273.42 Y111.559 E.58921
G1 X272.773 Y111.559 E.02341
G1 X284.941 Y123.727 E.62232
G1 X284.941 Y124.375 E.02341
G1 X272.125 Y111.559 E.65543
G1 X271.478 Y111.559 E.02341
G1 X284.941 Y125.022 E.68855
G1 X284.941 Y125.669 E.02341
G1 X270.831 Y111.559 E.72166
G1 X270.183 Y111.559 E.02341
G1 X284.941 Y126.317 E.75477
G1 X284.941 Y126.964 E.02341
G1 X269.536 Y111.559 E.78788
G1 X268.888 Y111.559 E.02341
G1 X284.941 Y127.612 E.821
G1 X284.941 Y128.259 E.02341
G1 X268.241 Y111.559 E.85411
G1 X267.593 Y111.559 E.02341
G1 X284.941 Y128.907 E.88722
G1 X284.941 Y129.554 E.02341
G1 X266.946 Y111.559 E.92033
G1 X266.298 Y111.559 E.02341
G1 X284.941 Y130.202 E.95345
G1 X284.941 Y130.849 E.02341
G1 X265.651 Y111.559 E.98656
G1 X265.004 Y111.559 E.02341
G1 X284.941 Y131.496 E1.01967
G1 X284.941 Y132.144 E.02341
G1 X264.356 Y111.559 E1.05278
G1 X263.709 Y111.559 E.02341
G1 X284.941 Y132.791 E1.0859
G1 X284.941 Y133.439 E.02341
G1 X263.061 Y111.559 E1.11901
G1 X262.414 Y111.559 E.02341
G1 X284.941 Y134.086 E1.15212
G1 X284.941 Y134.734 E.02341
G1 X261.766 Y111.559 E1.18523
G1 X261.119 Y111.559 E.02341
G1 X284.941 Y135.381 E1.21835
G1 X284.941 Y136.029 E.02341
G1 X260.471 Y111.559 E1.25146
G1 X259.824 Y111.559 E.02341
G1 X284.941 Y136.676 E1.28457
G1 X284.941 Y137.323 E.02341
G1 X259.177 Y111.559 E1.31768
G1 X258.529 Y111.559 E.02341
G1 X284.941 Y137.971 E1.3508
G1 X284.941 Y138.618 E.02341
G1 X257.882 Y111.559 E1.38391
G1 X257.234 Y111.559 E.02341
G1 X284.941 Y139.266 E1.41702
M73 P1 R131
G1 X284.941 Y139.913 E.02341
G1 X256.587 Y111.559 E1.45013
G1 X255.939 Y111.559 E.02341
G1 X284.941 Y140.561 E1.48325
G1 X284.941 Y141.208 E.02341
G1 X255.292 Y111.559 E1.51636
G1 X254.644 Y111.559 E.02341
G1 X284.941 Y141.856 E1.54947
G1 X284.941 Y142.503 E.02341
G1 X253.997 Y111.559 E1.58258
G1 X253.35 Y111.559 E.02341
G1 X284.941 Y143.15 E1.6157
G1 X284.941 Y143.798 E.02341
G1 X252.702 Y111.559 E1.64881
G1 X252.055 Y111.559 E.02341
G1 X284.941 Y144.445 E1.68192
G1 X284.941 Y145.093 E.02341
G1 X251.407 Y111.559 E1.71503
G1 X250.76 Y111.559 E.02341
G1 X284.941 Y145.74 E1.74815
G1 X284.941 Y146.388 E.02341
G1 X250.112 Y111.559 E1.78126
G1 X249.465 Y111.559 E.02341
G1 X284.941 Y147.035 E1.81437
G1 X284.941 Y147.683 E.02341
G1 X248.817 Y111.559 E1.84748
M73 P1 R130
G1 X248.17 Y111.559 E.02341
G1 X284.941 Y148.33 E1.8806
G1 X284.941 Y148.977 E.02341
G1 X247.523 Y111.559 E1.91371
G1 X246.875 Y111.559 E.02341
G1 X284.941 Y149.625 E1.94682
G1 X284.941 Y150.272 E.02341
G1 X246.228 Y111.559 E1.97993
G1 X245.58 Y111.559 E.02341
G1 X284.941 Y150.92 E2.01305
G1 X284.941 Y151.567 E.02341
G1 X244.933 Y111.559 E2.04616
G1 X244.285 Y111.559 E.02341
G1 X284.941 Y152.215 E2.07927
G1 X284.941 Y152.862 E.02341
G1 X243.638 Y111.559 E2.11238
G1 X242.99 Y111.559 E.02341
G1 X284.941 Y153.51 E2.1455
G1 X284.941 Y154.157 E.02341
G1 X242.343 Y111.559 E2.17861
G1 X241.696 Y111.559 E.02341
G1 X284.941 Y154.804 E2.21172
G1 X284.941 Y155.452 E.02341
G1 X241.048 Y111.559 E2.24483
G1 X240.401 Y111.559 E.02341
G1 X284.941 Y156.099 E2.27795
G1 X284.941 Y156.747 E.02341
G1 X239.753 Y111.559 E2.31106
G1 X239.106 Y111.559 E.02341
G1 X284.941 Y157.394 E2.34417
G1 X284.941 Y158.042 E.02341
G1 X238.458 Y111.559 E2.37728
G1 X237.811 Y111.559 E.02341
G1 X284.941 Y158.689 E2.4104
G1 X284.941 Y159.337 E.02341
G1 X237.163 Y111.559 E2.44351
G1 X236.516 Y111.559 E.02341
G1 X284.941 Y159.984 E2.47662
G1 X284.941 Y160.631 E.02341
G1 X235.869 Y111.559 E2.50973
G1 X235.221 Y111.559 E.02341
G1 X284.941 Y161.279 E2.54285
G1 X284.941 Y161.926 E.02341
G1 X234.574 Y111.559 E2.57596
G1 X233.926 Y111.559 E.02341
G1 X284.941 Y162.574 E2.60907
G1 X284.941 Y163.221 E.02341
G1 X233.279 Y111.559 E2.64218
G1 X232.631 Y111.559 E.02341
G1 X284.941 Y163.869 E2.6753
G1 X284.941 Y164.516 E.02341
G1 X231.984 Y111.559 E2.70841
G1 X231.336 Y111.559 E.02341
G1 X284.941 Y165.164 E2.74152
G1 X284.941 Y165.811 E.02341
G1 X230.689 Y111.559 E2.77463
G1 X230.042 Y111.559 E.02341
G1 X284.941 Y166.458 E2.80775
G1 X284.941 Y167.106 E.02341
G1 X229.394 Y111.559 E2.84086
G1 X228.747 Y111.559 E.02341
G1 X284.941 Y167.753 E2.87397
G1 X284.941 Y168.401 E.02341
G1 X228.099 Y111.559 E2.90708
G1 X227.452 Y111.559 E.02341
G1 X284.941 Y169.048 E2.9402
G1 X284.941 Y169.696 E.02341
G1 X226.804 Y111.559 E2.97331
G1 X226.157 Y111.559 E.02341
G1 X284.941 Y170.343 E3.00642
G1 X284.941 Y170.991 E.02341
G1 X225.509 Y111.559 E3.03953
G1 X224.862 Y111.559 E.02341
G1 X284.941 Y171.638 E3.07265
G1 X284.941 Y172.285 E.02341
G1 X224.215 Y111.559 E3.10576
G1 X223.567 Y111.559 E.02341
G1 X284.941 Y172.933 E3.13887
G1 X284.941 Y173.58 E.02341
G1 X222.92 Y111.559 E3.17198
G1 X222.272 Y111.559 E.02341
G1 X284.941 Y174.228 E3.2051
G1 X284.941 Y174.875 E.02341
M73 P1 R129
G1 X221.625 Y111.559 E3.23821
G1 X220.977 Y111.559 E.02341
G1 X284.941 Y175.523 E3.27132
G1 X284.941 Y176.17 E.02341
G1 X220.33 Y111.559 E3.30443
G1 X219.682 Y111.559 E.02341
G1 X284.941 Y176.818 E3.33755
M73 P2 R129
G1 X284.941 Y177.465 E.02341
G1 X219.035 Y111.559 E3.37066
G1 X218.388 Y111.559 E.02341
G1 X284.941 Y178.112 E3.40377
G1 X284.941 Y178.76 E.02341
G1 X217.74 Y111.559 E3.43688
G1 X217.093 Y111.559 E.02341
G1 X284.941 Y179.407 E3.47
G1 X284.941 Y180.055 E.02341
G1 X216.445 Y111.559 E3.50311
G1 X215.798 Y111.559 E.02341
G1 X284.941 Y180.702 E3.53622
G1 X284.941 Y181.35 E.02341
G1 X215.15 Y111.559 E3.56933
G1 X214.503 Y111.559 E.02341
G1 X284.941 Y181.997 E3.60245
G1 X284.941 Y182.645 E.02341
G1 X277.059 Y174.763 E.40311
G1 X277.059 Y175.41 E.02341
G1 X284.941 Y183.292 E.40311
G1 X284.941 Y183.939 E.02341
G1 X277.059 Y176.057 E.40311
G1 X277.059 Y176.705 E.02341
G1 X284.941 Y184.587 E.40311
G1 X284.941 Y185.234 E.02341
G1 X277.059 Y177.352 E.40311
G1 X277.059 Y178 E.02341
G1 X284.941 Y185.882 E.40311
G1 X284.941 Y186.529 E.02341
G1 X277.059 Y178.647 E.40311
G1 X277.059 Y179.295 E.02341
G1 X284.941 Y187.177 E.40311
G1 X284.941 Y187.824 E.02341
G1 X277.059 Y179.942 E.40311
G1 X277.059 Y180.59 E.02341
G1 X284.941 Y188.472 E.40311
G1 X284.941 Y189.119 E.02341
G1 X277.059 Y181.237 E.40311
G1 X277.059 Y181.884 E.02341
G1 X284.941 Y189.766 E.40311
G1 X284.941 Y190.414 E.02341
G1 X277.059 Y182.532 E.40311
G1 X277.059 Y183.179 E.02341
G1 X284.941 Y191.061 E.40311
G1 X284.941 Y191.709 E.02341
G1 X277.059 Y183.827 E.40311
G1 X277.059 Y184.474 E.02341
G1 X284.941 Y192.356 E.40311
G1 X284.941 Y193.004 E.02341
G1 X277.059 Y185.122 E.40311
G1 X277.059 Y185.769 E.02341
G1 X284.941 Y193.651 E.40311
G1 X284.941 Y194.299 E.02341
G1 X277.059 Y186.417 E.40311
G1 X277.059 Y187.064 E.02341
G1 X284.941 Y194.946 E.40311
G1 X284.941 Y195.593 E.02341
G1 X277.059 Y187.711 E.40311
G1 X277.059 Y188.359 E.02341
G1 X284.941 Y196.241 E.40311
G1 X284.941 Y196.441 E.00724
G1 X284.494 Y196.441 E.01618
G1 X277.059 Y189.006 E.38023
G1 X277.059 Y189.654 E.02341
G1 X283.846 Y196.441 E.34712
G1 X283.199 Y196.441 E.02341
G1 X277.059 Y190.301 E.31401
G1 X277.059 Y190.949 E.02341
G1 X282.551 Y196.441 E.28089
G1 X281.904 Y196.441 E.02341
G1 X277.059 Y191.596 E.24778
G1 X277.059 Y192.244 E.02341
G1 X281.256 Y196.441 E.21467
G1 X280.609 Y196.441 E.02341
G1 X277.059 Y192.891 E.18156
G1 X277.059 Y193.538 E.02341
G1 X279.962 Y196.441 E.14844
G1 X279.314 Y196.441 E.02341
G1 X277.059 Y194.186 E.11533
G1 X277.059 Y194.833 E.02341
G1 X278.667 Y196.441 E.08222
G1 X278.019 Y196.441 E.02341
G1 X277.059 Y195.481 E.04911
G1 X277.059 Y196.128 E.02341
G1 X277.577 Y196.647 E.02651
G1 E-.8
G1 Z.6 F9000
G1 X275.947 Y173.65 Z.6
G1 Z.2
G1 E.8 F1800
G1 F3000
G1 X213.855 Y111.559 E3.17555
G1 X213.208 Y111.559 E.02341
G1 X275.093 Y173.444 E3.16503
G1 X274.446 Y173.444 E.02341
G1 X212.561 Y111.559 E3.16503
G1 X211.913 Y111.559 E.02341
G1 X273.798 Y173.444 E3.16503
G1 X273.151 Y173.444 E.02341
G1 X211.266 Y111.559 E3.16503
G1 X210.618 Y111.559 E.02341
G1 X272.504 Y173.444 E3.16503
G1 X271.856 Y173.444 E.02341
G1 X209.971 Y111.559 E3.16503
G1 X209.323 Y111.559 E.02341
G1 X271.209 Y173.444 E3.16503
G1 X270.561 Y173.444 E.02341
G1 X208.676 Y111.559 E3.16503
G1 X208.028 Y111.559 E.02341
G1 X269.914 Y173.444 E3.16503
G1 X269.266 Y173.444 E.02341
G1 X207.381 Y111.559 E3.16503
G1 X206.734 Y111.559 E.02341
G1 X268.619 Y173.444 E3.16503
G1 X267.971 Y173.444 E.02341
G1 X206.086 Y111.559 E3.16503
G1 X205.439 Y111.559 E.02341
G1 X267.324 Y173.444 E3.16503
G1 X266.676 Y173.444 E.02341
G1 X204.791 Y111.559 E3.16502
G1 X204.144 Y111.559 E.02341
G1 X266.029 Y173.444 E3.16502
M73 P2 R128
G1 X265.382 Y173.444 E.02341
G1 X203.496 Y111.559 E3.16502
G1 X202.849 Y111.559 E.02341
G1 X264.734 Y173.444 E3.16502
G1 X264.087 Y173.444 E.02341
G1 X202.201 Y111.559 E3.16502
G1 X201.554 Y111.559 E.02341
G1 X263.439 Y173.444 E3.16502
G1 X262.792 Y173.444 E.02341
G1 X200.907 Y111.559 E3.16502
G1 X200.259 Y111.559 E.02341
G1 X262.144 Y173.444 E3.16502
G1 X261.497 Y173.444 E.02341
G1 X199.612 Y111.559 E3.16502
G1 X198.964 Y111.559 E.02341
G1 X260.849 Y173.444 E3.16502
G1 X260.202 Y173.444 E.02341
G1 X198.317 Y111.559 E3.16502
G1 X197.669 Y111.559 E.02341
G1 X259.555 Y173.444 E3.16502
G1 X258.907 Y173.444 E.02341
G1 X197.022 Y111.559 E3.16502
G1 X196.374 Y111.559 E.02341
G1 X258.26 Y173.444 E3.16502
G1 X257.612 Y173.444 E.02341
G1 X195.727 Y111.559 E3.16502
G1 X195.08 Y111.559 E.02341
G1 X256.965 Y173.444 E3.16502
G1 X256.317 Y173.444 E.02341
G1 X194.432 Y111.559 E3.16502
M73 P3 R128
G1 X193.785 Y111.559 E.02341
G1 X255.67 Y173.444 E3.16502
G1 X255.022 Y173.444 E.02341
G1 X193.137 Y111.559 E3.16502
G1 X192.49 Y111.559 E.02341
G1 X254.375 Y173.444 E3.16502
G1 X253.727 Y173.444 E.02341
G1 X191.842 Y111.559 E3.16502
G1 X191.195 Y111.559 E.02341
G1 X253.08 Y173.444 E3.16501
G1 X252.433 Y173.444 E.02341
G1 X190.547 Y111.559 E3.16501
G1 X189.9 Y111.559 E.02341
G1 X251.785 Y173.444 E3.16501
G1 X251.138 Y173.444 E.02341
G1 X189.253 Y111.559 E3.16501
G1 X188.605 Y111.559 E.02341
G1 X250.49 Y173.444 E3.16501
G1 X249.843 Y173.444 E.02341
G1 X187.958 Y111.559 E3.16501
G1 X187.31 Y111.559 E.02341
G1 X249.195 Y173.444 E3.16501
G1 X248.548 Y173.444 E.02341
G1 X186.663 Y111.559 E3.16501
G1 X186.015 Y111.559 E.02341
G1 X247.9 Y173.444 E3.16501
G1 X247.253 Y173.444 E.02341
G1 X185.368 Y111.559 E3.16501
G1 X184.72 Y111.559 E.02341
G1 X246.605 Y173.444 E3.16501
G1 X245.958 Y173.444 E.02341
G1 X184.073 Y111.559 E3.16501
G1 X183.426 Y111.559 E.02341
G1 X245.311 Y173.444 E3.16501
G1 X244.663 Y173.444 E.02341
G1 X182.778 Y111.559 E3.16501
M73 P3 R127
G1 X182.131 Y111.559 E.02341
G1 X244.016 Y173.444 E3.16501
G1 X243.368 Y173.444 E.02341
G1 X181.483 Y111.559 E3.16501
G1 X180.836 Y111.559 E.02341
G1 X242.721 Y173.444 E3.16501
G1 X242.073 Y173.444 E.02341
