; HEADER_BLOCK_START
; generated by OrcaSlicer 1.6.4-beta3 on 2023-08-20 at 17:27:48
; total layer number: 188
; HEADER_BLOCK_END

; THUMBNAIL_BLOCK_START
; THUMBNAIL_BLOCK_END

; external perimeters extrusion width = 0.40mm
; perimeters extrusion width = 0.45mm
; infill extrusion width = 0.45mm
; solid infill extrusion width = 0.40mm
; top infill extrusion width = 0.40mm
; support material extrusion width = 0.40mm
; first layer extrusion width = 0.50mm

; EXECUTABLE_BLOCK_START
EXCLUDE_OBJECT_DEFINE NAME=hook.stl_id_0_copy_0 CENTER=155,155 POLYGON=[[55,111.5],[255,111.5],[255,198.5],[55,198.5],[55,111.5]]
M73 P0 R121
;TYPE:Custom
START_PRINT T_BED=70 T_EXTRUDER=235
G90
G21
M83 ; use relative distances for extrusion
; Filament gcode
PRESSURE_ADVANCE_SELECT FILAMENT=PETG
M106 S0
;LAYER_CHANGE
;Z:0.2
;HEIGHT:0.2
;BEFORE_LAYER_CHANGE
;0.2
G92 E0

SET_VELOCITY_LIMIT ACCEL=500 ACCEL_TO_DECEL=250
G1 E-.8 F3000
G1 Z.4 F9000
G1 X54.14 Y109.198
G1 Z.4
G1 Z.2
G1 E.8 F1800
;TYPE:Skirt
;WIDTH:0.5
G1 F3000
G1 X55 Y109.043 E.03156
G1 X255 Y109.043 E7.2212
G1 X256.331 Y109.435 E.0501
G1 X257.238 Y110.485 E.0501
G1 X257.451 Y111.333 E.03156
G1 X262.235 Y181.475 E2.53844
G1 X262.24 Y196.928 E.55792
G1 X261.849 Y198.259 E.0501
G1 X260.551 Y199.262 E.05922
G1 X255.767 Y200.834 E.1818
G1 X255 Y200.957 E.02806
G1 X55 Y200.957 E7.2212
G1 X54.233 Y200.834 E.02806
G1 X49.449 Y199.262 E.1818
G1 X48.307 Y198.474 E.0501
G1 X47.76 Y196.928 E.05922
G1 X47.765 Y181.475 E.55792
G1 X52.549 Y111.333 E2.53844
G1 X53.03 Y110.031 E.0501
G1 X54.108 Y109.222 E.04866
; printing object hook.stl id:0 copy 0
G1 E-.8
EXCLUDE_OBJECT_START NAME=hook.stl_id_0_copy_0
G1 Z.6 F9000
G1 X54.4 Y196.928 Z.6
G1 Z.2
G1 E.8 F1800
;TYPE:Support
G1 F3000
G1 X50.217 Y196.928 E.15104
G1 X50.217 Y181.642 E.55189
G1 X54.4 Y181.642 E.15104
G1 X54.4 Y196.859 E.54941
G1 X53.989 Y182.054 F9000
G1 F3000
G1 X53.989 Y196.516 E.52218
G1 X50.628 Y196.516 E.12134
G1 X50.628 Y182.054 E.52218
G1 X53.989 Y182.054 E.12134
G1 X53.481 Y182.562 F9000
G1 F3000
G1 X53.481 Y196.008 E.48551
G1 X51.136 Y196.008 E.08466
G1 X51.136 Y182.562 E.48551
G1 X53.481 Y182.562 E.08466
G1 X52.973 Y183.069 F9000
G1 F3000
G1 X52.973 Y195.5 E.44883
G1 X51.644 Y195.5 E.04799
G1 X51.644 Y183.069 E.44883
G1 X52.973 Y183.069 E.04799
G1 E-.8
G1 Z.6 F9000
G1 X68.359 Y196.928 Z.6
G1 Z.2
G1 E.8 F1800
G1 F3000
G1 X65.6 Y196.928 E.09962
G1 X65.6 Y181.642 E.55189
G1 X68.359 Y181.642 E.09962
G1 X68.359 Y196.859 E.54941
G1 X67.948 Y182.054 F9000
G1 F3000
G1 X67.948 Y196.516 E.52218
G1 X66.011 Y196.516 E.06991
G1 X66.011 Y182.054 E.52218
G1 X67.948 Y182.054 E.06991
G1 X67.44 Y182.562 F9000
G1 F3000
G1 X67.44 Y196.008 E.48551
G1 X66.519 Y196.008 E.03324
G1 X66.519 Y182.562 E.48551
G1 X67.44 Y182.562 E.03324
G1 E-.8
G1 Z.6 F9000
G1 X244.4 Y196.928 Z.6
G1 Z.2
G1 E.8 F1800
G1 F3000
G1 X241.641 Y196.928 E.09961
G1 X241.641 Y181.642 E.55189
G1 X244.4 Y181.642 E.09961
G1 X244.4 Y196.859 E.54941
G1 X242.052 Y182.054 F9000
G1 F3000
G1 X243.989 Y182.054 E.06991
G1 X243.989 Y196.516 E.52218
G1 X242.052 Y196.516 E.06991
G1 X242.052 Y182.054 E.52218
G1 X242.56 Y182.562 F9000
G1 F3000
G1 X243.481 Y182.562 E.03323
G1 X243.481 Y196.008 E.48551
G1 X242.56 Y196.008 E.03323
G1 X242.56 Y182.562 E.48551
G1 E-.8
G1 Z.6 F9000
G1 X259.783 Y196.928 Z.6
G1 Z.2
G1 E.8 F1800
G1 F3000
G1 X255.6 Y196.928 E.15104
G1 X255.6 Y181.642 E.55189
G1 X259.783 Y181.642 E.15104
G1 X259.783 Y196.859 E.54941
G1 X256.011 Y182.054 F9000
G1 F3000
G1 X259.372 Y182.054 E.12134
G1 X259.372 Y196.516 E.52218
G1 X256.011 Y196.516 E.12134
G1 X256.011 Y182.054 E.52218
G1 X256.519 Y182.562 F9000
G1 F3000
G1 X258.864 Y182.562 E.08466
G1 X258.864 Y196.008 E.48551
G1 X256.519 Y196.008 E.08466
G1 X256.519 Y182.562 E.48551
G1 X257.027 Y183.069 F9000
G1 F3000
G1 X258.356 Y183.069 E.04799
G1 X258.356 Y195.5 E.44883
G1 X257.027 Y195.5 E.04799
G1 X257.027 Y183.069 E.44883
G1 E-.8
G1 Z.6 F9000
G1 X64.979 Y175.25 Z.6
M73 P0 R120
G1 Z.2
G1 E.8 F1800
;TYPE:Outer wall
;WIDTH:0.499999
G1 F3000
G1 X64.818 Y175.316 E.00628
G1 X64.75 Y175.479 E.00635
G1 X64.75 Y198.25 E.82219
G1 X55.25 Y198.25 E.34301
G1 X55.25 Y111.75 E3.12317
G1 X254.75 Y111.75 E7.20314
G1 X254.75 Y143.5 E1.14636
G1 X254.75 Y198.25 E1.9768
G1 X245.25 Y198.25 E.34301
G1 X245.25 Y175.479 E.82219
G1 X245.182 Y175.316 E.00635
G1 X245.021 Y175.25 E.00628
G1 X65.019 Y175.25 E6.49918
G1 X64.945 Y174.804 F9000
;TYPE:Inner wall
G1 F3000
G1 X64.855 Y174.804 E.00326
G1 X64.567 Y174.93 E.01134
G1 X64.374 Y175.156 E.01074
G1 X64.293 Y175.479 E.01201
G1 X64.293 Y197.793 E.80568
G1 X55.707 Y197.793 E.31
G1 X55.707 Y112.207 E3.09016
G1 X254.293 Y112.207 E7.17013
G1 X254.293 Y143.5 E1.12986
G1 X254.293 Y197.793 E1.9603
G1 X245.707 Y197.793 E.31
G1 X245.707 Y175.479 E.80568
G1 X245.67 Y175.256 E.00814
G1 X245.504 Y174.992 E.01127
G1 X245.285 Y174.846 E.00951
G1 X245.021 Y174.793 E.00971
G1 X64.985 Y174.804 E6.50039
G1 E-.8
G1 Z.6 F9000
G1 X253.221 Y112.353 Z.6
G1 Z.2
G1 E.8 F1800
;TYPE:Internal solid infill
;WIDTH:0.500889
G1 F3000
G1 X253.941 Y113.074 E.03684
G1 X253.941 Y113.721 E.02343
G1 X252.779 Y112.559 E.05946
G1 X252.131 Y112.559 E.02343
G1 X253.941 Y114.369 E.09259
G1 X253.941 Y115.017 E.02343
G1 X251.483 Y112.559 E.12573
G1 X250.836 Y112.559 E.02343
G1 X253.941 Y115.664 E.15886
G1 X253.941 Y116.312 E.02343
G1 X250.188 Y112.559 E.192
G1 X249.54 Y112.559 E.02343
G1 X253.941 Y116.96 E.22513
G1 X253.941 Y117.607 E.02343
G1 X248.893 Y112.559 E.25827
G1 X248.245 Y112.559 E.02343
G1 X253.941 Y118.255 E.2914
G1 X253.941 Y118.903 E.02343
G1 X247.597 Y112.559 E.32454
G1 X246.95 Y112.559 E.02343
G1 X253.941 Y119.55 E.35767
G1 X253.941 Y120.198 E.02343
G1 X246.302 Y112.559 E.39081
G1 X245.655 Y112.559 E.02343
G1 X253.941 Y120.845 E.42394
G1 X253.941 Y121.493 E.02343
G1 X245.007 Y112.559 E.45708
G1 X244.359 Y112.559 E.02343
G1 X253.941 Y122.141 E.49021
G1 X253.941 Y122.788 E.02343
G1 X243.712 Y112.559 E.52335
G1 X243.064 Y112.559 E.02343
G1 X253.941 Y123.436 E.55649
G1 X253.941 Y124.084 E.02343
G1 X242.416 Y112.559 E.58962
G1 X241.769 Y112.559 E.02343
G1 X253.941 Y124.731 E.62276
G1 X253.941 Y125.379 E.02343
G1 X241.121 Y112.559 E.65589
G1 X240.473 Y112.559 E.02343
G1 X253.941 Y126.027 E.68903
G1 X253.941 Y126.674 E.02343
G1 X239.826 Y112.559 E.72216
G1 X239.178 Y112.559 E.02343
G1 X253.941 Y127.322 E.7553
G1 X253.941 Y127.97 E.02343
G1 X238.53 Y112.559 E.78843
G1 X237.883 Y112.559 E.02343
G1 X253.941 Y128.617 E.82157
G1 X253.941 Y129.265 E.02343
G1 X237.235 Y112.559 E.8547
G1 X236.587 Y112.559 E.02343
G1 X253.941 Y129.913 E.88784
G1 X253.941 Y130.56 E.02343
G1 X235.94 Y112.559 E.92097
G1 X235.292 Y112.559 E.02343
G1 X253.941 Y131.208 E.95411
G1 X253.941 Y131.856 E.02343
G1 X234.644 Y112.559 E.98724
M73 P1 R120
G1 X233.997 Y112.559 E.02343
G1 X253.941 Y132.503 E1.02038
G1 X253.941 Y133.151 E.02343
G1 X233.349 Y112.559 E1.05351
G1 X232.701 Y112.559 E.02343
G1 X253.941 Y133.799 E1.08665
G1 X253.941 Y134.446 E.02343
G1 X232.054 Y112.559 E1.11978
G1 X231.406 Y112.559 E.02343
G1 X253.941 Y135.094 E1.15292
G1 X253.941 Y135.742 E.02343
G1 X230.758 Y112.559 E1.18605
G1 X230.111 Y112.559 E.02343
G1 X253.941 Y136.389 E1.21919
G1 X253.941 Y137.037 E.02343
G1 X229.463 Y112.559 E1.25232
G1 X228.815 Y112.559 E.02343
G1 X253.941 Y137.685 E1.28546
G1 X253.941 Y138.332 E.02343
G1 X228.168 Y112.559 E1.3186
G1 X227.52 Y112.559 E.02343
G1 X253.941 Y138.98 E1.35173
G1 X253.941 Y139.628 E.02343
G1 X226.872 Y112.559 E1.38487
G1 X226.225 Y112.559 E.02343
G1 X253.941 Y140.275 E1.418
G1 X253.941 Y140.923 E.02343
G1 X225.577 Y112.559 E1.45114
G1 X224.929 Y112.559 E.02343
G1 X253.941 Y141.571 E1.48427
G1 X253.941 Y142.218 E.02343
G1 X224.282 Y112.559 E1.51741
G1 X223.634 Y112.559 E.02343
G1 X253.941 Y142.866 E1.55054
G1 X253.941 Y143.514 E.02343
G1 X222.986 Y112.559 E1.58368
G1 X222.339 Y112.559 E.02343
G1 X253.941 Y144.161 E1.61681
G1 X253.941 Y144.809 E.02343
G1 X221.691 Y112.559 E1.64995
G1 X221.043 Y112.559 E.02343
G1 X253.941 Y145.457 E1.68308
G1 X253.941 Y146.104 E.02343
G1 X220.396 Y112.559 E1.71622
G1 X219.748 Y112.559 E.02343
G1 X253.941 Y146.752 E1.74935
M73 P1 R119
G1 X253.941 Y147.4 E.02343
G1 X219.1 Y112.559 E1.78249
G1 X218.453 Y112.559 E.02343
G1 X253.941 Y148.047 E1.81562
G1 X253.941 Y148.695 E.02343
G1 X217.805 Y112.559 E1.84876
G1 X217.157 Y112.559 E.02343
G1 X253.941 Y149.343 E1.88189
G1 X253.941 Y149.99 E.02343
G1 X216.51 Y112.559 E1.91503
G1 X215.862 Y112.559 E.02343
G1 X253.941 Y150.638 E1.94816
G1 X253.941 Y151.286 E.02343
G1 X215.214 Y112.559 E1.9813
G1 X214.567 Y112.559 E.02343
G1 X253.941 Y151.933 E2.01443
G1 X253.941 Y152.581 E.02343
G1 X213.919 Y112.559 E2.04757
G1 X213.271 Y112.559 E.02343
G1 X253.941 Y153.229 E2.08071
G1 X253.941 Y153.876 E.02343
G1 X212.624 Y112.559 E2.11384
G1 X211.976 Y112.559 E.02343
G1 X253.941 Y154.524 E2.14698
G1 X253.941 Y155.172 E.02343
G1 X211.328 Y112.559 E2.18011
G1 X210.681 Y112.559 E.02343
G1 X253.941 Y155.819 E2.21325
G1 X253.941 Y156.467 E.02343
G1 X210.033 Y112.559 E2.24638
G1 X209.385 Y112.559 E.02343
G1 X253.941 Y157.115 E2.27952
G1 X253.941 Y157.762 E.02343
G1 X208.738 Y112.559 E2.31265
G1 X208.09 Y112.559 E.02343
G1 X253.941 Y158.41 E2.34579
G1 X253.941 Y159.058 E.02343
G1 X207.442 Y112.559 E2.37892
G1 X206.795 Y112.559 E.02343
G1 X253.941 Y159.705 E2.41206
G1 X253.941 Y160.353 E.02343
G1 X206.147 Y112.559 E2.44519
G1 X205.499 Y112.559 E.02343
G1 X253.941 Y161.001 E2.47833
G1 X253.941 Y161.648 E.02343
G1 X204.852 Y112.559 E2.51146
G1 X204.204 Y112.559 E.02343
G1 X253.941 Y162.296 E2.5446
G1 X253.941 Y162.944 E.02343
G1 X203.556 Y112.559 E2.57773
G1 X202.909 Y112.559 E.02343
G1 X253.941 Y163.591 E2.61087
G1 X253.941 Y164.239 E.02343
G1 X202.261 Y112.559 E2.644
G1 X201.613 Y112.559 E.02343
G1 X253.941 Y164.887 E2.67714
G1 X253.941 Y165.534 E.02343
G1 X200.966 Y112.559 E2.71027
G1 X200.318 Y112.559 E.02343
G1 X253.941 Y166.182 E2.74341
G1 X253.941 Y166.83 E.02343
G1 X199.67 Y112.559 E2.77654
G1 X199.023 Y112.559 E.02343
G1 X253.941 Y167.477 E2.80968
G1 X253.941 Y168.125 E.02343
G1 X198.375 Y112.559 E2.84282
G1 X197.727 Y112.559 E.02343
G1 X253.941 Y168.773 E2.87595
G1 X253.941 Y169.42 E.02343
G1 X197.08 Y112.559 E2.90909
G1 X196.432 Y112.559 E.02343
G1 X253.941 Y170.068 E2.94222
G1 X253.941 Y170.716 E.02343
G1 X195.784 Y112.559 E2.97536
M73 P2 R119
G1 X195.137 Y112.559 E.02343
G1 X253.941 Y171.363 E3.00849
G1 X253.941 Y172.011 E.02343
G1 X194.489 Y112.559 E3.04163
G1 X193.841 Y112.559 E.02343
G1 X253.941 Y172.659 E3.07476
G1 X253.941 Y173.306 E.02343
G1 X193.194 Y112.559 E3.1079
M73 P2 R118
G1 X192.546 Y112.559 E.02343
G1 X253.941 Y173.954 E3.14103
G1 X253.941 Y174.602 E.02343
G1 X191.898 Y112.559 E3.17417
G1 X191.251 Y112.559 E.02343
G1 X253.941 Y175.249 E3.2073
G1 X253.941 Y175.897 E.02343
G1 X190.603 Y112.559 E3.24044
G1 X189.955 Y112.559 E.02343
G1 X253.941 Y176.545 E3.27357
G1 X253.941 Y177.192 E.02343
G1 X189.308 Y112.559 E3.30671
G1 X188.66 Y112.559 E.02343
G1 X253.941 Y177.84 E3.33984
G1 X253.941 Y178.488 E.02343
G1 X188.012 Y112.559 E3.37298
G1 X187.365 Y112.559 E.02343
G1 X253.941 Y179.135 E3.40611
G1 X253.941 Y179.783 E.02343
G1 X186.717 Y112.559 E3.43925
G1 X186.069 Y112.559 E.02343
G1 X253.941 Y180.431 E3.47238
G1 X253.941 Y181.078 E.02343
G1 X185.422 Y112.559 E3.50552
G1 X184.774 Y112.559 E.02343
G1 X253.941 Y181.726 E3.53865
G1 X253.941 Y182.374 E.02343
G1 X184.126 Y112.559 E3.57179
G1 X183.479 Y112.559 E.02343
G1 X253.941 Y183.021 E3.60493
G1 X253.941 Y183.669 E.02343
G1 X246.059 Y175.787 E.40325
G1 X246.059 Y176.435 E.02343
G1 X253.941 Y184.317 E.40325
G1 X253.941 Y184.964 E.02343
G1 X246.059 Y177.082 E.40325
G1 X246.059 Y177.73 E.02343
G1 X253.941 Y185.612 E.40325
G1 X253.941 Y186.26 E.02343
G1 X246.059 Y178.378 E.40325
G1 X246.059 Y179.025 E.02343
G1 X253.941 Y186.907 E.40325
G1 X253.941 Y187.555 E.02343
G1 X246.059 Y179.673 E.40325
G1 X246.059 Y180.321 E.02343
G1 X253.941 Y188.203 E.40325
G1 X253.941 Y188.85 E.02343
G1 X246.059 Y180.968 E.40325
G1 X246.059 Y181.616 E.02343
G1 X253.941 Y189.498 E.40325
G1 X253.941 Y190.146 E.02343
G1 X246.059 Y182.264 E.40325
G1 X246.059 Y182.911 E.02343
G1 X253.941 Y190.793 E.40325
G1 X253.941 Y191.441 E.02343
G1 X246.059 Y183.559 E.40325
G1 X246.059 Y184.207 E.02343
G1 X253.941 Y192.089 E.40325
G1 X253.941 Y192.736 E.02343
G1 X246.059 Y184.854 E.40325
G1 X246.059 Y185.502 E.02343
G1 X253.941 Y193.384 E.40325
G1 X253.941 Y194.032 E.02343
G1 X246.059 Y186.15 E.40325
G1 X246.059 Y186.797 E.02343
G1 X253.941 Y194.679 E.40325
G1 X253.941 Y195.327 E.02343
G1 X246.059 Y187.445 E.40325
G1 X246.059 Y188.093 E.02343
G1 X253.941 Y195.975 E.40325
G1 X253.941 Y196.622 E.02343
G1 X246.059 Y188.74 E.40325
G1 X246.059 Y189.388 E.02343
G1 X253.941 Y197.27 E.40325
G1 X253.941 Y197.441 E.00618
G1 X253.464 Y197.441 E.01725
G1 X246.059 Y190.036 E.37886
G1 X246.059 Y190.683 E.02343
G1 X252.817 Y197.441 E.34572
G1 X252.169 Y197.441 E.02343
G1 X246.059 Y191.331 E.31259
G1 X246.059 Y191.979 E.02343
G1 X251.521 Y197.441 E.27945
G1 X250.874 Y197.441 E.02343
G1 X246.059 Y192.626 E.24632
G1 X246.059 Y193.274 E.02343
G1 X250.226 Y197.441 E.21318
G1 X249.578 Y197.441 E.02343
G1 X246.059 Y193.922 E.18005
G1 X246.059 Y194.569 E.02343
G1 X248.931 Y197.441 E.14691
G1 X248.283 Y197.441 E.02343
G1 X246.059 Y195.217 E.11378
G1 X246.059 Y195.865 E.02343
G1 X247.635 Y197.441 E.08064
G1 X246.988 Y197.441 E.02343
G1 X246.059 Y196.512 E.0475
G1 X246.059 Y197.16 E.02343
G1 X246.546 Y197.647 E.02489
G1 E-.8
G1 Z.6 F9000
G1 X244.919 Y174.647 Z.6
G1 Z.2
G1 E.8 F1800
G1 F3000
G1 X182.831 Y112.559 E3.17646
G1 X182.183 Y112.559 E.02343
G1 X244.065 Y174.441 E3.16594
G1 X243.418 Y174.441 E.02343
G1 X181.536 Y112.559 E3.16594
G1 X180.888 Y112.559 E.02343
G1 X242.77 Y174.441 E3.16594
G1 X242.122 Y174.441 E.02343
G1 X180.24 Y112.559 E3.16594
G1 X179.593 Y112.559 E.02343
G1 X241.475 Y174.441 E3.16594
G1 X240.827 Y174.441 E.02343
G1 X178.945 Y112.559 E3.16594
G1 X178.297 Y112.559 E.02343
G1 X240.179 Y174.441 E3.16595
G1 X239.532 Y174.441 E.02343
G1 X177.65 Y112.559 E3.16595
G1 X177.002 Y112.559 E.02343
G1 X238.884 Y174.441 E3.16595
G1 X238.236 Y174.441 E.02343
G1 X176.354 Y112.559 E3.16595
M73 P2 R117
G1 X175.707 Y112.559 E.02343
G1 X237.589 Y174.441 E3.16595
G1 X236.941 Y174.441 E.02343
G1 X175.059 Y112.559 E3.16595
G1 X174.411 Y112.559 E.02343
G1 X236.293 Y174.441 E3.16595
M73 P3 R117
G1 X235.646 Y174.441 E.02343
G1 X173.764 Y112.559 E3.16595
G1 X173.116 Y112.559 E.02343
G1 X234.998 Y174.441 E3.16595
G1 X234.35 Y174.441 E.02343
G1 X172.468 Y112.559 E3.16595
G1 X171.821 Y112.559 E.02343
G1 X233.703 Y174.441 E3.16595
G1 X233.055 Y174.441 E.02343
G1 X171.173 Y112.559 E3.16595
G1 X170.525 Y112.559 E.02343
G1 X232.407 Y174.441 E3.16595
G1 X231.76 Y174.441 E.02343
G1 X169.878 Y112.559 E3.16595
G1 X169.23 Y112.559 E.02343
G1 X231.112 Y174.441 E3.16595
G1 X230.464 Y174.441 E.02343
G1 X168.582 Y112.559 E3.16596
G1 X167.935 Y112.559 E.02343
G1 X229.817 Y174.441 E3.16596
G1 X229.169 Y174.441 E.02343
G1 X167.287 Y112.559 E3.16596
G1 X166.639 Y112.559 E.02343
G1 X228.522 Y174.441 E3.16596
G1 X227.874 Y174.441 E.02343
G1 X165.992 Y112.559 E3.16596
G1 X165.344 Y112.559 E.02343
G1 X227.226 Y174.441 E3.16596
G1 X226.579 Y174.441 E.02343
G1 X164.696 Y112.559 E3.16596
G1 X164.049 Y112.559 E.02343
G1 X225.931 Y174.441 E3.16596
G1 X225.283 Y174.441 E.02343
G1 X163.401 Y112.559 E3.16596
G1 X162.753 Y112.559 E.02343
G1 X224.636 Y174.441 E3.16596
G1 X223.988 Y174.441 E.02343
G1 X162.106 Y112.559 E3.16596
G1 X161.458 Y112.559 E.02343
G1 X223.34 Y174.441 E3.16596
G1 X222.693 Y174.441 E.02343
G1 X160.81 Y112.559 E3.16596
G1 X160.163 Y112.559 E.02343
G1 X222.045 Y174.441 E3.16596
G1 X221.397 Y174.441 E.02343
G1 X159.515 Y112.559 E3.16596
G1 X158.867 Y112.559 E.02343
G1 X220.75 Y174.441 E3.16596
G1 X220.102 Y174.441 E.02343
G1 X158.22 Y112.559 E3.16597
G1 X157.572 Y112.559 E.02343
G1 X219.454 Y174.441 E3.16597
G1 X218.807 Y174.441 E.02343
G1 X156.924 Y112.559 E3.16597
G1 X156.277 Y112.559 E.02343
G1 X218.159 Y174.441 E3.16597
G1 X217.511 Y174.442 E.02343
G1 X155.629 Y112.559 E3.16597
M73 P3 R116
