; generated by SuperSlicer 2.5.59 on 2023-06-12 at 15:04:10 UTC


;
;

;
;
; 

; external perimeters extrusion width = 0.40mm
; perimeters extrusion width = 0.46mm
; infill extrusion width = 0.64mm
; solid infill extrusion width = 0.56mm
; top infill extrusion width = 0.40mm
; support material extrusion width = 0.46mm
; first layer extrusion width = 0.50mm

; external perimeters extrusion width = 0.40mm
; perimeters extrusion width = 0.46mm
; infill extrusion width = 0.64mm
; solid infill extrusion width = 0.56mm
; top infill extrusion width = 0.40mm
; support material extrusion width = 0.46mm
; first layer extrusion width = 0.50mm

; external perimeters extrusion width = 0.40mm
; perimeters extrusion width = 0.46mm
; infill extrusion width = 0.64mm
; solid infill extrusion width = 0.56mm
; top infill extrusion width = 0.40mm
; support material extrusion width = 0.46mm
; first layer extrusion width = 0.50mm

; external perimeters extrusion width = 0.40mm
; perimeters extrusion width = 0.46mm
; infill extrusion width = 0.64mm
; solid infill extrusion width = 0.56mm
; top infill extrusion width = 0.40mm
; support material extrusion width = 0.46mm
; first layer extrusion width = 0.50mm

; external perimeters extrusion width = 0.40mm
; perimeters extrusion width = 0.46mm
; infill extrusion width = 0.64mm
; solid infill extrusion width = 0.56mm
; top infill extrusion width = 0.40mm
; support material extrusion width = 0.46mm
; first layer extrusion width = 0.50mm

; external perimeters extrusion width = 0.40mm
; perimeters extrusion width = 0.46mm
; infill extrusion width = 0.64mm
; solid infill extrusion width = 0.56mm
; top infill extrusion width = 0.40mm
; support material extrusion width = 0.46mm
; first layer extrusion width = 0.50mm

; object:{"name":"ICT","id":"ICT.stl id:0 copy 0","object_center":[152.500000,99.400000,0.000000],"boundingbox_center":[152.500000,99.400000,3.175000],"boundingbox_size":[65.000000,95.199997,6.349999]}
EXCLUDE_OBJECT_DEFINE NAME=ICT_stl_id_0_copy_0 CENTER=152.500000,99.400000 POLYGON=[[120.000000,68.814216],[122.000000,53.800004],[129.464216,51.800004],[175.535776,51.800004],[185.000000,53.800004],[185.000000,145.000000],[183.000000,147.000000],[122.000000,147.000000],[120.000000,129.985792],[120.000000,68.814216]]
; object:{"name":"ICT","id":"ICT.stl id:1 copy 0","object_center":[223.500000,99.400000,0.000000],"boundingbox_center":[223.500000,99.400000,3.175000],"boundingbox_size":[65.000000,95.199997,6.349999]}
EXCLUDE_OBJECT_DEFINE NAME=ICT_stl_id_1_copy_0 CENTER=223.500000,99.400000 POLYGON=[[191.000000,68.814216],[193.000000,53.800004],[200.464224,51.800004],[246.535776,51.800004],[256.000000,53.800004],[256.000000,145.000000],[254.000000,147.000000],[193.000000,147.000000],[191.000000,129.985792],[191.000000,68.814216]]
; object:{"name":"ICT","id":"ICT.stl id:2 copy 0","object_center":[152.500000,200.600000,0.000000],"boundingbox_center":[152.500000,200.600000,3.175000],"boundingbox_size":[65.000000,95.199997,6.349999]}
EXCLUDE_OBJECT_DEFINE NAME=ICT_stl_id_2_copy_0 CENTER=152.500000,200.600000 POLYGON=[[120.000000,170.014224],[122.000000,155.000000],[129.464216,153.000000],[175.535776,153.000000],[185.000000,155.000000],[185.000000,246.200016],[183.000000,248.200016],[122.000000,248.200016],[120.000000,231.185792],[120.000000,170.014224]]
; object:{"name":"ICT","id":"ICT.stl id:3 copy 0","object_center":[223.500000,200.600000,0.000000],"boundingbox_center":[223.500000,200.600000,3.175000],"boundingbox_size":[65.000000,95.199997,6.349999]}
EXCLUDE_OBJECT_DEFINE NAME=ICT_stl_id_3_copy_0 CENTER=223.500000,200.600000 POLYGON=[[191.000000,170.014224],[193.000000,155.000000],[200.464224,153.000000],[246.535776,153.000000],[256.000000,155.000000],[256.000000,246.200016],[254.000000,248.200016],[193.000000,248.200016],[191.000000,231.185792],[191.000000,170.014224]]
; object:{"name":"ICT","id":"ICT.stl id:4 copy 0","object_center":[81.500000,99.400000,0.000000],"boundingbox_center":[81.500000,99.400000,3.175000],"boundingbox_size":[65.000000,95.199997,6.349999]}
EXCLUDE_OBJECT_DEFINE NAME=ICT_stl_id_4_copy_0 CENTER=81.500000,99.400000 POLYGON=[[49.000000,68.814216],[51.000000,53.800004],[58.464216,51.800004],[104.535784,51.800004],[114.000000,53.800004],[114.000000,145.000000],[112.000000,147.000000],[51.000000,147.000000],[49.000000,129.985792],[49.000000,68.814216]]
; object:{"name":"ICT","id":"ICT.stl id:5 copy 0","object_center":[81.500000,200.600001,0.000000],"boundingbox_center":[81.500000,200.600001,3.175000],"boundingbox_size":[65.000000,95.199997,6.349999]}
EXCLUDE_OBJECT_DEFINE NAME=ICT_stl_id_5_copy_0 CENTER=81.500000,200.600001 POLYGON=[[49.000000,170.014224],[51.000000,155.000000],[58.464216,153.000000],[104.535784,153.000000],[114.000000,155.000000],[114.000000,246.200016],[112.000000,248.200016],[51.000000,248.200016],[49.000000,231.185792],[49.000000,170.014224]]
; plater:{"center":[152.500000,150.000000,0.000000],"boundingbox_center":[152.500000,150.000000,3.175000],"boundingbox_size":[207.000000,196.399998,6.349999]}

M73 P0 R202
;TYPE:Custom
START_PRINT T_BED=60 T_EXTRUDER=210
M107
G21 ; set units to millimeters
G90 ; use absolute coordinates
M82 ; use absolute distances for extrusion
G92 E0
; Filament gcode

    PRESSURE_ADVANCE_SELECT FILAMENT=PLA
;_TOOLCHANGE 0
M109 S210 ; set temperature and wait for it to be reached
M190 S60 ; set bed temperature and wait for it to be reached
M107
;LAYER_CHANGE
;Z:0.2
;HEIGHT:0.2
G1 Z0.2 F9000
G1 E-0.8 F3000
M204 S1000
G1 X51.825 Y43.835 F9000
G1 E0 F1800
;TYPE:Skirt
;WIDTH:0.52
G1 X41.639 Y60.813 E0.76973
G1 X41.109 Y62.725 E0.84685
G1 X41.109 Y237.275 E7.63267
G1 X41.181 Y238.004 E7.66114
G1 X44.577 Y254.982 E8.33425
G1 X45.241 Y256.474 E8.39776
G1 X46.554 Y257.574 E8.46433
G1 X48.22 Y257.969 E8.5309
G1 X256.78 Y257.969 E16.63885
G1 X257.95 Y257.78 E16.68492
G1 X259.407 Y256.881 E16.75149
G1 X262.803 Y253.485 E16.93818
G1 X263.496 Y252.524 E16.98426
G1 X263.891 Y250.858 E17.05083
G1 X263.891 Y49.142 E24.89271
G1 X263.704 Y47.977 E24.93859
G1 X262.806 Y46.519 E25.00516
G1 X261.35 Y45.617 E25.07173
G1 X251.163 Y42.222 E25.48918
G1 X249.988 Y42.031 E25.53546
G1 X55.011 Y42.031 E33.11537
G1 X53.021 Y42.609 E33.19595
G1 X51.825 Y43.835 E33.26252
G1 X52.234 Y44.08 F9000
G1 F1800
G1 X42.048 Y61.058 E34.03225
G1 X41.586 Y62.725 E34.09946
G1 X41.586 Y237.275 E40.88529
M73 P0 R202
G1 X41.649 Y237.91 E40.9101
G1 X45.045 Y254.888 E41.58321
G1 X45.501 Y256.012 E41.63037
G1 X46.672 Y257.098 E41.69246
G1 X48.22 Y257.492 E41.75455
G1 X256.78 Y257.492 E49.86249
G1 X257.697 Y257.359 E49.89851
G1 X259.07 Y256.543 E49.9606
G1 X262.465 Y253.148 E50.14729
G1 X263.02 Y252.406 E50.18331
G1 X263.414 Y250.858 E50.2454
G1 X263.414 Y49.142 E58.08729
G1 X263.311 Y48.333 E58.11899
G1 X262.543 Y46.933 E58.18108
G1 X261.199 Y46.07 E58.24317
G1 X251.013 Y42.674 E58.66061
G1 X249.988 Y42.508 E58.70095
G1 X55.011 Y42.508 E66.28086
G1 X53.369 Y42.956 E66.34706
G1 X52.234 Y44.08 E66.40915
G92 E0
G1 E-0.8 F3000
; printing object ICT.stl id:0 copy 0
EXCLUDE_OBJECT_START NAME=ICT_stl_id_0_copy_0
G1 X119.22 Y139.37 F9000
G1 E0 F1800
;TYPE:Support material
;WIDTH:0.5
G1 X121.021 Y141.171 E0.09488
G1 X121.021 Y145.347 E0.25041
G1 X121.653 Y145.979 E0.28369
G1 X134.845 Y145.979 E0.77505
G1 X134.845 Y153.053 E1.03856
G1 X119.22 Y153.053 E1.62054
G1 X119.22 Y139.37 E2.1302
G92 E0
G1 E-0.8 F3000
G1 X134.217 Y152.939 F9000
G1 E0 F1800
G1 X134.217 Y146.289 E0.24768
G1 X133.709 Y146.289 E0.26659
G1 X133.709 Y152.743 E0.50695
G1 X133.201 Y152.743 E0.52587
G1 X133.201 Y146.289 E0.76622
G1 X132.693 Y146.289 E0.78514
G1 X132.693 Y152.743 E1.0255
G1 X132.185 Y152.743 E1.04441
G1 X132.185 Y146.289 E1.28477
G1 X131.677 Y146.289 E1.30369
G1 X131.677 Y152.743 E1.54404
G1 X131.17 Y152.743 E1.56296
G1 X131.17 Y146.289 E1.80332
G1 X130.662 Y146.289 E1.82223
G1 X130.662 Y152.743 E2.06259
G1 X130.154 Y152.743 E2.08151
G1 X130.154 Y146.289 E2.32186
G1 X129.646 Y146.289 E2.34078
G1 X129.646 Y152.743 E2.58114
G1 X129.138 Y152.743 E2.60005
G1 X129.138 Y146.289 E2.84041
G1 X128.63 Y146.289 E2.85932
G1 X128.63 Y152.743 E3.09968
G1 X128.122 Y152.743 E3.1186
G1 X128.122 Y146.289 E3.35895
G1 X127.615 Y146.289 E3.37787
G1 X127.615 Y152.743 E3.61823
G1 X127.107 Y152.743 E3.63714
G1 X127.107 Y146.289 E3.8775
G1 X126.599 Y146.289 E3.89642
G1 X126.599 Y152.743 E4.13677
G1 X126.091 Y152.743 E4.15569
G1 X126.091 Y146.289 E4.39605
G1 X125.583 Y146.289 E4.41496
G1 X125.583 Y152.743 E4.65532
G1 X125.075 Y152.743 E4.67424
G1 X125.075 Y146.289 E4.91459
G1 X124.567 Y146.289 E4.93351
G1 X124.567 Y152.743 E5.17387
G1 X124.059 Y152.743 E5.19278
G1 X124.059 Y146.289 E5.43314
G1 X123.552 Y146.289 E5.45206
G1 X123.552 Y152.743 E5.69241
G1 X123.044 Y152.743 E5.71133
G1 X123.044 Y146.289 E5.95169
G1 X122.536 Y146.289 E5.9706
G1 X122.536 Y152.743 E6.21096
G1 X122.028 Y152.743 E6.22987
G1 X122.028 Y146.289 E6.47023
G1 X121.52 Y146.285 E6.48915
G1 X121.52 Y152.743 E6.72967
G1 X121.012 Y152.743 E6.74858
G1 X121.012 Y145.777 E7.00802
G1 X120.711 Y145.475 E7.02391
G1 X120.711 Y141.3 E7.17944
G1 X120.504 Y141.093 E7.1903
G1 X120.504 Y152.743 E7.62419
G1 X119.997 Y152.743 E7.6431
G1 X119.997 Y140.308 E8.10626
G92 E0
G1 E-0.8 F3000
G1 X170.154 Y145.979 F9000
G1 E0 F1800
G1 X183.347 Y145.979 E0.49136
G1 X183.979 Y145.347 E0.52464
G1 X183.979 Y123.846 E1.32547
G1 X189.175 Y123.846 E1.51903
G1 X189.175 Y149.658 E2.48043
G1 X185.78 Y149.658 E2.60691
G1 X185.78 Y153.053 E2.73338
G1 X170.154 Y153.053 E3.31536
G1 X170.154 Y145.979 E3.57887
G1 X188.558 Y149.543 F9000
G1 F1800
G1 X188.558 Y124.157 E4.52444
G1 X188.051 Y124.157 E4.54335
G1 X188.051 Y149.347 E5.4816
G1 X187.543 Y149.347 E5.50052
G1 X187.543 Y124.157 E6.43876
G1 X187.035 Y124.157 E6.45768
G1 X187.035 Y149.347 E7.39593
G1 X186.527 Y149.347 E7.41484
G1 X186.527 Y124.157 E8.35309
G1 X186.019 Y124.157 E8.37201
G1 X186.019 Y149.347 E9.31025
G1 X185.511 Y149.347 E9.32917
G1 X185.511 Y124.157 E10.26742
G1 X185.003 Y124.157 E10.28633
G1 X185.003 Y152.743 E11.35105
G1 X184.496 Y152.743 E11.36997
G1 X184.496 Y124.157 E12.43469
G1 X184.289 Y124.157 E12.44237
G1 X184.289 Y145.475 E13.23642
G1 X183.988 Y145.777 E13.25231
G1 X183.988 Y152.743 E13.51175
G1 X183.48 Y152.743 E13.53066
G1 X183.48 Y146.285 E13.77118
G1 X182.972 Y146.289 E13.7901
G1 X182.972 Y152.743 E14.03045
G1 X182.464 Y152.743 E14.04937
G1 X182.464 Y146.289 E14.28973
G1 X181.956 Y146.289 E14.30864
G1 X181.956 Y152.743 E14.549
G1 X181.448 Y152.743 E14.56792
G1 X181.448 Y146.289 E14.80827
G1 X180.94 Y146.289 E14.82719
G1 X180.94 Y152.743 E15.06755
G1 X180.433 Y152.743 E15.08646
G1 X180.433 Y146.289 E15.32682
G1 X179.925 Y146.289 E15.34574
G1 X179.925 Y152.743 E15.58609
G1 X179.417 Y152.743 E15.60501
G1 X179.417 Y146.289 E15.84537
G1 X178.909 Y146.289 E15.86428
G1 X178.909 Y152.743 E16.10464
G1 X178.401 Y152.743 E16.12355
G1 X178.401 Y146.289 E16.36391
G1 X177.893 Y146.289 E16.38283
G1 X177.893 Y152.743 E16.62318
G1 X177.385 Y152.743 E16.6421
G1 X177.385 Y146.289 E16.88246
G1 X176.878 Y146.289 E16.90137
G1 X176.878 Y152.743 E17.14173
G1 X176.37 Y152.743 E17.16065
G1 X176.37 Y146.289 E17.401
G1 X175.862 Y146.289 E17.41992
G1 X175.862 Y152.743 E17.66028
G1 X175.354 Y152.743 E17.67919
G1 X175.354 Y146.289 E17.91955
G1 X174.846 Y146.289 E17.93847
G1 X174.846 Y152.743 E18.17882
G1 X174.338 Y152.743 E18.19774
G1 X174.338 Y146.289 E18.4381
G1 X173.83 Y146.289 E18.45701
G1 X173.83 Y152.743 E18.69737
G1 X173.323 Y152.743 E18.71629
G1 X173.323 Y146.289 E18.95664
G1 X172.815 Y146.289 E18.97556
G1 X172.815 Y152.743 E19.21592
G1 X172.307 Y152.743 E19.23483
G1 X172.307 Y146.289 E19.47519
G1 X171.799 Y146.289 E19.4941
G1 X171.799 Y152.743 E19.73446
G1 X171.291 Y152.743 E19.75338
G1 X171.291 Y146.289 E19.99373
G1 X170.783 Y146.289 E20.01265
G1 X170.783 Y152.939 E20.26033
G92 E0
G1 E-0.8 F3000
G1 X121.021 Y136.075 F9000
G1 E0 F1800
G1 X115.825 Y136.075 E0.19356
G1 X115.825 Y110.263 E1.15496
G1 X125.026 Y110.263 E1.4977
G1 X125.026 Y111.339 E1.53775
G1 X124.97 Y111.715 E1.55193
G1 X124.809 Y112.02 E1.56476
G1 X124.597 Y112.222 E1.57567
G1 X124.391 Y112.341 E1.58455
G1 X124.104 Y112.411 E1.59555
G1 X121.649 Y112.423 E1.68697
G1 X121.021 Y113.054 E1.72013
G1 X121.021 Y136.075 E2.57757
G92 E0
G1 E-0.8 F3000
G1 X124.567 Y112.095 F9000
M73 P1 R201
G1 E0 F1800
G1 X124.567 Y110.574 E0.05665
G1 X124.06 Y110.574 E0.07557
G1 X124.06 Y112.1 E0.13242
G1 X123.552 Y112.103 E0.15134
G1 X123.552 Y110.574 E0.20828
G1 X123.044 Y110.574 E0.2272
G1 X123.044 Y112.105 E0.28424
G1 X122.536 Y112.108 E0.30315
G1 X122.536 Y110.574 E0.36029
G1 X122.028 Y110.574 E0.3792
G1 X122.028 Y112.11 E0.43643
G1 X121.52 Y112.113 E0.45534
G1 X121.52 Y110.574 E0.51266
G1 X121.012 Y110.574 E0.53158
G1 X121.012 Y112.623 E0.60789
G1 X120.711 Y112.926 E0.62382
G1 X120.711 Y135.764 E1.47447
G1 X120.504 Y135.764 E1.48215
G1 X120.504 Y110.574 E2.42039
G1 X119.997 Y110.574 E2.43931
G1 X119.997 Y135.764 E3.37756
G1 X119.489 Y135.764 E3.39647
G1 X119.489 Y110.574 E4.33472
G1 X118.981 Y110.574 E4.35364
G1 X118.981 Y135.764 E5.29188
G1 X118.473 Y135.764 E5.3108
G1 X118.473 Y110.574 E6.24905
G1 X117.965 Y110.574 E6.26796
G1 X117.965 Y135.764 E7.20621
G1 X117.457 Y135.764 E7.22513
G1 X117.457 Y110.574 E8.16337
M73 P1 R201
G1 X116.949 Y110.574 E8.18229
G1 X116.949 Y135.764 E9.12054
G1 X116.442 Y135.764 E9.13945
G1 X116.442 Y110.378 E10.08502
G92 E0
G1 E-0.8 F3000
G1 X116.442 Y88.537 F9000
G1 E0 F1800
G1 X115.825 Y88.537 E0.02298
G1 X115.825 Y62.725 E0.98438
G1 X121.021 Y62.725 E1.17794
G1 X121.021 Y85.746 E2.03539
G1 X121.649 Y86.377 E2.06855
G1 X124.104 Y86.389 E2.15996
G1 X124.339 Y86.439 E2.16893
G1 X124.597 Y86.578 E2.17984
G1 X124.809 Y86.78 E2.19076
G1 X124.928 Y86.987 E2.19963
G1 X125.002 Y87.213 E2.2085
G1 X125.026 Y87.441 E2.21705
G1 X125.026 Y88.537 E2.25784
G1 X116.442 Y88.537 E2.5776
G1 X124.567 Y88.422 F9000
G1 F1800
G1 X124.567 Y86.983 E2.6312
G1 X124.414 Y86.831 E2.63927
G1 X124.257 Y86.74 E2.64601
G1 X124.07 Y86.7 E2.65312
G1 X124.06 Y88.226 E2.70996
G1 X123.552 Y88.226 E2.72888
G1 X123.552 Y86.697 E2.78582
G1 X123.044 Y86.695 E2.80474
G1 X123.044 Y88.226 E2.86177
G1 X122.536 Y88.226 E2.88069
G1 X122.536 Y86.692 E2.93782
G1 X122.028 Y86.69 E2.95673
G1 X122.028 Y88.226 E3.01395
G1 X121.52 Y88.226 E3.03287
G1 X121.52 Y86.687 E3.09019
G1 X121.012 Y86.177 E3.11699
G1 X121.012 Y88.226 E3.1933
G1 X120.504 Y88.226 E3.21221
G1 X120.504 Y63.035 E4.15046
G1 X119.997 Y63.035 E4.16938
G1 X119.997 Y88.226 E5.10762
G1 X119.489 Y88.226 E5.12654
G1 X119.489 Y63.035 E6.06479
G1 X118.981 Y63.035 E6.0837
G1 X118.981 Y88.226 E7.02195
G1 X118.473 Y88.226 E7.04087
G1 X118.473 Y63.035 E7.97911
G1 X117.965 Y63.035 E7.99803
G1 X117.965 Y88.226 E8.93628
G1 X117.457 Y88.226 E8.95519
G1 X117.457 Y63.035 E9.89344
G1 X116.949 Y63.035 E9.91236
G1 X116.949 Y88.226 E10.8506
G1 X116.442 Y88.226 E10.86952
G1 X116.442 Y62.839 E11.81509
G92 E0
G1 E-0.8 F3000
G1 X180.341 Y52.821 F9000
G1 E0 F1800
G1 X180.341 Y49.142 E0.13704
G1 X189.175 Y49.142 E0.46607
G1 X189.175 Y74.954 E1.42747
G1 X183.979 Y74.954 E1.62103
G1 X183.979 Y53.453 E2.42186
G1 X183.347 Y52.821 E2.45514
G1 X180.341 Y52.821 E2.56708
G92 E0
G1 E-0.8 F3000
G1 X188.558 Y74.84 F9000
G1 E0 F1800
G1 X188.558 Y49.453 E0.94557
G1 X188.051 Y49.453 E0.96448
G1 X188.051 Y74.643 E1.90273
G1 X187.543 Y74.643 E1.92165
G1 X187.543 Y49.453 E2.85989
G1 X187.035 Y49.453 E2.87881
G1 X187.035 Y74.643 E3.81706
G1 X186.527 Y74.643 E3.83597
G1 X186.527 Y49.453 E4.77422
G1 X186.019 Y49.453 E4.79314
G1 X186.019 Y74.643 E5.73138
G1 X185.511 Y74.643 E5.7503
G1 X185.511 Y49.453 E6.68855
G1 X185.003 Y49.453 E6.70746
G1 X185.003 Y74.643 E7.64571
G1 X184.496 Y74.643 E7.66463
G1 X184.496 Y49.453 E8.60287
G1 X183.988 Y49.453 E8.62179
G1 X183.988 Y53.023 E8.75475
G1 X183.48 Y52.515 E8.78151
G1 X183.48 Y49.453 E8.89555
G1 X182.972 Y49.453 E8.91447
G1 X182.972 Y52.511 E9.02836
G1 X182.464 Y52.511 E9.04727
G1 X182.464 Y49.453 E9.16116
G1 X181.956 Y49.453 E9.18008
G1 X181.956 Y52.511 E9.29396
G1 X181.448 Y52.511 E9.31288
G1 X181.448 Y49.453 E9.42676
