; HEADER_BLOCK_START
; generated by OrcaSlicer 1.6.3 on 2023-06-11 at 16:41:57
; total layer number: 44
; HEADER_BLOCK_END

; THUMBNAIL_BLOCK_START
; THUMBNAIL_BLOCK_END

; external perimeters extrusion width = 0.40mm
; perimeters extrusion width = 0.45mm
; infill extrusion width = 0.45mm
; solid infill extrusion width = 0.40mm
; top infill extrusion width = 0.40mm
; support material extrusion width = 0.40mm
; first layer extrusion width = 0.50mm

; external perimeters extrusion width = 0.40mm
; perimeters extrusion width = 0.45mm
; infill extrusion width = 0.45mm
; solid infill extrusion width = 0.40mm
; top infill extrusion width = 0.40mm
; support material extrusion width = 0.40mm
; first layer extrusion width = 0.50mm

; external perimeters extrusion width = 0.40mm
; perimeters extrusion width = 0.45mm
; infill extrusion width = 0.45mm
; solid infill extrusion width = 0.40mm
; top infill extrusion width = 0.40mm
; support material extrusion width = 0.40mm
; first layer extrusion width = 0.50mm

; external perimeters extrusion width = 0.40mm
; perimeters extrusion width = 0.45mm
; infill extrusion width = 0.45mm
; solid infill extrusion width = 0.40mm
; top infill extrusion width = 0.40mm
; support material extrusion width = 0.40mm
; first layer extrusion width = 0.50mm

; external perimeters extrusion width = 0.40mm
; perimeters extrusion width = 0.45mm
; infill extrusion width = 0.45mm
; solid infill extrusion width = 0.40mm
; top infill extrusion width = 0.40mm
; support material extrusion width = 0.40mm
; first layer extrusion width = 0.50mm

; EXECUTABLE_BLOCK_START
EXCLUDE_OBJECT_DEFINE NAME=ICT.stl_id_0_copy_0 CENTER=230,207.6 POLYGON=[[197.5,177.014],[199.5,162],[206.964,160],[253.036,160],[262.5,162],[262.5,253.2],[260.5,255.2],[199.5,255.2],[197.5,238.186],[197.5,177.014]]
EXCLUDE_OBJECT_DEFINE NAME=ICT.stl_id_1_copy_0 CENTER=155,207.6 POLYGON=[[122.5,177.014],[124.5,162],[131.964,160],[178.036,160],[187.5,162],[187.5,253.2],[185.5,255.2],[124.5,255.2],[122.5,238.186],[122.5,177.014]]
EXCLUDE_OBJECT_DEFINE NAME=ICT.stl_id_2_copy_0 CENTER=230,102.4 POLYGON=[[197.5,71.8142],[199.5,56.8],[206.964,54.8],[253.036,54.8],[262.5,56.8],[262.5,148],[260.5,150],[199.5,150],[197.5,132.986],[197.5,71.8142]]
EXCLUDE_OBJECT_DEFINE NAME=ICT.stl_id_3_copy_0 CENTER=155,102.4 POLYGON=[[122.5,71.8142],[124.5,56.8],[131.964,54.8],[178.036,54.8],[187.5,56.8],[187.5,148],[185.5,150],[124.5,150],[122.5,132.986],[122.5,71.8142]]
EXCLUDE_OBJECT_DEFINE NAME=ICT.stl_id_4_copy_0 CENTER=80,155 POLYGON=[[47.5,124.414],[49.5,109.4],[56.9642,107.4],[103.036,107.4],[112.5,109.4],[112.5,200.6],[110.5,202.6],[49.5,202.6],[47.5,185.586],[47.5,124.414]]
M73 P0 R257
;TYPE:Custom
START_PRINT T_BED=60 T_EXTRUDER=220
G90
G21
M83 ; use relative distances for extrusion
; filament start gcode
PRESSURE_ADVANCE_SELECT FILAMENT=PLA
M106 S0
;LAYER_CHANGE
;Z:0.2
;HEIGHT:0.2
M204 S500
G1 E-.8 F3000
G1 Z.4 F9000
G1 X64.978 Y92.649
G1 Z.2
G1 E.8 F1800
;TYPE:Skirt
;WIDTH:0.5
G1 F900
G1 X125.947 Y49.89 E2.77368
M73 P0 R256
G1 X127.358 Y49.444 E.05511
G1 X257.642 Y49.444 E4.8526
G1 X258.419 Y49.57 E.02932
G1 X266.99 Y52.427 E.33651
G1 X268.129 Y53.22 E.05169
G1 X268.67 Y54.758 E.06074
G1 X268.67 Y255.242 E7.46725
G1 X267.951 Y256.979 E.07004
G1 X265.094 Y259.836 E.15049
G1 X263.356 Y260.556 E.07004
G1 X121.644 Y260.556 E5.27826
G1 X120.233 Y260.11 E.05511
G1 X45.233 Y207.51 E3.412
G1 X44.22 Y205.903 E.07077
G1 X41.33 Y188.356 E.66235
G1 X41.33 Y121.644 E2.48479
G1 X41.56 Y120.605 E.03964
G1 X47.273 Y108.361 E.50324
G1 X50.236 Y103.263 E.2196
G1 X50.947 Y102.49 E.03915
G1 X64.929 Y92.684 E.63608
; printing object ICT.stl id:2 copy 0
EXCLUDE_OBJECT_START NAME=ICT.stl_id_2_copy_0
G1 E-.8 F3000
G1 Z.6 F9000
G1 X198.9 Y88.649 Z.2
G1 E.8 F1800
;TYPE:Support
G1 F900
G1 X199.251 Y89 E.01851
G1 X200.502 Y89 E.04658
G1 X200.507 Y90.043 E.03885
G1 X193.787 Y90.043 E.25029
G1 X193.787 Y69.044 E.78215
G1 X198.9 Y69.044 E.19045
G1 X198.9 Y88.58 E.72765
G1 X200.093 Y89.632 F9000
G1 F900
G1 X194.198 Y89.632 E.21958
G1 X194.198 Y69.455 E.7515
G1 X198.489 Y69.455 E.15981
G1 X198.489 Y88.819 E.72123
G1 X199.081 Y89.411 E.03121
G1 X200.092 Y89.411 E.03767
G1 X200.093 Y89.632 E.00821
G1 X197.981 Y89.124 F9000
G1 F900
G1 X194.706 Y89.124 E.12198
G1 X194.706 Y69.963 E.71367
M73 P0 R255
G1 X197.981 Y69.963 E.12198
G1 X197.981 Y89.124 E.71367
G1 X197.473 Y88.616 F9000
G1 F900
G1 X195.214 Y88.616 E.08415
G1 X195.214 Y70.471 E.67584
G1 X197.473 Y70.471 E.08415
G1 X197.473 Y88.616 E.67584
G1 X196.965 Y88.108 F9000
G1 F900
G1 X195.722 Y88.108 E.04631
G1 X195.722 Y70.979 E.63801
G1 X196.965 Y70.979 E.04631
G1 X196.965 Y88.108 E.63801
G1 E-.8 F3000
G1 Z.6 F9000
G1 X200.501 Y115.8 Z.2
G1 E.8 F1800
G1 F900
G1 X199.251 Y115.8 E.04652
G1 X198.9 Y116.151 E.01851
G1 X198.9 Y135.756 E.73021
G1 X193.787 Y135.756 E.19045
G1 X193.787 Y114.757 E.78215
G1 X200.501 Y114.757 E.25007
G1 X200.501 Y115.731 E.0363
G1 X200.089 Y115.168 F9000
G1 F900
G1 X200.089 Y115.389 E.00821
G1 X199.081 Y115.389 E.03755
G1 X198.489 Y115.981 E.03121
G1 X198.489 Y135.345 E.72123
G1 X194.198 Y135.345 E.15981
G1 X194.198 Y115.168 E.7515
G1 X200.089 Y115.168 E.21943
G1 X197.981 Y115.676 F9000
G1 F900
G1 X197.981 Y134.837 E.71367
G1 X194.706 Y134.837 E.12198
G1 X194.706 Y115.676 E.71367
G1 X197.981 Y115.676 E.12198
G1 X197.473 Y116.184 F9000
G1 F900
G1 X197.473 Y134.329 E.67584
G1 X195.214 Y134.329 E.08415
G1 X195.214 Y116.184 E.67584
G1 X197.473 Y116.184 E.08415
G1 X196.965 Y116.692 F9000
G1 F900
G1 X196.965 Y133.821 E.63801
G1 X195.722 Y133.821 E.04631
G1 X195.722 Y116.692 E.63801
G1 X196.965 Y116.692 E.04631
G1 E-.8 F3000
G1 Z.6 F9000
G1 X198.9 Y148.249 Z.2
G1 E.8 F1800
G1 F900
G1 X199.251 Y148.6 E.01851
G1 X211.929 Y148.6 E.47219
G1 X211.929 Y152.899 E.16011
G1 X196.644 Y152.899 E.56932
G1 X196.644 Y146.185 E.25007
G1 X198.9 Y146.185 E.08404
G1 X198.9 Y148.18 E.07431
G1 E-.8 F3000
G1 Z.6 F9000
G1 X211.518 Y149.011 Z.2
G1 E.8 F1800
G1 F900
G1 X211.518 Y152.487 E.12947
G1 X197.055 Y152.487 E.53867
G1 X197.055 Y146.596 E.21943
G1 X198.489 Y146.596 E.05339
G1 X198.489 Y148.419 E.06789
G1 X199.081 Y149.011 E.03121
G1 X211.518 Y149.011 E.46321
G1 X211.01 Y149.519 F9000
G1 F900
G1 X211.01 Y151.98 E.09164
G1 X197.563 Y151.98 E.50084
G1 X197.563 Y148.211 E.14035
G1 X198.871 Y149.519 E.06889
G1 X211.01 Y149.519 E.45213
G1 X210.502 Y150.027 F9000
G1 F900
G1 X210.502 Y151.472 E.05381
G1 X198.071 Y151.472 E.46301
G1 X198.071 Y149.438 E.07576
G1 X198.66 Y150.027 E.03105
G1 X210.502 Y150.027 E.44105
G1 E-.8 F3000
G1 Z.6 F9000
G1 X266.213 Y150.042 Z.2
G1 E.8 F1800
G1 F900
G1 X263.356 Y150.042 E.10642
G1 X263.356 Y152.899 E.10642
G1 X248.071 Y152.899 E.56932
G1 X248.071 Y148.6 E.16011
G1 X260.749 Y148.6 E.47219
G1 X261.1 Y148.249 E.01851
G1 X261.1 Y129.042 E.71536
G1 X266.213 Y129.042 E.19045
G1 X266.213 Y149.973 E.77959
G1 X261.511 Y129.454 F9000
G1 F900
G1 X265.802 Y129.454 E.15981
G1 X265.802 Y149.63 E.7515
G1 X262.945 Y149.63 E.10642
G1 X262.945 Y152.487 E.10642
G1 X248.482 Y152.487 E.53867
G1 X248.482 Y149.011 E.12947
G1 X260.919 Y149.011 E.46321
G1 X261.511 Y148.419 E.03121
G1 X261.511 Y129.454 E.70638
G1 X262.019 Y129.962 F9000
G1 F900
G1 X265.294 Y129.962 E.12198
G1 X265.294 Y149.122 E.71367
G1 X262.437 Y149.122 E.10642
G1 X262.437 Y151.98 E.10642
G1 X248.99 Y151.98 E.50084
G1 X248.99 Y149.519 E.09164
G1 X261.129 Y149.519 E.45213
G1 X262.019 Y148.629 E.04688
G1 X262.019 Y129.962 E.6953
G1 X261.929 Y149.438 F9000
G1 F900
G1 X261.929 Y151.472 E.07577
G1 X249.498 Y151.472 E.46301
G1 X249.498 Y150.027 E.05381
G1 X261.34 Y150.027 E.44105
G1 X261.929 Y149.438 E.03106
G1 X262.527 Y148.615 F9000
G1 F900
G1 X262.527 Y130.469 E.67584
G1 X264.786 Y130.469 E.08415
G1 X264.786 Y148.615 E.67584
G1 X262.527 Y148.615 E.08415
G1 X263.035 Y148.107 F9000
G1 F900
G1 X263.035 Y130.977 E.63801
G1 X264.278 Y130.977 E.04631
G1 X264.278 Y148.107 E.63801
G1 X263.035 Y148.107 E.04631
G1 E-.8 F3000
G1 Z.6 F9000
M73 P0 R254
G1 X266.213 Y75.758 Z.2
G1 E.8 F1800
G1 F900
G1 X261.1 Y75.758 E.19045
G1 X261.1 Y56.551 E.71536
G1 X260.749 Y56.2 E.01851
G1 X259.5 Y56.2 E.04652
G1 X259.498 Y54.758 E.0537
G1 X266.213 Y54.758 E.25013
G1 X266.213 Y75.689 E.77959
G1 X261.511 Y75.346 F9000
G1 F900
G1 X261.511 Y56.381 E.70638
G1 X260.919 Y55.789 E.03121
G1 X259.91 Y55.789 E.03756
G1 X259.91 Y55.17 E.02305
G1 X265.802 Y55.17 E.21947
G1 X265.802 Y75.346 E.7515
G1 X261.511 Y75.346 E.15981
G1 X262.019 Y74.838 F9000
G1 F900
G1 X262.019 Y56.171 E.6953
G1 X261.526 Y55.678 E.02598
G1 X265.294 Y55.678 E.14035
G1 X265.294 Y74.838 E.71367
G1 X262.019 Y74.838 E.12198
G1 X262.527 Y74.331 F9000
G1 F900
G1 X262.527 Y56.185 E.67584
G1 X264.786 Y56.185 E.08415
G1 X264.786 Y74.331 E.67584
G1 X262.527 Y74.331 E.08415
G1 X263.035 Y73.823 F9000
G1 F900
G1 X263.035 Y56.693 E.63801
G1 X264.278 Y56.693 E.04631
G1 X264.278 Y73.823 E.63801
G1 X263.035 Y73.823 E.04631
G1 E-.8 F3000
G1 Z.6 F9000
G1 X257.642 Y56.2 Z.2
G1 E.8 F1800
G1 F900
G1 X243.751 Y56.2 E.51738
G1 X243.4 Y56.551 E.01851
G1 X243.398 Y58.816 E.08434
G1 X242.357 Y59.857 E.05485
G1 X242.357 Y51.901 E.29633
G1 X257.642 Y51.901 E.56932
G1 X257.642 Y56.131 E.15756
G1 E-.8 F3000
G1 Z.6 F9000
G1 X242.768 Y58.864 Z.2
G1 E.8 F1800
G1 F900
G1 X242.768 Y52.313 E.24402
G1 X257.231 Y52.313 E.53867
G1 X257.231 Y55.789 E.12947
G1 X243.581 Y55.789 E.5084
G1 X242.989 Y56.381 E.03121
G1 X242.989 Y58.644 E.08427
G1 X242.768 Y58.864 E.0116
G1 X243.276 Y55.281 F9000
G1 F900
G1 X243.276 Y52.82 E.09164
G1 X256.723 Y52.82 E.50084
G1 X256.723 Y55.281 E.09164
G1 X243.276 Y55.281 E.50084
G1 X243.784 Y54.773 F9000
G1 F900
G1 X243.784 Y53.328 E.05381
G1 X256.215 Y53.328 E.46301
G1 X256.215 Y54.773 E.05381
G1 X243.784 Y54.773 E.46301
G1 E-.8 F3000
G1 Z.6 F9000
G1 X217.643 Y59.857 Z.2
G1 E.8 F1800
G1 F900
G1 X216.602 Y58.816 E.05484
G1 X216.6 Y56.551 E.08434
G1 X216.249 Y56.2 E.01851
G1 X202.358 Y56.2 E.51738
G1 X202.358 Y51.901 E.16011
G1 X217.643 Y51.901 E.56932
M73 P1 R254
G1 X217.643 Y59.789 E.29377
G1 X217.232 Y58.864 F9000
G1 F900
G1 X217.011 Y58.644 E.0116
G1 X217.011 Y56.381 E.08427
G1 X216.419 Y55.789 E.03121
G1 X202.769 Y55.789 E.5084
G1 X202.769 Y52.313 E.12947
G1 X217.232 Y52.313 E.53867
G1 X217.232 Y58.864 E.24402
G1 X216.724 Y55.281 F9000
G1 F900
G1 X203.277 Y55.281 E.50084
G1 X203.277 Y52.82 E.09164
G1 X216.724 Y52.82 E.50084
G1 X216.724 Y55.281 E.09164
G1 X216.216 Y54.773 F9000
G1 F900
G1 X203.785 Y54.773 E.46301
G1 X203.785 Y53.328 E.05381
G1 X216.216 Y53.328 E.46301
G1 X216.216 Y54.773 E.05381
G1 E-.8 F3000
G1 Z.6 F9000
G1 X245.158 Y146.836 Z.2
G1 E.8 F1800
;TYPE:Inner wall
;WIDTH:0.499999
G1 F900
G1 X245.153 Y145.784 E.0392
G1 X245.114 Y145.494 E.01089
G1 X244.951 Y144.883 E.02356
G1 X244.807 Y144.558 E.01324
G1 X244.469 Y144.035 E.02319
G1 X244.201 Y143.745 E.0147
G1 X243.573 Y143.254 E.02968
G1 X243.102 Y143.06 E.01896
G1 X242.551 Y142.887 E.02151
G1 X241.996 Y142.831 E.02078
G1 X218.004 Y142.831 E.89361
G1 X217.818 Y142.846 E.00695
G1 X217.19 Y142.95 E.02372
G1 X216.857 Y143.059 E.01303
G1 X216.293 Y143.346 E.02358
G1 X215.905 Y143.644 E.01823
G1 X215.539 Y144.025 E.01967
G1 X215.195 Y144.556 E.02358
G1 X215.049 Y144.883 E.01332
G1 X214.886 Y145.494 E.02356
G1 X214.847 Y145.784 E.01089
G1 X214.842 Y146.836 E.0392
G1 X200.664 Y146.836 E.52806
G1 X200.664 Y117.558 E1.09047
G1 X201.717 Y117.553 E.03922
G1 X202.007 Y117.514 E.01091
G1 X202.619 Y117.35 E.02358
G1 X202.894 Y117.236 E.0111
G1 X203.496 Y116.843 E.02678
G1 X203.944 Y116.396 E.02358
G1 X204.125 Y116.159 E.0111
G1 X204.451 Y115.518 E.02678
G1 X204.614 Y114.907 E.02355
G1 X204.669 Y114.396 E.01916
G1 X204.669 Y90.404 E.89361
G1 X204.55 Y89.589 E.03067
G1 X204.441 Y89.257 E.01302
G1 X204.154 Y88.694 E.02354
G1 X203.944 Y88.404 E.01331
G1 X203.352 Y87.835 E.0306
G1 X202.771 Y87.526 E.02451
G1 X202.35 Y87.356 E.0169
G1 X201.717 Y87.247 E.02393
G1 X200.664 Y87.242 E.03922
G1 X200.664 Y57.964 E1.09047
G1 X214.836 Y57.964 E.52784
G1 X214.85 Y58.973 E.03757
G1 X214.949 Y59.602 E.02372
G1 X215.033 Y59.889 E.01116
G1 X215.247 Y60.359 E.0192
G1 X215.573 Y60.824 E.02118
G1 X216.047 Y61.285 E.02461
G1 X216.447 Y61.544 E.01775
G1 X216.882 Y61.751 E.01794
G1 X217.493 Y61.914 E.02355
G1 X218.004 Y61.969 E.01916
G1 X241.996 Y61.969 E.89361
G1 X242.183 Y61.954 E.00697
G1 X242.811 Y61.85 E.02372
G1 X243.143 Y61.741 E.01303
G1 X243.707 Y61.454 E.02356
G1 X244.095 Y61.156 E.01823
G1 X244.461 Y60.775 E.01967
G1 X244.805 Y60.244 E.02358
G1 X244.951 Y59.917 E.01332
G1 X245.114 Y59.306 E.02356
G1 X245.153 Y59.016 E.01089
G1 X245.158 Y57.964 E.0392
G1 X259.336 Y57.964 E.52806
G1 X259.336 Y87.242 E1.09047
G1 X258.283 Y87.247 E.03922
G1 X257.993 Y87.286 E.01091
G1 X257.381 Y87.45 E.02358
G1 X257.106 Y87.564 E.0111
G1 X256.504 Y87.957 E.02678
G1 X256.056 Y88.404 E.02358
G1 X255.875 Y88.641 E.0111
G1 X255.549 Y89.282 E.02678
G1 X255.386 Y89.893 E.02355
G1 X255.331 Y90.404 E.01916
G1 X255.331 Y114.396 E.89361
G1 X255.45 Y115.211 E.03067
G1 X255.559 Y115.543 E.01302
G1 X255.846 Y116.106 E.02354
G1 X256.056 Y116.396 E.01331
G1 X256.648 Y116.965 E.0306
G1 X257.229 Y117.274 E.02451
G1 X257.65 Y117.444 E.0169
G1 X258.283 Y117.553 E.02393
G1 X259.336 Y117.558 E.03922
G1 X259.336 Y118.611 E.03922
G1 X259.336 Y146.836 E1.05126
M73 P1 R253
G1 X245.218 Y146.836 E.52582
G1 X244.704 Y147.293 F9000
G1 F900
G1 X244.696 Y145.786 E.05614
G1 X244.673 Y145.612 E.00653
G1 X244.509 Y145.001 E.02356
G1 X244.284 Y144.592 E.0174
G1 X243.942 Y144.124 E.02158
G1 X243.443 Y143.718 E.02396
G1 X243.256 Y143.609 E.00808
G1 X242.499 Y143.341 E.02991
G1 X241.996 Y143.288 E.01882
G1 X217.893 Y143.297 E.89777
G1 X217.264 Y143.401 E.02372
G1 X217.065 Y143.466 E.00782
G1 X216.447 Y143.784 E.02585
G1 X216.015 Y144.16 E.02137
G1 X215.711 Y144.599 E.01987
G1 X215.491 Y145.001 E.01707
G1 X215.304 Y145.786 E.03005
G1 X215.296 Y147.293 E.05614
G1 X200.207 Y147.293 E.56202
G1 X200.207 Y117.104 E1.12444
G1 X201.715 Y117.096 E.05616
G1 X201.889 Y117.073 E.00655
G1 X202.666 Y116.84 E.03019
G1 X203.173 Y116.52 E.02235
G1 X203.73 Y115.931 E.03019
G1 X204.009 Y115.4 E.02235
G1 X204.173 Y114.789 E.02355
G1 X204.212 Y114.396 E.01472
G1 X204.212 Y90.404 E.89361
G1 X204.034 Y89.464 E.03562
G1 X203.747 Y88.901 E.02354
G1 X203.621 Y88.728 E.00799
G1 X203.173 Y88.28 E.02358
G1 X202.997 Y88.152 E.00809
G1 X202.256 Y87.804 E.03053
G1 X201.715 Y87.704 E.02049
G1 X200.207 Y87.696 E.05616
G1 X200.207 Y57.507 E1.12444
G1 X215.293 Y57.507 E.56189
G1 X215.301 Y58.902 E.05195
G1 X215.451 Y59.704 E.03037
G1 X215.695 Y60.214 E.02106
G1 X216.039 Y60.662 E.02106
G1 X216.469 Y61.029 E.02106
G1 X217 Y61.309 E.02237
G1 X217.611 Y61.473 E.02355
G1 X218.004 Y61.512 E.01472
G1 X242.108 Y61.503 E.89778
G1 X242.737 Y61.399 E.02372
G1 X242.936 Y61.333 E.00782
G1 X243.553 Y61.016 E.02583
G1 X243.985 Y60.64 E.02137
G1 X244.289 Y60.201 E.01987
G1 X244.509 Y59.799 E.01707
G1 X244.696 Y59.014 E.03005
G1 X244.704 Y57.507 E.05614
G1 X259.793 Y57.507 E.56202
G1 X259.793 Y87.696 E1.12444
G1 X258.285 Y87.704 E.05616
G1 X258.111 Y87.727 E.00655
G1 X257.334 Y87.96 E.03019
G1 X256.827 Y88.28 E.02235
G1 X256.27 Y88.869 E.03019
G1 X255.991 Y89.4 E.02235
G1 X255.827 Y90.011 E.02355
G1 X255.788 Y90.404 E.01472
G1 X255.788 Y114.396 E.89361
G1 X255.966 Y115.336 E.03562
G1 X256.253 Y115.899 E.02354
G1 X256.379 Y116.072 E.00799
G1 X256.827 Y116.52 E.02358
G1 X257.003 Y116.648 E.00809
G1 X257.744 Y116.996 E.03053
G1 X258.285 Y117.096 E.02049
G1 X259.793 Y117.104 E.05616
G1 X259.793 Y118.611 E.05616
G1 X259.793 Y147.293 E1.06828
G1 X244.764 Y147.293 E.55979
G1 X244.249 Y147.75 F9000
;TYPE:Outer wall
G1 F900
G1 X244.239 Y145.788 E.07308
G1 X244.039 Y145.054 E.02833
G1 X243.623 Y144.454 E.0272
G1 X243.092 Y144.036 E.02518
G1 X242.499 Y143.808 E.02366
G1 X241.996 Y143.745 E.01888
G1 X218.004 Y143.745 E.89361
G1 X217.272 Y143.874 E.02768
G1 X216.69 Y144.171 E.02434
G1 X216.306 Y144.523 E.01941
G1 X215.932 Y145.119 E.02621
G1 X215.761 Y145.788 E.02572
G1 X215.751 Y147.75 E.07308
G1 X199.75 Y147.75 E.59598
G1 X199.75 Y116.649 E1.1584
G1 X201.712 Y116.639 E.0731
G1 X202.382 Y116.467 E.02574
