; generated by SuperSlicer 2.5.59 on 2023-04-27 at 17:32:01 UTC


;
;

;
;
; 

; external perimeters extrusion width = 0.40mm
; perimeters extrusion width = 0.46mm
; infill extrusion width = 0.64mm
; solid infill extrusion width = 0.56mm
; top infill extrusion width = 0.40mm
; support material extrusion width = 0.46mm
; first layer extrusion width = 0.50mm

; object:{"name":"Insta_SMO_4K","id":"Insta_SMO_4K.stl id:0 copy 0","object_center":[152.500001,150.000000,0.000000],"boundingbox_center":[152.500001,150.000000,27.858170],"boundingbox_size":[12.002000,26.626459,55.717293]}
EXCLUDE_OBJECT_DEFINE NAME=Insta_SMO_4K_stl_id_0_copy_0 CENTER=152.500001,150.000000 POLYGON=[[146.498992,148.527856],[146.501008,136.686768],[155.501008,136.686768],[158.498992,147.839504],[158.501008,148.649056],[158.501008,162.899776],[158.498992,162.933024],[158.496992,162.948320],[158.490992,162.983408],[158.481008,163.036352],[158.468992,163.072656],[158.460992,163.095056],[158.438992,163.141568],[158.427008,163.159920],[158.382992,163.218432],[158.348992,163.254928],[158.309008,163.291152],[158.281008,163.312400],[158.279008,163.312864],[158.270992,163.313168],[158.212992,163.313184],[158.039008,163.313216],[154.966992,163.313216],[146.746992,163.313168],[146.727008,163.313136],[146.720992,163.312992],[146.714992,163.309536],[146.667008,163.270896],[146.632992,163.237056],[146.589008,163.181088],[146.574992,163.160496],[146.563008,163.141888],[146.546992,163.111168],[146.533008,163.073424],[146.524992,163.047280],[146.511008,163.001072],[146.507008,162.977104],[146.503008,162.951632],[146.501008,162.924240],[146.498992,161.399312],[146.498992,148.527856]]
; plater:{"center":[152.500001,150.000000,0.000000],"boundingbox_center":[152.500001,150.000000,27.858170],"boundingbox_size":[12.002000,26.626459,55.717293]}

M73 P0 R56
;TYPE:Custom
START_PRINT T_BED=60 T_EXTRUDER=220
M107
G21 ; set units to millimeters
G90 ; use absolute coordinates
M82 ; use absolute distances for extrusion
G92 E0
; Filament gcode
;_TOOLCHANGE 0
M104 S220 ; set temperature
M109 S220 ; set temperature and wait for it to be reached
M190 S60 ; set bed temperature and wait for it to be reached
M107
;LAYER_CHANGE
;Z:0.2
;HEIGHT:0.2
G1 Z0.2 F9000
M204 S1000
M73 P0 R56
G1 X140.769 Y134.115
;TYPE:Skirt
;WIDTH:0.52
G1 F1800
G1 X139.669 Y135.428 E0.06793
G1 X139.274 Y137.094 E0.13586
G1 X139.274 Y166.302 E1.29451
G1 X140.011 Y168.523 E1.38734
G1 X141.323 Y169.623 E1.45527
G1 X142.99 Y170.017 E1.5232
G1 X162.01 Y170.017 E2.27774
G1 X164.231 Y169.28 E2.37057
G1 X165.331 Y167.968 E2.4385
G1 X165.726 Y166.302 E2.50644
G1 X165.726 Y143.885 E3.39568
G1 X165.334 Y142.224 E3.46341
G1 X161.938 Y135.432 E3.76461
G1 X160.281 Y133.773 E3.85764
G1 X158.615 Y133.378 E3.92557
G1 X142.99 Y133.378 E4.54541
G1 X140.769 Y134.115 E4.63823
G1 X141.147 Y134.465 F9000
G1 F1800
G1 X140.145 Y135.546 E4.69669
G1 X139.751 Y137.094 E4.76004
G1 X139.751 Y166.302 E5.91869
G1 X140.27 Y168.061 E5.99145
G1 X141.442 Y169.146 E6.05481
G1 X142.99 Y169.54 E6.11816
G1 X162.01 Y169.54 E6.87271
G1 X163.769 Y169.021 E6.94546
G1 X164.855 Y167.849 E7.00882
G1 X165.249 Y166.302 E7.07218
G1 X165.249 Y143.885 E7.96142
G1 X164.907 Y142.437 E8.02046
G1 X161.511 Y135.646 E8.32166
G1 X160.163 Y134.249 E8.39868
G1 X158.615 Y133.855 E8.46203
G1 X142.99 Y133.855 E9.08187
G1 X141.231 Y134.375 E9.15463
G1 X141.147 Y134.465 E9.15953
G92 E0
; printing object Insta_SMO_4K.stl id:0 copy 0
EXCLUDE_OBJECT_START NAME=Insta_SMO_4K_stl_id_0_copy_0
G1 X142.99 Y137.094 F9000
;TYPE:Support material
;WIDTH:0.5
G1 F1800
G1 X158.615 Y137.094 E0.59386
G1 X158.615 Y143.885 E0.85197
G1 X162.01 Y143.885 E0.98102
G1 X162.01 Y166.302 E1.83299
G1 X153.176 Y166.302 E2.16873
G1 X153.176 Y162.988 E2.29467
G1 X154.136 Y162.973 E2.33112
G1 X154.667 Y162.99 E2.35132
G1 X155.145 Y162.935 E2.36961
G1 X155.655 Y162.945 E2.38899
G1 X156.173 Y162.993 E2.40877
G1 X156.814 Y162.976 E2.43314
G1 X157.444 Y162.926 E2.45716
G1 X158.325 Y162.919 E2.49064
G1 X158.79 Y162.671 E2.51067
G1 X158.997 Y162.366 E2.5247
G1 X159.169 Y162.044 E2.53856
G1 X159.231 Y161.838 E2.54674
G1 X159.263 Y161.449 E2.56158
G1 X159.246 Y160.841 E2.58467
G1 X159.266 Y160.042 E2.61506
G1 X159.245 Y160.016 E2.61633
G1 X159.27 Y159.507 E2.63573
G1 X159.212 Y159.011 E2.65469
G1 X159.263 Y158.411 E2.67757
G1 X159.245 Y158.046 E2.69146
G1 X159.269 Y155.852 E2.77488
G1 X159.215 Y154.643 E2.82087
G1 X159.252 Y153.479 E2.86511
G1 X159.235 Y153.175 E2.87668
G1 X159.291 Y153.101 E2.88022
G1 X159.227 Y152.749 E2.8938
G1 X159.267 Y152.435 E2.90584
G1 X159.244 Y151.281 E2.94972
G1 X159.259 Y150.995 E2.96059
G1 X159.226 Y150.341 E2.98548
G1 X159.27 Y149.994 E2.99875
G1 X159.184 Y149.622 E3.01329
G1 X159.082 Y149.464 E3.02043
G1 X158.984 Y149.218 E3.03049
G1 X158.737 Y148.828 E3.04804
G1 X158.198 Y148.56 E3.07091
G1 X157.338 Y148.631 E3.10372
G1 X156.442 Y148.775 E3.13821
G1 X156.359 Y148.735 E3.14173
G1 X156.124 Y148.68 E3.15088
G1 X153.551 Y148.66 E3.2487
G1 X151.041 Y148.57 E3.34415
G1 X147.391 Y148.625 E3.48289
G1 X147.138 Y148.588 E3.4926
G1 X146.835 Y148.611 E3.50416
G1 X146.437 Y148.76 E3.5203
G1 X146.169 Y148.973 E3.53331
G1 X145.932 Y149.331 E3.54962
G1 X145.85 Y149.535 E3.55798
G1 X145.78 Y149.945 E3.5738
G1 X145.741 Y150.498 E3.59485
G1 X145.759 Y151.85 E3.64624
G1 X145.735 Y152.513 E3.67147
G1 X145.749 Y152.558 E3.67326
G1 X145.732 Y152.87 E3.68512
G1 X145.754 Y153.322 E3.70234
G1 X145.737 Y153.715 E3.71729
G1 X145.78 Y154.898 E3.76226
G1 X145.726 Y155.647 E3.79083
G1 X145.735 Y155.991 E3.80389
G1 X145.777 Y156.312 E3.81621
G1 X145.784 Y157.036 E3.84373
G1 X145.814 Y157.072 E3.84551
G1 X145.729 Y158.994 E3.9186
G1 X145.761 Y159.637 E3.94308
G1 X145.787 Y159.767 E3.94814
G1 X145.752 Y160.022 E3.95791
G1 X145.766 Y160.278 E3.96764
G1 X145.735 Y160.587 E3.97944
G1 X145.732 Y160.984 E3.99456
G1 X145.777 Y161.828 E4.02668
G1 X145.907 Y162.155 E4.04003
G1 X146.058 Y162.332 E4.04888
G1 X146.211 Y162.604 E4.06074
G1 X146.726 Y162.9 E4.0833
G1 X148.578 Y162.868 E4.1537
G1 X150.564 Y162.889 E4.22919
G1 X151.398 Y162.98 E4.26107
G1 X151.824 Y162.988 E4.27725
G1 X151.824 Y166.302 E4.40319
G1 X142.99 Y166.302 E4.73893
M73 P0 R56
G1 X142.99 Y137.094 E5.84901
G92 E0
G1 X161.642 Y166.187 F9000
G1 F1800
G1 X161.642 Y144.196 E0.83581
G1 X161.134 Y144.196 E0.85511
G1 X161.134 Y165.991 E1.68345
G1 X160.626 Y165.991 E1.70275
G1 X160.626 Y144.196 E2.53109
G1 X160.118 Y144.196 E2.5504
G1 X160.118 Y165.991 E3.37874
G1 X159.61 Y165.991 E3.39804
G1 X159.61 Y144.196 E4.22638
G1 X159.102 Y144.196 E4.24568
G1 X159.102 Y148.824 E4.42159
G1 X158.953 Y148.589 E4.43219
G1 X158.594 Y148.41 E4.44743
G1 X158.594 Y144.196 E4.60758
G1 X158.304 Y144.196 E4.61862
G1 X158.304 Y137.405 E4.87672
G1 X158.087 Y137.405 E4.88499
G1 X158.087 Y148.257 E5.29744
G1 X157.579 Y148.298 E5.3168
G1 X157.579 Y137.405 E5.73083
G1 X157.071 Y137.405 E5.75013
G1 X157.071 Y148.36 E6.16648
G1 X156.563 Y148.441 E6.18603
G1 X156.563 Y137.405 E6.60547
G1 X156.055 Y137.405 E6.62477
G1 X156.055 Y148.368 E7.04146
G1 X155.547 Y148.365 E7.06076
G1 X155.547 Y137.405 E7.4773
G1 X155.039 Y137.405 E7.4966
G1 X155.039 Y148.361 E7.91299
G1 X154.531 Y148.357 E7.9323
G1 X154.531 Y137.405 E8.34854
G1 X154.024 Y137.405 E8.36785
G1 X154.024 Y148.353 E8.78395
G1 X153.516 Y148.348 E8.80325
G1 X153.516 Y137.405 E9.21916
G1 X153.008 Y137.405 E9.23847
G1 X153.008 Y148.33 E9.65368
G1 X152.5 Y148.311 E9.673
G1 X152.5 Y137.405 E10.08752
G1 X151.992 Y137.405 E10.10682
G1 X151.992 Y148.293 E10.52065
G1 X151.484 Y148.275 E10.53997
G1 X151.484 Y137.405 E10.9531
G1 X150.976 Y137.405 E10.9724
G1 X150.976 Y148.259 E11.38495
G1 X150.469 Y148.267 E11.40425
G1 X150.469 Y137.405 E11.81709
G1 X149.961 Y137.405 E11.83639
G1 X149.961 Y148.275 E12.24953
G1 X149.453 Y148.283 E12.26883
G1 X149.453 Y137.405 E12.68226
G1 X148.945 Y137.405 E12.70156
G1 X148.945 Y148.29 E13.11528
G1 X148.437 Y148.298 E13.13459
G1 X148.437 Y137.405 E13.5486
G1 X147.929 Y137.405 E13.5679
G1 X147.929 Y148.306 E13.98221
G1 X147.421 Y148.314 E14.00152
G1 X147.421 Y137.405 E14.41612
G1 X146.913 Y137.405 E14.43542
G1 X146.913 Y148.294 E14.84927
G1 X146.767 Y148.305 E14.85484
G1 X146.406 Y148.44 E14.86951
G1 X146.406 Y137.405 E15.28891
G1 X145.898 Y137.405 E15.30821
G1 X145.898 Y148.819 E15.74205
G1 X145.655 Y149.186 E15.75875
G1 X145.55 Y149.449 E15.76951
G1 X145.47 Y149.915 E15.78749
G1 X145.429 Y150.542 E15.81135
G1 X145.448 Y151.846 E15.86095
G1 X145.421 Y152.876 E15.90008
G1 X145.443 Y153.322 E15.91707
G1 X145.427 Y153.72 E15.93219
G1 X145.469 Y154.892 E15.97676
G1 X145.415 Y155.646 E16.00549
G1 X145.426 Y156.022 E16.0198
G1 X145.466 Y156.334 E16.03175
G1 X145.474 Y157.15 E16.06277
G1 X145.495 Y157.175 E16.06401
G1 X145.418 Y158.989 E16.13302
G1 X145.451 Y159.676 E16.15916
G1 X145.472 Y159.778 E16.16309
G1 X145.442 Y160 E16.17164
G1 X145.453 Y160.281 E16.1823
G1 X145.424 Y160.576 E16.19359
G1 X145.422 Y161.031 E16.21089
G1 X145.47 Y161.896 E16.2438
G1 X145.637 Y162.317 E16.26101
G1 X145.801 Y162.511 E16.27066
G1 X145.898 Y162.682 E16.27813
G1 X145.898 Y165.991 E16.40389
G1 X146.406 Y165.991 E16.42319
G1 X146.406 Y163.074 E16.53404
G1 X146.646 Y163.212 E16.54456
G1 X146.913 Y163.207 E16.55474
G1 X146.913 Y165.991 E16.66053
G1 X147.421 Y165.991 E16.67983
G1 X147.421 Y163.199 E16.78595
G1 X147.929 Y163.19 E16.80526
G1 X147.929 Y165.991 E16.9117
G1 X148.437 Y165.991 E16.931
G1 X148.437 Y163.182 E17.03776
G1 X148.579 Y163.179 E17.04315
G1 X148.945 Y163.183 E17.05707
G1 X148.945 Y165.991 E17.16378
G1 X149.453 Y165.991 E17.18308
G1 X149.453 Y163.189 E17.28958
G1 X149.961 Y163.194 E17.30889
G1 X149.961 Y165.991 E17.41519
G1 X150.469 Y165.991 E17.43449
G1 X150.469 Y163.199 E17.54058
G1 X150.976 Y163.247 E17.55997
G1 X150.976 Y165.991 E17.66426
G1 X151.484 Y165.991 E17.68356
G1 X151.484 Y163.098 E17.79352
G92 E0
G1 X159.102 Y166.187 F9000
G1 F1800
G1 X159.102 Y162.767 E0.13001
G1 X159.003 Y162.91 E0.13665
G1 X158.594 Y163.127 E0.15424
G1 X158.594 Y165.991 E0.26307
G1 X158.087 Y165.991 E0.28237
G1 X158.087 Y163.232 E0.38724
G1 X157.579 Y163.236 E0.40654
G1 X157.579 Y165.991 E0.51124
G1 X157.071 Y165.991 E0.53054
G1 X157.071 Y163.268 E0.63401
G1 X156.563 Y163.294 E0.65334
G1 X156.563 Y165.991 E0.75584
G1 X156.055 Y165.991 E0.77514
G1 X156.055 Y163.298 E0.8775
G1 X155.547 Y163.254 E0.89687
G1 X155.547 Y165.991 E1.00088
G1 X155.039 Y165.991 E1.02019
G1 X155.039 Y163.262 E1.12389
G1 X154.78 Y163.296 E1.13383
G1 X154.531 Y163.297 E1.14328
G1 X154.531 Y165.991 E1.24567
G1 X154.024 Y165.991 E1.26497
G1 X154.024 Y163.286 E1.36777
G1 X153.516 Y163.294 E1.38707
G1 X153.516 Y166.187 E1.49705
G92 E0
G1 X145.39 Y166.187 F9000
G1 F1800
G1 X145.39 Y137.405 E1.09392
G1 X144.882 Y137.405 E1.11322
G1 X144.882 Y165.991 E2.19967
G1 X144.374 Y165.991 E2.21897
G1 X144.374 Y137.405 E3.30542
G1 X143.866 Y137.405 E3.32473
G1 X143.866 Y165.991 E4.41118
G1 X143.358 Y165.991 E4.43048
G1 X143.358 Y137.208 E5.5244
G92 E0
G1 X157.018 Y150.954 F9000
;TYPE:Internal perimeter
G1 F1800
G1 X157 Y151.233 E0.01062
G1 X157.022 Y152.334 E0.05247
G1 X156.861 Y153.391 E0.09309
G1 X157.008 Y153.484 E0.09971
G1 X156.97 Y154.658 E0.14432
G1 X157.026 Y155.875 E0.19064
G1 X157.001 Y158.109 E0.27554
G1 X157.017 Y158.35 E0.28473
G1 X156.969 Y158.916 E0.3063
G1 X156.969 Y159.304 E0.32108
G1 X157.021 Y159.59 E0.33209
G1 X156.964 Y160.715 E0.37493
G1 X156.222 Y160.748 E0.40316
G1 X155.789 Y160.705 E0.41972
G1 X155.024 Y160.69 E0.4488
G1 X154.6 Y160.744 E0.46501
G1 X154.153 Y160.73 E0.48203
G1 X152.542 Y160.755 E0.54325
M73 P1 R55
G1 X151.56 Y160.741 E0.5806
G1 X150.697 Y160.648 E0.61358
G1 X148.571 Y160.626 E0.69439
G1 X147.983 Y160.635 E0.71673
G1 X148.025 Y160.258 E0.73117
G1 X148.005 Y160.102 E0.73714
G1 X148.082 Y159.532 E0.759
G1 X147.987 Y159.267 E0.7697
G1 X147.973 Y158.999 E0.77991
G1 X148.022 Y157.641 E0.83157
G1 X148.158 Y155.71 E0.90512
G1 X147.971 Y155.674 E0.91238
G1 X148.026 Y154.942 E0.94029
G1 X147.981 Y153.705 E0.9873
G1 X148 Y153.32 E1.00194
G1 X147.977 Y152.859 E1.01951
G1 X148.034 Y152.021 E1.05144
G1 X147.992 Y151.967 E1.05401
G1 X147.984 Y150.859 E1.09615
G1 X151.004 Y150.813 E1.21094
G1 X151.355 Y150.825 E1.22431
G1 X153.502 Y150.903 E1.30595
G1 X155.723 Y150.919 E1.39038
G1 X156.006 Y151.057 E1.4023
G1 X156.686 Y151.007 E1.42822
G1 X157.018 Y150.954 E1.44099
G1 X157.443 Y150.423 F9000
G1 F1800
G1 X157.472 Y151.014 E1.46346
G1 X157.458 Y151.243 E1.47219
G1 X157.48 Y152.364 E1.5148
G1 X157.358 Y153.165 E1.54562
G1 X157.448 Y153.223 E1.5497
G1 X157.465 Y153.483 E1.55958
G1 X157.428 Y154.655 E1.60415
G1 X157.483 Y155.867 E1.65028
G1 X157.458 Y158.096 E1.735
G1 X157.476 Y158.354 E1.74483
G1 X157.426 Y158.935 E1.76699
G1 X157.426 Y159.264 E1.77947
G1 X157.48 Y159.56 E1.79092
G1 X157.401 Y161.138 E1.85099
G1 X156.734 Y161.192 E1.8764
G1 X156.205 Y161.206 E1.89651
G1 X155.761 Y161.162 E1.91346
G1 X155.048 Y161.147 E1.94057
G1 X154.623 Y161.202 E1.95687
G1 X154.149 Y161.187 E1.97487
G1 X152.543 Y161.212 E2.03594
G1 X151.532 Y161.198 E2.07436
G1 X150.67 Y161.105 E2.10732
G1 X148.572 Y161.083 E2.18704
G1 X147.516 Y161.1 E2.22719
G1 X147.52 Y160.665 E2.24372
G1 X147.564 Y160.262 E2.25915
G1 X147.544 Y160.1 E2.26535
G1 X147.614 Y159.582 E2.28523
G1 X147.534 Y159.359 E2.29424
G1 X147.515 Y159.003 E2.30779
G1 X147.565 Y157.616 E2.36052
G1 X147.674 Y156.081 E2.41901
G1 X147.539 Y156.055 E2.42422
G1 X147.513 Y155.662 E2.43918
G1 X147.568 Y154.933 E2.46699
G1 X147.524 Y153.703 E2.51376
G1 X147.542 Y153.321 E2.52829
G1 X147.519 Y152.855 E2.54603
G1 X147.566 Y152.165 E2.57229
G1 X147.536 Y152.127 E2.57412
G1 X147.524 Y150.409 E2.63945
G1 X151.008 Y150.356 E2.77191
G1 X151.372 Y150.369 E2.78573
G1 X153.512 Y150.446 E2.86712
G1 X155.83 Y150.463 E2.95523
G1 X156.095 Y150.592 E2.96642
G1 X156.633 Y150.553 E2.98692
G1 X157.443 Y150.423 E3.01809
G1 X157.834 Y149.922 F9000
;TYPE:External perimeter
G1 F1800
G1 X157.916 Y150.109 E3.02585
G1 X157.894 Y150.29 E3.03278
G1 X157.93 Y151.017 E3.06042
G1 X157.915 Y151.253 E3.06941
G1 X157.937 Y152.394 E3.1128
G1 X157.854 Y152.94 E3.13379
G1 X157.889 Y152.962 E3.13537
G1 X157.923 Y153.475 E3.15489
G1 X157.885 Y154.652 E3.19963
G1 X157.94 Y155.859 E3.24558
G1 X157.916 Y158.083 E3.33011
G1 X157.934 Y158.358 E3.34059
G1 X157.883 Y158.955 E3.36333
G1 X157.883 Y159.223 E3.37352
G1 X157.939 Y159.53 E3.38541
G1 X157.884 Y160.621 E3.42689
G1 X157.922 Y160.627 E3.42836
G1 X157.934 Y161.438 E3.4592
G1 X157.923 Y161.556 E3.46371
G1 X157.902 Y161.594 E3.46532
G1 X157.384 Y161.598 E3.48501
G1 X156.758 Y161.649 E3.50888
G1 X156.188 Y161.663 E3.53056
G1 X155.734 Y161.618 E3.54791
G1 X155.073 Y161.605 E3.57304
G1 X154.645 Y161.66 E3.58944
G1 X154.146 Y161.645 E3.60841
G1 X152.543 Y161.669 E3.66933
G1 X151.504 Y161.655 E3.70883
G1 X150.643 Y161.562 E3.74175
G1 X148.574 Y161.54 E3.8204
G1 X147.147 Y161.564 E3.87462
G1 X147.09 Y161.495 E3.87802
G1 X147.06 Y160.971 E3.898
G1 X147.063 Y160.638 E3.91063
G1 X147.104 Y160.266 E3.92487
G1 X147.083 Y160.098 E3.93129
G1 X147.146 Y159.631 E3.9492
G1 X147.081 Y159.45 E3.9565
G1 X147.057 Y159.007 E3.9734
G1 X147.109 Y157.592 E4.0272
G1 X147.19 Y156.452 E4.07063
G1 X147.107 Y156.436 E4.07384
G1 X147.055 Y155.66 E4.10339
G1 X147.111 Y154.924 E4.13146
G1 X147.066 Y153.7 E4.17799
G1 X147.084 Y153.321 E4.19241
G1 X147.061 Y152.85 E4.21032
G1 X147.098 Y152.31 E4.23091
G1 X147.073 Y152.278 E4.23244
G1 X147.088 Y151.864 E4.24819
G1 X147.069 Y150.557 E4.29787
G1 X147.127 Y149.942 E4.32135
G1 X147.39 Y149.954 E4.33136
G1 X151.013 Y149.898 E4.46908
G1 X151.388 Y149.912 E4.48335
G1 X153.522 Y149.989 E4.56448
G1 X155.937 Y150.007 E4.65628
G1 X156.184 Y150.127 E4.66673
G1 X156.58 Y150.098 E4.68181
G1 X157.518 Y149.948 E4.71792
G1 X157.834 Y149.922 E4.72997
;WIPE_START
M204 S3000
G1 X157.747 Y150.313 F9000
;WIPE_END
M204 S1000
G1 X156.952 Y151.954
;TYPE:Solid infill
;WIDTH:0.489471
G1 F1800
G1 X156.112 Y151.115 E4.77415
G1 X155.331 Y150.98 F9000
G1 F1800
G1 X156.917 Y152.566 E4.85763
G1 X156.832 Y153.127 F9000
G1 F1800
G1 X154.67 Y150.965 E4.97138
G1 X154.01 Y150.951 F9000
G1 F1800
G1 X156.937 Y153.879 E5.12543
