; generated by SuperSlicer 2.5.59 on 2023-05-25 at 21:31:13 UTC


;
;

;
;
; 

; external perimeters extrusion width = 0.40mm
; perimeters extrusion width = 0.46mm
; infill extrusion width = 0.64mm
; solid infill extrusion width = 0.56mm
; top infill extrusion width = 0.40mm
; first layer extrusion width = 0.50mm

; external perimeters extrusion width = 0.40mm
; perimeters extrusion width = 0.46mm
; infill extrusion width = 0.64mm
; solid infill extrusion width = 0.56mm
; top infill extrusion width = 0.40mm
; first layer extrusion width = 0.50mm

; object:{"name":"knob","id":"knob.stl id:0 copy 0","object_center":[141.846803,156.146541,0.000000],"boundingbox_center":[141.846803,156.146541,7.649994],"boundingbox_size":[19.997360,18.600449,15.299988]}
EXCLUDE_OBJECT_DEFINE NAME=knob_stl_id_0_copy_0 CENTER=141.846803,156.146541 POLYGON=[[131.848128,155.982896],[131.858840,155.655776],[131.880248,155.329200],[131.912336,155.003472],[131.932376,154.877104],[131.934360,154.867456],[131.963088,154.752912],[131.968768,154.734064],[132.004288,154.631808],[132.015256,154.604368],[132.055664,154.514624],[132.073456,154.479488],[132.116824,154.402256],[135.471200,148.592288],[135.516416,148.516112],[135.537952,148.483136],[135.595456,148.403280],[135.613744,148.380064],[135.684528,148.298160],[135.698032,148.283824],[135.782864,148.201664],[135.790224,148.195120],[135.889632,148.114592],[136.156384,147.923440],[136.429280,147.741152],[136.708000,147.567920],[136.992256,147.403936],[137.281744,147.249344],[137.576144,147.104336],[137.875136,146.969072],[137.997648,146.922304],[138.123776,146.886416],[138.252560,146.861664],[138.383024,146.848272],[138.514144,146.846320],[145.185392,146.848352],[145.316464,146.850416],[145.446864,146.863904],[145.575600,146.888720],[145.701648,146.924688],[145.824080,146.971520],[146.123008,147.106960],[146.417312,147.252144],[146.706688,147.406912],[146.990864,147.571072],[147.269472,147.744496],[147.542256,147.926944],[147.808880,148.118256],[147.910640,148.200976],[148.004800,148.292256],[148.090624,148.391424],[148.167456,148.497696],[148.234688,148.610272],[151.568560,154.388768],[151.632320,154.503312],[151.685840,154.622976],[151.728704,154.746864],[151.760592,154.874016],[151.781248,155.003472],[151.813408,155.330064],[151.834816,155.657536],[151.845488,155.985536],[151.845392,156.313712],[151.834528,156.641696],[151.812896,156.969152],[151.780544,157.295712],[151.759792,157.425216],[151.727808,157.552400],[151.684848,157.676304],[151.631216,157.795968],[151.567344,157.910512],[148.229952,163.686944],[148.162640,163.799440],[148.085776,163.905632],[147.999904,164.004688],[147.905728,164.095888],[147.803952,164.178496],[147.537200,164.369648],[147.264320,164.551936],[146.985584,164.725168],[146.701328,164.889168],[146.411856,165.043744],[146.117440,165.188752],[145.818448,165.324000],[145.695936,165.370784],[145.569792,165.406672],[145.441008,165.431424],[145.310560,165.444832],[145.179424,165.446784],[138.514144,165.446784],[138.383024,165.444832],[138.252560,165.431424],[138.123776,165.406672],[137.997648,165.370784],[137.875136,165.324000],[137.575344,165.188384],[137.280176,165.042960],[136.989952,164.887888],[136.704992,164.723360],[136.425584,164.549568],[136.152064,164.366640],[135.884704,164.174832],[135.782928,164.092112],[135.688784,164.000832],[135.602960,163.901680],[135.526144,163.795392],[135.458880,163.682816],[132.125032,157.904320],[132.061264,157.789776],[132.007752,157.670128],[131.964888,157.546240],[131.933000,157.419072],[131.912336,157.289616],[131.880248,156.963904],[131.858840,156.637312],[131.848128,156.310192],[131.848128,155.982896]]
; object:{"name":"knob","id":"knob.stl id:1 copy 0","object_center":[163.153192,143.853463,0.000000],"boundingbox_center":[163.153192,143.853463,7.649994],"boundingbox_size":[19.997360,18.600449,15.299988]}
EXCLUDE_OBJECT_DEFINE NAME=knob_stl_id_1_copy_0 CENTER=163.153192,143.853463 POLYGON=[[153.154512,143.689824],[153.165216,143.362704],[153.186624,143.036112],[153.218720,142.710384],[153.238752,142.584032],[153.240736,142.574400],[153.269472,142.459840],[153.275152,142.440992],[153.310672,142.338720],[153.321648,142.311296],[153.362048,142.221552],[153.379840,142.186432],[153.423200,142.109184],[156.777584,136.299216],[156.822800,136.223040],[156.844336,136.190064],[156.901840,136.110192],[156.920128,136.086992],[156.990912,136.005088],[157.004416,135.990752],[157.089248,135.908592],[157.096608,135.902032],[157.196016,135.821520],[157.462768,135.630368],[157.735664,135.448096],[158.014368,135.274848],[158.298624,135.110848],[158.588112,134.956272],[158.882528,134.811264],[159.181520,134.676000],[159.304032,134.629232],[159.430160,134.593344],[159.558944,134.568592],[159.689408,134.555184],[159.820528,134.553248],[166.491776,134.555280],[166.622848,134.557344],[166.753248,134.570832],[166.881968,134.595648],[167.008032,134.631600],[167.130464,134.678432],[167.429376,134.813888],[167.723696,134.959072],[168.013072,135.113824],[168.297248,135.278000],[168.575856,135.451424],[168.848640,135.633872],[169.115264,135.825184],[169.217024,135.907904],[169.311184,135.999184],[169.397008,136.098336],[169.473824,136.204624],[169.541072,136.317200],[172.874944,142.095696],[172.938704,142.210240],[172.992224,142.329888],[173.035088,142.453776],[173.066976,142.580944],[173.087632,142.710384],[173.119776,143.036992],[173.141200,143.364464],[173.151872,143.692464],[173.151776,144.020624],[173.140912,144.348624],[173.119280,144.676064],[173.086928,145.002656],[173.066176,145.132144],[173.034192,145.259328],[172.991232,145.383232],[172.937584,145.502896],[172.873712,145.617440],[169.536336,151.393872],[169.469024,151.506368],[169.392144,151.612544],[169.306288,151.711616],[169.212112,151.802800],[169.110336,151.885424],[168.843584,152.076576],[168.570688,152.258848],[168.291968,152.432096],[168.007712,152.596096],[167.718224,152.750672],[167.423824,152.895680],[167.124832,153.030944],[167.002320,153.077712],[166.876176,153.113600],[166.747392,153.138352],[166.616944,153.151744],[166.485808,153.153680],[159.820528,153.153680],[159.689408,153.151744],[159.558944,153.138352],[159.430160,153.113600],[159.304032,153.077712],[159.181520,153.030944],[158.881728,152.895296],[158.586560,152.749872],[158.296320,152.594816],[158.011376,152.430304],[157.731968,152.256464],[157.458448,152.073584],[157.191088,151.881760],[157.089312,151.799040],[156.995168,151.707760],[156.909344,151.608592],[156.832512,151.502320],[156.765264,151.389744],[153.431408,145.611248],[153.367648,145.496704],[153.314128,145.377040],[153.271264,145.253152],[153.239376,145.126000],[153.218720,144.996544],[153.186624,144.670816],[153.165216,144.344240],[153.154512,144.017120],[153.154512,143.689824]]
; plater:{"center":[152.499998,150.000002,0.000000],"boundingbox_center":[152.499998,150.000002,7.649994],"boundingbox_size":[41.303749,30.893527,15.299988]}

M73 P0 R26
;TYPE:Custom
START_PRINT T_BED=100 T_EXTRUDER=250
M107
G21 ; set units to millimeters
G90 ; use absolute coordinates
M82 ; use absolute distances for extrusion
G92 E0
; Filament gcode

    PRESSURE_ADVANCE_SELECT FILAMENT=ABS
;_TOOLCHANGE 0
M109 S250 ; set temperature and wait for it to be reached
M190 S100 ; set bed temperature and wait for it to be reached
M107
;LAYER_CHANGE
;Z:0.2
;HEIGHT:0.2
G1 Z0.2 F9000
M73 P0 R26
G1 E-0.5 F3000
M204 S1000
G1 X134.298 Y146.803 F9000
G1 E0 F1800
;TYPE:Skirt
;WIDTH:0.52
G1 X132.878 Y148.156 E0.07627
G1 X132.155 Y149.05 E0.12099
G1 X131.513 Y150.023 E0.16627
G1 X130.975 Y151.037 E0.21092
G1 X130.532 Y152.116 E0.25627
G1 X130.198 Y153.214 E0.30085
G1 X129.969 Y154.359 E0.34627
G1 X129.852 Y155.498 E0.39076
G1 X129.857 Y156.858 E0.44366
G1 X130.007 Y158.173 E0.49512
G1 X130.255 Y159.293 E0.5397
G1 X130.614 Y160.404 E0.58507
G1 X131.072 Y161.456 E0.62969
G1 X131.6 Y162.419 E0.67239
G1 X132.251 Y163.376 E0.71738
G1 X132.953 Y164.221 E0.76009
G1 X133.985 Y165.232 E0.81625
G1 X135.143 Y166.114 E0.87283
G1 X136.845 Y167.068 E0.94868
G1 X137.923 Y167.5 E0.99385
G1 X139.381 Y167.903 E1.05266
G1 X141.32 Y168.147 E1.12862
G1 X142.766 Y168.125 E1.18484
G1 X144.21 Y167.924 E1.24153
G1 X146.088 Y167.385 E1.31747
G1 X147.467 Y166.763 E1.37628
G1 X169.479 Y154.066 E2.36419
G1 X170.702 Y153.197 E2.42249
G1 X172.122 Y151.844 E2.49876
G1 X173.057 Y150.651 E2.55771
G1 X174.025 Y148.963 E2.63334
G1 X174.58 Y147.555 E2.69215
G1 X175.031 Y145.641 E2.76862
G1 X175.162 Y144.102 E2.82865
G1 X175.045 Y142.151 E2.90465
G1 X174.745 Y140.707 E2.96198
G1 X174.077 Y138.858 E3.0384
G1 X173.4 Y137.581 E3.09459
G1 X172.565 Y136.39 E3.15114
G1 X171.234 Y134.966 E3.22692
G1 X169.857 Y133.886 E3.29494
G1 X168.155 Y132.932 E3.3708
G1 X167.077 Y132.5 E3.41597
G1 X165.619 Y132.097 E3.47478
G1 X163.68 Y131.853 E3.55073
G1 X162.234 Y131.875 E3.60695
G1 X160.79 Y132.076 E3.66364
G1 X158.912 Y132.615 E3.73959
G1 X157.533 Y133.237 E3.79839
G1 X135.521 Y145.934 E4.78631
G1 X134.298 Y146.803 E4.84461
G1 X134.61 Y147.164 F9000
G1 F1800
G1 X133.224 Y148.485 E4.91905
G1 X132.53 Y149.345 E4.96202
G1 X131.916 Y150.279 E5.00548
G1 X131.4 Y151.255 E5.04839
G1 X130.976 Y152.291 E5.09191
G1 X130.656 Y153.346 E5.13476
G1 X130.438 Y154.445 E5.17833
G1 X130.327 Y155.54 E5.2211
G1 X130.334 Y156.849 E5.272
G1 X130.474 Y158.077 E5.32004
G1 X130.711 Y159.153 E5.36289
G1 X131.054 Y160.219 E5.40642
G1 X131.493 Y161.231 E5.4493
G1 X132.001 Y162.161 E5.49051
G1 X132.638 Y163.097 E5.53451
G1 X134.098 Y164.692 E5.61859
G1 X135.184 Y165.565 E5.67273
G1 X136.344 Y166.284 E5.72579
G1 X138.094 Y167.054 E5.80013
G1 X139.464 Y167.433 E5.85537
G1 X141.357 Y167.671 E5.92955
G1 X142.72 Y167.651 E5.98255
G1 X144.101 Y167.46 E6.03674
G1 X145.934 Y166.933 E6.11091
G1 X147.23 Y166.349 E6.16615
G1 X169.241 Y153.652 E7.154
G1 X170.39 Y152.836 E7.2088
G1 X171.776 Y151.515 E7.28325
G1 X172.655 Y150.394 E7.33862
G1 X173.6 Y148.745 E7.41252
G1 X174.122 Y147.423 E7.46776
G1 X174.562 Y145.555 E7.54238
G1 X174.685 Y144.111 E7.5987
G1 X174.572 Y142.206 E7.67291
G1 X174.289 Y140.847 E7.72688
G1 X173.637 Y139.043 E7.80145
G1 X172.999 Y137.839 E7.85442
G1 X172.202 Y136.699 E7.90849
G1 X170.901 Y135.308 E7.98253
G1 X169.605 Y134.291 E8.04659
G1 X167.942 Y133.359 E8.12069
G1 X166.906 Y132.946 E8.16405
G1 X165.536 Y132.567 E8.21929
G1 X163.643 Y132.329 E8.29347
G1 X162.28 Y132.349 E8.34647
G1 X160.899 Y132.54 E8.40066
G1 X159.065 Y133.067 E8.47483
G1 X157.77 Y133.651 E8.53007
G1 X135.759 Y146.348 E9.51792
G1 X134.61 Y147.164 E9.57272
G92 E0
G1 E-0.5 F3000
; printing object knob.stl id:0 copy 0
EXCLUDE_OBJECT_START NAME=knob_stl_id_0_copy_0
G1 X140.768 Y159.438 F9000
G1 E0 F1800
;TYPE:Internal perimeter
;WIDTH:0.5
G1 X140.825 Y159.46 E0.00228
G1 X141.353 Y159.581 E0.02247
G1 X142.106 Y159.609 E0.05054
G1 X142.847 Y159.469 E0.07861
G1 X143.374 Y159.262 E0.09969
G1 X143.991 Y158.874 E0.12687
G1 X144.389 Y158.505 E0.14706
G1 X144.727 Y158.081 E0.16725
G1 X145.079 Y157.415 E0.19532
G1 X145.28 Y156.664 E0.22428
G1 X145.309 Y155.887 E0.25324
G1 X145.165 Y155.123 E0.2822
G1 X144.863 Y154.432 E0.31026
G1 X144.545 Y153.965 E0.33134
G1 X144.029 Y153.449 E0.35852
G1 X143.561 Y153.13 E0.3796
G1 X142.892 Y152.838 E0.40678
G1 X142.34 Y152.712 E0.42786
G1 X141.611 Y152.685 E0.45504
G1 X141.052 Y152.769 E0.47611
G1 X140.34 Y153.018 E0.50418
G1 X139.702 Y153.419 E0.53225
G1 X139.305 Y153.788 E0.55244
G1 X138.967 Y154.212 E0.57264
G1 X138.615 Y154.878 E0.60071
G1 X138.413 Y155.629 E0.62966
G1 X138.385 Y156.382 E0.65773
G1 X138.47 Y156.942 E0.67881
G1 X138.718 Y157.653 E0.70688
G1 X139.132 Y158.311 E0.73584
G1 X139.682 Y158.861 E0.7648
G1 X140.32 Y159.262 E0.79287
G1 X140.768 Y159.438 E0.81078
G1 X140.931 Y159.011 F9000
G1 F1800
G1 X140.96 Y159.022 E0.81192
G1 X141.413 Y159.126 E0.82924
G1 X142.072 Y159.15 E0.8538
G1 X142.72 Y159.028 E0.87835
G1 X143.167 Y158.852 E0.89624
G1 X143.712 Y158.51 E0.92022
G1 X144.053 Y158.193 E0.93754
G1 X144.343 Y157.83 E0.95486
G1 X144.651 Y157.247 E0.97942
G1 X144.825 Y156.595 E1.00454
G1 X144.851 Y155.921 E1.02966
G1 X144.725 Y155.259 E1.05478
G1 X144.462 Y154.654 E1.07934
G1 X144.191 Y154.258 E1.09722
G1 X143.736 Y153.802 E1.12121
G1 X143.339 Y153.532 E1.1391
G1 X142.749 Y153.274 E1.16308
G1 X142.28 Y153.167 E1.18097
G1 X141.637 Y153.143 E1.20495
G1 X141.162 Y153.215 E1.22284
G1 X140.54 Y153.433 E1.24739
G1 X139.982 Y153.783 E1.27195
G1 X139.641 Y154.1 E1.28927
M73 P1 R26
G1 X139.351 Y154.463 E1.30659
G1 X139.043 Y155.046 E1.33114
G1 X138.868 Y155.698 E1.35626
G1 X138.844 Y156.356 E1.38082
G1 X138.915 Y156.831 E1.3987
G1 X139.133 Y157.453 E1.42326
G1 X139.492 Y158.025 E1.44838
G1 X139.969 Y158.502 E1.4735
G1 X140.527 Y158.852 E1.49806
G1 X140.931 Y159.011 E1.51424
G1 X141.095 Y158.584 F9000
;TYPE:External perimeter
G1 F1800
G1 X141.473 Y158.67 E1.52869
G1 X142.038 Y158.692 E1.54973
G1 X142.593 Y158.587 E1.57077
G1 X142.96 Y158.442 E1.58546
G1 X143.432 Y158.145 E1.60625
G1 X143.717 Y157.882 E1.6207
G1 X143.959 Y157.578 E1.63515
G1 X144.223 Y157.079 E1.65619
G1 X144.37 Y156.527 E1.67747
G1 X144.392 Y155.956 E1.69876
G1 X144.286 Y155.394 E1.72005
G1 X144.06 Y154.877 E1.74109
G1 X143.838 Y154.551 E1.75578
G1 X143.443 Y154.156 E1.77657
G1 X143.117 Y153.934 E1.79126
G1 X142.605 Y153.71 E1.81206
G1 X142.221 Y153.623 E1.82675
G1 X141.663 Y153.602 E1.84754
G1 X141.273 Y153.66 E1.86224
G1 X140.739 Y153.847 E1.88328
G1 X140.261 Y154.148 E1.90432
G1 X139.977 Y154.411 E1.91876
G1 X139.735 Y154.715 E1.93321
G1 X139.471 Y155.214 E1.95425
G1 X139.323 Y155.766 E1.97554
G1 X139.302 Y156.331 E1.99658
G1 X139.361 Y156.721 E2.01127
G1 X139.547 Y157.254 E2.03231
G1 X139.851 Y157.738 E2.0536
G1 X140.256 Y158.142 E2.07488
G1 X140.734 Y158.442 E2.09592
G1 X141.095 Y158.584 E2.11037
;WIPE_START
M204 S3000
G1 X141.194 Y158.972 F9000
;WIPE_END
G92 E0
G1 E-0.5 F3000
M204 S1000
G1 X136.191 Y160.495 F9000
G1 E0 F1800
;TYPE:Internal perimeter
G1 X135.726 Y159.812 E0.03076
G1 X135.403 Y159.207 E0.0563
G1 X135.138 Y158.572 E0.08192
G1 X134.937 Y157.916 E0.10749
G1 X134.796 Y157.235 E0.13338
G1 X134.734 Y156.708 E0.15314
G1 X134.718 Y155.867 E0.18449
G1 X134.779 Y155.186 E0.20993
G1 X134.903 Y154.511 E0.2355
G1 X135.093 Y153.85 E0.26112
G1 X135.344 Y153.211 E0.28668
G1 X135.658 Y152.599 E0.31231
G1 X136.027 Y152.02 E0.33788
G1 X136.452 Y151.479 E0.3635
G1 X136.925 Y150.982 E0.38906
G1 X137.446 Y150.532 E0.41469
G1 X138.005 Y150.135 E0.44025
G1 X138.603 Y149.793 E0.46588
G1 X139.228 Y149.51 E0.49144
G1 X139.879 Y149.289 E0.51707
G1 X140.559 Y149.129 E0.54309
G1 X140.956 Y149.068 E0.55803
G1 X141.353 Y149.029 E0.57291
G1 X142.053 Y149.016 E0.59899
G1 X142.36 Y149.039 E0.61045
G1 X142.738 Y149.068 E0.62455
G1 X143.415 Y149.187 E0.65018
G1 X144.077 Y149.37 E0.67574
G1 X144.719 Y149.616 E0.70137
G1 X145.334 Y149.923 E0.72694
G1 X145.922 Y150.29 E0.75276
G1 X146.562 Y150.792 E0.78306
G1 X147.058 Y151.275 E0.80884
G1 X147.503 Y151.799 E0.83444
G1 X147.967 Y152.481 E0.86519
G1 X148.29 Y153.086 E0.89074
G1 X148.556 Y153.721 E0.91636
G1 X148.757 Y154.377 E0.94192
G1 X148.898 Y155.058 E0.96782
G1 X148.959 Y155.585 E0.98758
G1 X148.975 Y156.426 E1.01893
G1 X148.915 Y157.107 E1.04437
G1 X148.791 Y157.782 E1.06993
G1 X148.6 Y158.443 E1.09555
G1 X148.349 Y159.082 E1.12112
G1 X148.036 Y159.694 E1.14675
G1 X147.667 Y160.273 E1.17231
G1 X147.242 Y160.814 E1.19793
G1 X146.769 Y161.311 E1.2235
G1 X146.248 Y161.761 E1.24912
G1 X145.688 Y162.158 E1.27469
G1 X145.091 Y162.5 E1.30031
G1 X144.466 Y162.783 E1.32588
G1 X143.814 Y163.004 E1.3515
G1 X143.141 Y163.163 E1.37728
G1 X142.334 Y163.264 E1.40758
G1 X141.64 Y163.278 E1.43341
G1 X140.956 Y163.225 E1.45897
G1 X140.278 Y163.106 E1.4846
G1 X139.617 Y162.923 E1.51016
G1 X138.974 Y162.677 E1.53579
G1 X138.36 Y162.37 E1.56136
G1 X137.772 Y162.003 E1.58718
G1 X137.132 Y161.501 E1.61748
G1 X136.636 Y161.018 E1.64326
G1 X136.191 Y160.495 E1.66886
G1 X135.827 Y160.772 F9000
G1 F1800
G1 X135.334 Y160.049 E1.70144
G1 X134.99 Y159.403 E1.7287
G1 X134.707 Y158.728 E1.75596
G1 X134.493 Y158.029 E1.78316
G1 X134.344 Y157.308 E1.81061
G1 X134.278 Y156.739 E1.83194
