; HEADER_BLOCK_START
; generated by OrcaSlicer 1.6.4-beta3 on 2023-08-19 at 18:00:20
; total layer number: 14
; HEADER_BLOCK_END

; THUMBNAIL_BLOCK_START
; THUMBNAIL_BLOCK_END

; external perimeters extrusion width = 0.40mm
; perimeters extrusion width = 0.45mm
; infill extrusion width = 0.45mm
; solid infill extrusion width = 0.40mm
; top infill extrusion width = 0.40mm
; first layer extrusion width = 0.50mm

; external perimeters extrusion width = 0.40mm
; perimeters extrusion width = 0.45mm
; infill extrusion width = 0.45mm
; solid infill extrusion width = 0.40mm
; top infill extrusion width = 0.40mm
; first layer extrusion width = 0.50mm

; external perimeters extrusion width = 0.40mm
; perimeters extrusion width = 0.45mm
; infill extrusion width = 0.45mm
; solid infill extrusion width = 0.40mm
; top infill extrusion width = 0.40mm
; first layer extrusion width = 0.50mm

; external perimeters extrusion width = 0.40mm
; perimeters extrusion width = 0.45mm
; infill extrusion width = 0.45mm
; solid infill extrusion width = 0.40mm
; top infill extrusion width = 0.40mm
; first layer extrusion width = 0.50mm

; EXECUTABLE_BLOCK_START
EXCLUDE_OBJECT_DEFINE NAME=LogoBase-80p.STL_id_0_copy_0 CENTER=173.016,167.509 POLYGON=[[157.5,157.5],[188.533,157.5],[188.533,177.498],[157.5,177.518],[157.5,157.5]]
EXCLUDE_OBJECT_DEFINE NAME=LogoBase-80p.STL_id_1_copy_0 CENTER=173.016,142.49 POLYGON=[[157.5,132.481],[188.533,132.481],[188.533,152.479],[157.5,152.499],[157.5,132.481]]
EXCLUDE_OBJECT_DEFINE NAME=LogoBase-80p.STL_id_2_copy_0 CENTER=136.984,142.49 POLYGON=[[121.467,132.481],[152.5,132.481],[152.5,152.479],[121.467,152.499],[121.467,132.481]]
EXCLUDE_OBJECT_DEFINE NAME=LogoBase-80p.STL_id_3_copy_0 CENTER=136.984,167.509 POLYGON=[[121.467,157.5],[152.5,157.5],[152.5,177.498],[121.467,177.518],[121.467,157.5]]
M73 P0 R24
;TYPE:Custom
START_PRINT T_BED=60 T_EXTRUDER=220
G90
G21
M83 ; use relative distances for extrusion
; filament start gcode
PRESSURE_ADVANCE_SELECT FILAMENT=PLA
M106 S0
;LAYER_CHANGE
;Z:0.2
;HEIGHT:0.2
;BEFORE_LAYER_CHANGE
;0.2
G92 E0

SET_VELOCITY_LIMIT ACCEL=500 ACCEL_TO_DECEL=250
G1 E-.8 F3000
G1 Z.4 F9000
G1 X119.402 Y131.15
G1 Z.4
G1 Z.2
G1 E.8 F1800
;TYPE:Skirt
;WIDTH:0.5
G1 F900
G1 X120.453 Y130.243 E.05169
G1 X121.467 Y130.024 E.03866
G1 X188.533 Y130.024 E2.49794
G1 X189.864 Y130.416 E.05169
G1 X190.771 Y131.466 E.05169
G1 X190.99 Y132.481 E.03866
G1 X190.99 Y177.498 E1.67669
M73 P0 R23
G1 X190.598 Y178.829 E.05169
G1 X189.547 Y179.735 E.05169
G1 X188.534 Y179.955 E.0386
G1 X121.467 Y179.975 E2.498
G1 X120.136 Y179.583 E.05169
G1 X119.229 Y178.533 E.05169
M73 P1 R23
G1 X119.01 Y177.518 E.03866
G1 X119.01 Y132.481 E1.67747
G1 X119.391 Y131.188 E.0502
; printing object LogoBase-80p.STL id:0 copy 0
G1 E-.8 F3000
EXCLUDE_OBJECT_START NAME=LogoBase-80p.STL_id_0_copy_0
G1 Z.6 F9000
G1 X157.75 Y177.268 Z.6
G1 Z.2
G1 E.8 F1800
;TYPE:Outer wall
;WIDTH:0.499999
G1 F900
G1 X157.75 Y157.75 E.72697
G1 X188.283 Y157.75 E1.13723
G1 X188.283 Y167.502 E.36323
G1 X188.283 Y177.248 E.36299
G1 X157.79 Y177.268 E1.13574
G1 X158.207 Y176.811 F9000
;TYPE:Inner wall
G1 F900
G1 X158.207 Y158.207 E.69291
G1 X187.826 Y158.207 E1.10318
G1 X187.826 Y167.502 E.3462
M73 P2 R23
G1 X187.826 Y176.791 E.34597
G1 X158.247 Y176.811 E1.10169
G1 E-.8 F3000
G1 Z.6 F9000
G1 X187.679 Y159.288 Z.6
G1 Z.2
G1 E.8 F1800
;TYPE:Internal solid infill
;WIDTH:0.505238
G1 F900
G1 X186.95 Y158.559 E.03886
G1 X186.296 Y158.559 E.02463
G1 X187.474 Y159.737 E.06274
G1 X187.474 Y160.39 E.02463
G1 X185.642 Y158.559 E.09757
G1 X184.989 Y158.559 E.02463
G1 X187.474 Y161.044 E.1324
G1 X187.474 Y161.698 E.02463
G1 X184.335 Y158.559 E.16724
G1 X183.681 Y158.559 E.02463
G1 X187.474 Y162.352 E.20207
G1 X187.474 Y163.006 E.02463
G1 X183.027 Y158.559 E.23691
G1 X182.373 Y158.559 E.02463
G1 X187.474 Y163.659 E.27174
G1 X187.474 Y164.313 E.02463
G1 X181.72 Y158.559 E.30657
G1 X181.066 Y158.559 E.02463
G1 X187.474 Y164.967 E.34141
G1 X187.474 Y165.621 E.02463
G1 X180.412 Y158.559 E.37624
G1 X179.758 Y158.559 E.02463
G1 X187.474 Y166.275 E.41107
G1 X187.474 Y166.929 E.02463
G1 X179.104 Y158.559 E.44591
G1 X178.45 Y158.559 E.02463
G1 X187.474 Y167.582 E.48074
G1 X187.474 Y168.236 E.02463
G1 X177.797 Y158.559 E.51558
G1 X177.143 Y158.559 E.02463
G1 X187.474 Y168.89 E.55041
G1 X187.474 Y169.544 E.02463
G1 X176.489 Y158.559 E.58524
G1 X175.835 Y158.559 E.02463
G1 X187.474 Y170.198 E.62008
M73 P3 R23
G1 X187.474 Y170.851 E.02463
G1 X175.181 Y158.559 E.65491
G1 X174.528 Y158.559 E.02463
G1 X187.474 Y171.505 E.68975
G1 X187.474 Y172.159 E.02463
G1 X173.874 Y158.559 E.72458
G1 X173.22 Y158.559 E.02463
G1 X187.474 Y172.813 E.75941
G1 X187.474 Y173.467 E.02463
G1 X172.566 Y158.559 E.79425
G1 X171.912 Y158.559 E.02463
G1 X187.474 Y174.121 E.82908
G1 X187.474 Y174.774 E.02463
G1 X171.258 Y158.559 E.86392
G1 X170.605 Y158.559 E.02463
G1 X187.474 Y175.428 E.89875
G1 X187.474 Y176.082 E.02463
G1 X169.951 Y158.559 E.93358
G1 X169.297 Y158.559 E.02463
G1 X187.177 Y176.439 E.95263
M73 P4 R23
G1 X186.524 Y176.44 E.02461
G1 X168.643 Y158.559 E.95265
G1 X167.989 Y158.559 E.02463
G1 X185.871 Y176.44 E.95268
G1 X185.217 Y176.441 E.02461
G1 X167.336 Y158.559 E.9527
G1 X166.682 Y158.559 E.02463
G1 X184.564 Y176.441 E.95272
G1 X183.911 Y176.442 E.02461
G1 X166.028 Y158.559 E.95275
G1 X165.374 Y158.559 E.02463
G1 X183.257 Y176.442 E.95277
M73 P4 R22
G1 X182.604 Y176.443 E.02461
G1 X164.72 Y158.559 E.95279
G1 X164.066 Y158.559 E.02463
G1 X181.95 Y176.443 E.95281
M73 P5 R22
G1 X181.297 Y176.443 E.02461
G1 X163.413 Y158.559 E.95284
G1 X162.759 Y158.559 E.02463
G1 X180.644 Y176.444 E.95286
G1 X179.99 Y176.444 E.02461
G1 X162.105 Y158.559 E.95288
G1 X161.451 Y158.559 E.02463
G1 X179.337 Y176.445 E.95291
G1 X178.684 Y176.445 E.02461
G1 X160.797 Y158.559 E.95293
G1 X160.144 Y158.559 E.02463
G1 X178.03 Y176.446 E.95295
G1 X177.377 Y176.446 E.02461
G1 X159.49 Y158.559 E.95298
G1 X158.836 Y158.559 E.02463
G1 X176.723 Y176.446 E.953
G1 X176.07 Y176.447 E.02461
G1 X158.559 Y158.936 E.93295
M73 P6 R22
G1 X158.559 Y159.59 E.02463
G1 X175.417 Y176.447 E.89813
G1 X174.763 Y176.448 E.02461
G1 X158.559 Y160.244 E.86332
G1 X158.559 Y160.897 E.02463
G1 X174.11 Y176.448 E.82851
G1 X173.456 Y176.449 E.02461
G1 X158.559 Y161.551 E.7937
G1 X158.559 Y162.205 E.02463
G1 X172.803 Y176.449 E.75889
G1 X172.15 Y176.449 E.02461
G1 X158.559 Y162.859 E.72408
G1 X158.559 Y163.513 E.02463
G1 X171.496 Y176.45 E.68927
G1 X170.843 Y176.45 E.02461
G1 X158.559 Y164.166 E.65446
G1 X158.559 Y164.82 E.02463
G1 X170.19 Y176.451 E.61965
G1 X169.536 Y176.451 E.02461
G1 X158.559 Y165.474 E.58484
M73 P7 R22
G1 X158.559 Y166.128 E.02463
G1 X168.883 Y176.452 E.55003
G1 X168.229 Y176.452 E.02461
G1 X158.559 Y166.782 E.51522
G1 X158.559 Y167.436 E.02463
G1 X167.576 Y176.453 E.48041
G1 X166.923 Y176.453 E.02461
G1 X158.559 Y168.089 E.4456
G1 X158.559 Y168.743 E.02463
G1 X166.269 Y176.453 E.41079
G1 X165.616 Y176.454 E.02461
G1 X158.559 Y169.397 E.37598
G1 X158.559 Y170.051 E.02463
G1 X164.963 Y176.454 E.34116
G1 X164.309 Y176.455 E.02461
G1 X158.559 Y170.705 E.30635
G1 X158.559 Y171.358 E.02463
G1 X163.656 Y176.455 E.27154
G1 X163.002 Y176.456 E.02461
G1 X158.559 Y172.012 E.23673
G1 X158.559 Y172.666 E.02463
G1 X162.349 Y176.456 E.20192
G1 X161.696 Y176.456 E.02461
G1 X158.559 Y173.32 E.16711
G1 X158.559 Y173.974 E.02463
G1 X161.042 Y176.457 E.1323
G1 X160.389 Y176.457 E.02461
G1 X158.559 Y174.627 E.09749
G1 X158.559 Y175.281 E.02463
G1 X159.735 Y176.458 E.06268
G1 X159.082 Y176.458 E.02461
G1 X158.353 Y175.729 E.03883
; stop printing object LogoBase-80p.STL id:0 copy 0
; printing object LogoBase-80p.STL id:1 copy 0
G1 E-.8 F3000
EXCLUDE_OBJECT_END NAME=LogoBase-80p.STL_id_0_copy_0
EXCLUDE_OBJECT_START NAME=LogoBase-80p.STL_id_1_copy_0
G1 Z.6 F9000
G1 X157.75 Y152.249 Z.6
G1 Z.2
G1 E.8 F1800
;TYPE:Outer wall
;WIDTH:0.499999
G1 F900
G1 X157.75 Y132.731 E.72697
G1 X188.283 Y132.731 E1.13723
G1 X188.283 Y142.483 E.36323
G1 X188.283 Y152.229 E.36299
M73 P8 R22
G1 X157.79 Y152.249 E1.13574
G1 X158.207 Y151.792 F9000
;TYPE:Inner wall
G1 F900
G1 X158.207 Y133.188 E.69291
G1 X187.826 Y133.188 E1.10318
G1 X187.826 Y142.483 E.3462
G1 X187.826 Y151.772 E.34597
G1 X158.247 Y151.792 E1.10169
G1 E-.8 F3000
G1 Z.6 F9000
G1 X187.679 Y134.269 Z.6
G1 Z.2
G1 E.8 F1800
;TYPE:Internal solid infill
;WIDTH:0.505238
G1 F900
G1 X186.95 Y133.54 E.03886
G1 X186.296 Y133.54 E.02463
G1 X187.474 Y134.718 E.06274
G1 X187.474 Y135.371 E.02463
G1 X185.642 Y133.54 E.09757
G1 X184.989 Y133.54 E.02463
G1 X187.474 Y136.025 E.1324
G1 X187.474 Y136.679 E.02463
G1 X184.335 Y133.54 E.16724
G1 X183.681 Y133.54 E.02463
G1 X187.474 Y137.333 E.20207
G1 X187.474 Y137.987 E.02463
G1 X183.027 Y133.54 E.23691
G1 X182.373 Y133.54 E.02463
G1 X187.474 Y138.64 E.27174
G1 X187.474 Y139.294 E.02463
G1 X181.72 Y133.54 E.30657
G1 X181.066 Y133.54 E.02463
G1 X187.474 Y139.948 E.34141
M73 P8 R21
G1 X187.474 Y140.602 E.02463
G1 X180.412 Y133.54 E.37624
G1 X179.758 Y133.54 E.02463
G1 X187.474 Y141.256 E.41107
M73 P9 R21
G1 X187.474 Y141.91 E.02463
G1 X179.104 Y133.54 E.44591
G1 X178.45 Y133.54 E.02463
G1 X187.474 Y142.563 E.48074
G1 X187.474 Y143.217 E.02463
G1 X177.797 Y133.54 E.51558
G1 X177.143 Y133.54 E.02463
G1 X187.474 Y143.871 E.55041
G1 X187.474 Y144.525 E.02463
G1 X176.489 Y133.54 E.58524
G1 X175.835 Y133.54 E.02463
G1 X187.474 Y145.179 E.62008
G1 X187.474 Y145.832 E.02463
G1 X175.181 Y133.54 E.65491
G1 X174.528 Y133.54 E.02463
G1 X187.474 Y146.486 E.68975
G1 X187.474 Y147.14 E.02463
G1 X173.874 Y133.54 E.72458
G1 X173.22 Y133.54 E.02463
G1 X187.474 Y147.794 E.75941
G1 X187.474 Y148.448 E.02463
G1 X172.566 Y133.54 E.79425
G1 X171.912 Y133.54 E.02463
G1 X187.474 Y149.102 E.82908
M73 P10 R21
G1 X187.474 Y149.755 E.02463
G1 X171.258 Y133.54 E.86392
G1 X170.605 Y133.54 E.02463
G1 X187.474 Y150.409 E.89875
G1 X187.474 Y151.063 E.02463
G1 X169.951 Y133.54 E.93358
G1 X169.297 Y133.54 E.02463
G1 X187.177 Y151.42 E.95263
G1 X186.524 Y151.421 E.02461
G1 X168.643 Y133.54 E.95265
G1 X167.989 Y133.54 E.02463
G1 X185.871 Y151.421 E.95268
G1 X185.217 Y151.422 E.02461
G1 X167.336 Y133.54 E.9527
G1 X166.682 Y133.54 E.02463
G1 X184.564 Y151.422 E.95272
G1 X183.911 Y151.423 E.02461
G1 X166.028 Y133.54 E.95275
M73 P11 R21
G1 X165.374 Y133.54 E.02463
G1 X183.257 Y151.423 E.95277
G1 X182.604 Y151.424 E.02461
G1 X164.72 Y133.54 E.95279
G1 X164.066 Y133.54 E.02463
G1 X181.95 Y151.424 E.95281
G1 X181.297 Y151.424 E.02461
G1 X163.413 Y133.54 E.95284
G1 X162.759 Y133.54 E.02463
G1 X180.644 Y151.425 E.95286
G1 X179.99 Y151.425 E.02461
G1 X162.105 Y133.54 E.95288
G1 X161.451 Y133.54 E.02463
G1 X179.337 Y151.426 E.95291
G1 X178.684 Y151.426 E.02461
G1 X160.797 Y133.54 E.95293
M73 P12 R21
G1 X160.144 Y133.54 E.02463
G1 X178.03 Y151.427 E.95295
G1 X177.377 Y151.427 E.02461
G1 X159.49 Y133.54 E.95298
G1 X158.836 Y133.54 E.02463
G1 X176.723 Y151.427 E.953
G1 X176.07 Y151.428 E.02461
G1 X158.559 Y133.917 E.93295
G1 X158.559 Y134.571 E.02463
G1 X175.417 Y151.428 E.89813
G1 X174.763 Y151.429 E.02461
G1 X158.559 Y135.225 E.86332
G1 X158.559 Y135.878 E.02463
G1 X174.11 Y151.429 E.82851
G1 X173.456 Y151.43 E.02461
G1 X158.559 Y136.532 E.7937
G1 X158.559 Y137.186 E.02463
G1 X172.803 Y151.43 E.75889
M73 P13 R21
G1 X172.15 Y151.431 E.02461
G1 X158.559 Y137.84 E.72408
M73 P13 R20
G1 X158.559 Y138.494 E.02463
G1 X171.496 Y151.431 E.68927
G1 X170.843 Y151.431 E.02461
G1 X158.559 Y139.147 E.65446
G1 X158.559 Y139.801 E.02463
G1 X170.19 Y151.432 E.61965
G1 X169.536 Y151.432 E.02461
G1 X158.559 Y140.455 E.58484
G1 X158.559 Y141.109 E.02463
G1 X168.883 Y151.433 E.55003
G1 X168.229 Y151.433 E.02461
G1 X158.559 Y141.763 E.51522
G1 X158.559 Y142.417 E.02463
G1 X167.576 Y151.434 E.48041
G1 X166.923 Y151.434 E.02461
G1 X158.559 Y143.07 E.4456
G1 X158.559 Y143.724 E.02463
G1 X166.269 Y151.434 E.41079
G1 X165.616 Y151.435 E.02461
G1 X158.559 Y144.378 E.37598
G1 X158.559 Y145.032 E.02463
G1 X164.963 Y151.435 E.34116
G1 X164.309 Y151.436 E.02461
G1 X158.559 Y145.686 E.30635
G1 X158.559 Y146.339 E.02463
G1 X163.656 Y151.436 E.27154
G1 X163.002 Y151.437 E.02461
G1 X158.559 Y146.993 E.23673
G1 X158.559 Y147.647 E.02463
G1 X162.349 Y151.437 E.20192
G1 X161.696 Y151.437 E.02461
M73 P14 R20
G1 X158.559 Y148.301 E.16711
G1 X158.559 Y148.955 E.02463
G1 X161.042 Y151.438 E.1323
G1 X160.389 Y151.438 E.02461
G1 X158.559 Y149.609 E.09749
G1 X158.559 Y150.262 E.02463
G1 X159.735 Y151.439 E.06268
G1 X159.082 Y151.439 E.02461
G1 X158.353 Y150.71 E.03883
; stop printing object LogoBase-80p.STL id:1 copy 0
; printing object LogoBase-80p.STL id:2 copy 0
G1 E-.8 F3000
EXCLUDE_OBJECT_END NAME=LogoBase-80p.STL_id_1_copy_0
EXCLUDE_OBJECT_START NAME=LogoBase-80p.STL_id_2_copy_0
G1 Z.6 F9000
G1 X121.717 Y152.249 Z.6
G1 Z.2
G1 E.8 F1800
;TYPE:Outer wall
;WIDTH:0.499999
G1 F900
G1 X121.717 Y132.731 E.72697
G1 X152.25 Y132.731 E1.13723
G1 X152.25 Y142.483 E.36323
G1 X152.25 Y152.229 E.36299
G1 X121.757 Y152.249 E1.13574
G1 X122.174 Y151.792 F9000
;TYPE:Inner wall
G1 F900
G1 X122.174 Y133.188 E.69291
G1 X151.793 Y133.188 E1.10318
G1 X151.793 Y142.483 E.3462
G1 X151.793 Y151.772 E.34597
G1 X122.214 Y151.792 E1.10169
M73 P15 R20
G1 E-.8 F3000
G1 Z.6 F9000
G1 X151.647 Y134.269 Z.6
G1 Z.2
G1 E.8 F1800
;TYPE:Internal solid infill
;WIDTH:0.505238
G1 F900
G1 X150.917 Y133.54 E.03886
G1 X150.263 Y133.54 E.02463
G1 X151.441 Y134.718 E.06274
G1 X151.441 Y135.371 E.02463
G1 X149.61 Y133.54 E.09757
G1 X148.956 Y133.54 E.02463
G1 X151.441 Y136.025 E.1324
G1 X151.441 Y136.679 E.02463
G1 X148.302 Y133.54 E.16724
G1 X147.648 Y133.54 E.02463
G1 X151.441 Y137.333 E.20207
G1 X151.441 Y137.987 E.02463
G1 X146.994 Y133.54 E.23691
G1 X146.341 Y133.54 E.02463
G1 X151.441 Y138.64 E.27174
G1 X151.441 Y139.294 E.02463
G1 X145.687 Y133.54 E.30657
G1 X145.033 Y133.54 E.02463
G1 X151.441 Y139.948 E.34141
G1 X151.441 Y140.602 E.02463
G1 X144.379 Y133.54 E.37624
G1 X143.725 Y133.54 E.02463
G1 X151.441 Y141.256 E.41107
G1 X151.441 Y141.91 E.02463
G1 X143.071 Y133.54 E.44591
G1 X142.418 Y133.54 E.02463
G1 X151.441 Y142.563 E.48074
G1 X151.441 Y143.217 E.02463
G1 X141.764 Y133.54 E.51558
G1 X141.11 Y133.54 E.02463
G1 X151.441 Y143.871 E.55041
G1 X151.441 Y144.525 E.02463
G1 X140.456 Y133.54 E.58524
G1 X139.802 Y133.54 E.02463
G1 X151.441 Y145.179 E.62008
G1 X151.441 Y145.832 E.02463
G1 X139.149 Y133.54 E.65491
G1 X138.495 Y133.54 E.02463
G1 X151.441 Y146.486 E.68975
M73 P16 R20
G1 X151.441 Y147.14 E.02463
G1 X137.841 Y133.54 E.72458
G1 X137.187 Y133.54 E.02463
G1 X151.441 Y147.794 E.75941
G1 X151.441 Y148.448 E.02463
G1 X136.533 Y133.54 E.79425
G1 X135.879 Y133.54 E.02463
G1 X151.441 Y149.102 E.82908
G1 X151.441 Y149.755 E.02463
G1 X135.226 Y133.54 E.86392
G1 X134.572 Y133.54 E.02463
G1 X151.441 Y150.409 E.89875
G1 X151.441 Y151.063 E.02463
G1 X133.918 Y133.54 E.93358
G1 X133.264 Y133.54 E.02463
G1 X151.145 Y151.42 E.95263
G1 X150.491 Y151.421 E.02461
G1 X132.61 Y133.54 E.95265
M73 P17 R20
G1 X131.957 Y133.54 E.02463
G1 X149.838 Y151.421 E.95268
G1 X149.185 Y151.422 E.02461
G1 X131.303 Y133.54 E.9527
M73 P17 R19
G1 X130.649 Y133.54 E.02463
G1 X148.531 Y151.422 E.95272
G1 X147.878 Y151.423 E.02461
G1 X129.995 Y133.54 E.95275
G1 X129.341 Y133.54 E.02463
G1 X147.224 Y151.423 E.95277
G1 X146.571 Y151.424 E.02461
G1 X128.688 Y133.54 E.95279
G1 X128.034 Y133.54 E.02463
G1 X145.918 Y151.424 E.95281
G1 X145.264 Y151.424 E.02461
G1 X127.38 Y133.54 E.95284
G1 X126.726 Y133.54 E.02463
G1 X144.611 Y151.425 E.95286
M73 P18 R19
G1 X143.957 Y151.425 E.02461
G1 X126.072 Y133.54 E.95288
G1 X125.418 Y133.54 E.02463
G1 X143.304 Y151.426 E.95291
G1 X142.651 Y151.426 E.02461
G1 X124.765 Y133.54 E.95293
G1 X124.111 Y133.54 E.02463
G1 X141.997 Y151.427 E.95295
G1 X141.344 Y151.427 E.02461
G1 X123.457 Y133.54 E.95298
G1 X122.803 Y133.54 E.02463
G1 X140.691 Y151.427 E.953
G1 X140.037 Y151.428 E.02461
G1 X122.526 Y133.917 E.93295
G1 X122.526 Y134.571 E.02463
G1 X139.384 Y151.428 E.89813
M73 P19 R19
G1 X138.73 Y151.429 E.02461
G1 X122.526 Y135.225 E.86332
G1 X122.526 Y135.878 E.02463
G1 X138.077 Y151.429 E.82851
