; generated by SuperSlicer 2.5.59 on 2023-08-30 at 23:38:50 UTC


;
;

;
;
; 

; external perimeters extrusion width = 0.40mm
; perimeters extrusion width = 0.46mm
; infill extrusion width = 0.64mm
; solid infill extrusion width = 0.56mm
; top infill extrusion width = 0.40mm
; support material extrusion width = 0.46mm
; first layer extrusion width = 0.50mm

; external perimeters extrusion width = 0.40mm
; perimeters extrusion width = 0.46mm
; infill extrusion width = 0.64mm
; solid infill extrusion width = 0.56mm
; top infill extrusion width = 0.40mm
; support material extrusion width = 0.46mm
; first layer extrusion width = 0.50mm

; external perimeters extrusion width = 0.40mm
; perimeters extrusion width = 0.46mm
; infill extrusion width = 0.64mm
; solid infill extrusion width = 0.56mm
; top infill extrusion width = 0.40mm
; support material extrusion width = 0.46mm
; first layer extrusion width = 0.50mm

; external perimeters extrusion width = 0.40mm
; perimeters extrusion width = 0.46mm
; infill extrusion width = 0.64mm
; solid infill extrusion width = 0.56mm
; top infill extrusion width = 0.40mm
; support material extrusion width = 0.46mm
; first layer extrusion width = 0.50mm

; object:{"name":"LogoBase-80p","id":"LogoBase-80p.STL id:0 copy 0","object_center":[170.637952,163.009140,0.000000],"boundingbox_center":[170.637952,163.009140,1.407800],"boundingbox_size":[30.275903,20.018280,2.815599]}
EXCLUDE_OBJECT_DEFINE NAME=LogoBase_80p_STL_id_0_copy_0 CENTER=170.637952,163.009140 POLYGON=[[155.500000,153.000000],[185.775904,153.000000],[185.775904,172.997552],[155.500000,173.018288],[155.500000,153.000000]]
; object:{"name":"LogoBase-80p","id":"LogoBase-80p.STL id:1 copy 0","object_center":[170.637952,136.990010,0.000000],"boundingbox_center":[170.637952,136.990010,1.407800],"boundingbox_size":[30.275903,20.018280,2.815599]}
EXCLUDE_OBJECT_DEFINE NAME=LogoBase_80p_STL_id_1_copy_0 CENTER=170.637952,136.990010 POLYGON=[[155.500000,126.980864],[185.775904,126.980864],[185.775904,146.978432],[155.500000,146.999152],[155.500000,126.980864]]
; object:{"name":"LogoBase-80p","id":"LogoBase-80p.STL id:2 copy 0","object_center":[134.362048,163.009140,0.000000],"boundingbox_center":[134.362048,163.009140,1.407800],"boundingbox_size":[30.275903,20.018280,2.815599]}
EXCLUDE_OBJECT_DEFINE NAME=LogoBase_80p_STL_id_2_copy_0 CENTER=134.362048,163.009140 POLYGON=[[119.224088,153.000000],[149.500000,153.000000],[149.500000,172.997552],[119.224088,173.018288],[119.224088,153.000000]]
; object:{"name":"LogoBase-80p","id":"LogoBase-80p.STL id:3 copy 0","object_center":[134.362048,136.990010,0.000000],"boundingbox_center":[134.362048,136.990010,1.407800],"boundingbox_size":[30.275903,20.018280,2.815599]}
EXCLUDE_OBJECT_DEFINE NAME=LogoBase_80p_STL_id_3_copy_0 CENTER=134.362048,136.990010 POLYGON=[[119.224088,126.980864],[149.500000,126.980864],[149.500000,146.978432],[119.224088,146.999152],[119.224088,126.980864]]
; plater:{"center":[152.500000,149.999575,0.000000],"boundingbox_center":[152.500000,149.999575,1.407800],"boundingbox_size":[66.551807,46.037410,2.815599]}

M73 P0 R20
;TYPE:Custom
START_PRINT T_BED=60 T_EXTRUDER=210
M107
G21 ; set units to millimeters
G90 ; use absolute coordinates
M82 ; use absolute distances for extrusion
G92 E0
; Filament gcode

    PRESSURE_ADVANCE_SELECT FILAMENT=PLA
;_TOOLCHANGE 0
M109 S210 ; set temperature and wait for it to be reached
M190 S60 ; set bed temperature and wait for it to be reached
M107
;LAYER_CHANGE
;Z:0.2
;HEIGHT:0.2
G1 Z0.2 F9000
M73 P0 R20
G1 E-0.8 F2400
M204 S1000
G1 X117.103 Y124.102 F9000
G1 E0 F1800
;TYPE:Skirt
;WIDTH:0.52
G1 X116.003 Y125.415 E0.06793
G1 X115.608 Y127.081 E0.13586
G1 X115.608 Y172.918 E1.9542
G1 X116.345 Y175.139 E2.04703
G1 X117.658 Y176.239 E2.11496
G1 X119.324 Y176.634 E2.18289
G1 X185.678 Y176.613 E4.81512
M73 P0 R20
G1 X187.897 Y175.876 E4.90785
G1 X188.997 Y174.564 E4.97579
G1 X189.392 Y172.898 E5.04372
G1 X189.392 Y127.081 E6.86124
G1 X188.655 Y124.86 E6.95406
G1 X187.342 Y123.76 E7.022
G1 X185.676 Y123.365 E7.08993
G1 X119.324 Y123.365 E9.72206
G1 X117.103 Y124.102 E9.81489
G1 X117.481 Y124.452 F9000
G1 F1800
G1 X116.479 Y125.533 E9.87334
G1 X116.086 Y127.081 E9.9367
G1 X116.086 Y172.918 E11.75503
G1 X116.605 Y174.677 E11.82779
G1 X117.776 Y175.763 E11.89115
G1 X119.324 Y176.157 E11.95451
G1 X185.678 Y176.136 E14.58673
G1 X187.435 Y175.617 E14.6594
G1 X188.521 Y174.445 E14.72276
G1 X188.914 Y172.898 E14.78611
G1 X188.914 Y127.081 E16.60363
G1 X188.395 Y125.322 E16.67639
G1 X187.224 Y124.236 E16.73975
G1 X185.676 Y123.842 E16.8031
G1 X119.324 Y123.842 E19.43524
M73 P2 R20
G1 X117.565 Y124.362 E19.50799
G1 X117.481 Y124.452 E19.5129
G92 E0
G1 E-0.8 F2400
; printing object LogoBase-80p.STL id:0 copy 0
EXCLUDE_OBJECT_START NAME=LogoBase_80p_STL_id_0_copy_0
G1 X155.85 Y172.668 F9000
G1 E0 F1800
;TYPE:External perimeter
;WIDTH:0.5
G1 X155.85 Y153.35 E0.73421
G1 X185.426 Y153.35 E1.85828
G1 X185.426 Y172.648 E2.59172
G1 X155.85 Y172.668 E3.71579
;WIPE_START
M204 S3000
G1 X156.05 Y172.322 F9000
;WIPE_END
M204 S1000
G1 X156.307 Y172.211
;TYPE:Internal perimeter
G1 F1800
G1 X156.307 Y153.807 E4.41524
G1 X184.969 Y153.807 E5.50457
G1 X184.969 Y172.191 E6.20328
G1 X156.307 Y172.211 E7.2926
G1 X156.764 Y171.753 F9000
G1 F1800
G1 X156.764 Y154.264 E7.9573
G1 X184.512 Y154.264 E9.01188
G1 X184.512 Y171.734 E9.67586
G1 X156.764 Y171.753 E10.73044
G92 E0
G1 E-0.8 F2400
G1 X184.443 Y155.257 F9000
G1 E0 F1800
;TYPE:Solid infill
;WIDTH:0.495275
G1 F2400
G1 X183.519 Y154.333 E0.04919
G1 X182.873 Y154.333 F9000
G1 F2400
G1 X184.443 Y155.903 E0.1328
G1 X184.443 Y156.549 F9000
G1 F2400
G1 X182.226 Y154.333 E0.25083
G1 X181.58 Y154.333 F9000
G1 F2400
G1 X184.443 Y157.196 E0.40327
G1 X184.443 Y157.842 F9000
G1 F2400
G1 X180.934 Y154.333 E0.59012
G1 X180.287 Y154.333 F9000
G1 F2400
G1 X184.443 Y158.489 E0.81139
M73 P2 R20
G1 X184.443 Y159.135 F9000
G1 F2400
G1 X179.641 Y154.333 E1.06708
G1 X178.994 Y154.333 F9000
G1 F2400
G1 X184.443 Y159.782 E1.35718
G1 X184.443 Y160.428 F9000
G1 F2400
G1 X178.348 Y154.333 E1.6817
G1 X177.702 Y154.333 F9000
G1 F2400
G1 X184.443 Y161.074 E2.04063
G1 X184.443 Y161.721 F9000
G1 F2400
G1 X177.055 Y154.333 E2.43398
G1 X176.409 Y154.333 F9000
G1 F2400
G1 X184.443 Y162.367 E2.86174
G1 X184.443 Y163.014 F9000
G1 F2400
G1 X175.762 Y154.333 E3.32392
G1 X175.116 Y154.333 F9000
G1 F2400
G1 X184.443 Y163.66 E3.82051
G1 X184.443 Y164.306 F9000
G1 F2400
G1 X174.47 Y154.333 E4.35152
G1 X173.823 Y154.333 F9000
G1 F2400
G1 X184.443 Y164.953 E4.91695
G1 X184.443 Y165.599 F9000
G1 F2400
G1 X173.177 Y154.333 E5.51679
G1 X172.53 Y154.333 F9000
G1 F2400
G1 X184.443 Y166.246 E6.15104
G1 X184.443 Y166.892 F9000
G1 F2400
G1 X171.884 Y154.333 E6.81971
G1 X171.237 Y154.333 F9000
G1 F2400
G1 X184.443 Y167.538 E7.5228
G1 X184.443 Y168.185 F9000
G1 F2400
G1 X170.591 Y154.333 E8.2603
G1 X169.945 Y154.333 F9000
G1 F2400
G1 X184.443 Y168.831 E9.03222
G1 X184.443 Y169.478 F9000
G1 F2400
G1 X169.298 Y154.333 E9.83855
G1 X168.652 Y154.333 F9000
G1 F2400
G1 X184.443 Y170.124 E10.6793
G1 X184.443 Y170.77 F9000
G1 F2400
G1 X168.005 Y154.333 E11.55446
G1 X167.359 Y154.333 F9000
G1 F2400
G1 X184.443 Y171.417 E12.46404
G1 X184.046 Y171.666 F9000
G1 F2400
G1 X166.713 Y154.333 E13.38689
G1 X166.066 Y154.333 F9000
G1 F2400
G1 X183.4 Y171.666 E14.30976
G1 X182.754 Y171.667 F9000
G1 F2400
G1 X165.42 Y154.333 E15.23265
G1 X164.773 Y154.333 F9000
G1 F2400
G1 X182.108 Y171.667 E16.15557
G1 X181.462 Y171.668 F9000
G1 F2400
G1 X164.127 Y154.333 E17.07851
M73 P4 R19
G1 X163.481 Y154.333 F9000
G1 F2400
G1 X180.816 Y171.668 E18.00147
G1 X180.17 Y171.669 F9000
G1 F2400
G1 X162.834 Y154.333 E18.92446
G1 X162.188 Y154.333 F9000
G1 F2400
G1 X179.524 Y171.669 E19.84747
G1 X178.878 Y171.67 F9000
G1 F2400
G1 X161.541 Y154.333 E20.77051
G1 X160.895 Y154.333 F9000
G1 F2400
G1 X178.232 Y171.67 E21.69357
G1 X177.586 Y171.67 F9000
G1 F2400
G1 X160.249 Y154.333 E22.61665
G1 X159.602 Y154.333 F9000
G1 F2400
G1 X176.94 Y171.671 E23.53975
G1 X176.294 Y171.671 F9000
G1 F2400
G1 X158.956 Y154.333 E24.46288
G1 X158.309 Y154.333 F9000
G1 F2400
G1 X175.648 Y171.672 E25.38603
G1 X175.002 Y171.672 F9000
G1 F2400
G1 X157.663 Y154.333 E26.30921
G1 X157.017 Y154.333 F9000
G1 F2400
G1 X174.357 Y171.673 E27.23241
G1 X173.711 Y171.673 F9000
G1 F2400
G1 X156.833 Y154.795 E28.131
G1 X156.833 Y155.442 F9000
G1 F2400
G1 X173.065 Y171.674 E28.99521
G1 X172.419 Y171.674 F9000
G1 F2400
G1 X156.833 Y156.088 E29.82502
G1 X156.833 Y156.734 F9000
G1 F2400
G1 X171.773 Y171.674 E30.62044
G1 X171.127 Y171.675 F9000
G1 F2400
G1 X156.833 Y157.381 E31.38147
G1 X156.833 Y158.027 F9000
G1 F2400
G1 X170.481 Y171.675 E32.1081
G1 X169.835 Y171.676 F9000
G1 F2400
G1 X156.833 Y158.674 E32.80035
G1 X156.833 Y159.32 F9000
G1 F2400
G1 X169.189 Y171.676 E33.4582
G1 X168.543 Y171.677 F9000
G1 F2400
G1 X156.833 Y159.967 E34.08166
M73 P5 R19
G1 X156.833 Y160.613 F9000
G1 F2400
G1 X167.897 Y171.677 E34.67072
G1 X167.251 Y171.678 F9000
G1 F2400
G1 X156.833 Y161.259 E35.2254
G1 X156.833 Y161.906 F9000
G1 F2400
G1 X166.605 Y171.678 E35.74569
G1 X165.959 Y171.678 F9000
G1 F2400
G1 X156.833 Y162.552 E36.23158
G1 X156.833 Y163.199 F9000
G1 F2400
G1 X165.313 Y171.679 E36.68308
G1 X164.667 Y171.679 F9000
G1 F2400
G1 X156.833 Y163.845 E37.10019
G1 X156.833 Y164.491 F9000
G1 F2400
G1 X164.021 Y171.68 E37.4829
G1 X163.375 Y171.68 F9000
G1 F2400
G1 X156.833 Y165.138 E37.83123
G1 X156.833 Y165.784 F9000
G1 F2400
G1 X162.729 Y171.681 E38.14516
G1 X162.083 Y171.681 F9000
G1 F2400
G1 X156.833 Y166.431 E38.4247
G1 X156.833 Y167.077 F9000
G1 F2400
G1 X161.437 Y171.682 E38.66985
G1 X160.791 Y171.682 F9000
G1 F2400
G1 X156.833 Y167.723 E38.88061
G1 X156.833 Y168.37 F9000
G1 F2400
G1 X160.145 Y171.682 E39.05697
G1 X159.499 Y171.683 F9000
G1 F2400
G1 X156.833 Y169.016 E39.19895
G1 X156.833 Y169.663 F9000
G1 F2400
G1 X158.853 Y171.683 E39.30653
G1 X158.207 Y171.684 F9000
G1 F2400
G1 X156.833 Y170.309 E39.37972
G1 X156.833 Y170.955 F9000
G1 F2400
G1 X157.561 Y171.684 E39.41852
G92 E0
G1 E-0.8
; stop printing object LogoBase-80p.STL id:0 copy 0
EXCLUDE_OBJECT_END NAME=LogoBase_80p_STL_id_0_copy_0
; printing object LogoBase-80p.STL id:1 copy 0
EXCLUDE_OBJECT_START NAME=LogoBase_80p_STL_id_1_copy_0
G1 X155.85 Y146.649 F9000
G1 E0 F1800
;TYPE:External perimeter
;WIDTH:0.5
G1 X155.85 Y127.331 E0.73421
G1 X185.426 Y127.331 E1.85828
G1 X185.426 Y146.629 E2.59172
G1 X155.85 Y146.649 E3.71579
;WIPE_START
M204 S3000
G1 X156.05 Y146.302 F9000
;WIPE_END
M204 S1000
G1 X156.307 Y146.192
;TYPE:Internal perimeter
G1 F1800
G1 X156.307 Y127.788 E4.41524
G1 X184.969 Y127.788 E5.50457
G1 X184.969 Y146.172 E6.20328
G1 X156.307 Y146.192 E7.2926
G1 X156.764 Y145.734 F9000
G1 F1800
G1 X156.764 Y128.245 E7.9573
M73 P6 R19
G1 X184.512 Y128.245 E9.01188
G1 X184.512 Y145.715 E9.67586
G1 X156.764 Y145.734 E10.73044
G92 E0
G1 E-0.8 F2400
G1 X184.443 Y129.238 F9000
G1 E0 F1800
;TYPE:Solid infill
;WIDTH:0.495275
G1 F2400
G1 X183.519 Y128.314 E0.04919
G1 X182.873 Y128.314 F9000
G1 F2400
G1 X184.443 Y129.884 E0.1328
G1 X184.443 Y130.53 F9000
G1 F2400
G1 X182.226 Y128.314 E0.25083
G1 X181.58 Y128.314 F9000
G1 F2400
G1 X184.443 Y131.177 E0.40327
G1 X184.443 Y131.823 F9000
G1 F2400
G1 X180.934 Y128.314 E0.59012
G1 X180.287 Y128.314 F9000
G1 F2400
G1 X184.443 Y132.47 E0.81139
G1 X184.443 Y133.116 F9000
G1 F2400
G1 X179.641 Y128.314 E1.06708
G1 X178.994 Y128.314 F9000
G1 F2400
G1 X184.443 Y133.762 E1.35718
G1 X184.443 Y134.409 F9000
G1 F2400
G1 X178.348 Y128.314 E1.6817
G1 X177.702 Y128.314 F9000
G1 F2400
G1 X184.443 Y135.055 E2.04063
G1 X184.443 Y135.702 F9000
G1 F2400
G1 X177.055 Y128.314 E2.43398
G1 X176.409 Y128.314 F9000
G1 F2400
G1 X184.443 Y136.348 E2.86174
G1 X184.443 Y136.994 F9000
G1 F2400
G1 X175.762 Y128.314 E3.32392
G1 X175.116 Y128.314 F9000
G1 F2400
G1 X184.443 Y137.641 E3.82051
G1 X184.443 Y138.287 F9000
G1 F2400
G1 X174.47 Y128.314 E4.35152
G1 X173.823 Y128.314 F9000
G1 F2400
G1 X184.443 Y138.934 E4.91695
G1 X184.443 Y139.58 F9000
G1 F2400
G1 X173.177 Y128.314 E5.51679
G1 X172.53 Y128.314 F9000
G1 F2400
G1 X184.443 Y140.226 E6.15104
G1 X184.443 Y140.873 F9000
G1 F2400
G1 X171.884 Y128.314 E6.81971
G1 X171.237 Y128.314 F9000
G1 F2400
G1 X184.443 Y141.519 E7.5228
G1 X184.443 Y142.166 F9000
G1 F2400
G1 X170.591 Y128.314 E8.2603
G1 X169.945 Y128.314 F9000
G1 F2400
G1 X184.443 Y142.812 E9.03222
M73 P6 R19
G1 X184.443 Y143.459 F9000
G1 F2400
G1 X169.298 Y128.314 E9.83855
G1 X168.652 Y128.314 F9000
G1 F2400
G1 X184.443 Y144.105 E10.6793
G1 X184.443 Y144.751 F9000
G1 F2400
G1 X168.005 Y128.314 E11.55446
M73 P7 R19
G1 X167.359 Y128.314 F9000
G1 F2400
G1 X184.443 Y145.398 E12.46404
G1 X184.046 Y145.647 F9000
G1 F2400
G1 X166.713 Y128.314 E13.38689
G1 X166.066 Y128.314 F9000
G1 F2400
G1 X183.4 Y145.647 E14.30976
G1 X182.754 Y145.648 F9000
G1 F2400
G1 X165.42 Y128.314 E15.23265
G1 X164.773 Y128.314 F9000
G1 F2400
G1 X182.108 Y145.648 E16.15557
G1 X181.462 Y145.649 F9000
G1 F2400
G1 X164.127 Y128.314 E17.07851
G1 X163.481 Y128.314 F9000
G1 F2400
G1 X180.816 Y145.649 E18.00147
G1 X180.17 Y145.65 F9000
G1 F2400
G1 X162.834 Y128.314 E18.92446
G1 X162.188 Y128.314 F9000
G1 F2400
G1 X179.524 Y145.65 E19.84747
G1 X178.878 Y145.65 F9000
G1 F2400
G1 X161.541 Y128.314 E20.77051
G1 X160.895 Y128.314 F9000
G1 F2400
G1 X178.232 Y145.651 E21.69357
G1 X177.586 Y145.651 F9000
G1 F2400
G1 X160.249 Y128.314 E22.61665
G1 X159.602 Y128.314 F9000
G1 F2400
G1 X176.94 Y145.652 E23.53975
G1 X176.294 Y145.652 F9000
G1 F2400
G1 X158.956 Y128.314 E24.46288
G1 X158.309 Y128.314 F9000
G1 F2400
G1 X175.648 Y145.653 E25.38603
G1 X175.002 Y145.653 F9000
G1 F2400
G1 X157.663 Y128.314 E26.30921
G1 X157.017 Y128.314 F9000
G1 F2400
G1 X174.357 Y145.654 E27.23241
G1 X173.711 Y145.654 F9000
G1 F2400
G1 X156.833 Y128.776 E28.131
G1 X156.833 Y129.423 F9000
G1 F2400
G1 X173.065 Y145.654 E28.99521
M73 P8 R19
G1 X172.419 Y145.655 F9000
G1 F2400
G1 X156.833 Y130.069 E29.82502
G1 X156.833 Y130.715 F9000
G1 F2400
G1 X171.773 Y145.655 E30.62044
G1 X171.127 Y145.656 F9000
G1 F2400
G1 X156.833 Y131.362 E31.38147
G1 X156.833 Y132.008 F9000
G1 F2400
G1 X170.481 Y145.656 E32.1081
G1 X169.835 Y145.657 F9000
G1 F2400
G1 X156.833 Y132.655 E32.80035
G1 X156.833 Y133.301 F9000
G1 F2400
G1 X169.189 Y145.657 E33.4582
G1 X168.543 Y145.658 F9000
G1 F2400
G1 X156.833 Y133.947 E34.08166
G1 X156.833 Y134.594 F9000
G1 F2400
G1 X167.897 Y145.658 E34.67072
G1 X167.251 Y145.658 F9000
G1 F2400
G1 X156.833 Y135.24 E35.2254
G1 X156.833 Y135.887 F9000
G1 F2400
G1 X166.605 Y145.659 E35.74569
G1 X165.959 Y145.659 F9000
G1 F2400
G1 X156.833 Y136.533 E36.23158
G1 X156.833 Y137.179 F9000
G1 F2400
G1 X165.313 Y145.66 E36.68308
G1 X164.667 Y145.66 F9000
G1 F2400
G1 X156.833 Y137.826 E37.10019
G1 X156.833 Y138.472 F9000
G1 F2400
G1 X164.021 Y145.661 E37.4829
G1 X163.375 Y145.661 F9000
G1 F2400
G1 X156.833 Y139.119 E37.83123
G1 X156.833 Y139.765 F9000
G1 F2400
G1 X162.729 Y145.662 E38.14516
G1 X162.083 Y145.662 F9000
G1 F2400
G1 X156.833 Y140.411 E38.4247
G1 X156.833 Y141.058 F9000
G1 F2400
G1 X161.437 Y145.662 E38.66985
G1 X160.791 Y145.663 F9000
G1 F2400
G1 X156.833 Y141.704 E38.88061
G1 X156.833 Y142.351 F9000
G1 F2400
G1 X160.145 Y145.663 E39.05697
G1 X159.499 Y145.664 F9000
G1 F2400
G1 X156.833 Y142.997 E39.19895
G1 X156.833 Y143.644 F9000
G1 F2400
G1 X158.853 Y145.664 E39.30653
G1 X158.207 Y145.665 F9000
G1 F2400
G1 X156.833 Y144.29 E39.37972
G1 X156.833 Y144.936 F9000
G1 F2400
G1 X157.561 Y145.665 E39.41852
G92 E0
G1 E-0.8
; stop printing object LogoBase-80p.STL id:1 copy 0
EXCLUDE_OBJECT_END NAME=LogoBase_80p_STL_id_1_copy_0
; printing object LogoBase-80p.STL id:3 copy 0
EXCLUDE_OBJECT_START NAME=LogoBase_80p_STL_id_3_copy_0
G1 X119.574 Y146.649 F9000
G1 E0 F1800
;TYPE:External perimeter
;WIDTH:0.5
G1 X119.574 Y127.331 E0.73421
G1 X149.15 Y127.331 E1.85828
G1 X149.15 Y146.629 E2.59172
G1 X119.574 Y146.649 E3.71579
;WIPE_START
M204 S3000
M73 P9 R18
G1 X119.774 Y146.302 F9000
;WIPE_END
M204 S1000
G1 X120.031 Y146.192
;TYPE:Internal perimeter
G1 F1800
