; generated by SuperSlicer 2.5.59 on 2023-07-20 at 15:22:32 UTC


;
;

;
;
; 

; external perimeters extrusion width = 0.40mm
; perimeters extrusion width = 0.46mm
; infill extrusion width = 0.64mm
; solid infill extrusion width = 0.56mm
; top infill extrusion width = 0.40mm
; support material extrusion width = 0.46mm
; first layer extrusion width = 0.50mm

; object:{"name":"LongboardHangerV1","id":"LongboardHangerV1.stl id:0 copy 0","object_center":[152.500000,150.000100,0.000000],"boundingbox_center":[152.500000,150.000100,22.000000],"boundingbox_size":[140.000000,162.999573,44.000000]}
EXCLUDE_OBJECT_DEFINE NAME=LongboardHangerV1_stl_id_0_copy_0 CENTER=152.500000,150.000100 POLYGON=[[82.500000,186.999888],[82.543264,185.457952],[82.672912,183.920864],[82.888552,182.393456],[83.189480,180.880576],[83.574776,179.386912],[84.043208,177.917216],[84.593312,176.476112],[85.223360,175.068080],[129.233704,82.894744],[129.945800,81.565128],[130.733808,80.279040],[131.595064,79.040800],[132.526672,77.854600],[133.525480,76.724408],[134.588160,75.654040],[135.711120,74.647096],[136.890576,73.706952],[138.122576,72.836800],[139.402960,72.039544],[140.727408,71.317880],[142.091472,70.674224],[143.490576,70.110760],[144.919984,69.629368],[146.374912,69.231664],[147.850464,68.919008],[149.341648,68.692440],[150.843456,68.552720],[152.350864,68.500320],[153.858752,68.535424],[155.362080,68.657896],[156.855760,68.867344],[158.334800,69.163056],[159.794192,69.544040],[161.229040,70.008992],[162.634512,70.556384],[164.005856,71.184344],[165.338512,71.890760],[166.627952,72.673280],[167.869840,73.529240],[169.060016,74.455784],[170.194448,75.449784],[171.269328,76.507888],[172.281056,77.626552],[173.226208,78.801984],[174.101616,80.030256],[174.904320,81.307224],[175.631616,82.628584],[219.776640,175.068080],[220.406672,176.476112],[220.956784,177.917216],[221.425232,179.386912],[221.810512,180.880576],[222.111456,182.393456],[222.327088,183.920864],[222.456720,185.457952],[222.500000,186.999888],[222.500000,231.499888],[82.500000,231.499888],[82.500000,186.999888]]
; plater:{"center":[152.500000,150.000100,0.000000],"boundingbox_center":[152.500000,150.000100,22.000000],"boundingbox_size":[140.000000,162.999573,44.000000]}

M73 P0 R105
;TYPE:Custom
START_PRINT T_BED=60 T_EXTRUDER=210
M107
G21 ; set units to millimeters
G90 ; use absolute coordinates
M82 ; use absolute distances for extrusion
G92 E0
; Filament gcode

    PRESSURE_ADVANCE_SELECT FILAMENT=PLA
;_TOOLCHANGE 0
M109 S210 ; set temperature and wait for it to be reached
M190 S60 ; set bed temperature and wait for it to be reached
M107
;LAYER_CHANGE
;Z:0.2
;HEIGHT:0.2
G1 Z0.2 F9000
M73 P0 R105
G1 E-0.8 F2400
M204 S1000
G1 X127.649 Y78.393 F9000
G1 E0 F1800
;TYPE:Skirt
;WIDTH:0.52
G1 X125.97 Y81.338 E0.13451
G1 X81.96 Y173.511 E4.18633
G1 X80.597 Y176.822 E4.32838
G1 X79.689 Y179.975 E4.45854
G1 X79.343 Y181.685 E4.52778
G1 X74.791 Y215.089 E5.86512
G1 X74.757 Y224.027 E6.2197
G1 X75.494 Y226.248 E6.31253
G1 X76.806 Y227.348 E6.38046
G1 X78.473 Y227.743 E6.44839
G1 X226.527 Y227.743 E12.3216
G1 X228.748 Y227.006 E12.41443
G1 X229.848 Y225.694 E12.48236
G1 X230.243 Y224.027 E12.55029
G1 X230.209 Y215.089 E12.90488
G1 X225.692 Y181.891 E14.23396
G1 X225.311 Y179.975 E14.31145
G1 X224.334 Y176.625 E14.44987
G1 X223.039 Y173.51 E14.58367
G1 X178.896 Y81.073 E18.64728
G1 X177.964 Y79.381 E18.72392
G1 X177.044 Y77.929 E18.79207
G1 X175.101 Y75.363 E18.91978
G1 X173.953 Y74.085 E18.98793
G1 X172.733 Y72.875 E19.05608
G1 X171.279 Y71.601 E19.13278
G1 X168.501 Y69.581 E19.26902
G1 X165.509 Y67.896 E19.40527
G1 X162.544 Y66.641 E19.53297
G1 X160.912 Y66.105 E19.60112
G1 X159.041 Y65.617 E19.67782
G1 X157.355 Y65.286 E19.74597
G1 X155.653 Y65.054 E19.81412
G1 X152.812 Y64.894 E19.92699
G1 X150.721 Y64.939 E20.00997
G1 X149.01 Y65.092 E20.07812
G1 X145.628 Y65.694 E20.21436
G1 X142.339 Y66.683 E20.35061
G1 X140.743 Y67.319 E20.41876
G1 X138.995 Y68.144 E20.49545
G1 X137.489 Y68.972 E20.5636
G1 X134.807 Y70.752 E20.69131
G1 X132.177 Y72.96 E20.82756
G1 X130.962 Y74.175 E20.89571
G1 X129.681 Y75.624 E20.9724
G1 X127.649 Y78.393 E21.10865
G1 X128.056 Y78.642 F9000
G1 F1800
G1 X126.401 Y81.544 E21.24119
G1 X82.391 Y173.716 E25.29301
G1 X81.052 Y176.967 E25.43247
G1 X80.151 Y180.094 E25.56157
G1 X79.811 Y181.778 E25.62974
G1 X75.264 Y215.153 E26.96592
G1 X75.234 Y224.027 E27.31796
G1 X75.754 Y225.786 E27.39071
G1 X76.925 Y226.872 E27.45407
G1 X78.473 Y227.266 E27.51743
G1 X226.527 Y227.266 E33.39064
G1 X228.286 Y226.746 E33.4634
G1 X229.372 Y225.575 E33.52676
G1 X229.766 Y224.027 E33.59011
G1 X229.736 Y215.153 E33.94215
G1 X225.22 Y181.958 E35.27113
G1 X224.849 Y180.094 E35.3465
G1 X223.888 Y176.795 E35.48279
G1 X222.609 Y173.716 E35.61507
G1 X178.465 Y81.279 E39.67868
G1 X177.56 Y79.634 E39.75313
G1 X176.656 Y78.206 E39.82018
G1 X174.729 Y75.662 E39.94679
G1 X173.599 Y74.405 E40.01385
G1 X172.398 Y73.215 E40.0809
G1 X170.986 Y71.977 E40.1554
G1 X168.254 Y69.989 E40.28945
G1 X165.31 Y68.33 E40.4235
G1 X162.371 Y67.085 E40.55011
G1 X160.764 Y66.559 E40.61716
G1 X158.947 Y66.085 E40.69166
G1 X157.289 Y65.759 E40.75872
G1 X155.614 Y65.529 E40.82577
G1 X152.801 Y65.371 E40.93754
G1 X150.737 Y65.416 E41.01942
G1 X149.054 Y65.567 E41.08647
G1 X145.727 Y66.161 E41.22053
G1 X143.916 Y66.656 E41.29503
G1 X142.315 Y67.201 E41.36208
G1 X139.223 Y68.563 E41.49613
G1 X137.742 Y69.377 E41.56318
G1 X135.082 Y71.142 E41.68979
G1 X132.495 Y73.315 E41.82384
G1 X130.177 Y75.774 E41.95789
G1 X129.129 Y77.1 E42.02494
G1 X128.056 Y78.642 E42.09945
G92 E0
G1 E-0.8 F2400
; printing object LongboardHangerV1.stl id:0 copy 0
EXCLUDE_OBJECT_START NAME=LongboardHangerV1_stl_id_0_copy_0
G1 X210.256 Y211.152 F9000
G1 E0 F1800
;TYPE:Support material interface
;WIDTH:0.5
G1 X211.738 Y211.152 E0.05633
G1 X211.738 Y213.333 E0.1392
G1 X212.223 Y213.818 E0.16529
G1 X222.777 Y213.818 E0.56637
G1 X223.262 Y213.333 E0.59246
G1 X223.262 Y211.152 E0.67534
G1 X223.777 Y211.152 E0.69492
G1 X223.777 Y217.882 E0.9507
G1 X210.256 Y217.882 E1.46458
G1 X210.256 Y211.152 E1.72036
G1 X210.37 Y211.96 F9000
G1 F1800
G1 X211.427 Y211.96 E1.76053
G1 X211.427 Y212.468 E1.77983
G1 X210.567 Y212.468 E1.81253
G1 X210.567 Y212.975 E1.83184
G1 X211.427 Y212.975 E1.86454
G1 X211.427 Y213.461 E1.883
G1 X211.449 Y213.483 E1.88418
G1 X210.567 Y213.483 E1.91772
G1 X210.567 Y213.991 E1.93703
G1 X223.466 Y213.991 E2.42729
G1 X223.466 Y214.499 E2.44659
G1 X210.567 Y214.499 E2.93685
G1 X210.567 Y215.007 E2.95615
G1 X223.466 Y215.007 E3.44641
G1 X223.466 Y215.515 E3.46571
G1 X210.567 Y215.515 E3.95597
G1 X210.567 Y216.023 E3.97527
G1 X223.466 Y216.023 E4.46553
G1 X223.466 Y216.531 E4.48484
M73 P1 R104
G1 X210.567 Y216.531 E4.97509
G1 X210.567 Y217.038 E4.9944
G1 X223.466 Y217.038 E5.48466
M73 P1 R104
G1 X223.466 Y217.546 E5.50396
G1 X210.37 Y217.546 E6.00169
G92 E0
G1 E-0.8 F2400
G1 X94.744 Y217.546 F9000
G1 E0 F1800
G1 X94.744 Y217.882 E0.01275
G1 X81.223 Y217.882 E0.52664
G1 X81.223 Y211.152 E0.78241
G1 X81.738 Y211.152 E0.802
G1 X81.738 Y213.333 E0.88488
G1 X82.223 Y213.818 E0.91097
G1 X92.777 Y213.818 E1.31205
G1 X93.262 Y213.333 E1.33814
G1 X93.262 Y211.152 E1.42101
G1 X94.744 Y211.152 E1.47734
G1 X94.744 Y217.546 E1.72036
G92 E0
G1 E-0.8 F2400
G1 X94.629 Y211.96 F9000
G1 E0 F1800
G1 X93.573 Y211.96 E0.04017
G1 X93.573 Y212.468 E0.05947
G1 X94.433 Y212.468 E0.09216
G1 X94.433 Y212.975 E0.11147
G1 X93.573 Y212.975 E0.14416
G1 X93.573 Y213.461 E0.16263
G1 X93.551 Y213.483 E0.16381
G1 X94.433 Y213.483 E0.19734
G1 X94.433 Y213.991 E0.21665
G1 X81.534 Y213.991 E0.70691
G1 X81.534 Y214.499 E0.72621
G1 X94.433 Y214.499 E1.21647
G1 X94.433 Y215.007 E1.23577
G1 X81.534 Y215.007 E1.72603
G1 X81.534 Y215.515 E1.74533
G1 X94.433 Y215.515 E2.23559
G1 X94.433 Y216.023 E2.25489
G1 X81.534 Y216.023 E2.74515
G1 X81.534 Y216.531 E2.76446
G1 X94.433 Y216.531 E3.25472
G1 X94.433 Y217.038 E3.27402
G1 X81.534 Y217.038 E3.76428
G1 X81.534 Y217.546 E3.78358
G1 X94.629 Y217.546 E4.28131
G92 E0
G1 E-0.8 F2400
G1 X207.506 Y217.546 F9000
G1 E0 F1800
;TYPE:Support material
G1 X207.506 Y215.589 E0.07439
G1 X209.549 Y215.589 E0.15203
G1 X209.549 Y218.589 E0.26605
G1 X224.484 Y218.589 E0.83368
G1 X224.484 Y215.589 E0.9477
G1 X226.527 Y215.589 E1.02534
G1 X226.527 Y224.027 E1.34605
G1 X207.506 Y224.027 E2.06896
G1 X207.506 Y217.546 E2.31528
G1 X226.141 Y223.913 F9000
G1 F1800
G1 X226.141 Y215.9 E2.61983
G1 X225.633 Y215.9 E2.63913
G1 X225.633 Y223.716 E2.93622
G1 X225.125 Y223.716 E2.95552
G1 X225.125 Y215.9 E3.2526
G1 X224.795 Y215.9 E3.26513
G1 X224.795 Y218.9 E3.37915
G1 X224.617 Y218.9 E3.38593
G1 X224.617 Y223.716 E3.56899
G1 X224.109 Y223.716 E3.58829
G1 X224.109 Y218.9 E3.77136
G1 X223.601 Y218.9 E3.79066
G1 X223.601 Y223.716 E3.97372
G1 X223.093 Y223.716 E3.99303
G1 X223.093 Y218.9 E4.17609
G1 X222.586 Y218.9 E4.19539
G1 X222.586 Y223.716 E4.37846
G1 X222.078 Y223.716 E4.39776
G1 X222.078 Y218.9 E4.58082
G1 X221.57 Y218.9 E4.60013
G1 X221.57 Y223.716 E4.78319
G1 X221.062 Y223.716 E4.80249
G1 X221.062 Y218.9 E4.98556
G1 X220.554 Y218.9 E5.00486
G1 X220.554 Y223.716 E5.18793
G1 X220.046 Y223.716 E5.20723
G1 X220.046 Y218.9 E5.39029
G1 X219.538 Y218.9 E5.40959
G1 X219.538 Y223.716 E5.59266
G1 X219.03 Y223.716 E5.61196
G1 X219.03 Y218.9 E5.79503
G1 X218.523 Y218.9 E5.81433
G1 X218.523 Y223.716 E5.99739
G1 X218.015 Y223.716 E6.0167
G1 X218.015 Y218.9 E6.19976
G1 X217.507 Y218.9 E6.21906
G1 X217.507 Y223.716 E6.40213
G1 X216.999 Y223.716 E6.42143
G1 X216.999 Y218.9 E6.60449
G1 X216.491 Y218.9 E6.6238
G1 X216.491 Y223.716 E6.80686
G1 X215.983 Y223.716 E6.82616
G1 X215.983 Y218.9 E7.00923
G1 X215.475 Y218.9 E7.02853
G1 X215.475 Y223.716 E7.21159
G1 X214.968 Y223.716 E7.2309
G1 X214.968 Y218.9 E7.41396
G1 X214.46 Y218.9 E7.43326
G1 X214.46 Y223.716 E7.61633
G1 X213.952 Y223.716 E7.63563
G1 X213.952 Y218.9 E7.8187
G1 X213.444 Y218.9 E7.838
G1 X213.444 Y223.716 E8.02106
G1 X212.936 Y223.716 E8.04036
G1 X212.936 Y218.9 E8.22343
G1 X212.428 Y218.9 E8.24273
G1 X212.428 Y223.716 E8.4258
G1 X211.92 Y223.716 E8.4451
G1 X211.92 Y218.9 E8.62816
G1 X211.412 Y218.9 E8.64747
G1 X211.412 Y223.716 E8.83053
G1 X210.905 Y223.716 E8.84983
G1 X210.905 Y218.9 E9.0329
G1 X210.397 Y218.9 E9.0522
G1 X210.397 Y223.716 E9.23526
G1 X209.889 Y223.716 E9.25457
G1 X209.889 Y218.9 E9.43763
G1 X209.381 Y218.9 E9.45693
G1 X209.381 Y223.716 E9.64
G1 X208.873 Y223.716 E9.6593
G1 X208.873 Y215.9 E9.95638
G1 X208.365 Y215.9 E9.97569
G1 X208.365 Y223.716 E10.27277
G1 X207.857 Y223.716 E10.29207
G1 X207.857 Y215.703 E10.59663
G92 E0
G1 E-0.8 F2400
G1 X97.494 Y215.703 F9000
G1 E0 F1800
G1 X97.494 Y224.027 E0.31637
G1 X78.473 Y224.027 E1.03928
G1 X78.473 Y215.589 E1.35999
G1 X80.516 Y215.589 E1.43762
G1 X80.516 Y218.589 E1.55164
G1 X95.451 Y218.589 E2.11928
G1 X95.451 Y215.589 E2.2333
G1 X97.494 Y215.589 E2.31094
G1 X97.494 Y215.703 E2.31528
G1 X97.143 Y223.913 F9000
G1 F1800
G1 X97.143 Y215.9 E2.61983
G1 X96.635 Y215.9 E2.63913
G1 X96.635 Y223.716 E2.93622
G1 X96.127 Y223.716 E2.95552
G1 X96.127 Y215.9 E3.2526
G1 X95.762 Y215.9 E3.26648
G1 X95.762 Y218.9 E3.3805
G1 X95.619 Y218.9 E3.38593
G1 X95.619 Y223.716 E3.56899
G1 X95.111 Y223.716 E3.58829
G1 X95.111 Y218.9 E3.77136
G1 X94.603 Y218.9 E3.79066
G1 X94.603 Y223.716 E3.97372
G1 X94.095 Y223.716 E3.99303
G1 X94.095 Y218.9 E4.17609
G1 X93.588 Y218.9 E4.19539
G1 X93.588 Y223.716 E4.37846
G1 X93.08 Y223.716 E4.39776
G1 X93.08 Y218.9 E4.58082
G1 X92.572 Y218.9 E4.60013
G1 X92.572 Y223.716 E4.78319
G1 X92.064 Y223.716 E4.80249
G1 X92.064 Y218.9 E4.98556
G1 X91.556 Y218.9 E5.00486
G1 X91.556 Y223.716 E5.18793
G1 X91.048 Y223.716 E5.20723
G1 X91.048 Y218.9 E5.39029
G1 X90.54 Y218.9 E5.40959
G1 X90.54 Y223.716 E5.59266
G1 X90.032 Y223.716 E5.61196
G1 X90.032 Y218.9 E5.79503
G1 X89.525 Y218.9 E5.81433
G1 X89.525 Y223.716 E5.99739
G1 X89.017 Y223.716 E6.0167
G1 X89.017 Y218.9 E6.19976
G1 X88.509 Y218.9 E6.21906
G1 X88.509 Y223.716 E6.40213
G1 X88.001 Y223.716 E6.42143
G1 X88.001 Y218.9 E6.60449
G1 X87.493 Y218.9 E6.6238
G1 X87.493 Y223.716 E6.80686
G1 X86.985 Y223.716 E6.82616
G1 X86.985 Y218.9 E7.00923
G1 X86.477 Y218.9 E7.02853
G1 X86.477 Y223.716 E7.21159
G1 X85.97 Y223.716 E7.2309
G1 X85.97 Y218.9 E7.41396
G1 X85.462 Y218.9 E7.43326
G1 X85.462 Y223.716 E7.61633
G1 X84.954 Y223.716 E7.63563
G1 X84.954 Y218.9 E7.8187
G1 X84.446 Y218.9 E7.838
G1 X84.446 Y223.716 E8.02106
G1 X83.938 Y223.716 E8.04036
G1 X83.938 Y218.9 E8.22343
G1 X83.43 Y218.9 E8.24273
G1 X83.43 Y223.716 E8.4258
G1 X82.922 Y223.716 E8.4451
G1 X82.922 Y218.9 E8.62816
G1 X82.414 Y218.9 E8.64747
G1 X82.414 Y223.716 E8.83053
G1 X81.907 Y223.716 E8.84983
G1 X81.907 Y218.9 E9.0329
G1 X81.399 Y218.9 E9.0522
G1 X81.399 Y223.716 E9.23526
G1 X80.891 Y223.716 E9.25457
G1 X80.891 Y218.9 E9.43763
G1 X80.383 Y218.9 E9.45693
G1 X80.383 Y223.716 E9.64
G1 X79.875 Y223.716 E9.6593
G1 X79.875 Y215.9 E9.95638
G1 X79.367 Y215.9 E9.97569
G1 X79.367 Y223.716 E10.27277
G1 X78.859 Y223.716 E10.29207
G1 X78.859 Y215.703 E10.59663
G92 E0
G1 E-0.8 F2400
G1 X92.15 Y211.13 F9000
G1 E0 F1800
;TYPE:External perimeter
G1 X82.85 Y211.13 E0.35346
G1 X82.85 Y187.005 E1.27036
G1 X82.893 Y185.478 E1.32843
G1 X83.021 Y183.96 E1.38631
G1 X83.234 Y182.452 E1.44419
G1 X83.531 Y180.958 E1.50207
G1 X83.911 Y179.484 E1.55995
G1 X84.374 Y178.033 E1.61783
G1 X84.917 Y176.61 E1.67571
G1 X85.539 Y175.22 E1.73359
G1 X86.238 Y173.867 E1.79147
G1 X87.012 Y172.555 E1.84935
G1 X87.858 Y171.289 E1.90723
G1 X88.773 Y170.072 E1.96511
G1 X89.756 Y168.909 E2.02299
G1 X90.802 Y167.802 E2.08087
G1 X91.909 Y166.756 E2.13875
G1 X93.072 Y165.773 E2.19663
G1 X93.989 Y165.083 E2.24023
G1 X94.289 Y164.858 E2.25451
G1 X95.555 Y164.011 E2.31239
G1 X96.867 Y163.238 E2.37027
G1 X98.22 Y162.539 E2.42815
G1 X99.61 Y161.917 E2.48603
G1 X101.033 Y161.374 E2.54391
G1 X102.484 Y160.911 E2.60179
G1 X103.959 Y160.531 E2.65967
G1 X105.452 Y160.234 E2.71755
G1 X106.96 Y160.021 E2.77543
G1 X108.478 Y159.893 E2.83331
G1 X110.035 Y159.849 E2.89251
G1 X112.121 Y159.492 E2.97297
G1 X114.174 Y159.053 E3.05276
G1 X116.207 Y158.529 E3.13255
G1 X118.217 Y157.922 E3.21234
G1 X120.2 Y157.233 E3.29213
G1 X122.153 Y156.463 E3.37192
G1 X124.073 Y155.613 E3.45172
G1 X125.956 Y154.684 E3.53151
G1 X127.799 Y153.679 E3.6113
G1 X129.599 Y152.598 E3.69109
G1 X131.352 Y151.444 E3.77088
G1 X133.057 Y150.219 E3.85067
G1 X134.71 Y148.924 E3.93046
G1 X135.668 Y148.108 E3.97828
G1 X136.308 Y147.563 E4.01025
G1 X137.849 Y146.136 E4.09005
G1 X139.329 Y144.648 E4.16984
G1 X140.747 Y143.1 E4.24963
G1 X142.1 Y141.494 E4.32942
G1 X142.359 Y141.159 E4.34554
G1 X143.385 Y139.834 E4.40921
G1 X144.601 Y138.123 E4.489
G1 X145.745 Y136.363 E4.56879
G1 X146.816 Y134.557 E4.64858
G1 X147.85 Y132.637 E4.73146
G1 X147.85 Y124.54 E5.03919
G1 X147.812 Y123.847 E5.06557
G1 X147.695 Y123.153 E5.09232
G1 X147.502 Y122.476 E5.11908
G1 X147.236 Y121.824 E5.14583
G1 X146.899 Y121.206 E5.17258
G1 X146.496 Y120.629 E5.19934
G1 X146.031 Y120.1 E5.22609
G1 X145.771 Y119.863 E5.23946
G1 X145.511 Y119.626 E5.25284
G1 X144.941 Y119.213 E5.27959
G1 X144.327 Y118.863 E5.30647
G1 X142.302 Y118.035 E5.38959
G1 X140.953 Y117.404 E5.4462
G1 X139.645 Y116.696 E5.50275
G1 X138.379 Y115.913 E5.55931
G1 X137.161 Y115.058 E5.61586
G1 X135.995 Y114.134 E5.67241
G1 X134.884 Y113.144 E5.72897
G1 X134.092 Y112.351 E5.77157
G1 X133.833 Y112.091 E5.78552
G1 X132.844 Y110.979 E5.84207
G1 X131.922 Y109.812 E5.89862
G1 X131.068 Y108.592 E5.95518
G1 X130.287 Y107.326 E6.01173
G1 X129.581 Y106.016 E6.06828
G1 X128.952 Y104.668 E6.12484
G1 X128.402 Y103.285 E6.18139
G1 X127.933 Y101.873 E6.23794
G1 X127.547 Y100.436 E6.2945
G1 X127.244 Y98.979 E6.35105
G1 X127.027 Y97.507 E6.4076
G1 X126.896 Y96.025 E6.46415
G1 X126.85 Y94.538 E6.52071
G1 X126.891 Y93.05 E6.57726
G1 X127.018 Y91.568 E6.63381
G1 X127.231 Y90.095 E6.69037
G1 X127.529 Y88.637 E6.74692
G1 X127.911 Y87.199 E6.80347
G1 X128.376 Y85.785 E6.86003
G1 X128.922 Y84.401 E6.91658
G1 X129.547 Y83.051 E6.97313
G1 X130.25 Y81.739 E7.02969
G1 X131.027 Y80.471 E7.08624
G1 X131.877 Y79.249 E7.14279
