; generated by SuperSlicer 2.5.59 on 2023-05-07 at 23:29:53 UTC


;
;

;
;
; 

; external perimeters extrusion width = 0.40mm
; perimeters extrusion width = 0.46mm
; infill extrusion width = 0.64mm
; solid infill extrusion width = 0.56mm
; top infill extrusion width = 0.40mm
; support material extrusion width = 0.46mm
; first layer extrusion width = 0.50mm

; object:{"name":"lsi-fan-bracket-4020","id":"lsi-fan-bracket-4020.stl id:0 copy 0","object_center":[153.565587,150.539802,0.000000],"boundingbox_center":[153.565587,150.539802,25.248797],"boundingbox_size":[76.089675,63.631820,50.497593]}
EXCLUDE_OBJECT_DEFINE NAME=lsi_fan_bracket_4020_stl_id_0_copy_0 CENTER=153.565587,150.539802 POLYGON=[[115.520752,175.859200],[131.966936,126.493528],[147.813280,119.152360],[167.808704,118.723896],[183.955008,125.379504],[191.471136,172.729344],[191.610432,179.229856],[121.658584,182.227168],[115.659960,182.355712],[115.520752,175.859200]]
; plater:{"center":[153.565587,150.539802,0.000000],"boundingbox_center":[153.565587,150.539802,25.248797],"boundingbox_size":[76.089675,63.631820,50.497593]}

M73 P0 R102
;TYPE:Custom
START_PRINT T_BED=70 T_EXTRUDER=235
M107
G21 ; set units to millimeters
G90 ; use absolute coordinates
M82 ; use absolute distances for extrusion
G92 E0
; Filament gcode
PRESSURE_ADVANCE_SELECT FILAMENT=PETG
;_TOOLCHANGE 0
M109 S235 ; set temperature and wait for it to be reached
M190 S70 ; set bed temperature and wait for it to be reached
M107
;LAYER_CHANGE
;Z:0.2
;HEIGHT:0.2
G1 Z0.2 F9000
G1 E-1 F3000
M204 S1000
G1 X124.453 Y118.025 F9000
G1 E0 F1800
;TYPE:Skirt
;WIDTH:0.52
G1 X123.552 Y119.481 E0.06589
G1 X106.574 Y170.415 E2.13182
G1 X106.383 Y171.59 E2.17763
G1 X106.383 Y187.215 E2.77887
G1 X107.12 Y189.436 E2.86891
G1 X108.433 Y190.536 E2.93481
G1 X110.099 Y190.931 E3.0007
G1 X129.305 Y190.926 E3.73975
G1 X197.218 Y187.53 E6.35623
G1 X199.253 Y186.798 E6.43946
G1 X200.353 Y185.486 E6.50536
G1 X200.748 Y183.819 E6.57125
G1 X200.697 Y167.583 E7.196
G1 X193.906 Y126.836 E8.78556
G1 X193.564 Y125.785 E8.82808
G1 X190.169 Y118.994 E9.12025
G1 X188.512 Y117.335 E9.21048
G1 X186.845 Y116.94 E9.27637
G1 X127.077 Y116.94 E11.57621
G1 X125.912 Y117.127 E11.62161
G1 X124.453 Y118.025 E11.68751
G1 X124.866 Y118.29 F9000
G1 F1800
G1 X124.005 Y119.632 E11.74887
G1 X107.027 Y170.566 E13.81479
G1 X106.86 Y171.59 E13.85472
G1 X106.86 Y187.215 E14.45596
G1 X107.38 Y188.974 E14.52654
G1 X108.551 Y190.06 E14.58799
G1 X110.099 Y190.454 E14.64945
G1 X129.282 Y190.45 E15.38758
G1 X197.194 Y187.054 E18.00406
G1 X198.791 Y186.539 E18.06864
G1 X199.877 Y185.367 E18.1301
G1 X200.271 Y183.819 E18.19155
G1 X200.227 Y167.662 E18.81329
G1 X193.435 Y126.914 E20.40285
G1 X193.138 Y125.999 E20.43991
G1 X189.742 Y119.207 E20.73207
G1 X188.393 Y117.811 E20.80678
G1 X186.845 Y117.417 E20.86823
G1 X127.077 Y117.417 E23.16807
G1 X126.268 Y117.52 E23.19944
G1 X124.866 Y118.29 E23.26099
G92 E0
G1 E-1 F3000
; printing object lsi-fan-bracket-4020.stl id:0 copy 0
EXCLUDE_OBJECT_START NAME=lsi_fan_bracket_4020_stl_id_0_copy_0
G1 X127.077 Y120.656 F9000
G1 E0 F1800
;TYPE:Support material
;WIDTH:0.5
G1 X186.845 Y120.656 E2.20342
G1 X186.845 Y127.447 E2.45379
G1 X190.241 Y127.447 E2.57897
G1 X190.241 Y164.799 E3.95599
G1 X193.636 Y164.799 E4.08117
G1 X193.636 Y168.194 E4.20635
G1 X197.032 Y168.194 E4.33154
G1 X197.032 Y183.819 E4.90758
G1 X181.407 Y183.819 E5.48362
G1 X181.407 Y180.424 E5.6088
G1 X173.263 Y180.424 E5.90904
G1 X173.263 Y183.819 E6.03423
G1 X129.12 Y183.819 E7.66161
G1 X129.12 Y187.215 E7.78679
G1 X110.099 Y187.215 E8.48802
G1 X110.099 Y171.59 E9.06406
G1 X113.495 Y171.59 E9.18924
G1 X113.495 Y168.194 E9.31442
G1 X116.89 Y168.194 E9.43961
G1 X116.89 Y164.799 E9.56479
G1 X120.286 Y164.799 E9.68997
G1 X120.286 Y161.403 E9.81516
G1 X123.681 Y161.403 E9.94034
G1 X123.681 Y158.007 E10.06552
G1 X127.077 Y158.007 E10.19071
G1 X127.077 Y120.656 E11.56772
G1 X132.62 Y126.501 F9000
G1 F1800
G1 X132.002 Y127.146 E11.60066
G1 X133.088 Y177.83 E13.46961
G1 X133.734 Y178.448 E13.50255
M73 P1 R101
G1 X184.416 Y177.362 E15.37142
G1 X185.034 Y176.717 E15.40436
G1 X183.948 Y126.033 E17.27331
G1 X183.302 Y125.415 E17.30625
G1 X182.456 Y125.433 E17.33746
G1 X132.62 Y126.501 E19.17512
G92 E0
M73 P1 R101
G1 E-1 F3000
G1 X196.226 Y183.705 F9000
G1 E0 F1800
G1 X196.226 Y168.505 E0.56037
G1 X195.718 Y168.505 E0.57909
G1 X195.718 Y183.509 E1.13222
G1 X195.211 Y183.509 E1.15094
G1 X195.211 Y168.505 E1.70406
G1 X194.703 Y168.505 E1.72279
G1 X194.703 Y183.509 E2.27591
G1 X194.195 Y183.509 E2.29463
G1 X194.195 Y168.505 E2.84776
G1 X193.687 Y168.505 E2.86648
G1 X193.687 Y183.509 E3.4196
G1 X193.179 Y183.509 E3.43832
G1 X193.179 Y165.109 E4.11663
G1 X192.671 Y165.109 E4.13535
G1 X192.671 Y183.509 E4.81366
G1 X192.163 Y183.509 E4.83238
G1 X192.163 Y165.109 E5.51069
G1 X191.656 Y165.109 E5.52941
G1 X191.656 Y183.509 E6.20772
G1 X191.148 Y183.509 E6.22644
G1 X191.148 Y165.109 E6.90475
G1 X190.64 Y165.109 E6.92347
G1 X190.64 Y183.509 E7.60178
G1 X190.132 Y183.509 E7.6205
G1 X190.132 Y165.109 E8.29881
G1 X189.93 Y165.109 E8.30625
G1 X189.93 Y127.758 E9.68327
G1 X189.624 Y127.758 E9.69455
G1 X189.624 Y183.509 E11.74987
G1 X189.116 Y183.509 E11.76859
G1 X189.116 Y127.758 E13.82392
G1 X188.608 Y127.758 E13.84264
G1 X188.608 Y183.509 E15.89796
G1 X188.1 Y183.509 E15.91668
G1 X188.1 Y127.758 E17.97201
G1 X187.593 Y127.758 E17.99073
G1 X187.593 Y183.509 E20.04605
G1 X187.085 Y183.509 E20.06478
G1 X187.085 Y127.758 E22.1201
G1 X186.577 Y127.758 E22.13882
G1 X186.577 Y183.509 E24.19414
G1 X186.069 Y183.509 E24.21287
G1 X186.069 Y120.966 E26.51855
G1 X185.561 Y120.966 E26.53728
G1 X185.561 Y183.509 E28.84297
G1 X185.053 Y183.509 E28.86169
G1 X185.053 Y177.146 E29.09627
G1 X184.545 Y177.67 E29.12318
G1 X184.545 Y183.509 E29.33843
G1 X184.038 Y183.509 E29.35715
G1 X184.038 Y177.681 E29.57199
G1 X183.53 Y177.692 E29.59072
G1 X183.53 Y183.509 E29.80516
G1 X183.022 Y183.509 E29.82388
G1 X183.022 Y177.703 E30.03792
G1 X182.514 Y177.714 E30.05664
G1 X182.514 Y183.509 E30.27028
G1 X182.006 Y183.509 E30.289
G1 X182.006 Y177.725 E30.50224
G1 X181.498 Y177.736 E30.52097
G1 X181.498 Y180.113 E30.60862
G1 X180.99 Y180.113 E30.62734
G1 X180.99 Y177.746 E30.71459
G1 X180.482 Y177.757 E30.73332
G1 X180.482 Y180.113 E30.82017
G1 X179.975 Y180.113 E30.83889
G1 X179.975 Y177.768 E30.92534
G1 X179.467 Y177.779 E30.94406
G1 X179.467 Y180.113 E31.03011
G1 X178.959 Y180.113 E31.04883
G1 X178.959 Y177.79 E31.13448
G1 X178.451 Y177.801 E31.15321
G1 X178.451 Y180.113 E31.23845
G1 X177.943 Y180.113 E31.25717
G1 X177.943 Y177.812 E31.34202
G1 X177.435 Y177.823 E31.36074
G1 X177.435 Y180.113 E31.44518
G1 X176.927 Y180.113 E31.46391
G1 X176.927 Y177.833 E31.54795
G1 X176.42 Y177.844 E31.56668
G1 X176.42 Y180.113 E31.65031
G1 X175.912 Y180.113 E31.66904
G1 X175.912 Y177.855 E31.75228
G1 X175.404 Y177.866 E31.771
G1 X175.404 Y180.113 E31.85384
G1 X174.896 Y180.113 E31.87256
G1 X174.896 Y177.877 E31.955
G1 X174.388 Y177.888 E31.97372
G1 X174.388 Y180.113 E32.05576
G1 X173.88 Y180.113 E32.07448
G1 X173.88 Y177.899 E32.15611
G1 X173.372 Y177.91 E32.17484
G1 X173.372 Y180.113 E32.25607
G1 X172.952 Y180.113 E32.27157
G1 X172.952 Y183.509 E32.39675
G1 X172.864 Y183.509 E32.39998
G1 X172.864 Y177.921 E32.60599
G1 X172.357 Y177.931 E32.62472
G1 X172.357 Y183.509 E32.83033
G1 X171.849 Y183.509 E32.84906
G1 X171.849 Y177.942 E33.05427
G1 X171.341 Y177.953 E33.073
G1 X171.341 Y183.509 E33.27781
G1 X170.833 Y183.509 E33.29653
G1 X170.833 Y177.964 E33.50094
G1 X170.325 Y177.975 E33.51966
G1 X170.325 Y183.509 E33.72367
G1 X169.817 Y183.509 E33.7424
G1 X169.817 Y177.986 E33.946
G1 X169.309 Y177.997 E33.96473
G1 X169.309 Y183.509 E34.16793
G1 X168.802 Y183.509 E34.18666
G1 X168.802 Y178.008 E34.38946
G1 X168.294 Y178.018 E34.40819
G1 X168.294 Y183.509 E34.61059
G1 X167.786 Y183.509 E34.62931
G1 X167.786 Y178.029 E34.83132
G1 X167.278 Y178.04 E34.85004
G1 X167.278 Y183.509 E35.05164
G1 X166.77 Y183.509 E35.07037
G1 X166.77 Y178.051 E35.27157
G1 X166.262 Y178.062 E35.29029
G1 X166.262 Y183.509 E35.49109
G1 X165.754 Y183.509 E35.50982
G1 X165.754 Y178.073 E35.71021
G1 X165.247 Y178.084 E35.72894
G1 X165.247 Y183.509 E35.92893
G1 X164.739 Y183.509 E35.94766
G1 X164.739 Y178.095 E36.14725
G1 X164.231 Y178.106 E36.16598
G1 X164.231 Y183.509 E36.36517
G1 X163.723 Y183.509 E36.3839
G1 X163.723 Y178.116 E36.58269
G1 X163.215 Y178.127 E36.60142
G1 X163.215 Y183.509 E36.79981
G1 X162.707 Y183.509 E36.81853
G1 X162.707 Y178.138 E37.01652
G1 X162.199 Y178.149 E37.03525
G1 X162.199 Y183.509 E37.23283
G1 X161.691 Y183.509 E37.25156
G1 X161.691 Y178.16 E37.44874
G1 X161.184 Y178.171 E37.46747
G1 X161.184 Y183.509 E37.66426
G1 X160.676 Y183.509 E37.68298
G1 X160.676 Y178.182 E37.87937
G1 X160.168 Y178.193 E37.89809
G1 X160.168 Y183.509 E38.09408
G1 X159.66 Y183.509 E38.1128
G1 X159.66 Y178.203 E38.30838
G1 X159.152 Y178.214 E38.32711
G1 X159.152 Y183.509 E38.52229
G1 X158.644 Y183.509 E38.54101
G1 X158.644 Y178.225 E38.73579
G1 X158.136 Y178.236 E38.75452
G1 X158.136 Y183.509 E38.9489
G1 X157.629 Y183.509 E38.96762
G1 X157.629 Y178.247 E39.1616
G1 X157.121 Y178.258 E39.18033
G1 X157.121 Y183.509 E39.3739
G1 X156.613 Y183.509 E39.39263
G1 X156.613 Y178.269 E39.5858
G1 X156.105 Y178.28 E39.60453
G1 X156.105 Y183.509 E39.7973
G1 X155.597 Y183.509 E39.81603
G1 X155.597 Y178.291 E40.0084
G1 X155.089 Y178.301 E40.02713
G1 X155.089 Y183.509 E40.2191
G1 X154.581 Y183.509 E40.23782
G1 X154.581 Y178.312 E40.42939
G1 X154.073 Y178.323 E40.44812
G1 X154.073 Y183.509 E40.63929
G1 X153.566 Y183.509 E40.65801
G1 X153.566 Y178.334 E40.84878
G1 X153.058 Y178.345 E40.86751
G1 X153.058 Y183.509 E41.05787
G1 X152.55 Y183.509 E41.0766
G1 X152.55 Y178.356 E41.26656
G1 X152.042 Y178.367 E41.28529
G1 X152.042 Y183.509 E41.47485
G1 X151.534 Y183.509 E41.49358
G1 X151.534 Y178.378 E41.68274
G1 X151.026 Y178.388 E41.70147
G1 X151.026 Y183.509 E41.89023
G1 X150.518 Y183.509 E41.90895
G1 X150.518 Y178.399 E42.09731
G1 X150.011 Y178.41 E42.11604
G1 X150.011 Y183.509 E42.304
G1 X149.503 Y183.509 E42.32272
G1 X149.503 Y178.421 E42.51028
G1 X148.995 Y178.432 E42.52901
G1 X148.995 Y183.509 E42.71616
G1 X148.487 Y183.509 E42.73489
G1 X148.487 Y178.443 E42.92164
G1 X147.979 Y178.454 E42.94037
G1 X147.979 Y183.509 E43.12672
G1 X147.471 Y183.509 E43.14545
G1 X147.471 Y178.465 E43.3314
G1 X146.963 Y178.476 E43.35013
G1 X146.963 Y183.509 E43.53568
G1 X146.455 Y183.509 E43.5544
G1 X146.455 Y178.486 E43.73955
G1 X145.948 Y178.497 E43.75828
G1 X145.948 Y183.509 E43.94303
G1 X145.44 Y183.509 E43.96175
G1 X145.44 Y178.508 E44.1461
G1 X144.932 Y178.519 E44.16483
G1 X144.932 Y183.509 E44.34878
G1 X144.424 Y183.509 E44.3675
G1 X144.424 Y178.53 E44.55105
G1 X143.916 Y178.541 E44.56977
G1 X143.916 Y183.509 E44.75292
G1 X143.408 Y183.509 E44.77164
G1 X143.408 Y178.552 E44.95438
G1 X142.9 Y178.563 E44.97311
G1 X142.9 Y183.509 E45.15545
G1 X142.393 Y183.509 E45.17418
G1 X142.393 Y178.573 E45.35612
G1 X141.885 Y178.584 E45.37485
G1 X141.885 Y183.509 E45.55639
G1 X141.377 Y183.509 E45.57511
G1 X141.377 Y178.595 E45.75625
G1 X140.869 Y178.606 E45.77498
G1 X140.869 Y183.509 E45.95571
G1 X140.361 Y183.509 E45.97444
G1 X140.361 Y178.617 E46.15477
G1 X139.853 Y178.628 E46.1735
G1 X139.853 Y183.509 E46.35343
G1 X139.345 Y183.509 E46.37216
G1 X139.345 Y178.639 E46.55169
G1 X138.837 Y178.65 E46.57042
G1 X138.837 Y183.509 E46.74955
G1 X138.33 Y183.509 E46.76828
G1 X138.33 Y178.661 E46.94701
G1 X137.822 Y178.671 E46.96573
G1 X137.822 Y183.509 E47.14406
G1 X137.314 Y183.509 E47.16279
G1 X137.314 Y178.682 E47.34072
G1 X136.806 Y178.693 E47.35944
G1 X136.806 Y183.509 E47.53697
G1 X136.298 Y183.509 E47.55569
G1 X136.298 Y178.704 E47.73282
G1 X135.79 Y178.715 E47.75155
G1 X135.79 Y183.509 E47.92827
G1 X135.282 Y183.509 E47.947
G1 X135.282 Y178.726 E48.12332
G1 X134.775 Y178.737 E48.14205
G1 X134.775 Y183.509 E48.31797
G1 X134.267 Y183.509 E48.3367
G1 X134.267 Y178.748 E48.51222
G1 X133.759 Y178.758 E48.53094
G1 X133.759 Y183.509 E48.70607
G1 X133.251 Y183.509 E48.72479
G1 X133.251 Y178.416 E48.91253
G1 X132.78 Y177.965 E48.93655
G1 X132.743 Y176.22 E49.00091
G1 X132.743 Y183.509 E49.26961
G1 X132.235 Y183.509 E49.28833
G1 X132.235 Y143.345 E50.769
G92 E0
G1 E-1 F3000
G1 X185.053 Y172.301 F9000
G1 E0 F1800
G1 X185.053 Y120.966 E1.89249
G1 X184.545 Y120.966 E1.91121
G1 X184.545 Y139.426 E2.59174
G1 X184.256 Y125.898 E3.09059
G1 X184.038 Y125.689 E3.10172
G1 X184.038 Y120.966 E3.27582
G1 X183.53 Y120.966 E3.29454
G1 X183.53 Y125.202 E3.4507
M73 P2 R100
G1 X183.424 Y125.101 E3.45607
G1 X183.022 Y125.11 E3.47092
G1 X183.022 Y120.966 E3.62368
G1 X182.514 Y120.966 E3.6424
G1 X182.514 Y125.121 E3.79556
G1 X182.006 Y125.132 E3.81429
G1 X182.006 Y120.966 E3.96785
G1 X181.498 Y120.966 E3.98657
G1 X181.498 Y125.143 E4.14053
G1 X180.99 Y125.154 E4.15926
G1 X180.99 Y120.966 E4.31362
G1 X180.482 Y120.966 E4.33235
G1 X180.482 Y125.164 E4.48711
G1 X179.975 Y125.175 E4.50584
G1 X179.975 Y120.966 E4.661
G1 X179.467 Y120.966 E4.67973
G1 X179.467 Y125.186 E4.83529
G1 X178.959 Y125.197 E4.85402
G1 X178.959 Y120.966 E5.00999
G1 X178.451 Y120.966 E5.02871
G1 X178.451 Y125.208 E5.18508
G1 X177.943 Y125.219 E5.20381
G1 X177.943 Y120.966 E5.36058
G1 X177.435 Y120.966 E5.3793
G1 X177.435 Y125.23 E5.53647
G1 X176.927 Y125.241 E5.5552
G1 X176.927 Y120.966 E5.71277
G1 X176.42 Y120.966 E5.7315
G1 X176.42 Y125.252 E5.88947
G1 X175.912 Y125.262 E5.9082
G1 X175.912 Y120.966 E6.06657
G1 X175.404 Y120.966 E6.0853
G1 X175.404 Y125.273 E6.24407
G1 X174.896 Y125.284 E6.2628
G1 X174.896 Y120.966 E6.42198
G1 X174.388 Y120.966 E6.4407
G1 X174.388 Y125.295 E6.60028
G1 X173.88 Y125.306 E6.61901
G1 X173.88 Y120.966 E6.77899
G1 X173.372 Y120.966 E6.79771
G1 X173.372 Y125.317 E6.95809
G1 X172.864 Y125.328 E6.97682
G1 X172.864 Y120.966 E7.1376
G1 X172.357 Y120.966 E7.15632
G1 X172.357 Y125.339 E7.31751
G1 X171.849 Y125.35 E7.33624
G1 X171.849 Y120.966 E7.49782
G1 X171.341 Y120.966 E7.51654
G1 X171.341 Y125.36 E7.67853
G1 X170.833 Y125.371 E7.69726
G1 X170.833 Y120.966 E7.85964
G1 X170.325 Y120.966 E7.87837
G1 X170.325 Y125.382 E8.04116
M73 P2 R100
G1 X169.817 Y125.393 E8.05988
G1 X169.817 Y120.966 E8.22307
G1 X169.309 Y120.966 E8.2418
G1 X169.309 Y125.404 E8.40539
G1 X168.802 Y125.415 E8.42411
G1 X168.802 Y120.966 E8.58811
G1 X168.294 Y120.966 E8.60683
G1 X168.294 Y125.426 E8.77122
G1 X167.786 Y125.437 E8.78995
G1 X167.786 Y120.966 E8.95475
G1 X167.278 Y120.966 E8.97347
G1 X167.278 Y125.447 E9.13866
G1 X166.77 Y125.458 E9.15739
G1 X166.77 Y120.966 E9.32299
G1 X166.262 Y120.966 E9.34171
G1 X166.262 Y125.469 E9.50771
G1 X165.754 Y125.48 E9.52644
G1 X165.754 Y120.966 E9.69284
G1 X165.247 Y120.966 E9.71156
G1 X165.247 Y125.491 E9.87836
G1 X164.739 Y125.502 E9.89709
G1 X164.739 Y120.966 E10.06429
G1 X164.231 Y120.966 E10.08301
G1 X164.231 Y125.513 E10.25062
G1 X163.723 Y125.524 E10.26934
G1 X163.723 Y120.966 E10.43735
G1 X163.215 Y120.966 E10.45607
G1 X163.215 Y125.535 E10.62448
G1 X162.707 Y125.545 E10.6432
G1 X162.707 Y120.966 E10.81201
G1 X162.199 Y120.966 E10.83073
G1 X162.199 Y125.556 E10.99994
G1 X161.691 Y125.567 E11.01867
G1 X161.691 Y120.966 E11.18828
G1 X161.184 Y120.966 E11.207
G1 X161.184 Y125.578 E11.37701
G1 X160.676 Y125.589 E11.39574
G1 X160.676 Y120.966 E11.56615
G1 X160.168 Y120.966 E11.58487
G1 X160.168 Y125.6 E11.75568
G1 X159.66 Y125.611 E11.77441
G1 X159.66 Y120.966 E11.94563
G1 X159.152 Y120.966 E11.96435
G1 X159.152 Y125.622 E12.13596
G1 X158.644 Y125.632 E12.15469
G1 X158.644 Y120.966 E12.32671
G1 X158.136 Y120.966 E12.34543
G1 X158.136 Y125.643 E12.51785
G1 X157.629 Y125.654 E12.53658
G1 X157.629 Y120.966 E12.70939
G1 X157.121 Y120.966 E12.72812
G1 X157.121 Y125.665 E12.90134
G1 X156.613 Y125.676 E12.92006
G1 X156.613 Y120.966 E13.09369
G1 X156.105 Y120.966 E13.11241
G1 X156.105 Y125.687 E13.28643
G1 X155.597 Y125.698 E13.30516
G1 X155.597 Y120.966 E13.47958
G1 X155.089 Y120.966 E13.49831
G1 X155.089 Y125.709 E13.67313
G1 X154.581 Y125.72 E13.69186
G1 X154.581 Y120.966 E13.86708
G1 X154.073 Y120.966 E13.88581
