; generated by SuperSlicer 2.5.59 on 2023-08-01 at 16:07:16 UTC


;
;

;
;
; 

; external perimeters extrusion width = 0.40mm
; perimeters extrusion width = 0.46mm
; infill extrusion width = 0.64mm
; solid infill extrusion width = 0.56mm
; top infill extrusion width = 0.40mm
; support material extrusion width = 0.46mm
; first layer extrusion width = 0.50mm

; object:{"name":"Medium Box","id":"Medium Box.stl id:0 copy 0","object_center":[152.500000,150.000000,0.000000],"boundingbox_center":[152.500000,150.000000,50.375563],"boundingbox_size":[84.360706,56.099998,100.751125]}
EXCLUDE_OBJECT_DEFINE NAME=Medium_Box_stl_id_0_copy_0 CENTER=152.500000,150.000000 POLYGON=[[110.319648,125.950000],[110.320808,125.853848],[110.323616,125.771680],[110.324320,125.756816],[110.330256,125.658984],[110.335824,125.590584],[110.338664,125.560424],[110.348872,125.467424],[110.356640,125.407216],[110.361352,125.373936],[110.376152,125.280032],[110.386424,125.222152],[110.393320,125.185800],[110.412896,125.091312],[110.425472,125.035984],[110.434912,124.996656],[110.459392,124.901936],[110.474056,124.849368],[110.486368,124.807216],[110.515848,124.712600],[110.532344,124.663008],[110.547872,124.618184],[110.582432,124.524080],[110.600488,124.477624],[110.619544,124.430360],[110.659016,124.337600],[110.678552,124.293968],[110.701024,124.245424],[110.745552,124.153944],[110.766504,124.112824],[110.792576,124.063264],[110.840968,123.975480],[110.864264,123.934960],[110.891704,123.888640],[110.944768,123.802848],[110.971656,123.761160],[111.000160,123.718184],[111.057808,123.634752],[111.088432,123.592192],[111.117672,123.552624],[111.179728,123.471912],[111.214224,123.428800],[111.243920,123.392680],[111.310192,123.315016],[111.348656,123.271712],[111.378472,123.239016],[111.448704,123.164736],[111.491216,123.121576],[111.520840,123.092272],[111.594784,123.021664],[111.641352,122.979008],[111.670464,122.953016],[111.747824,122.886384],[111.798456,122.844592],[111.826776,122.821808],[111.907232,122.759352],[111.961848,122.718784],[111.989096,122.699064],[112.072288,122.641008],[112.130808,122.602024],[112.156728,122.585208],[112.242336,122.531712],[112.304600,122.494632],[112.328976,122.480528],[112.416592,122.431704],[112.482464,122.396864],[112.505072,122.385272],[112.594336,122.341216],[112.663616,122.308904],[112.684288,122.299576],[112.774816,122.260344],[112.847264,122.230848],[112.865856,122.223544],[112.957280,122.189152],[113.032648,122.162704],[113.049016,122.157176],[113.140984,122.127592],[113.219016,122.104400],[113.233088,122.100400],[113.325232,122.075576],[113.405632,122.055832],[113.417352,122.053104],[113.509344,122.032928],[113.591792,122.016776],[113.601128,122.015064],[113.698232,121.998568],[113.776864,121.987000],[113.794928,121.984568],[113.891152,121.973024],[113.960232,121.966176],[113.986808,121.963864],[114.070904,121.957744],[114.141320,121.953976],[114.154424,121.953416],[114.237360,121.950848],[114.319648,121.950000],[190.680352,121.950000],[190.776512,121.951160],[190.858672,121.953976],[190.873536,121.954664],[190.971376,121.960600],[191.039760,121.966176],[191.069936,121.969016],[191.162928,121.979216],[191.223152,121.987000],[191.256432,121.991696],[191.350320,122.006512],[191.408208,122.016776],[191.444544,122.023680],[191.539040,122.043256],[191.594384,122.055832],[191.633696,122.065272],[191.728432,122.089752],[191.780992,122.104400],[191.823152,122.116712],[191.917760,122.146208],[191.967344,122.162704],[192.012160,122.178224],[192.106272,122.212792],[192.152736,122.230848],[192.200000,122.249912],[192.292752,122.289384],[192.336384,122.308904],[192.384912,122.331376],[192.476416,122.375904],[192.517536,122.396864],[192.567088,122.422928],[192.654880,122.471312],[192.695408,122.494632],[192.741712,122.522048],[192.827504,122.575136],[192.869200,122.602024],[192.912176,122.630512],[192.995600,122.688160],[193.038160,122.718784],[193.077728,122.748032],[193.158448,122.810088],[193.201536,122.844592],[193.237664,122.874264],[193.315344,122.940536],[193.358640,122.979008],[193.391344,123.008816],[193.465616,123.079056],[193.508784,123.121576],[193.538080,123.151184],[193.608672,123.225128],[193.651344,123.271712],[193.677344,123.300824],[193.743968,123.378192],[193.785760,123.428800],[193.808544,123.457128],[193.871008,123.537584],[193.911568,123.592192],[193.931280,123.619448],[193.989344,123.702656],[194.028336,123.761160],[194.045152,123.787096],[194.098656,123.872680],[194.135728,123.934960],[194.149824,123.959336],[194.198640,124.046952],[194.233488,124.112824],[194.245088,124.135440],[194.289136,124.224696],[194.321440,124.293968],[194.330784,124.314640],[194.370000,124.405176],[194.399504,124.477624],[194.406816,124.496200],[194.441200,124.587632],[194.467648,124.663008],[194.473168,124.679384],[194.502768,124.771344],[194.525952,124.849368],[194.529952,124.863448],[194.554784,124.955600],[194.574528,125.035984],[194.577248,125.047696],[194.597408,125.139696],[194.613568,125.222152],[194.615296,125.231488],[194.631792,125.328584],[194.643360,125.407216],[194.645776,125.425296],[194.657328,125.521504],[194.664176,125.590584],[194.666480,125.617160],[194.672608,125.701248],[194.676384,125.771680],[194.676944,125.784792],[194.679504,125.867720],[194.680352,125.950000],[194.680352,177.050000],[194.675904,177.144320],[194.663664,177.231968],[194.661920,177.241056],[194.638672,177.335696],[194.610144,177.418096],[194.605376,177.429904],[194.562672,177.520656],[194.517344,177.597216],[194.510224,177.607952],[194.449280,177.689328],[194.387456,177.757104],[194.380064,177.764432],[194.303568,177.832048],[194.227568,177.886992],[194.221088,177.891200],[194.134000,177.941200],[194.048448,177.979792],[194.043808,177.981616],[193.952000,178.012384],[193.862320,178.033312],[193.859984,178.033744],[193.769056,178.046048],[193.680352,178.050000],[111.319648,178.050000],[111.230936,178.046048],[111.225336,178.045552],[111.140024,178.033744],[111.137688,178.033312],[111.128592,178.031584],[111.048016,178.012384],[111.033944,178.008320],[110.956200,177.981616],[110.951544,177.979792],[110.939736,177.975024],[110.866008,177.941200],[110.848976,177.932320],[110.778920,177.891200],[110.772440,177.886992],[110.761696,177.879872],[110.696432,177.832048],[110.680320,177.818944],[110.619944,177.764432],[110.612544,177.757104],[110.605216,177.749696],[110.550712,177.689328],[110.537592,177.673216],[110.489768,177.607952],[110.482640,177.597216],[110.478448,177.590736],[110.437344,177.520656],[110.428456,177.503648],[110.394616,177.429904],[110.389856,177.418096],[110.388040,177.413456],[110.361320,177.335696],[110.357248,177.321648],[110.338064,177.241056],[110.336344,177.231968],[110.335912,177.229632],[110.324104,177.144320],[110.323584,177.138704],[110.319648,177.050000],[110.319648,125.950000]]
; plater:{"center":[152.500000,150.000000,0.000000],"boundingbox_center":[152.500000,150.000000,50.375563],"boundingbox_size":[84.360706,56.099998,100.751125]}

M73 P0 R215
;TYPE:Custom
START_PRINT T_BED=60 T_EXTRUDER=210
M107
G21 ; set units to millimeters
G90 ; use absolute coordinates
M82 ; use absolute distances for extrusion
G92 E0
; Filament gcode

    PRESSURE_ADVANCE_SELECT FILAMENT=PLA
;_TOOLCHANGE 0
M109 S210 ; set temperature and wait for it to be reached
M190 S60 ; set bed temperature and wait for it to be reached
M107
;LAYER_CHANGE
;Z:0.2
;HEIGHT:0.2
G1 Z0.2 F9000
G1 E-0.8 F2400
M204 S1000
G1 X109.562 Y119.887 F9000
G1 E0 F1800
;TYPE:Skirt
;WIDTH:0.52
G1 X108.462 Y121.199 E0.06793
G1 X108.068 Y122.866 E0.13586
G1 X108.068 Y177.134 E2.28866
G1 X108.805 Y179.355 E2.38148
G1 X110.117 Y180.455 E2.44941
G1 X111.783 Y180.85 E2.51735
G1 X193.217 Y180.85 E5.74775
G1 X195.438 Y180.113 E5.84058
G1 X196.538 Y178.801 E5.90851
G1 X196.932 Y177.134 E5.97644
G1 X196.932 Y122.866 E8.12924
G1 X196.195 Y120.645 E8.22206
G1 X194.883 Y119.545 E8.28999
G1 X193.217 Y119.15 E8.35793
G1 X111.783 Y119.15 E11.58833
M73 P0 R215
G1 X109.562 Y119.887 E11.68116
G1 X109.94 Y120.237 F9000
G1 F1800
G1 X108.939 Y121.318 E11.73961
G1 X108.545 Y122.866 E11.80297
G1 X108.545 Y177.134 E13.95576
G1 X109.064 Y178.893 E14.02852
G1 X110.235 Y179.979 E14.09188
G1 X111.783 Y180.373 E14.15523
G1 X193.217 Y180.373 E17.38564
G1 X194.976 Y179.853 E17.4584
G1 X196.061 Y178.682 E17.52175
G1 X196.455 Y177.134 E17.58511
G1 X196.455 Y122.866 E19.7379
G1 X195.936 Y121.107 E19.81066
G1 X194.764 Y120.021 E19.87402
G1 X193.217 Y119.627 E19.93737
G1 X111.783 Y119.627 E23.16778
G1 X110.024 Y120.147 E23.24054
G1 X109.94 Y120.237 E23.24544
G92 E0
G1 E-0.8 F2400
; printing object Medium Box.stl id:0 copy 0
EXCLUDE_OBJECT_START NAME=Medium_Box_stl_id_0_copy_0
G1 X189.683 Y177.134 F9000
G1 E0 F1800
;TYPE:Support material interface
;WIDTH:0.5
G1 X191.65 Y176.578 E0.07769
G1 X191.98 Y176.425 E0.09152
G1 X192.474 Y176.08 E0.11443
G1 X192.566 Y175.996 E0.11917
G1 X193.217 Y175.232 E0.1573
G1 X193.217 Y177.134 E0.2296
G1 X189.683 Y177.134 E0.36391
G92 E0
G1 E-0.8 F2400
G1 X193.102 Y176.409 F9000
G1 E0 F1800
G1 X192.21 Y176.409 E0.03392
G92 E0
G1 E-0.8 F2400
G1 X115.746 Y177.134 F9000
G1 E0 F1800
G1 X111.783 Y177.134 E0.15062
G1 X111.783 Y175.24 E0.22262
G1 X112.101 Y175.612 E0.24122
G1 X112.408 Y175.972 E0.2592
G1 X112.85 Y176.332 E0.28088
G1 X113.402 Y176.597 E0.30413
G1 X115.746 Y177.134 E0.39555
G92 E0
G1 E-0.8 F2400
G1 X112.763 Y176.409 F9000
G1 E0 F1800
G1 X111.898 Y176.409 E0.0329
G92 E0
G1 E-0.8 F2400
G1 X111.783 Y124.804 F9000
G1 E0 F1800
G1 X111.783 Y122.866 E0.07366
G1 X115.439 Y122.866 E0.21259
G1 X113.873 Y123.28 E0.27414
G1 X113.282 Y123.448 E0.29749
G1 X112.754 Y123.735 E0.32033
G1 X112.328 Y124.111 E0.34191
G1 X111.783 Y124.804 E0.37543
G1 X112.763 Y123.591 F9000
G1 F1800
G1 X111.898 Y123.591 E0.40832
G92 E0
G1 E-0.8 F2400
G1 X189.665 Y122.866 F9000
G1 E0 F1800
G1 X193.217 Y122.866 E0.135
G1 X193.217 Y124.773 E0.2075
G1 X192.569 Y124.006 E0.24566
G1 X192.476 Y123.92 E0.25045
G1 X191.995 Y123.584 E0.27276
G1 X191.653 Y123.424 E0.28714
G1 X189.665 Y122.866 E0.36562
G92 E0
G1 E-0.8 F2400
G1 X193.102 Y123.591 F9000
G1 E0 F1800
G1 X192.213 Y123.591 E0.03382
G92 E0
G1 E-0.8 F2400
G1 X113.822 Y174.217 F9000
G1 E0 F1800
;TYPE:External perimeter
G1 X113.783 Y174.015 E0.00783
G1 X113.782 Y173.905 E0.01197
G1 X113.8 Y169.538 E0.17796
G1 X113.8 Y160.512 E0.52102
G1 X113.782 Y157.034 E0.65319
G1 X113.801 Y156 E0.69252
G1 X113.782 Y155.083 E0.72737
G1 X113.8 Y152 E0.84452
G1 X113.782 Y144.918 E1.11371
G1 X113.801 Y144 E1.14858
G1 X113.782 Y142.966 E1.1879
G1 X113.8 Y139.488 E1.32007
G1 X113.8 Y130.462 E1.66314
G1 X113.784 Y125.97 E1.83387
G1 X113.799 Y125.84 E1.83883
G1 X113.938 Y125.606 E1.84918
G1 X114.153 Y125.453 E1.85922
G1 X114.353 Y125.414 E1.86696
G1 X118.75 Y125.431 E2.03406
G1 X138.69 Y125.431 E2.79192
G1 X142.104 Y125.413 E2.92169
G1 X143.119 Y125.431 E2.96025
G1 X144.294 Y125.416 E3.00491
G1 X147.809 Y125.429 E3.13853
G1 X160.706 Y125.416 E3.62867
G1 X161.881 Y125.431 E3.67336
G1 X162.896 Y125.413 E3.71192
G1 X166.31 Y125.431 E3.84169
G1 X186.25 Y125.431 E4.59954
G1 X190.657 Y125.414 E4.76704
G1 X190.773 Y125.429 E4.77149
G1 X191.076 Y125.602 E4.78472
G1 X191.162 Y125.756 E4.79143
G1 X191.217 Y125.99 E4.80058
G1 X191.2 Y130.462 E4.97052
G1 X191.2 Y139.488 E5.31359
G1 X191.218 Y142.966 E5.44576
G1 X191.199 Y143.999 E5.48505
G1 X191.214 Y145.002 E5.52314
G1 X191.202 Y148 E5.63708
G1 X191.214 Y154.998 E5.90306
G1 X191.199 Y156.001 E5.94117
G1 X191.218 Y157.034 E5.98046
G1 X191.2 Y160.512 E6.11263
G1 X191.2 Y169.538 E6.45569
G1 X191.216 Y174.01 E6.62565
G1 X191.16 Y174.248 E6.63493
G1 X191.064 Y174.408 E6.64205
G1 X190.806 Y174.562 E6.65348
G1 X190.653 Y174.586 E6.65937
G1 X190.127 Y174.588 E6.67935
G1 X186.25 Y174.569 E6.82668
G1 X166.31 Y174.569 E7.58454
G1 X162.896 Y174.587 E7.71431
G1 X161.881 Y174.569 E7.7529
G1 X160.806 Y174.587 E7.79376
G1 X157.191 Y174.569 E7.93114
G1 X147.809 Y174.569 E8.28772
G1 X144.194 Y174.587 E8.4251
G1 X143.119 Y174.569 E8.46596
G1 X142.104 Y174.587 E8.50455
G1 X138.69 Y174.569 E8.63432
G1 X118.75 Y174.569 E9.39217
G1 X114.34 Y174.586 E9.55977
G1 X114.21 Y174.571 E9.56475
G1 X113.976 Y174.432 E9.5751
G1 X113.822 Y174.217 E9.58514
;WIPE_START
M204 S3000
G1 X114.084 Y173.914 F9000
;WIPE_END
M204 S1000
G1 X114.241 Y174.129
;TYPE:Internal perimeter
G1 F1800
G1 X114.258 Y169.539 E9.7596
G1 X114.258 Y160.51 E10.10276
G1 X114.239 Y157.037 E10.23477
G1 X114.258 Y155.999 E10.27422
G1 X114.239 Y155.08 E10.30917
G1 X114.258 Y152.001 E10.42617
G1 X114.239 Y144.922 E10.69524
G1 X114.258 Y144.001 E10.73024
G1 X114.239 Y142.963 E10.76969
G1 X114.258 Y139.49 E10.90171
G1 X114.258 Y130.461 E11.24487
G1 X114.24 Y125.871 E11.41932
G1 X118.749 Y125.888 E11.59067
G1 X138.691 Y125.888 E12.34861
G1 X142.101 Y125.87 E12.47822
G1 X143.117 Y125.888 E12.51685
G1 X144.296 Y125.873 E12.56164
G1 X147.809 Y125.886 E12.69515
G1 X160.703 Y125.873 E13.18522
G1 X161.883 Y125.888 E13.23005
G1 X162.899 Y125.87 E13.26868
G1 X166.309 Y125.888 E13.39829
G1 X186.251 Y125.888 E14.15622
G1 X190.719 Y125.871 E14.32603
G1 X190.759 Y126.042 E14.33273
G1 X190.742 Y130.461 E14.50067
G1 X190.742 Y139.49 E14.84382
G1 X190.761 Y142.963 E14.97583
G1 X190.742 Y143.999 E15.0152
G1 X190.757 Y145.004 E15.05341
G1 X190.745 Y147.999 E15.16725
G1 X190.757 Y154.995 E15.43313
G1 X190.742 Y156.001 E15.47138
G1 X190.761 Y157.037 E15.51075
G1 X190.742 Y160.51 E15.64276
G1 X190.759 Y173.958 E16.15385
G1 X190.719 Y174.129 E16.16054
G1 X186.252 Y174.112 E16.33032
G1 X166.309 Y174.112 E17.08827
G1 X162.899 Y174.13 E17.21788
G1 X161.881 Y174.112 E17.25657
G1 X160.803 Y174.13 E17.29754
G1 X157.192 Y174.112 E17.43477
G1 X147.808 Y174.112 E17.79145
G1 X144.197 Y174.13 E17.92867
G1 X143.119 Y174.112 E17.96965
G1 X142.101 Y174.13 E18.00834
G1 X138.691 Y174.112 E18.13795
G1 X118.749 Y174.112 E18.89589
G1 X114.241 Y174.129 E19.0672
G1 X114.7 Y173.671 F9000
G1 F1800
G1 X114.715 Y160.509 E19.56742
G1 X114.696 Y157.04 E19.69928
G1 X114.715 Y155.999 E19.73886
G1 X114.696 Y155.076 E19.77391
G1 X114.715 Y152.002 E19.89076
G1 X114.696 Y144.926 E20.15971
G1 X114.715 Y144.001 E20.19484
G1 X114.696 Y142.96 E20.23442
G1 X114.715 Y139.491 E20.36628
G1 X114.715 Y130.46 E20.70953
G1 X114.699 Y126.329 E20.8665
G1 X118.748 Y126.345 E21.02037
G1 X160.7 Y126.33 E22.61485
G1 X161.884 Y126.345 E22.65982
G1 X162.902 Y126.327 E22.69851
G1 X166.308 Y126.345 E22.82797
G1 X186.252 Y126.345 E23.58599
G1 X190.301 Y126.329 E23.73987
G1 X190.285 Y130.46 E23.89685
G1 X190.3 Y154.992 E24.82924
G1 X190.285 Y156.002 E24.86762
G1 X190.304 Y157.04 E24.90707
G1 X190.285 Y160.509 E25.03895
G1 X190.302 Y173.67 E25.53914
G1 X186.253 Y173.655 E25.69303
G1 X166.308 Y173.655 E26.45107
G1 X162.902 Y173.673 E26.58053
G1 X161.881 Y173.655 E26.61932
G1 X160.8 Y173.673 E26.6604
G1 X157.194 Y173.655 E26.79748
G1 X147.806 Y173.655 E27.15425
G1 X144.2 Y173.673 E27.29132
G1 X143.119 Y173.655 E27.33241
G1 X142.098 Y173.673 E27.3712
G1 X138.692 Y173.655 E27.50066
G1 X118.748 Y173.655 E28.25868
G1 X114.7 Y173.671 E28.41252
G92 E0
G1 E-0.8 F2400
G1 X190.233 Y127.322 F9000
G1 E0 F1800
;TYPE:Solid infill
;WIDTH:0.498224
G1 F2400
G1 X189.309 Y126.399 E0.04945
G1 X188.663 Y126.399 F9000
G1 F2400
G1 X190.233 Y127.968 E0.13351
G1 X190.233 Y128.615 F9000
G1 F2400
G1 X188.017 Y126.399 E0.25216
G1 X187.371 Y126.4 F9000
G1 F2400
G1 X190.233 Y129.261 E0.40541
G1 X190.233 Y129.908 F9000
G1 F2400
G1 X186.725 Y126.4 E0.59325
G1 X186.079 Y126.401 F9000
G1 F2400
G1 X190.233 Y130.554 E0.8157
G1 X190.233 Y131.2 F9000
G1 F2400
G1 X185.433 Y126.401 E1.07274
G1 X184.787 Y126.401 F9000
G1 F2400
G1 X190.233 Y131.847 E1.36438
G1 X190.233 Y132.493 F9000
G1 F2400
G1 X184.141 Y126.402 E1.69062
G1 X183.495 Y126.402 F9000
G1 F2400
G1 X190.233 Y133.14 E2.05146
G1 X190.233 Y133.786 F9000
G1 F2400
G1 X182.849 Y126.403 E2.4469
G1 X182.203 Y126.403 F9000
G1 F2400
G1 X190.233 Y134.432 E2.87694
G1 X190.233 Y135.079 F9000
G1 F2400
G1 X181.557 Y126.404 E3.34157
G1 X180.911 Y126.404 F9000
G1 F2400
G1 X190.233 Y135.725 E3.8408
G1 X190.233 Y136.372 F9000
G1 F2400
