; generated by SuperSlicer 2.5.59 on 2023-07-22 at 00:33:32 UTC


;
;

;
;
; 

; external perimeters extrusion width = 0.40mm
; perimeters extrusion width = 0.46mm
; infill extrusion width = 0.64mm
; solid infill extrusion width = 0.56mm
; top infill extrusion width = 0.40mm
; support material extrusion width = 0.46mm
; first layer extrusion width = 0.50mm

; external perimeters extrusion width = 0.40mm
; perimeters extrusion width = 0.46mm
; infill extrusion width = 0.64mm
; solid infill extrusion width = 0.56mm
; top infill extrusion width = 0.40mm
; support material extrusion width = 0.46mm
; first layer extrusion width = 0.50mm

; external perimeters extrusion width = 0.40mm
; perimeters extrusion width = 0.46mm
; infill extrusion width = 0.64mm
; solid infill extrusion width = 0.56mm
; top infill extrusion width = 0.40mm
; support material extrusion width = 0.46mm
; first layer extrusion width = 0.50mm

; external perimeters extrusion width = 0.40mm
; perimeters extrusion width = 0.46mm
; infill extrusion width = 0.64mm
; solid infill extrusion width = 0.56mm
; top infill extrusion width = 0.40mm
; support material extrusion width = 0.46mm
; first layer extrusion width = 0.50mm

; object:{"name":"MGN9-alignment tool","id":"MGN9-alignment tool.stl id:0 copy 0","object_center":[168.500000,132.000000,0.000000],"boundingbox_center":[168.500000,132.000000,4.000000],"boundingbox_size":[26.000000,30.000000,8.000000]}
EXCLUDE_OBJECT_DEFINE NAME=MGN9_alignment_tool_stl_id_0_copy_0 CENTER=168.500000,132.000000 POLYGON=[[155.500000,117.000000],[181.500000,117.000000],[181.500000,147.000000],[155.500000,147.000000],[155.500000,117.000000]]
; object:{"name":"MGN9-alignment tool","id":"MGN9-alignment tool.stl id:1 copy 0","object_center":[136.500000,132.000000,0.000000],"boundingbox_center":[136.500000,132.000000,4.000000],"boundingbox_size":[26.000000,30.000000,8.000000]}
EXCLUDE_OBJECT_DEFINE NAME=MGN9_alignment_tool_stl_id_1_copy_0 CENTER=136.500000,132.000000 POLYGON=[[123.500000,117.000000],[149.500000,117.000000],[149.500000,147.000000],[123.500000,147.000000],[123.500000,117.000000]]
; object:{"name":"MGN9-alignment tool","id":"MGN9-alignment tool.stl id:2 copy 0","object_center":[168.500000,168.000000,0.000000],"boundingbox_center":[168.500000,168.000000,4.000000],"boundingbox_size":[26.000000,30.000000,8.000000]}
EXCLUDE_OBJECT_DEFINE NAME=MGN9_alignment_tool_stl_id_2_copy_0 CENTER=168.500000,168.000000 POLYGON=[[155.500000,153.000000],[181.500000,153.000000],[181.500000,183.000000],[155.500000,183.000000],[155.500000,153.000000]]
; object:{"name":"MGN9-alignment tool","id":"MGN9-alignment tool.stl id:3 copy 0","object_center":[136.500000,168.000000,0.000000],"boundingbox_center":[136.500000,168.000000,4.000000],"boundingbox_size":[26.000000,30.000000,8.000000]}
EXCLUDE_OBJECT_DEFINE NAME=MGN9_alignment_tool_stl_id_3_copy_0 CENTER=136.500000,168.000000 POLYGON=[[123.500000,153.000000],[149.500000,153.000000],[149.500000,183.000000],[123.500000,183.000000],[123.500000,153.000000]]
; plater:{"center":[152.500000,150.000000,0.000000],"boundingbox_center":[152.500000,150.000000,4.000000],"boundingbox_size":[58.000000,66.000000,8.000000]}

M73 P0 R42
;TYPE:Custom
START_PRINT T_BED=60 T_EXTRUDER=210
M107
G21 ; set units to millimeters
G90 ; use absolute coordinates
M82 ; use absolute distances for extrusion
G92 E0
; Filament gcode

    PRESSURE_ADVANCE_SELECT FILAMENT=PLA
;_TOOLCHANGE 0
M109 S210 ; set temperature and wait for it to be reached
M190 S60 ; set bed temperature and wait for it to be reached
M107
;LAYER_CHANGE
;Z:0.2
;HEIGHT:0.2
G1 Z0.2 F9000
G1 E-0.8 F2400
M204 S1000
G1 X121.379 Y114.121 F9000
G1 E0 F1800
;TYPE:Skirt
;WIDTH:0.52
G1 X120.279 Y115.434 E0.06793
G1 X119.884 Y117.1 E0.13586
G1 X119.884 Y182.9 E2.74611
G1 X120.621 Y185.121 E2.83893
G1 X121.934 Y186.221 E2.90686
G1 X123.6 Y186.616 E2.9748
G1 X181.4 Y186.616 E5.26768
M73 P0 R42
G1 X183.621 Y185.879 E5.36051
G1 X184.721 Y184.566 E5.42844
G1 X185.116 Y182.9 E5.49637
G1 X185.116 Y117.1 E8.10662
G1 X184.379 Y114.879 E8.19944
G1 X183.066 Y113.779 E8.26737
G1 X181.4 Y113.384 E8.33531
G1 X123.6 Y113.384 E10.62819
G1 X121.379 Y114.121 E10.72102
G1 X121.757 Y114.471 F9000
G1 F1800
G1 X120.755 Y115.552 E10.77947
G1 X120.361 Y117.1 E10.84283
G1 X120.361 Y182.9 E13.45307
G1 X120.881 Y184.659 E13.52583
G1 X122.052 Y185.745 E13.58919
G1 X123.6 Y186.139 E13.65254
G1 X181.4 Y186.139 E15.94543
G1 X183.159 Y185.619 E16.01819
G1 X184.245 Y184.448 E16.08155
G1 X184.639 Y182.9 E16.1449
G1 X184.639 Y117.1 E18.75514
G1 X184.119 Y115.341 E18.8279
G1 X182.948 Y114.255 E18.89126
G1 X181.4 Y113.861 E18.95462
G1 X123.6 Y113.861 E21.2475
G1 X121.841 Y114.381 E21.32026
G1 X121.757 Y114.471 E21.32517
G92 E0
G1 E-0.8 F2400
; printing object MGN9-alignment tool.stl id:0 copy 0
EXCLUDE_OBJECT_START NAME=MGN9_alignment_tool_stl_id_0_copy_0
G1 X176.85 Y136.95 F9000
G1 E0 F1800
;TYPE:External perimeter
;WIDTH:0.5
G1 X176.85 Y127.05 E0.37626
G1 X170.85 Y127.05 E0.6043
G1 X170.85 Y121.55 E0.81334
G1 X155.85 Y121.55 E1.38343
G1 X155.85 Y117.35 E1.54306
G1 X181.15 Y117.35 E2.50462
G1 X181.15 Y146.65 E3.6182
G1 X155.85 Y146.65 E4.57976
G1 X155.85 Y142.45 E4.73939
G1 X170.85 Y142.45 E5.30948
G1 X170.85 Y136.95 E5.51852
G1 X176.85 Y136.95 E5.74656
;WIPE_START
M204 S3000
G1 X177.25 Y136.95 F9000
;WIPE_END
M204 S1000
G1 X177.307 Y137.407
;TYPE:Internal perimeter
G1 F1800
G1 X177.307 Y126.593 E6.15756
G1 X171.307 Y126.593 E6.3856
G1 X171.307 Y121.093 E6.59464
G1 X156.307 Y121.093 E7.16473
G1 X156.307 Y117.807 E7.28961
G1 X180.693 Y117.807 E8.21643
G1 X180.693 Y146.193 E9.29527
G1 X156.307 Y146.193 E10.22209
G1 X156.307 Y142.907 E10.34697
G1 X171.307 Y142.907 E10.91707
G1 X171.307 Y137.407 E11.1261
G1 X177.307 Y137.407 E11.35414
M73 P1 R42
G1 X177.764 Y137.864 F9000
G1 F1800
G1 X177.764 Y126.136 E11.79989
G1 X171.764 Y126.136 E12.02793
G1 X171.764 Y120.636 E12.23696
G1 X156.764 Y120.636 E12.80706
G1 X156.764 Y118.264 E12.8972
G1 X180.236 Y118.264 E13.78927
G1 X180.236 Y145.736 E14.83337
G1 X156.764 Y145.736 E15.72544
G1 X156.764 Y143.364 E15.81558
G1 X171.764 Y143.364 E16.38567
G1 X171.764 Y137.864 E16.59471
G1 X177.764 Y137.864 E16.82274
G92 E0
G1 E-0.8 F2400
G1 X180.167 Y119.257 F9000
G1 E0 F1800
;TYPE:Solid infill
;WIDTH:0.483864
G1 F2400
G1 X179.243 Y118.333 E0.04806
G1 X178.597 Y118.333 F9000
G1 F2400
G1 X180.167 Y119.903 E0.12974
G1 X180.167 Y120.549 F9000
G1 F2400
G1 X177.951 Y118.333 E0.24505
G1 X177.304 Y118.333 F9000
G1 F2400
G1 X180.167 Y121.196 E0.39398
G1 X180.167 Y121.842 F9000
G1 F2400
G1 X176.658 Y118.333 E0.57653
G1 X176.011 Y118.333 F9000
G1 F2400
G1 X180.167 Y122.489 E0.7927
G1 X180.167 Y123.135 F9000
G1 F2400
G1 X175.365 Y118.333 E1.04249
G1 X174.718 Y118.333 F9000
G1 F2400
G1 X180.167 Y123.782 E1.32591
G1 X180.167 Y124.428 F9000
G1 F2400
G1 X174.072 Y118.333 E1.64295
G1 X173.426 Y118.333 F9000
G1 F2400
G1 X180.167 Y125.074 E1.99361
G1 X180.167 Y125.721 F9000
G1 F2400
G1 X172.779 Y118.333 E2.3779
G1 X172.133 Y118.333 F9000
M73 P2 R41
G1 F2400
G1 X180.167 Y126.367 E2.79581
G1 X180.167 Y127.014 F9000
G1 F2400
G1 X171.486 Y118.333 E3.24734
G1 X170.84 Y118.333 F9000
G1 F2400
G1 X180.167 Y127.66 E3.73249
G1 X180.167 Y128.306 F9000
G1 F2400
G1 X170.194 Y118.333 E4.25126
G1 X169.547 Y118.333 F9000
G1 F2400
G1 X171.782 Y120.567 E4.3675
G1 X171.135 Y120.567 F9000
G1 F2400
G1 X168.901 Y118.333 E4.48373
G1 X168.254 Y118.333 F9000
G1 F2400
G1 X170.489 Y120.567 E4.59996
G1 X169.843 Y120.567 F9000
G1 F2400
G1 X167.608 Y118.333 E4.71619
G1 X166.962 Y118.333 F9000
G1 F2400
G1 X169.196 Y120.567 E4.83242
G1 X168.55 Y120.567 F9000
G1 F2400
G1 X166.315 Y118.333 E4.94865
G1 X165.669 Y118.333 F9000
G1 F2400
G1 X167.903 Y120.567 E5.06488
G1 X167.257 Y120.567 F9000
G1 F2400
G1 X165.022 Y118.333 E5.18111
G1 X164.376 Y118.333 F9000
G1 F2400
G1 X166.611 Y120.567 E5.29735
G1 X165.964 Y120.567 F9000
G1 F2400
G1 X163.73 Y118.333 E5.41358
G1 X163.083 Y118.333 F9000
G1 F2400
G1 X165.318 Y120.567 E5.52981
G1 X164.671 Y120.567 F9000
G1 F2400
G1 X162.437 Y118.333 E5.64604
G1 X161.79 Y118.333 F9000
G1 F2400
G1 X164.025 Y120.567 E5.76227
G1 X163.379 Y120.567 F9000
G1 F2400
G1 X161.144 Y118.333 E5.8785
G1 X160.498 Y118.333 F9000
G1 F2400
G1 X162.732 Y120.567 E5.99473
G1 X162.086 Y120.567 F9000
G1 F2400
G1 X159.851 Y118.333 E6.11097
G1 X159.205 Y118.333 F9000
G1 F2400
G1 X161.439 Y120.567 E6.2272
G1 X160.793 Y120.567 F9000
G1 F2400
G1 X158.558 Y118.333 E6.34343
G1 X157.912 Y118.333 F9000
G1 F2400
G1 X160.146 Y120.567 E6.45966
G1 X159.5 Y120.567 F9000
G1 F2400
G1 X157.265 Y118.333 E6.57589
G1 X156.833 Y118.546 F9000
G1 F2400
G1 X158.854 Y120.567 E6.68101
G1 X158.207 Y120.567 F9000
G1 F2400
G1 X156.833 Y119.193 E6.75251
G1 X156.833 Y119.839 F9000
G1 F2400
G1 X157.561 Y120.567 E6.79038
G92 E0
G1 E-0.8
G1 X171.833 Y120.618 F9000
G1 E0 F1800
G1 F2400
G1 X177.282 Y126.067 E0.28343
G1 X176.635 Y126.067 F9000
G1 F2400
G1 X171.833 Y121.265 E0.53324
G1 X171.833 Y121.911 F9000
G1 F2400
G1 X175.989 Y126.067 E0.74943
G1 X175.343 Y126.067 F9000
G1 F2400
G1 X171.833 Y122.557 E0.932
G1 X171.833 Y123.204 F9000
G1 F2400
G1 X174.696 Y126.067 E1.08094
G1 X174.05 Y126.067 F9000
G1 F2400
G1 X171.833 Y123.85 E1.19626
G1 X171.833 Y124.497 F9000
G1 F2400
G1 X173.403 Y126.067 E1.27796
G1 X172.757 Y126.067 F9000
G1 F2400
G1 X171.833 Y125.143 E1.32603
G92 E0
G1 E-0.8
G1 X177.833 Y126.618 F9000
G1 E0 F1800
G1 F2400
G1 X180.167 Y128.953 E0.12143
G1 X180.167 Y129.599 F9000
G1 F2400
G1 X177.833 Y127.265 E0.24287
G1 X177.833 Y127.911 F9000
G1 F2400
G1 X180.167 Y130.246 E0.3643
G1 X180.167 Y130.892 F9000
G1 F2400
G1 X177.833 Y128.557 E0.48573
G1 X177.833 Y129.204 F9000
G1 F2400
G1 X180.167 Y131.538 E0.60717
G1 X180.167 Y132.185 F9000
G1 F2400
G1 X177.833 Y129.85 E0.7286
G1 X177.833 Y130.497 F9000
G1 F2400
G1 X180.167 Y132.831 E0.85003
G1 X180.167 Y133.478 F9000
G1 F2400
G1 X177.833 Y131.143 E0.97146
G1 X177.833 Y131.789 F9000
G1 F2400
G1 X180.167 Y134.124 E1.0929
G1 X180.167 Y134.77 F9000
G1 F2400
G1 X177.833 Y132.436 E1.21433
G1 X177.833 Y133.082 F9000
G1 F2400
G1 X180.167 Y135.417 E1.33576
G1 X180.167 Y136.063 F9000
G1 F2400
G1 X177.833 Y133.729 E1.4572
G1 X177.833 Y134.375 F9000
G1 F2400
G1 X180.167 Y136.71 E1.57863
G1 X180.167 Y137.356 F9000
G1 F2400
G1 X177.833 Y135.021 E1.70006
G1 X177.833 Y135.668 F9000
G1 F2400
G1 X180.167 Y138.002 E1.8215
G1 X180.167 Y138.649 F9000
G1 F2400
G1 X177.833 Y136.314 E1.94293
G1 X177.833 Y136.961 F9000
G1 F2400
G1 X180.167 Y139.295 E2.06436
G1 X180.167 Y139.942 F9000
G1 F2400
G1 X177.833 Y137.607 E2.1858
G1 X177.512 Y137.933 F9000
G1 F2400
G1 X180.167 Y140.588 E2.32392
G1 X180.167 Y141.235 F9000
G1 F2400
G1 X176.865 Y137.933 E2.49566
G1 X176.219 Y137.933 F9000
G1 F2400
G1 X180.167 Y141.881 E2.70102
G1 X180.167 Y142.527 F9000
G1 F2400
G1 X175.573 Y137.933 E2.94001
G1 X174.926 Y137.933 F9000
G1 F2400
G1 X180.167 Y143.174 E3.21262
G1 X180.167 Y143.82 F9000
G1 F2400
G1 X174.28 Y137.933 E3.51885
G1 X173.633 Y137.933 F9000
G1 F2400
G1 X180.167 Y144.467 E3.85871
G1 X180.167 Y145.113 F9000
G1 F2400
G1 X172.987 Y137.933 E4.23218
G1 X172.341 Y137.933 F9000
G1 F2400
G1 X180.075 Y145.667 E4.63449
G1 X179.429 Y145.667 F9000
G1 F2400
G1 X171.833 Y138.071 E5.0296
G1 X171.833 Y138.718 F9000
G1 F2400
G1 X178.782 Y145.667 E5.39109
G1 X178.136 Y145.667 F9000
G1 F2400
G1 X171.833 Y139.364 E5.71895
G1 X171.833 Y140.01 F9000
G1 F2400
G1 X177.49 Y145.667 E6.01319
G1 X176.843 Y145.667 F9000
G1 F2400
G1 X171.833 Y140.657 E6.27381
G1 X171.833 Y141.303 F9000
G1 F2400
G1 X176.197 Y145.667 E6.50081
G1 X175.55 Y145.667 F9000
G1 F2400
G1 X171.833 Y141.95 E6.69418
G1 X171.833 Y142.596 F9000
G1 F2400
G1 X174.904 Y145.667 E6.85393
G1 X174.258 Y145.667 F9000
G1 F2400
G1 X171.833 Y143.242 E6.98006
G1 X171.377 Y143.433 F9000
G1 F2400
G1 X173.611 Y145.667 E7.09629
G1 X172.965 Y145.667 F9000
G1 F2400
G1 X170.73 Y143.433 E7.21252
G1 X170.084 Y143.433 F9000
G1 F2400
G1 X172.318 Y145.667 E7.32875
G1 X171.672 Y145.667 F9000
G1 F2400
G1 X169.437 Y143.433 E7.44498
G1 X168.791 Y143.433 F9000
G1 F2400
G1 X171.026 Y145.667 E7.56121
G1 X170.379 Y145.667 F9000
G1 F2400
G1 X168.145 Y143.433 E7.67745
G1 X167.498 Y143.433 F9000
G1 F2400
G1 X169.733 Y145.667 E7.79368
G1 X169.086 Y145.667 F9000
G1 F2400
G1 X166.852 Y143.433 E7.90991
G1 X166.205 Y143.433 F9000
G1 F2400
G1 X168.44 Y145.667 E8.02614
G1 X167.793 Y145.667 F9000
G1 F2400
G1 X165.559 Y143.433 E8.14237
G1 X164.912 Y143.433 F9000
G1 F2400
G1 X167.147 Y145.667 E8.2586
G1 X166.501 Y145.667 F9000
G1 F2400
G1 X164.266 Y143.433 E8.37483
G1 X163.62 Y143.433 F9000
G1 F2400
G1 X165.854 Y145.667 E8.49106
G1 X165.208 Y145.667 F9000
G1 F2400
G1 X162.973 Y143.433 E8.6073
G1 X162.327 Y143.433 F9000
G1 F2400
G1 X164.561 Y145.667 E8.72353
G1 X163.915 Y145.667 F9000
G1 F2400
G1 X161.68 Y143.433 E8.83976
G1 X161.034 Y143.433 F9000
G1 F2400
G1 X163.269 Y145.667 E8.95599
G1 X162.622 Y145.667 F9000
G1 F2400
G1 X160.388 Y143.433 E9.07222
G1 X159.741 Y143.433 F9000
G1 F2400
G1 X161.976 Y145.667 E9.18845
G1 X161.329 Y145.667 F9000
G1 F2400
G1 X159.095 Y143.433 E9.30468
G1 X158.448 Y143.433 F9000
G1 F2400
G1 X160.683 Y145.667 E9.42091
G1 X160.037 Y145.667 F9000
G1 F2400
G1 X157.802 Y143.433 E9.53715
G1 X157.156 Y143.433 F9000
G1 F2400
G1 X159.39 Y145.667 E9.65338
G1 X158.744 Y145.667 F9000
G1 F2400
G1 X156.833 Y143.756 E9.75278
G1 X156.833 Y144.403 F9000
G1 F2400
G1 X158.097 Y145.667 E9.81856
G1 X157.451 Y145.667 F9000
G1 F2400
G1 X156.833 Y145.049 E9.85072
G92 E0
G1 E-0.8
; stop printing object MGN9-alignment tool.stl id:0 copy 0
EXCLUDE_OBJECT_END NAME=MGN9_alignment_tool_stl_id_0_copy_0
; printing object MGN9-alignment tool.stl id:1 copy 0
EXCLUDE_OBJECT_START NAME=MGN9_alignment_tool_stl_id_1_copy_0
G1 X144.85 Y136.95 F9000
M73 P2 R41
G1 E0 F1800
;TYPE:External perimeter
;WIDTH:0.5
G1 X144.85 Y127.05 E0.37626
G1 X138.85 Y127.05 E0.6043
G1 X138.85 Y121.55 E0.81334
G1 X123.85 Y121.55 E1.38343
G1 X123.85 Y117.35 E1.54306
G1 X149.15 Y117.35 E2.50462
G1 X149.15 Y146.65 E3.6182
G1 X123.85 Y146.65 E4.57976
G1 X123.85 Y142.45 E4.73939
G1 X138.85 Y142.45 E5.30948
G1 X138.85 Y136.95 E5.51852
G1 X144.85 Y136.95 E5.74656
;WIPE_START
M204 S3000
G1 X145.25 Y136.95 F9000
;WIPE_END
M204 S1000
G1 X145.307 Y137.407
;TYPE:Internal perimeter
G1 F1800
G1 X145.307 Y126.593 E6.15756
G1 X139.307 Y126.593 E6.3856
G1 X139.307 Y121.093 E6.59464
G1 X124.307 Y121.093 E7.16473
G1 X124.307 Y117.807 E7.28961
G1 X148.693 Y117.807 E8.21643
G1 X148.693 Y146.193 E9.29527
G1 X124.307 Y146.193 E10.22209
G1 X124.307 Y142.907 E10.34697
G1 X139.307 Y142.907 E10.91707
G1 X139.307 Y137.407 E11.1261
G1 X145.307 Y137.407 E11.35414
G1 X145.764 Y137.864 F9000
G1 F1800
G1 X145.764 Y126.136 E11.79989
G1 X139.764 Y126.136 E12.02793
G1 X139.764 Y120.636 E12.23696
G1 X124.764 Y120.636 E12.80706
G1 X124.764 Y118.264 E12.8972
G1 X148.236 Y118.264 E13.78927
G1 X148.236 Y145.736 E14.83337
G1 X124.764 Y145.736 E15.72544
G1 X124.764 Y143.364 E15.81558
G1 X139.764 Y143.364 E16.38567
G1 X139.764 Y137.864 E16.59471
G1 X145.764 Y137.864 E16.82274
G92 E0
G1 E-0.8 F2400
G1 X148.167 Y119.257 F9000
G1 E0 F1800
;TYPE:Solid infill
;WIDTH:0.483864
G1 F2400
G1 X147.243 Y118.333 E0.04806
G1 X146.597 Y118.333 F9000
G1 F2400
G1 X148.167 Y119.903 E0.12974
G1 X148.167 Y120.549 F9000
G1 F2400
G1 X145.951 Y118.333 E0.24505
G1 X145.304 Y118.333 F9000
G1 F2400
G1 X148.167 Y121.196 E0.39398
G1 X148.167 Y121.842 F9000
G1 F2400
G1 X144.658 Y118.333 E0.57653
G1 X144.011 Y118.333 F9000
G1 F2400
G1 X148.167 Y122.489 E0.7927
G1 X148.167 Y123.135 F9000
G1 F2400
G1 X143.365 Y118.333 E1.04249
G1 X142.718 Y118.333 F9000
G1 F2400
G1 X148.167 Y123.782 E1.32591
G1 X148.167 Y124.428 F9000
G1 F2400
G1 X142.072 Y118.333 E1.64295
G1 X141.426 Y118.333 F9000
G1 F2400
G1 X148.167 Y125.074 E1.99361
G1 X148.167 Y125.721 F9000
G1 F2400
G1 X140.779 Y118.333 E2.3779
G1 X140.133 Y118.333 F9000
G1 F2400
G1 X148.167 Y126.367 E2.79581
G1 X148.167 Y127.014 F9000
G1 F2400
G1 X139.486 Y118.333 E3.24734
G1 X138.84 Y118.333 F9000
G1 F2400
G1 X148.167 Y127.66 E3.73249
G1 X148.167 Y128.306 F9000
G1 F2400
