; generated by SuperSlicer 2.5.59 on 2023-02-03 at 00:07:03 UTC


;
;

;
;
; 

; external perimeters extrusion width = 0.40mm
; perimeters extrusion width = 0.46mm
; infill extrusion width = 0.64mm
; solid infill extrusion width = 0.56mm
; top infill extrusion width = 0.40mm
; support material extrusion width = 0.46mm
; first layer extrusion width = 0.50mm

; object:{"name":"niveau_viewfinderMainBody","id":"niveau_viewfinderMainBody.stl id:0 copy 0","object_center":[152.500000,150.000000,0.000000],"boundingbox_center":[152.500000,150.000000,12.187500],"boundingbox_size":[27.991302,43.000000,24.375000]}
; plater:{"center":[152.500000,150.000000,0.000000],"boundingbox_center":[152.500000,150.000000,12.187500],"boundingbox_size":[27.991302,43.000000,24.375000]}

M73 P0 R38


; Pre-Processed for Cancel-Object support by preprocess_cancellation v0.2.0
; 1 known objects
EXCLUDE_OBJECT_DEFINE NAME=niveau_viewfinderMainBody_stl_id_0_copy_0 CENTER=152.481,146.234 POLYGON=[[132.803,123.511],[132.803,176.488],[172.197,176.488],[172.197,123.511]]
;TYPE:Custom
START_PRINT T_BED=70 T_EXTRUDER=235
M107
G21 ; set units to millimeters
G90 ; use absolute coordinates
M82 ; use absolute distances for extrusion
G92 E0
; Filament gcode
PRESSURE_ADVANCE_SELECT FILAMENT=PETG
;_TOOLCHANGE 0
M104 S235 ; set temperature
M109 S235 ; set temperature and wait for it to be reached
M190 S70 ; set bed temperature and wait for it to be reached
M107
;LAYER_CHANGE
;Z:0.2
;HEIGHT:0.2
G1 Z0.2 F9000
G1 E-1 F3000
M204 S1000
G1 X133.571 Y127.675 F9000
G1 E0 F1800
;TYPE:Skirt
;WIDTH:0.52
G1 X132.875 Y128.641 E0.04533
G1 X129.479 Y135.432 E0.33449
G1 X129.087 Y137.094 E0.39951
G1 X129.087 Y152.719 E0.99455
M73 P0 R38
G1 X129.23 Y153.74 E1.03381
G1 X136.021 Y177.509 E1.97522
G1 X136.615 Y178.709 E2.02622
G1 X137.928 Y179.809 E2.09144
G1 X139.594 Y180.204 E2.15665
G1 X165.406 Y180.204 E3.13964
G1 X166.723 Y179.963 E3.19063
G1 X168.141 Y179.003 E3.25585
G1 X168.979 Y177.509 E3.32106
G1 X175.77 Y153.74 E4.26248
G1 X175.913 Y152.719 E4.30173
G1 X175.913 Y137.094 E4.89678
G1 X175.521 Y135.432 E4.9618
G1 X172.125 Y128.641 E5.25096
G1 X171.429 Y127.675 E5.29629
G1 X168.033 Y124.28 E5.47917
G1 X167.068 Y123.584 E5.5245
G1 X160.276 Y120.188 E5.81365
G1 X158.615 Y119.796 E5.87867
G1 X146.385 Y119.796 E6.34441
G1 X144.724 Y120.188 E6.40943
G1 X137.932 Y123.584 E6.69858
G1 X136.967 Y124.28 E6.74391
G1 X133.571 Y127.675 E6.92679
G1 X133.908 Y128.013 F9000
G1 F1800
G1 X133.302 Y128.854 E6.9663
G1 X129.906 Y135.646 E7.25545
G1 X129.564 Y137.094 E7.31213
G1 X129.564 Y152.719 E7.90717
G1 X129.689 Y153.609 E7.94139
G1 X136.48 Y177.378 E8.8828
G1 X136.875 Y178.247 E8.91916
G1 X138.046 Y179.333 E8.97999
G1 X139.594 Y179.727 E9.04081
G1 X165.406 Y179.727 E10.0238
G1 X166.35 Y179.586 E10.06016
G1 X167.716 Y178.758 E10.12098
G1 X168.52 Y177.378 E10.1818
G1 X175.311 Y153.609 E11.12322
G1 X175.436 Y152.719 E11.15743
G1 X175.436 Y137.094 E11.75248
G1 X175.094 Y135.646 E11.80915
G1 X171.698 Y128.854 E12.09831
G1 X171.092 Y128.013 E12.13782
G1 X167.696 Y124.617 E12.3207
G1 X166.854 Y124.01 E12.36021
G1 X160.063 Y120.615 E12.64936
G1 X158.615 Y120.273 E12.70603
G1 X146.385 Y120.273 E13.17177
G1 X144.937 Y120.615 E13.22844
G1 X138.146 Y124.01 E13.51759
G1 X137.304 Y124.617 E13.5571
G1 X133.908 Y128.013 E13.73998
G92 E0
G1 E-1 F3000
; printing object niveau_viewfinderMainBody.stl id:0 copy 0
EXCLUDE_OBJECT_START NAME=niveau_viewfinderMainBody_stl_id_0_copy_0
G1 X136.198 Y130.303 F9000
G1 E0 F1800
;TYPE:Support material
;WIDTH:0.5
G1 X139.594 Y130.303 E0.12389
G1 X139.594 Y126.907 E0.24779
G1 X146.385 Y126.907 E0.49557
G1 X146.385 Y123.511 E0.61946
G1 X158.615 Y123.511 E1.06567
G1 X158.615 Y126.907 E1.18957
G1 X165.406 Y126.907 E1.43735
G1 X165.406 Y130.303 E1.56124
G1 X168.802 Y130.303 E1.68514
G1 X168.802 Y137.094 E1.93292
G1 X172.197 Y137.094 E2.05681
G1 X172.197 Y152.719 E2.62692
G1 X168.802 Y152.719 E2.75081
G1 X168.802 Y156.115 E2.8747
G1 X165.406 Y156.115 E2.99859
G1 X165.406 Y159.51 E3.12249
G1 X162.01 Y159.51 E3.24638
G1 X162.01 Y160.863 E3.29574
G1 X165.406 Y160.863 E3.41963
G1 X165.406 Y176.488 E3.98974
G1 X139.594 Y176.488 E4.93152
G1 X139.594 Y160.863 E5.50162
G1 X142.99 Y160.863 E5.62551
G1 X142.99 Y159.51 E5.67487
G1 X139.594 Y159.51 E5.79876
G1 X139.594 Y156.115 E5.92266
G1 X136.198 Y156.115 E6.04655
G1 X136.198 Y152.719 E6.17044
G1 X132.803 Y152.719 E6.29434
G1 X132.803 Y137.094 E6.86444
G1 X136.198 Y137.094 E6.98833
G1 X136.198 Y130.303 E7.23612
G1 X144.311 Y138.125 F9000
G1 F1800
G1 X144.265 Y138.923 E7.26526
G1 X144.201 Y139.418 E7.28347
G1 X144.196 Y139.487 E7.28601
G1 X144.196 Y146.536 E7.54317
G1 X144.201 Y146.604 E7.54567
G1 X144.313 Y147.489 E7.57822
G1 X144.96 Y148.031 E7.60902
G1 X145.575 Y148.002 E7.63148
G1 X146.19 Y148.031 E7.65394
G1 X146.837 Y147.489 E7.68475
G1 X146.949 Y146.602 E7.71735
G1 X146.954 Y146.534 E7.71984
G1 X146.954 Y140.983 E7.92237
G1 X147.213 Y140.981 E7.93184
G1 X147.381 Y140.979 E7.93795
G1 X147.876 Y140.979 E7.95602
G1 X151.222 Y140.979 E8.0781
G1 X151.854 Y140.347 E8.1107
G1 X151.854 Y138.178 E8.18982
G1 X151.222 Y137.546 E8.22242
G1 X146.669 Y137.546 E8.38851
G1 X146.21 Y137.546 E8.40529
G1 X145.749 Y137.546 E8.42208
G1 X145.711 Y137.545 E8.4235
G1 X144.944 Y137.535 E8.45146
G1 X144.311 Y138.125 E8.48304
G92 E0
G1 E-1 F3000
G1 X153.146 Y138.178 F9000
G1 E0 F1800
G1 X153.146 Y140.347 E0.07912
G1 X153.778 Y140.979 E0.11172
G1 X157.124 Y140.979 E0.2338
G1 X157.619 Y140.979 E0.25186
G1 X157.787 Y140.981 E0.25798
G1 X158.046 Y140.983 E0.26745
G1 X158.046 Y146.534 E0.46998
G1 X158.051 Y146.602 E0.47247
G1 X158.163 Y147.489 E0.50507
G1 X158.81 Y148.031 E0.53588
G1 X159.425 Y148.002 E0.55834
G1 X160.04 Y148.031 E0.5808
G1 X160.687 Y147.489 E0.6116
G1 X160.799 Y146.604 E0.64415
G1 X160.804 Y146.536 E0.64664
G1 X160.804 Y139.487 E0.90381
G1 X160.799 Y139.418 E0.90635
G1 X160.735 Y138.923 E0.92455
G1 X160.689 Y138.125 E0.9537
G1 X160.056 Y137.535 E0.98528
G1 X159.289 Y137.545 E1.01324
G1 X159.251 Y137.546 E1.01466
G1 X158.79 Y137.546 E1.03145
G1 X158.331 Y137.546 E1.04823
G1 X153.778 Y137.546 E1.21433
G1 X153.146 Y138.178 E1.24693
G92 E0
G1 E-1 F3000
G1 X171.799 Y152.605 F9000
G1 E0 F1800
M73 P1 R37
G1 X171.799 Y137.405 E0.55459
G1 X171.291 Y137.405 E0.57312
G1 X171.291 Y152.408 E1.12054
G1 X170.783 Y152.408 E1.13907
G1 X170.783 Y137.405 E1.68649
G1 X170.275 Y137.405 E1.70502
G1 X170.275 Y152.408 E2.25245
G1 X169.767 Y152.408 E2.27098
G1 X169.767 Y137.405 E2.8184
G1 X169.26 Y137.405 E2.83693
G1 X169.26 Y152.408 E3.38435
G1 X168.752 Y152.408 E3.40288
G1 X168.752 Y137.405 E3.9503
G1 X168.491 Y137.405 E3.95982
G1 X168.491 Y130.614 E4.2076
G1 X168.244 Y130.614 E4.21661
G1 X168.244 Y155.804 E5.13571
G1 X167.736 Y155.804 E5.15424
G1 X167.736 Y130.614 E6.07334
G1 X167.228 Y130.614 E6.09187
G1 X167.228 Y155.804 E7.01097
G1 X166.72 Y155.804 E7.0295
G1 X166.72 Y130.614 E7.9486
G1 X166.212 Y130.614 E7.96713
G1 X166.212 Y155.804 E8.88623
G1 X165.705 Y155.804 E8.90476
G1 X165.705 Y130.614 E9.82386
G1 X165.197 Y130.614 E9.84239
G1 X165.197 Y155.804 E10.76149
G1 X165.095 Y155.804 E10.76519
G1 X165.095 Y159.2 E10.88908
G1 X164.689 Y159.2 E10.90391
G1 X164.689 Y127.218 E12.0708
G1 X164.181 Y127.218 E12.08933
G1 X164.181 Y159.2 E13.25621
G1 X163.673 Y159.2 E13.27474
G1 X163.673 Y127.218 E14.44163
G1 X163.165 Y127.218 E14.46016
G1 X163.165 Y159.2 E15.62704
G1 X162.657 Y159.2 E15.64557
G1 X162.657 Y127.218 E16.81246
M73 P2 R37
G1 X162.149 Y127.218 E16.83099
G1 X162.149 Y159.2 E17.99787
G1 X161.7 Y159.2 E18.01428
G1 X161.7 Y161.174 E18.08633
G1 X162.149 Y161.174 E18.10274
G1 X162.149 Y176.178 E18.65016
G1 X162.657 Y176.178 E18.66869
G1 X162.657 Y161.174 E19.21611
G1 X163.165 Y161.174 E19.23464
G1 X163.165 Y176.178 E19.78206
G1 X163.673 Y176.178 E19.80059
G1 X163.673 Y161.174 E20.34802
G1 X164.181 Y161.174 E20.36655
G1 X164.181 Y176.178 E20.91397
G1 X164.689 Y176.178 E20.9325
G1 X164.689 Y160.978 E21.48709
G1 X161.642 Y176.374 F9000
G1 F1800
G1 X161.642 Y127.218 E23.28061
M73 P2 R37
G1 X161.134 Y127.218 E23.29914
G1 X161.134 Y176.178 E25.08549
G1 X160.626 Y176.178 E25.10402
G1 X160.626 Y147.945 E26.1341
G1 X160.146 Y148.348 E26.15693
G1 X160.118 Y148.346 E26.15797
G1 X160.118 Y176.178 E27.17343
G1 X159.61 Y176.178 E27.19196
G1 X159.61 Y148.322 E28.2083
G1 X159.425 Y148.313 E28.21506
G1 X159.102 Y148.329 E28.22685
G1 X159.102 Y176.178 E29.24296
G1 X158.594 Y176.178 E29.26149
G1 X158.594 Y148.256 E30.28023
G1 X158.087 Y147.83 E30.30442
G1 X158.087 Y176.178 E31.33872
G1 X157.579 Y176.178 E31.35725
G1 X157.579 Y141.29 E32.63018
G1 X157.124 Y141.289 E32.64677
G1 X157.071 Y141.289 E32.64871
G1 X157.071 Y176.178 E33.92164
G1 X156.563 Y176.178 E33.94017
G1 X156.563 Y141.289 E35.21311
G1 X156.055 Y141.289 E35.23164
G1 X156.055 Y176.178 E36.50458
G1 X155.547 Y176.178 E36.52311
G1 X155.547 Y141.289 E37.79604
G1 X155.039 Y141.289 E37.81457
G1 X155.039 Y176.178 E39.08751
G1 X154.531 Y176.178 E39.10604
G1 X154.531 Y141.289 E40.37898
G1 X154.024 Y141.289 E40.39751
G1 X154.024 Y176.178 E41.67044
G1 X153.516 Y176.178 E41.68897
G1 X153.516 Y140.878 E42.97693
G92 E0
G1 E-1 F3000
G1 X160.626 Y137.91 F9000
G1 E0 F1800
G1 X160.626 Y127.218 E0.39013
G1 X160.118 Y127.218 E0.40866
G1 X160.118 Y137.224 E0.77373
G1 X159.61 Y137.23 E0.79227
G1 X159.61 Y127.218 E1.15758
G1 X159.102 Y127.218 E1.17611
G1 X159.102 Y137.235 E1.5416
G1 X158.79 Y137.236 E1.55299
G1 X158.594 Y137.236 E1.56013
G1 X158.594 Y127.218 E1.92564
G1 X158.304 Y127.218 E1.93624
G1 X158.304 Y123.822 E2.06013
G1 X158.087 Y123.822 E2.06806
G1 X158.087 Y137.236 E2.55746
G1 X157.579 Y137.236 E2.57599
G1 X157.579 Y123.822 E3.06539
G1 X157.071 Y123.822 E3.08392
G1 X157.071 Y137.236 E3.57332
M73 P3 R36
G1 X156.563 Y137.236 E3.59185
G1 X156.563 Y123.822 E4.08125
G1 X156.055 Y123.822 E4.09978
G1 X156.055 Y137.236 E4.58918
G1 X155.547 Y137.236 E4.60771
G1 X155.547 Y123.822 E5.09711
G1 X155.039 Y123.822 E5.11564
G1 X155.039 Y137.236 E5.60504
G1 X154.531 Y137.236 E5.62357
G1 X154.531 Y123.822 E6.11297
G1 X154.024 Y123.822 E6.1315
G1 X154.024 Y137.236 E6.6209
G1 X153.65 Y137.236 E6.63455
G1 X153.516 Y137.369 E6.64146
G1 X153.516 Y123.822 E7.13574
G1 X153.008 Y123.822 E7.15427
G1 X153.008 Y176.178 E9.06451
G1 X152.5 Y176.178 E9.08304
G1 X152.5 Y123.822 E10.99328
G1 X151.992 Y123.822 E11.01181
G1 X151.992 Y176.178 E12.92205
G1 X151.484 Y176.178 E12.94058
G1 X151.484 Y141.156 E14.2184
G1 X151.35 Y141.289 E14.2253
G1 X150.976 Y141.289 E14.23895
G1 X150.976 Y176.178 E15.51189
G1 X150.469 Y176.178 E15.53042
G1 X150.469 Y141.289 E16.80335
G1 X149.961 Y141.289 E16.82188
G1 X149.961 Y176.178 E18.09482
G1 X149.453 Y176.178 E18.11335
G1 X149.453 Y141.289 E19.38629
G1 X148.945 Y141.289 E19.40482
G1 X148.945 Y176.178 E20.67775
G1 X148.437 Y176.178 E20.69628
G1 X148.437 Y141.289 E21.96922
G1 X147.929 Y141.289 E21.98775
G1 X147.929 Y176.178 E23.26069
G1 X147.421 Y176.178 E23.27922
G1 X147.421 Y141.29 E24.55214
G1 X147.382 Y141.29 E24.55357
G1 X147.264 Y141.291 E24.55787
G1 X147.264 Y146.544 E24.74953
G1 X147.259 Y146.631 E24.75273
G1 X147.13 Y147.648 E24.79014
G1 X146.913 Y147.83 E24.80044
G1 X146.913 Y176.178 E25.83473
G1 X146.406 Y176.178 E25.85326
G1 X146.406 Y148.256 E26.87201
M73 P4 R36
G1 X146.297 Y148.348 E26.8772
G1 X145.898 Y148.329 E26.89177
G1 X145.898 Y176.178 E27.90788
G1 X145.39 Y176.178 E27.92641
G1 X145.39 Y148.322 E28.94275
G1 X144.882 Y148.346 E28.9613
G1 X144.882 Y176.178 E29.97676
G1 X144.374 Y176.178 E29.99529
G1 X144.374 Y147.945 E31.02537
G1 X144.021 Y147.649 E31.04221
G1 X143.891 Y146.633 E31.07956
G1 X143.886 Y146.545 E31.08277
G1 X143.886 Y139.477 E31.34066
G1 X143.891 Y139.388 E31.34393
G1 X143.955 Y138.894 E31.3621
G1 X144.008 Y137.983 E31.39539
G1 X144.374 Y137.642 E31.41366
G1 X144.374 Y127.218 E31.79398
G1 X144.882 Y127.218 E31.81251
G1 X144.882 Y137.224 E32.17759
G1 X145.39 Y137.23 E32.19612
G1 X145.39 Y127.218 E32.56143
G1 X145.898 Y127.218 E32.57996
G1 X145.898 Y137.235 E32.94546
G1 X146.21 Y137.236 E32.95684
G1 X146.406 Y137.236 E32.96399
G1 X146.406 Y127.218 E33.32949
G1 X146.696 Y127.218 E33.34009
G1 X146.696 Y123.822 E33.46398
G1 X146.913 Y123.822 E33.47192
G1 X146.913 Y137.236 E33.96132
G1 X147.421 Y137.236 E33.97985
G1 X147.421 Y123.822 E34.46925
G1 X147.929 Y123.822 E34.48778
G1 X147.929 Y137.236 E34.97718
G1 X148.437 Y137.236 E34.99571
G1 X148.437 Y123.822 E35.48511
G1 X148.945 Y123.822 E35.50364
G1 X148.945 Y137.236 E35.99304
M73 P4 R36
G1 X149.453 Y137.236 E36.01157
G1 X149.453 Y123.822 E36.50097
G1 X149.961 Y123.822 E36.5195
G1 X149.961 Y137.236 E37.0089
G1 X150.469 Y137.236 E37.02743
G1 X150.469 Y123.822 E37.51683
G1 X150.976 Y123.822 E37.53536
G1 X150.976 Y137.236 E38.02476
G1 X151.35 Y137.236 E38.03841
G1 X151.484 Y137.369 E38.04531
G1 X151.484 Y123.626 E38.54676
G92 E0
G1 E-1 F3000
G1 X143.866 Y176.374 F9000
G1 E0 F1800
G1 X143.866 Y127.218 E1.79352
G1 X143.358 Y127.218 E1.81205
G1 X143.358 Y176.178 E3.5984
G1 X142.851 Y176.178 E3.61693
G1 X142.851 Y161.174 E4.16435
G1 X142.343 Y161.174 E4.18288
G1 X142.343 Y176.178 E4.7303
G1 X141.835 Y176.178 E4.74883
G1 X141.835 Y161.174 E5.29625
G1 X141.327 Y161.174 E5.31478
G1 X141.327 Y176.178 E5.8622
G1 X140.819 Y176.178 E5.88073
G1 X140.819 Y161.174 E6.42815
G1 X140.311 Y161.174 E6.44668
G1 X140.311 Y176.374 E7.00128
G1 X142.851 Y159.396 F9000
G1 F1800
G1 X142.851 Y127.218 E8.17533
G1 X142.343 Y127.218 E8.19386
G1 X142.343 Y159.2 E9.36075
G1 X141.835 Y159.2 E9.37928
G1 X141.835 Y127.218 E10.54616
M73 P5 R36
G1 X141.327 Y127.218 E10.56469
G1 X141.327 Y159.2 E11.73158
G1 X140.819 Y159.2 E11.75011
G1 X140.819 Y127.218 E12.91699
G1 X140.311 Y127.218 E12.93552
G1 X140.311 Y159.2 E14.1024
G1 X139.905 Y159.2 E14.11723
G1 X139.905 Y155.804 E14.24113
G1 X139.803 Y155.804 E14.24483
G1 X139.803 Y130.614 E15.16393
G1 X139.295 Y130.614 E15.18246
G1 X139.295 Y155.804 E16.10156
G1 X138.788 Y155.804 E16.12009
G1 X138.788 Y130.614 E17.03918
G1 X138.28 Y130.614 E17.05771
G1 X138.28 Y155.804 E17.97681
G1 X137.772 Y155.804 E17.99534
G1 X137.772 Y130.614 E18.91444
G1 X137.264 Y130.614 E18.93297
G1 X137.264 Y155.804 E19.85207
G1 X136.756 Y155.804 E19.8706
G1 X136.756 Y130.614 E20.7897
G1 X136.509 Y130.614 E20.79871
G1 X136.509 Y137.405 E21.0465
G1 X136.248 Y137.405 E21.05602
G1 X136.248 Y152.408 E21.60344
G1 X135.74 Y152.408 E21.62197
G1 X135.74 Y137.405 E22.16939
G1 X135.233 Y137.405 E22.18792
G1 X135.233 Y152.408 E22.73534
G1 X134.725 Y152.408 E22.75387
G1 X134.725 Y137.405 E23.30129
G1 X134.217 Y137.405 E23.31982
G1 X134.217 Y152.408 E23.86724
G1 X133.709 Y152.408 E23.88577
G1 X133.709 Y137.405 E24.43319
G1 X133.201 Y137.405 E24.45172
G1 X133.201 Y152.605 E25.00632
G92 E0
G1 E-1 F3000
G1 X145.625 Y139.781 F9000
G1 E0 F1800
;TYPE:External perimeter
G1 X145.625 Y146.484 E0.24457
G1 X145.6 Y146.684 E0.25191
G1 X145.55 Y146.684 E0.25371
G1 X145.525 Y146.486 E0.26101
G1 X145.525 Y139.538 E0.51449
G1 X145.599 Y138.873 E0.53892
G1 X145.74 Y138.874 E0.54408
G1 X150.525 Y138.875 E0.71866
G1 X150.525 Y139.65 E0.74695
G1 X146.868 Y139.655 E0.88039
G1 X146.351 Y139.684 E0.89926
G1 X145.625 Y139.781 E0.926
;WIPE_START
M204 S3000
G1 X145.225 Y139.799 F9000
;WIPE_END
M204 S1000
G1 X145.762 Y139.312
;TYPE:Gap fill
;WIDTH:0.486103
G1 F1800
G1 X145.872 Y139.307 E0.92989
G1 X145.981 Y139.302 E0.93377
G1 X146.144 Y139.291 E0.93952
;WIDTH:0.433924
G1 X146.321 Y139.28 E0.94507
G1 X146.586 Y139.272 E0.95336
;WIDTH:0.403
G1 X146.862 Y139.265 E0.96127
G1 X148.499 Y139.264 E1.00835
G1 X150.137 Y139.263 E1.05542
G1 X150.314 Y139.263 E1.06052
G92 E0
G1 E-1 F3000
G1 X159.375 Y139.781 F9000
G1 E0 F1800
;TYPE:External perimeter
;WIDTH:0.5
G1 X158.649 Y139.684 E0.02674
G1 X158.132 Y139.655 E0.04561
G1 X154.475 Y139.65 E0.17905
G1 X154.475 Y138.875 E0.20735
G1 X159.401 Y138.87 E0.38708
G1 X159.41 Y139.029 E0.39288
G1 X159.475 Y139.538 E0.41163
G1 X159.475 Y146.486 E0.66511
G1 X159.45 Y146.684 E0.6724
G1 X159.4 Y146.684 E0.67421
G1 X159.375 Y146.484 E0.68155
G1 X159.375 Y139.781 E0.92612
;WIPE_START
M204 S3000
G1 X159.41 Y139.383 F9000
;WIPE_END
M204 S1000
G1 X159.234 Y139.31
;TYPE:Gap fill
