; generated by SuperSlicer 2.5.59 on 2023-02-03 at 00:08:31 UTC


;
;

;
;
; 

; external perimeters extrusion width = 0.40mm
; perimeters extrusion width = 0.46mm
; infill extrusion width = 0.64mm
; solid infill extrusion width = 0.56mm
; top infill extrusion width = 0.40mm
; support material extrusion width = 0.46mm
; first layer extrusion width = 0.50mm

; external perimeters extrusion width = 0.40mm
; perimeters extrusion width = 0.46mm
; infill extrusion width = 0.64mm
; solid infill extrusion width = 0.56mm
; top infill extrusion width = 0.40mm
; support material extrusion width = 0.46mm
; first layer extrusion width = 0.50mm

; object:{"name":"niveau_lensCap49mmLatchL","id":"niveau_lensCap49mmLatchL.stl id:0 copy 0","object_center":[139.058910,149.816968,0.000000],"boundingbox_center":[139.058910,149.816968,10.500000],"boundingbox_size":[9.200003,29.600000,21.000000]}
; object:{"name":"niveau_lensCap49mmLatchR","id":"niveau_lensCap49mmLatchR.stl id:1 copy 0","object_center":[165.999164,150.112665,0.000000],"boundingbox_center":[165.999164,150.112665,10.500000],"boundingbox_size":[9.200003,29.600000,21.000000]}
; plater:{"center":[152.529037,149.964816,0.000000],"boundingbox_center":[152.529037,149.964816,10.500000],"boundingbox_size":[36.140257,29.895697,21.000000]}

M73 P0 R35


; Pre-Processed for Cancel-Object support by preprocess_cancellation v0.2.0
; 2 known objects
EXCLUDE_OBJECT_DEFINE NAME=niveau_lensCap49mmLatchL_stl_id_0_copy_0 CENTER=140.179,149.779 POLYGON=[[129.548,133.515],[129.548,166.119],[148.569,166.119],[148.569,133.515]]
EXCLUDE_OBJECT_DEFINE NAME=niveau_lensCap49mmLatchR_stl_id_1_copy_0 CENTER=164.875,150.047 POLYGON=[[156.489,133.811],[156.489,166.414],[175.51,166.414],[175.51,133.811]]
;TYPE:Custom
START_PRINT T_BED=70 T_EXTRUDER=235
M107
G21 ; set units to millimeters
G90 ; use absolute coordinates
M82 ; use absolute distances for extrusion
G92 E0
; Filament gcode
PRESSURE_ADVANCE_SELECT FILAMENT=PETG
;_TOOLCHANGE 0
M104 S235 ; set temperature
M109 S235 ; set temperature and wait for it to be reached
M190 S70 ; set bed temperature and wait for it to be reached
M107
;LAYER_CHANGE
;Z:0.2
;HEIGHT:0.2
G1 Z0.2 F9000
G1 E-1 F3000
M204 S1000
G1 X127.328 Y130.537 F9000
M73 P0 R35
G1 E0 F1800
;TYPE:Skirt
;WIDTH:0.52
G1 X126.227 Y131.849 E0.06521
G1 X125.833 Y133.515 E0.13043
G1 X125.833 Y166.119 E1.37205
M73 P0 R35
G1 X126.548 Y168.31 E1.45985
G1 X127.85 Y169.423 E1.52506
G1 X129.512 Y169.834 E1.59028
G1 X159.848 Y170.13 E2.7456
G1 X175.51 Y170.13 E3.34203
G1 X177.731 Y169.393 E3.43114
G1 X178.831 Y168.081 E3.49635
G1 X179.225 Y166.414 E3.56157
G1 X179.225 Y133.811 E4.80319
G1 X178.51 Y131.619 E4.89099
G1 X177.208 Y130.506 E4.9562
G1 X175.546 Y130.096 E5.02142
G1 X145.21 Y129.8 E6.17674
G1 X129.548 Y129.8 E6.77317
G1 X127.328 Y130.537 E6.86228
G1 X127.705 Y130.887 F9000
G1 F1800
G1 X126.704 Y131.968 E6.9184
G1 X126.31 Y133.515 E6.97922
G1 X126.31 Y166.119 E8.22083
G1 X126.812 Y167.851 E8.28953
G1 X127.973 Y168.948 E8.35035
G1 X129.517 Y169.357 E8.41117
G1 X159.853 Y169.653 E9.5665
G1 X175.51 Y169.653 E10.16274
G1 X177.269 Y169.133 E10.23259
G1 X178.354 Y167.962 E10.29341
G1 X178.748 Y166.414 E10.35424
G1 X178.748 Y133.811 E11.59585
G1 X178.246 Y132.079 E11.66455
G1 X177.085 Y130.982 E11.72537
G1 X175.541 Y130.573 E11.78619
G1 X145.205 Y130.277 E12.94151
G1 X129.548 Y130.277 E13.53776
G1 X127.789 Y130.796 E13.60761
G1 X127.705 Y130.887 E13.61232
G92 E0
G1 E-1 F3000
; printing object niveau_lensCap49mmLatchL.stl id:0 copy 0
EXCLUDE_OBJECT_START NAME=niveau_lensCap49mmLatchL_stl_id_0_copy_0
G1 X129.548 Y133.515 F9000
G1 E0 F1800
;TYPE:Support material
;WIDTH:0.5
G1 X145.174 Y133.515 E0.5701
G1 X145.174 Y140.307 E0.81789
G1 X148.569 Y140.307 E0.94178
G1 X148.569 Y159.327 E1.63577
G1 X145.174 Y159.327 E1.75967
G1 X145.174 Y166.119 E2.00745
G1 X129.548 Y166.119 E2.57755
G1 X129.548 Y133.515 E3.76712
G1 X137.462 Y151.088 F9000
G1 F1800
G1 X136.83 Y151.72 E3.79972
G1 X136.83 Y164.964 E4.28292
G1 X137.462 Y165.596 E4.31552
G1 X139.806 Y165.596 E4.40103
G1 X140.437 Y164.964 E4.43363
G1 X140.437 Y161.396 E4.56382
G1 X143.306 Y161.396 E4.66847
G1 X143.937 Y160.764 E4.70107
G1 X143.937 Y157.47 E4.82123
G1 X143.306 Y156.838 E4.85383
G1 X140.937 Y156.838 E4.94024
G1 X140.937 Y151.72 E5.12698
G1 X140.306 Y151.088 E5.15958
G1 X137.462 Y151.088 E5.26333
G1 X137.462 Y148.546 F9000
G1 F1800
G1 X140.306 Y148.546 E5.36708
G1 X140.937 Y147.914 E5.39968
G1 X140.937 Y142.796 E5.58642
G1 X143.306 Y142.796 E5.67283
G1 X143.937 Y142.164 E5.70543
G1 X143.937 Y138.87 E5.8256
G1 X143.306 Y138.238 E5.8582
G1 X140.437 Y138.238 E5.96285
G1 X140.437 Y134.67 E6.09304
G1 X139.806 Y134.038 E6.12564
G1 X137.462 Y134.038 E6.21114
G1 X136.83 Y134.67 E6.24374
G1 X136.83 Y147.914 E6.72694
G1 X137.462 Y148.546 E6.75954
G1 X148.2 Y159.213 F9000
G1 F1800
G1 X148.2 Y140.617 E7.43803
M73 P1 R35
G1 X147.693 Y140.617 E7.45656
G1 X147.693 Y159.017 E8.12787
G1 X147.185 Y159.017 E8.1464
G1 X147.185 Y140.617 E8.81772
G1 X146.677 Y140.617 E8.83625
G1 X146.677 Y159.017 E9.50756
G1 X146.169 Y159.017 E9.52609
G1 X146.169 Y140.617 E10.1974
G1 X145.661 Y140.617 E10.21593
G1 X145.661 Y159.017 E10.88725
G1 X145.153 Y159.017 E10.90578
G1 X145.153 Y140.617 E11.57709
G1 X144.863 Y140.617 E11.58769
G1 X144.863 Y133.826 E11.83547
G1 X144.645 Y133.826 E11.84341
G1 X144.645 Y165.808 E13.01029
G1 X144.138 Y165.808 E13.02882
G1 X144.138 Y133.826 E14.19571
G1 X143.63 Y133.826 E14.21424
G1 X143.63 Y138.123 E14.37101
G1 X143.434 Y137.928 E14.38109
G1 X143.122 Y137.928 E14.39249
G1 X143.122 Y133.826 E14.54214
G1 X142.614 Y133.826 E14.56067
G1 X142.614 Y137.928 E14.71031
G1 X142.106 Y137.928 E14.72884
G1 X142.106 Y133.826 E14.87849
G1 X141.598 Y133.826 E14.89702
G1 X141.598 Y137.928 E15.04667
G1 X141.09 Y137.928 E15.0652
G1 X141.09 Y133.826 E15.21485
G1 X140.583 Y133.826 E15.23338
G1 X140.583 Y134.376 E15.25343
G1 X140.075 Y133.868 E15.27963
G1 X140.075 Y133.63 E15.28833
G92 E0
G1 E-1 F3000
G1 X143.63 Y166.004 F9000
G1 E0 F1800
G1 X143.63 Y161.511 E0.16394
G1 X143.434 Y161.706 E0.17402
G1 X143.122 Y161.706 E0.18542
G1 X143.122 Y165.808 E0.33507
G1 X142.614 Y165.808 E0.3536
G1 X142.614 Y161.706 E0.50325
G1 X142.106 Y161.706 E0.52178
G1 X142.106 Y165.808 E0.67142
G1 X141.598 Y165.808 E0.68995
G1 X141.598 Y161.706 E0.8396
G1 X141.09 Y161.706 E0.85813
G1 X141.09 Y165.808 E1.00777
G1 X140.583 Y165.808 E1.0263
G1 X140.583 Y165.258 E1.04636
G1 X140.075 Y165.766 E1.07256
G1 X140.075 Y166.004 E1.08125
G92 E0
G1 E-1 F3000
G1 X143.63 Y157.001 F9000
G1 E0 F1800
G1 X143.63 Y142.911 E0.51408
G1 X143.434 Y143.106 E0.52416
G1 X143.122 Y143.106 E0.53556
G1 X143.122 Y156.528 E1.02526
G1 X142.614 Y156.528 E1.04379
G1 X142.614 Y143.106 E1.53348
G1 X142.106 Y143.106 E1.55201
G1 X142.106 Y156.528 E2.0417
G1 X141.598 Y156.528 E2.06023
G1 X141.598 Y143.106 E2.54992
G1 X141.248 Y143.106 E2.56269
G1 X141.248 Y148.042 E2.74279
G1 X141.09 Y148.2 E2.75093
G1 X141.09 Y151.434 E2.8689
G1 X140.583 Y150.926 E2.89511
G1 X140.583 Y148.708 E2.97601
G1 X140.434 Y148.856 E2.98366
G1 X140.075 Y148.856 E2.99678
G1 X140.075 Y150.778 E3.06688
G1 X139.567 Y150.778 E3.08541
G1 X139.567 Y148.856 E3.15551
G1 X139.059 Y148.856 E3.17404
G1 X139.059 Y150.778 E3.24414
G1 X138.551 Y150.778 E3.26267
G1 X138.551 Y148.856 E3.33277
G1 X138.043 Y148.856 E3.3513
G1 X138.043 Y150.778 E3.42141
G1 X137.535 Y150.778 E3.43994
G1 X137.535 Y148.856 E3.51004
G1 X137.333 Y148.856 E3.5174
G1 X137.027 Y148.55 E3.53319
G1 X137.027 Y151.362 E3.63576
G1 X137.027 Y166.004 F9000
G1 F1800
G1 X137.027 Y165.322 E3.66064
G1 X137.027 Y134.312 F9000
G1 F1800
G1 X137.027 Y133.826 E3.67835
G1 X136.52 Y133.826 E3.69688
G1 X136.52 Y165.808 E4.86377
G1 X136.012 Y165.808 E4.8823
G1 X136.012 Y133.826 E6.04918
G1 X135.504 Y133.826 E6.06771
G1 X135.504 Y165.808 E7.2346
G1 X134.996 Y165.808 E7.25313
G1 X134.996 Y133.826 E8.42001
G1 X134.488 Y133.826 E8.43854
G1 X134.488 Y165.808 E9.60542
G1 X133.98 Y165.808 E9.62395
G1 X133.98 Y133.826 E10.79084
M73 P2 R34
G1 X133.472 Y133.826 E10.80937
G1 X133.472 Y165.808 E11.97625
G1 X132.965 Y165.808 E11.99478
G1 X132.965 Y133.826 E13.16167
G1 X132.457 Y133.826 E13.1802
G1 X132.457 Y165.808 E14.34708
G1 X131.949 Y165.808 E14.36561
G1 X131.949 Y133.826 E15.5325
G1 X131.441 Y133.826 E15.55103
G1 X131.441 Y165.808 E16.71791
G1 X130.933 Y165.808 E16.73644
G1 X130.933 Y133.826 E17.90333
G1 X130.425 Y133.826 E17.92186
G1 X130.425 Y165.808 E19.08874
G1 X129.917 Y165.808 E19.10727
G1 X129.917 Y133.63 E20.28133
G92 E0
G1 E-1 F3000
G1 X139.152 Y158.624 F9000
G1 E0 F1800
;TYPE:Internal perimeter
G1 X142.152 Y158.624 E0.10946
G1 X142.152 Y159.61 E0.14543
G1 X138.616 Y159.61 E0.27444
G1 X138.616 Y152.874 E0.5202
G1 X139.152 Y152.874 E0.53975
G1 X139.152 Y158.624 E0.74955
G1 X139.609 Y158.167 F9000
;TYPE:External perimeter
G1 F1800
G1 X142.609 Y158.167 E0.85901
G1 X142.609 Y160.067 E0.92833
G1 X139.109 Y160.067 E1.05603
G1 X139.109 Y164.267 E1.20927
G1 X138.159 Y164.267 E1.24393
G1 X138.159 Y152.417 E1.67629
G1 X139.609 Y152.417 E1.7292
G1 X139.609 Y158.167 E1.93899
;WIPE_START
M204 S3000
G1 X139.609 Y158.567 F9000
;WIPE_END
M204 S1000
G1 X138.634 Y159.82
;TYPE:Gap fill
;WIDTH:0.571839
G1 F1800
G1 X138.634 Y163.792 E2.10667
G1 X138.634 Y163.924 E2.11226
G1 X138.634 Y164.056 E2.11784
G92 E0
G1 E-1 F3000
G1 X141.941 Y159.117 F9000
G1 E0 F1800
;WIDTH:0.583739
G1 X141.8 Y159.117 E0.0061
G1 X141.659 Y159.117 E0.01219
G1 X139.109 Y159.117 E0.12228
G1 X139.067 Y159.075 E0.12483
;WIDTH:0.392174
G1 X138.941 Y158.949 E0.12979
;WIDTH:0.215065
G1 X138.884 Y158.835 E0.13155
;WIDTH:0.157684
G1 X138.884 Y153.085 E0.18423
G92 E0
G1 E-1 F3000
G1 X138.616 Y140.024 F9000
G1 E0 F1800
;TYPE:Internal perimeter
;WIDTH:0.5
G1 X142.152 Y140.024 E0.12901
G1 X142.152 Y141.01 E0.16498
G1 X139.152 Y141.01 E0.27444
G1 X139.152 Y146.76 E0.48423
G1 X138.616 Y146.76 E0.50378
G1 X138.616 Y140.024 E0.74955
G1 X139.109 Y139.567 F9000
;TYPE:External perimeter
G1 F1800
G1 X142.609 Y139.567 E0.87725
G1 X142.609 Y141.467 E0.94657
G1 X139.609 Y141.467 E1.05603
G1 X139.609 Y147.217 E1.26583
G1 X138.159 Y147.217 E1.31873
G1 X138.159 Y135.367 E1.75109
G1 X139.109 Y135.367 E1.78575
G1 X139.109 Y139.567 E1.93899
;WIPE_START
M204 S3000
G1 X139.109 Y139.967 F9000
;WIPE_END
M204 S1000
G1 X138.634 Y139.813
;TYPE:Gap fill
;WIDTH:0.571839
G1 F1800
G1 X138.634 Y135.842 E2.10667
G1 X138.634 Y135.71 E2.11226
G1 X138.634 Y135.578 E2.11784
G92 E0
G1 E-1 F3000
G1 X141.941 Y140.517 F9000
G1 E0 F1800
;WIDTH:0.583741
G1 X141.8 Y140.517 E0.0061
G1 X141.659 Y140.517 E0.01219
G1 X139.109 Y140.517 E0.12228
G1 X139.067 Y140.559 E0.12483
;WIDTH:0.392175
G1 X138.941 Y140.685 E0.12979
;WIDTH:0.215065
G1 X138.884 Y140.799 E0.13155
;WIDTH:0.157684
G1 X138.884 Y146.549 E0.18423
G92 E0
G1 E-1 F3000
; stop printing object niveau_lensCap49mmLatchL.stl id:0 copy 0
EXCLUDE_OBJECT_END NAME=niveau_lensCap49mmLatchL_stl_id_0_copy_0
; printing object niveau_lensCap49mmLatchR.stl id:1 copy 0
EXCLUDE_OBJECT_START NAME=niveau_lensCap49mmLatchR_stl_id_1_copy_0
G1 X156.489 Y146.549 F9000
G1 E0 F1800
;TYPE:Support material
;WIDTH:0.5
G1 X156.489 Y140.602 E0.21699
G1 X159.884 Y140.602 E0.34088
G1 X159.884 Y133.811 E0.58866
G1 X175.51 Y133.811 E1.15877
G1 X175.51 Y166.414 E2.34833
G1 X159.884 Y166.414 E2.91843
G1 X159.884 Y159.623 E3.16622
G1 X156.489 Y159.623 E3.29011
G1 X156.489 Y146.549 E3.76712
G1 X164.121 Y152.016 F9000
G1 F1800
G1 X164.121 Y157.134 E3.95386
G1 X161.752 Y157.134 E4.04027
M73 P3 R34
G1 X161.121 Y157.766 E4.07287
G1 X161.121 Y161.059 E4.19304
G1 X161.752 Y161.691 E4.22564
M73 P3 R34
G1 X164.621 Y161.691 E4.33029
G1 X164.621 Y165.259 E4.46048
G1 X165.252 Y165.891 E4.49308
G1 X167.596 Y165.891 E4.57858
G1 X168.228 Y165.259 E4.61118
G1 X168.228 Y152.016 E5.09438
G1 X167.596 Y151.384 E5.12698
G1 X164.752 Y151.384 E5.23073
G1 X164.121 Y152.016 E5.26333
G1 X164.752 Y148.841 F9000
G1 F1800
G1 X167.596 Y148.841 E5.36708
G1 X168.228 Y148.209 E5.39968
G1 X168.228 Y134.966 E5.88288
G1 X167.596 Y134.334 E5.91548
G1 X165.252 Y134.334 E6.00099
G1 X164.621 Y134.966 E6.03359
G1 X164.621 Y138.534 E6.16378
G1 X161.752 Y138.534 E6.26843
G1 X161.121 Y139.166 E6.30103
G1 X161.121 Y142.459 E6.42119
G1 X161.752 Y143.091 E6.45379
G1 X164.121 Y143.091 E6.5402
G1 X164.121 Y148.209 E6.72694
G1 X164.752 Y148.841 E6.75954
G92 E0
G1 E-1 F3000
G1 X175.141 Y166.3 F9000
G1 E0 F1800
G1 X175.141 Y134.122 E1.17406
G1 X174.633 Y134.122 E1.19259
G1 X174.633 Y166.103 E2.35947
G1 X174.125 Y166.103 E2.378
G1 X174.125 Y134.122 E3.54489
G1 X173.617 Y134.122 E3.56342
G1 X173.617 Y166.103 E4.7303
G1 X173.109 Y166.103 E4.74883
G1 X173.109 Y134.122 E5.91571
G1 X172.601 Y134.122 E5.93424
G1 X172.601 Y166.103 E7.10113
G1 X172.094 Y166.103 E7.11966
G1 X172.094 Y134.122 E8.28654
G1 X171.586 Y134.122 E8.30507
G1 X171.586 Y166.103 E9.47196
G1 X171.078 Y166.103 E9.49049
G1 X171.078 Y134.122 E10.65737
G1 X170.57 Y134.122 E10.6759
G1 X170.57 Y166.103 E11.84279
G1 X170.062 Y166.103 E11.86132
G1 X170.062 Y134.122 E13.0282
G1 X169.554 Y134.122 E13.04673
G1 X169.554 Y166.103 E14.21362
G1 X169.046 Y166.103 E14.23215
G1 X169.046 Y134.122 E15.39903
G1 X168.538 Y134.122 E15.41756
G1 X168.538 Y166.103 E16.58445
G1 X168.031 Y166.103 E16.60298
G1 X168.031 Y165.618 E16.62069
G1 X168.031 Y151.657 F9000
G1 F1800
G1 X168.031 Y148.846 E16.72326
G1 X167.725 Y149.152 E16.73904
G1 X167.523 Y149.152 E16.74641
G1 X167.523 Y151.073 E16.81651
G1 X167.015 Y151.073 E16.83504
G1 X167.015 Y149.152 E16.90514
G1 X166.507 Y149.152 E16.92367
G1 X166.507 Y151.073 E16.99377
G1 X165.999 Y151.073 E17.0123
G1 X165.999 Y149.152 E17.0824
G1 X165.491 Y149.152 E17.10093
G1 X165.491 Y151.073 E17.17103
G1 X164.983 Y151.073 E17.18956
G1 X164.983 Y149.152 E17.25966
G1 X164.624 Y149.152 E17.27279
G1 X164.476 Y149.004 E17.28043
G1 X164.476 Y151.221 E17.36134
G1 X163.968 Y151.729 E17.38754
G1 X163.968 Y148.496 E17.50551
G1 X163.81 Y148.338 E17.51366
G1 X163.81 Y143.402 E17.69376
G1 X163.46 Y143.402 E17.70653
G1 X163.46 Y156.823 E18.19622
M73 P4 R34
G1 X162.952 Y156.823 E18.21475
G1 X162.952 Y143.402 E18.70444
G1 X162.444 Y143.402 E18.72297
G1 X162.444 Y156.823 E19.21266
G1 X161.936 Y156.823 E19.23119
G1 X161.936 Y143.402 E19.72088
G1 X161.624 Y143.402 E19.73228
G1 X161.428 Y143.207 E19.74236
G1 X161.428 Y157.297 E20.25645
G92 E0
G1 E-1 F3000
G1 X168.031 Y134.607 F9000
G1 E0 F1800
G1 X168.031 Y133.925 E0.02488
G92 E0
G1 E-1 F3000
G1 X164.983 Y166.3 F9000
G1 E0 F1800
G1 X164.983 Y166.062 E0.00869
G1 X164.476 Y165.554 E0.0349
G1 X164.476 Y166.103 E0.05495
G1 X163.968 Y166.103 E0.07348
G1 X163.968 Y162.002 E0.22313
G1 X163.46 Y162.002 E0.24166
G1 X163.46 Y166.103 E0.3913
G1 X162.952 Y166.103 E0.40983
G1 X162.952 Y162.002 E0.55948
G1 X162.444 Y162.002 E0.57801
G1 X162.444 Y166.103 E0.72765
G1 X161.936 Y166.103 E0.74618
G1 X161.936 Y162.002 E0.89583
G1 X161.624 Y162.002 E0.90723
G1 X161.428 Y161.807 E0.91731
G1 X161.428 Y166.103 E1.07408
G1 X160.921 Y166.103 E1.09261
G1 X160.921 Y134.122 E2.2595
G1 X161.428 Y134.122 E2.27803
G1 X161.428 Y138.419 E2.4348
G1 X161.624 Y138.223 E2.44488
G1 X161.936 Y138.223 E2.45628
G1 X161.936 Y134.122 E2.60593
G1 X162.444 Y134.122 E2.62446
G1 X162.444 Y138.223 E2.77411
G1 X162.952 Y138.223 E2.79264
G1 X162.952 Y134.122 E2.94228
G1 X163.46 Y134.122 E2.96081
G1 X163.46 Y138.223 E3.11046
G1 X163.968 Y138.223 E3.12899
G1 X163.968 Y134.122 E3.27864
G1 X164.476 Y134.122 E3.29717
G1 X164.476 Y134.671 E3.31722
G1 X164.983 Y134.164 E3.34342
G1 X164.983 Y133.925 E3.35212
G92 E0
G1 E-1 F3000
G1 X160.413 Y166.3 F9000
G1 E0 F1800
G1 X160.413 Y134.122 E1.17406
G1 X160.195 Y134.122 E1.18199
G1 X160.195 Y140.913 E1.42978
G1 X159.905 Y140.913 E1.44037
G1 X159.905 Y159.312 E2.11168
G1 X159.397 Y159.312 E2.13022
G1 X159.397 Y140.913 E2.80153
G1 X158.889 Y140.913 E2.82006
G1 X158.889 Y159.312 E3.49137
G1 X158.381 Y159.312 E3.5099
G1 X158.381 Y140.913 E4.18122
G1 X157.873 Y140.913 E4.19975
G1 X157.873 Y159.312 E4.87106
G1 X157.365 Y159.312 E4.88959
G1 X157.365 Y140.913 E5.5609
G1 X156.858 Y140.913 E5.57943
G1 X156.858 Y159.509 E6.25792
G92 E0
G1 E-1 F3000
