; HEADER_BLOCK_START
; generated by OrcaSlicer 1.6.6 on 2023-08-31 at 23:06:00
; total layer number: 18
; HEADER_BLOCK_END

; THUMBNAIL_BLOCK_START
; THUMBNAIL_BLOCK_END

; external perimeters extrusion width = 0.40mm
; perimeters extrusion width = 0.45mm
; infill extrusion width = 0.45mm
; solid infill extrusion width = 0.40mm
; top infill extrusion width = 0.40mm
; support material extrusion width = 0.40mm
; first layer extrusion width = 0.50mm

; external perimeters extrusion width = 0.40mm
; perimeters extrusion width = 0.45mm
; infill extrusion width = 0.45mm
; solid infill extrusion width = 0.40mm
; top infill extrusion width = 0.40mm
; support material extrusion width = 0.40mm
; first layer extrusion width = 0.50mm

; external perimeters extrusion width = 0.40mm
; perimeters extrusion width = 0.45mm
; infill extrusion width = 0.45mm
; solid infill extrusion width = 0.40mm
; top infill extrusion width = 0.40mm
; support material extrusion width = 0.40mm
; first layer extrusion width = 0.50mm

; external perimeters extrusion width = 0.40mm
; perimeters extrusion width = 0.45mm
; infill extrusion width = 0.45mm
; solid infill extrusion width = 0.40mm
; top infill extrusion width = 0.40mm
; support material extrusion width = 0.40mm
; first layer extrusion width = 0.50mm

; EXECUTABLE_BLOCK_START
EXCLUDE_OBJECT_DEFINE NAME=Pegboard_hook_v1(1).stl_id_0_copy_0 CENTER=106.327,32.921 POLYGON=[[95.0872,20.6647],[95.0912,20.5207],[95.1061,20.3774],[95.1315,20.2371],[95.1673,20.099],[95.2134,19.964],[95.2695,19.8329],[95.3353,19.7064],[95.4104,19.5852],[95.4943,19.4698],[95.5866,19.3612],[95.6393,19.3036],[95.6542,19.2874],[95.7635,19.1777],[95.8814,19.0773],[96.0071,18.9867],[96.1397,18.9067],[96.2784,18.8378],[96.4223,18.7805],[96.5705,18.7352],[96.7219,18.7021],[96.8771,18.6812],[97.0334,18.6731],[97.3116,18.691],[97.5843,18.7492],[97.8456,18.8466],[98.0898,18.9814],[98.2661,19.1112],[98.4263,19.2604],[98.8241,19.682],[115.473,37.6015],[115.735,37.9029],[115.974,38.215],[116.19,38.5356],[116.384,38.8624],[116.557,39.1929],[116.711,39.5255],[116.848,39.8598],[116.969,40.1957],[117.075,40.5331],[117.169,40.8718],[117.264,41.2988],[117.321,41.5531],[117.433,42.2388],[117.514,42.929],[117.566,43.6263],[117.56,43.8905],[117.515,44.1508],[117.431,44.4013],[117.311,44.6364],[117.23,44.7485],[117.156,44.8506],[117.062,44.9483],[116.971,45.0391],[116.843,45.1372],[116.759,45.1975],[116.595,45.2882],[116.527,45.3223],[116.463,45.3477],[116.326,45.3958],[116.278,45.4107],[116.185,45.4324],[116.042,45.4571],[116.018,45.4605],[101.713,47.1555],[101.537,47.1688],[101.361,47.166],[101.186,47.1468],[101.013,47.1113],[100.845,47.0599],[100.682,46.9933],[100.516,46.9064],[100.359,46.8036],[100.235,46.7046],[100.12,46.5956],[100.014,46.4774],[99.9185,46.3508],[99.8336,46.2167],[99.7603,46.076],[99.6992,45.9296],[99.6505,45.7786],[99.5986,45.527],[95.1072,20.9203],[95.0872,20.6647]]
EXCLUDE_OBJECT_DEFINE NAME=Pegboard_hook_v1(1).stl_id_1_copy_0 CENTER=108.023,68.1541 POLYGON=[[96.7835,55.8978],[96.7875,55.7539],[96.8024,55.6106],[96.8278,55.4702],[96.8636,55.3322],[96.9096,55.1972],[96.9658,55.0661],[97.0316,54.9396],[97.1066,54.8183],[97.1906,54.703],[97.2828,54.5944],[97.3356,54.5368],[97.3505,54.5206],[97.4597,54.4109],[97.5777,54.3104],[97.7033,54.2199],[97.836,54.1399],[97.9747,54.071],[98.1186,54.0137],[98.2668,53.9684],[98.4182,53.9352],[98.5734,53.9143],[98.7297,53.9063],[99.0079,53.9242],[99.2806,53.9824],[99.5419,54.0798],[99.7861,54.2146],[99.9624,54.3444],[100.123,54.4936],[100.52,54.9152],[117.17,72.8346],[117.432,73.136],[117.67,73.4482],[117.886,73.7688],[118.081,74.0955],[118.254,74.4261],[118.407,74.7587],[118.544,75.093],[118.665,75.4289],[118.772,75.7662],[118.865,76.105],[118.961,76.5319],[119.017,76.7863],[119.13,77.472],[119.21,78.1622],[119.262,78.8595],[119.257,79.1236],[119.212,79.384],[119.128,79.6345],[119.007,79.8696],[118.927,79.9817],[118.852,80.0838],[118.758,80.1815],[118.667,80.2722],[118.54,80.3704],[118.456,80.4307],[118.292,80.5214],[118.223,80.5555],[118.159,80.5809],[118.022,80.629],[117.974,80.6438],[117.882,80.6655],[117.739,80.6903],[117.714,80.6937],[103.409,82.3886],[103.233,82.402],[103.057,82.3991],[102.882,82.38],[102.71,82.3445],[102.541,82.2931],[102.378,82.2264],[102.212,82.1395],[102.056,82.0368],[101.932,81.9378],[101.816,81.8288],[101.71,81.7105],[101.615,81.584],[101.53,81.4499],[101.457,81.3092],[101.395,81.1628],[101.347,81.0118],[101.295,80.7601],[96.8035,56.1535],[96.7835,55.8978]]
EXCLUDE_OBJECT_DEFINE NAME=Pegboard_hook_v1(1).stl_id_2_copy_0 CENTER=136.812,34.5935 POLYGON=[[125.572,22.3372],[125.576,22.1933],[125.591,22.05],[125.617,21.9096],[125.653,21.7716],[125.699,21.6366],[125.755,21.5055],[125.821,21.379],[125.896,21.2577],[125.98,21.1424],[126.072,21.0338],[126.125,20.9762],[126.14,20.96],[126.249,20.8503],[126.367,20.7498],[126.492,20.6593],[126.625,20.5793],[126.764,20.5104],[126.908,20.4531],[127.056,20.4078],[127.207,20.3746],[127.362,20.3537],[127.519,20.3457],[127.797,20.3636],[128.07,20.4218],[128.331,20.5192],[128.575,20.654],[128.751,20.7838],[128.912,20.933],[129.309,21.3546],[145.959,39.274],[146.22,39.5754],[146.459,39.8876],[146.675,40.2082],[146.87,40.5349],[147.043,40.8655],[147.196,41.1981],[147.333,41.5324],[147.454,41.8683],[147.561,42.2056],[147.654,42.5444],[147.75,42.9713],[147.806,43.2257],[147.919,43.9114],[147.999,44.6016],[148.051,45.2989],[148.046,45.5631],[148.001,45.8234],[147.917,46.0739],[147.796,46.309],[147.716,46.4211],[147.641,46.5232],[147.547,46.6209],[147.456,46.7116],[147.329,46.8098],[147.245,46.8701],[147.081,46.9608],[147.012,46.9949],[146.948,47.0203],[146.811,47.0684],[146.763,47.0832],[146.671,47.1049],[146.528,47.1297],[146.503,47.1331],[132.198,48.828],[132.022,48.8414],[131.846,48.8385],[131.671,48.8194],[131.499,48.7839],[131.33,48.7325],[131.167,48.6658],[131.001,48.579],[130.845,48.4762],[130.721,48.3772],[130.605,48.2682],[130.499,48.1499],[130.404,48.0234],[130.319,47.8893],[130.246,47.7486],[130.184,47.6022],[130.136,47.4512],[130.084,47.1995],[125.592,22.5929],[125.572,22.3372]]
EXCLUDE_OBJECT_DEFINE NAME=Pegboard_hook_v1(1).stl_id_3_copy_0 CENTER=138.148,69.8396 POLYGON=[[126.909,57.5833],[126.913,57.4393],[126.928,57.2961],[126.953,57.1557],[126.989,57.0177],[127.035,56.8827],[127.091,56.7516],[127.157,56.6251],[127.232,56.5038],[127.316,56.3885],[127.408,56.2799],[127.461,56.2223],[127.476,56.206],[127.585,56.0964],[127.703,55.9959],[127.829,55.9054],[127.962,55.8253],[128.1,55.7564],[128.244,55.6992],[128.392,55.6539],[128.544,55.6207],[128.699,55.5998],[128.855,55.5918],[129.133,55.6096],[129.406,55.6679],[129.667,55.7653],[129.912,55.9],[130.088,56.0298],[130.248,56.1791],[130.646,56.6006],[147.295,74.5201],[147.557,74.8215],[147.796,75.1337],[148.012,75.4543],[148.206,75.781],[148.379,76.1116],[148.533,76.4442],[148.669,76.7785],[148.791,77.1144],[148.897,77.4517],[148.991,77.7905],[149.086,78.2174],[149.143,78.4718],[149.255,79.1574],[149.336,79.8477],[149.388,80.545],[149.382,80.8091],[149.337,81.0694],[149.253,81.32],[149.133,81.555],[149.052,81.6671],[148.978,81.7692],[148.884,81.867],[148.793,81.9577],[148.665,82.0559],[148.581,82.1162],[148.417,82.2069],[148.348,82.241],[148.285,82.2664],[148.148,82.3145],[148.099,82.3293],[148.007,82.351],[147.864,82.3758],[147.84,82.3792],[133.535,84.0741],[133.359,84.0875],[133.183,84.0846],[133.008,84.0654],[132.835,84.0299],[132.667,83.9786],[132.504,83.9119],[132.338,83.825],[132.181,83.7223],[132.057,83.6233],[131.942,83.5142],[131.836,83.396],[131.74,83.2694],[131.655,83.1354],[131.582,82.9947],[131.521,82.8483],[131.472,82.6973],[131.42,82.4456],[126.929,57.839],[126.909,57.5833]]
M73 P0 R9
;TYPE:Custom
START_PRINT T_BED=70 T_EXTRUDER=235
G90
G21
M83 ; use relative distances for extrusion
; Filament gcode
PRESSURE_ADVANCE_SELECT FILAMENT=PETG
M106 S0
;LAYER_CHANGE
;Z:0.2
;HEIGHT:0.2
;BEFORE_LAYER_CHANGE
;0.2
G92 E0

SET_VELOCITY_LIMIT ACCEL=1500 ACCEL_TO_DECEL=750
G1 E-.8 F3000
G1 Z.4 F9000
G1 X101.758 Y84.213
G1 Z.4
G1 Z.2
G1 E.8 F1800
;TYPE:Skirt
;WIDTH:0.5
G1 F3000
G1 X101.135 Y83.912 E.02497
G1 X100.548 Y83.489 E.02611
G1 X99.933 Y82.816 E.03295
G1 X99.59 Y82.25 E.02388
G1 X99.258 Y81.291 E.03662
G1 X94.709 Y56.119 E.92358
G1 X93.013 Y20.886 E1.2736
G1 X93.049 Y20.037 E.03069
G1 X93.283 Y19.166 E.03258
G1 X93.68 Y18.399 E.03118
G1 X94.206 Y17.756 E.02998
G1 X94.938 Y17.188 E.03344
G1 X95.489 Y16.906 E.02235
G1 X96.614 Y16.617 E.04193
G1 X97.143 Y16.597 E.01915
G1 X127.817 Y18.275 E1.10917
G1 X128.667 Y18.437 E.03121
G1 X129.366 Y18.718 E.02722
G1 X130.03 Y19.152 E.02861
G1 X130.426 Y19.511 E.01933
G1 X147.931 Y38.337 E.92815
G1 X148.731 Y39.543 E.05228
G1 X149.445 Y41.179 E.06444
G1 X149.943 Y43.207 E.07539
G1 X150.158 Y45.223 E.0732
G1 X151.496 Y80.645 E1.27987
G1 X151.374 Y81.625 E.03567
G1 X151.012 Y82.533 E.03529
G1 X150.468 Y83.298 E.03388
G1 X149.786 Y83.903 E.03292
G1 X148.745 Y84.434 E.04219
G1 X147.911 Y84.621 E.03085
G1 X133.153 Y86.156 E.53573
G1 X102.836 Y84.459 E1.09633
G1 X101.797 Y84.222 E.0385
M73 P1 R9
G1 X101.93 Y83.789 F9000
G1 F3000
G1 X101.378 Y83.525 E.0221
G1 X100.856 Y83.151 E.02316
G1 X100.31 Y82.557 E.02917
G1 X99.995 Y82.037 E.02193
G1 X99.708 Y81.21 E.03163
G1 X95.166 Y56.097 E.92141
G1 X93.474 Y20.4 E1.29034
G1 X93.574 Y19.735 E.02428
G1 X93.808 Y19.103 E.02433
G1 X94.066 Y18.644 E.01902
G1 X94.591 Y18.021 E.02941
G1 X95.168 Y17.583 E.02616
G1 X95.906 Y17.235 E.02945
G1 X96.644 Y17.073 E.02729
G1 X97.135 Y17.054 E.01775
G1 X127.792 Y18.732 E1.10856
G1 X128.533 Y18.874 E.02723
G1 X129.144 Y19.118 E.02376
G1 X130.094 Y19.825 E.04276
G1 X147.578 Y38.627 E.92702
G1 X148.327 Y39.757 E.04895
G1 X149.009 Y41.316 E.06143
G1 X149.494 Y43.29 E.07342
G1 X149.701 Y45.24 E.07079
G1 X151.039 Y80.635 E1.27887
G1 X150.928 Y81.523 E.03234
G1 X150.603 Y82.328 E.03133
G1 X150.134 Y82.986 E.02917
G1 X149.537 Y83.52 E.02894
G1 X148.606 Y83.999 E.03779
G1 X147.863 Y84.167 E.02752
G1 X133.179 Y85.7 E.53306
G1 X102.866 Y84.002 E1.09619
G1 X101.969 Y83.798 E.03322
; printing object Pegboard_hook_v1(1).stl id:0 copy 0
G1 E-.8
EXCLUDE_OBJECT_START NAME=Pegboard_hook_v1(1).stl_id_0_copy_0
G1 Z.6 F9000
G1 X100.969 Y44.538 Z.6
G1 Z.2
G1 E.8 F1800
;TYPE:Outer wall
;WIDTH:0.499999
G1 F3000
G1 X101.795 Y44.116 E.03348
G1 X102.087 Y43.844 E.0144
G1 X102.277 Y43.58 E.01177
G1 X102.514 Y43.045 E.02113
G1 X102.637 Y42.521 E.01943
G1 X102.726 Y41.472 E.03801
G1 X102.742 Y40.48 E.03582
G1 X102.723 Y38.463 E.07284
G1 X102.621 Y36.515 E.07041
G1 X102.425 Y34.544 E.07153
G1 X102.286 Y33.552 E.03614
G1 X102.136 Y32.662 E.0326
G1 X101.82 Y31.187 E.05448
G1 X101.611 Y30.363 E.03068
G1 X101.388 Y29.601 E.02869
G1 X101.137 Y28.842 E.02884
G1 X100.856 Y28.083 E.02921
G1 X100.461 Y27.147 E.03668
G1 X99.971 Y26.142 E.04036
G1 X99.559 Y25.387 E.03109
G1 X99.305 Y24.948 E.0183
G1 X98.843 Y24.225 E.03099
G1 X98.328 Y23.492 E.03234
G1 X97.79 Y22.788 E.03198
G1 X96.331 Y21.088 E.08089
G1 X96.2 Y20.818 E.01083
G1 X96.189 Y20.452 E.01323
M73 P2 R9
G1 X96.351 Y20.101 E.01394
G1 X96.649 Y19.854 E.01397
G1 X96.976 Y19.767 E.01222
G1 X97.363 Y19.826 E.01416
G1 X97.658 Y20.03 E.01293
G1 X98.023 Y20.417 E.01921
G1 X98.735 Y21.226 E.03891
G1 X99.702 Y22.456 E.05649
G1 X100.277 Y23.277 E.03619
G1 X101.049 Y24.521 E.05284
G1 X101.502 Y25.349 E.03408
G1 X102.102 Y26.6 E.05012
G1 X102.449 Y27.433 E.03259
G1 X102.76 Y28.268 E.03216
G1 X103.036 Y29.103 E.03175
G1 X103.281 Y29.937 E.0314
G1 X103.496 Y30.771 E.0311
G1 X103.683 Y31.6 E.03067
G1 X103.987 Y33.273 E.06139
G1 X104.129 Y34.3 E.03744
G1 X104.269 Y35.541 E.0451
G1 X104.353 Y35.838 E.01113
G1 X104.592 Y36.192 E.01544
G1 X105.044 Y36.45 E.0188
G1 X105.324 Y36.505 E.01028
G1 X109.935 Y36.524 E.16649
G1 X110.618 Y36.562 E.02469
G1 X111.16 Y36.622 E.0197
G1 X111.974 Y36.779 E.02993
G1 X112.719 Y37.011 E.02817
G1 X113.314 Y37.274 E.0235
G1 X113.932 Y37.647 E.02606
G1 X114.36 Y37.985 E.0197
G1 X114.802 Y38.431 E.02266
G1 X115.123 Y38.839 E.01873
G1 X115.595 Y39.628 E.03321
G1 X115.8 Y40.086 E.01811
G1 X116.12 Y41.042 E.0364
G1 X116.239 Y41.533 E.01827
G1 X116.341 Y42.079 E.02003
G1 X116.471 Y43.113 E.03764
G1 X116.501 Y43.538 E.0154
G1 X116.485 Y43.852 E.01136
G1 X116.417 Y44.085 E.00874
G1 X116.22 Y44.34 E.01167
G1 X115.844 Y44.533 E.01525
G1 X115.333 Y44.538 E.01846
G1 X115.045 Y44.413 E.01132
G1 X114.796 Y44.208 E.01164
G1 X114.642 Y43.884 E.01298
G1 X114.581 Y43.274 E.02213
G1 X114.468 Y42.411 E.03142
G1 X114.382 Y41.91 E.01834
G1 X114.148 Y41.069 E.03153
G1 X113.706 Y40.119 E.03784
G1 X113.367 Y39.662 E.02055
G1 X112.97 Y39.288 E.01966
G1 X112.538 Y39.003 E.0187
G1 X112.084 Y38.792 E.01807
G1 X111.548 Y38.623 E.0203
G1 X110.919 Y38.5 E.02313
G1 X109.582 Y38.405 E.04839
G1 X105.526 Y38.426 E.14648
G1 X105.126 Y38.517 E.01481
G1 X104.727 Y38.801 E.01768
G1 X104.549 Y39.107 E.01278
G1 X104.465 Y39.664 E.02034
G1 X104.433 Y41.926 E.08168
G1 X104.347 Y42.714 E.02862
G1 X104.239 Y43.278 E.02075
G1 X104.048 Y43.881 E.02281
G1 X103.767 Y44.463 E.02334
G1 X103.368 Y45.011 E.02448
G1 X102.871 Y45.457 E.02412
G1 X102.419 Y45.75 E.01944
G1 X101.941 Y45.965 E.01893
G1 X101.65 Y46.042 E.01087
G1 X101.361 Y46.057 E.01044
G1 X101.104 Y45.97 E.00979
G1 X100.84 Y45.78 E.01175
G1 X100.654 Y45.376 E.01605
G1 X100.671 Y45.077 E.01084
G1 X100.752 Y44.797 E.01049
G1 X100.943 Y44.568 E.01079
G1 X101.295 Y44.883 F9000
;TYPE:Inner wall
G1 F3000
G1 X101.333 Y44.848 E.00187
G1 X101.806 Y44.638 E.01868
G1 X102.162 Y44.416 E.01517
G1 X102.505 Y44.064 E.01774
G1 X102.779 Y43.623 E.01874
G1 X102.958 Y43.151 E.01823
G1 X103.092 Y42.56 E.0219
G1 X103.183 Y41.479 E.03913
G1 X103.199 Y40.475 E.03626
G1 X103.179 Y38.435 E.07366
G1 X103.076 Y36.47 E.07107
G1 X102.88 Y34.498 E.07153
G1 X102.736 Y33.476 E.03726
G1 X102.583 Y32.568 E.03326
G1 X102.263 Y31.074 E.05517
G1 X102.05 Y30.234 E.03129
G1 X101.822 Y29.457 E.02925
G1 X101.566 Y28.683 E.02943
G1 X101.277 Y27.906 E.02995
G1 X100.874 Y26.952 E.03738
G1 X100.376 Y25.93 E.04104
G1 X99.954 Y25.158 E.03178
G1 X99.69 Y24.702 E.01901
G1 X99.217 Y23.963 E.0317
G1 X98.691 Y23.214 E.03304
G1 X98.14 Y22.494 E.03273
G1 X96.686 Y20.795 E.08076
G1 X96.637 Y20.645 E.00567
G1 X96.736 Y20.356 E.01103
G1 X96.919 Y20.24 E.00782
G1 X97.093 Y20.234 E.00627
G1 X97.324 Y20.354 E.0094
G1 X97.685 Y20.725 E.01868
G1 X98.383 Y21.518 E.03817
G1 X99.335 Y22.728 E.05558
G1 X99.895 Y23.529 E.03528
G1 X100.654 Y24.751 E.05193
G1 X101.095 Y25.557 E.03319
G1 X101.685 Y26.787 E.04925
G1 X102.024 Y27.601 E.03184
G1 X102.328 Y28.42 E.03153
G1 X102.6 Y29.239 E.03117
G1 X102.84 Y30.059 E.03085
G1 X103.052 Y30.879 E.03058
G1 X103.235 Y31.691 E.03006
G1 X103.535 Y33.345 E.0607
G1 X103.836 Y35.7 E.08571
G1 X103.997 Y36.147 E.01714
G1 X104.222 Y36.46 E.01391
G1 X104.506 Y36.689 E.01319
G1 X105.002 Y36.917 E.01969
G1 X105.322 Y36.962 E.01166
G1 X109.921 Y36.981 E.16607
G1 X110.58 Y37.017 E.02381
G1 X111.091 Y37.074 E.01858
G1 X111.862 Y37.223 E.02836
G1 X112.558 Y37.439 E.0263
G1 X113.103 Y37.68 E.02151
G1 X113.671 Y38.023 E.02397
G1 X114.076 Y38.348 E.01872
G1 X114.539 Y38.836 E.02428
G1 X114.932 Y39.41 E.02511
G1 X115.201 Y39.866 E.01915
G1 X115.512 Y40.664 E.0309
G1 X115.685 Y41.189 E.01996
G1 X115.803 Y41.686 E.01846
G1 X116.015 Y43.145 E.05323
G1 X116.047 Y43.598 E.01638
G1 X115.997 Y43.904 E.01121
G1 X115.721 Y44.083 E.01185
G1 X115.489 Y44.096 E.0084
G1 X115.229 Y43.993 E.0101
G1 X115.089 Y43.759 E.00985
G1 X114.918 Y42.335 E.0518
G1 X114.822 Y41.788 E.02005
G1 X114.589 Y40.947 E.03153
G1 X114.458 Y40.643 E.01193
G1 X114.075 Y39.849 E.03183
G1 X113.681 Y39.33 E.02355
G1 X113.208 Y38.896 E.02315
G1 X112.732 Y38.589 E.02044
G1 X112.223 Y38.357 E.02023
G1 X111.632 Y38.174 E.02232
G1 X111.005 Y38.051 E.02307
G1 X109.584 Y37.948 E.05144
G1 X105.523 Y37.969 E.14663
G1 X105.364 Y37.988 E.00581
G1 X104.853 Y38.136 E.01918
G1 X104.447 Y38.44 E.01832
G1 X104.257 Y38.667 E.0107
G1 X104.073 Y39.12 E.01763
G1 X104.008 Y39.658 E.01957
G1 X103.977 Y41.898 E.08089
G1 X103.892 Y42.664 E.02783
G1 X103.797 Y43.161 E.01829
G1 X103.623 Y43.712 E.02084
