; HEADER_BLOCK_START
; generated by OrcaSlicer 1.7.0-beta on 2023-09-13 at 13:58:52
; total layer number: 109
; HEADER_BLOCK_END

; THUMBNAIL_BLOCK_START
; THUMBNAIL_BLOCK_END

; external perimeters extrusion width = 0.40mm
; perimeters extrusion width = 0.45mm
; infill extrusion width = 0.45mm
; solid infill extrusion width = 0.40mm
; top infill extrusion width = 0.40mm
; support material extrusion width = 0.40mm
; first layer extrusion width = 0.50mm

; external perimeters extrusion width = 0.40mm
; perimeters extrusion width = 0.45mm
; infill extrusion width = 0.45mm
; solid infill extrusion width = 0.40mm
; top infill extrusion width = 0.40mm
; support material extrusion width = 0.40mm
; first layer extrusion width = 0.50mm

; EXECUTABLE_BLOCK_START
EXCLUDE_OBJECT_DEFINE NAME=Post.stl_id_0_copy_0 CENTER=166.081,154.999 POLYGON=[[160,99.748],[160.001,99.7296],[160.003,99.7074],[160.006,99.6914],[160.011,99.6758],[160.013,99.668],[160.023,99.6418],[160.028,99.6311],[160.041,99.6105],[160.05,99.5977],[160.062,99.5826],[160.076,99.5688],[160.087,99.5588],[160.106,99.5454],[160.116,99.5396],[160.14,99.5282],[160.147,99.5255],[160.175,99.5177],[160.179,99.517],[160.212,99.5141],[171.949,99.5141],[171.986,99.5177],[172.022,99.5282],[172.056,99.5454],[172.086,99.5688],[172.112,99.5977],[172.133,99.6311],[172.149,99.668],[172.158,99.7074],[172.162,99.748],[172.162,210.484],[172.159,210.484],[160.106,210.47],[160.028,210.47],[160.003,210.47],[160,210.47],[160,99.748]]
EXCLUDE_OBJECT_DEFINE NAME=Post.stl_id_1_copy_0 CENTER=143.919,154.999 POLYGON=[[137.838,99.748],[137.839,99.7296],[137.842,99.7074],[137.845,99.6914],[137.849,99.6758],[137.851,99.668],[137.862,99.6418],[137.867,99.6311],[137.879,99.6105],[137.888,99.5977],[137.901,99.5826],[137.914,99.5688],[137.926,99.5588],[137.944,99.5454],[137.954,99.5396],[137.978,99.5282],[137.985,99.5256],[138.014,99.5177],[138.017,99.517],[138.051,99.5141],[149.788,99.5141],[149.825,99.5177],[149.86,99.5282],[149.894,99.5454],[149.924,99.5688],[149.95,99.5977],[149.972,99.6311],[149.987,99.668],[149.997,99.7074],[150,99.748],[150,210.484],[149.998,210.484],[137.944,210.47],[137.867,210.47],[137.842,210.47],[137.838,210.47],[137.838,99.748]]
M73 P0 R57
M73 C49
;TYPE:Custom
START_PRINT T_BED=60 T_EXTRUDER=220
G90
G21
M83 ; use relative distances for extrusion
; filament start gcode
PRESSURE_ADVANCE_SELECT FILAMENT=PLA
M106 S0
;LAYER_CHANGE
;Z:0.2
;HEIGHT:0.2
;BEFORE_LAYER_CHANGE
;0.2
G92 E0

;_SET_FAN_SPEED_CHANGING_LAYER
SET_VELOCITY_LIMIT ACCEL=1500 ACCEL_TO_DECEL=750
G1 E-.8 F3000
G1 Z.4 F9000
G1 X135.456 Y98.062
G1 Z.4
G1 Z.2
G1 E.8 F1800
;TYPE:Skirt
;WIDTH:0.5
G1 F3000
G1 X136.157 Y97.293 E.03875
G1 X136.63 Y96.989 E.02095
G1 X137.165 Y96.771 E.02153
G1 X137.771 Y96.654 E.02296
G1 X171.961 Y96.641 E1.27345
G1 X172.626 Y96.718 E.02492
G1 X173.342 Y96.975 E.02836
G1 X174.221 Y97.642 E.0411
G1 X174.798 Y98.547 E.03996
G1 X174.954 Y99.026 E.01879
G1 X175.039 Y99.748 E.02706
G1 X175.039 Y210.483 E4.12448
G1 X174.646 Y211.945 E.05638
G1 X173.573 Y213.013 E.05638
G1 X172.125 Y213.398 E.0558
G1 X137.872 Y213.384 E1.2758
G1 X136.41 Y212.989 E.05638
G1 X135.344 Y211.914 E.05638
G1 X134.961 Y210.47 E.05567
G1 X134.961 Y99.748 E4.12396
G1 X135.054 Y98.994 E.02831
G1 X135.44 Y98.098 E.03631
G1 X135.842 Y98.307 F9000
G1 F3000
G1 X136.436 Y97.655 E.03286
G1 X137.295 Y97.21 E.03602
G1 X137.815 Y97.109 E.01972
G1 X171.961 Y97.099 E1.27181
G1 X172.529 Y97.165 E.02131
G1 X173.133 Y97.381 E.02391
G1 X173.882 Y97.949 E.03502
G1 X174.377 Y98.725 E.03426
G1 X174.582 Y99.748 E.03887
G1 X174.582 Y210.483 E4.12448
G1 X174.19 Y211.815 E.05169
G1 X173.14 Y212.721 E.05169
G1 X172.125 Y212.941 E.03866
G1 X137.872 Y212.927 E1.27578
G1 X136.541 Y212.533 E.05169
G1 X135.636 Y211.482 E.05169
G1 X135.418 Y210.47 E.03856
G1 X135.418 Y99.748 E4.12396
G1 X135.498 Y99.102 E.02426
G1 X135.826 Y98.343 E.03077
; printing object Post.stl id:0 copy 0
G1 E-.8
EXCLUDE_OBJECT_START NAME=Post.stl_id_0_copy_0
G1 Z.6 F9000
G1 X171.875 Y99.806 Z.6
G1 Z.2
G1 E.8 F1800
;TYPE:Outer wall
G1 F3000
G1 X171.875 Y210.233 E4.11301
G1 X160.287 Y210.22 E.43162
G1 X160.289 Y99.805 E4.11255
G1 X171.835 Y99.806 E.43003
G1 X171.418 Y100.263 F9000
;TYPE:Inner wall
G1 F3000
G1 X171.418 Y209.776 E4.07894
G1 X160.744 Y209.763 E.39757
G1 X160.746 Y100.262 E4.07852
G1 X171.378 Y100.263 E.39598
G1 X170.961 Y100.72 F9000
G1 F3000
G1 X170.961 Y209.318 E4.04487
G1 X161.201 Y209.307 E.36352
G1 X161.203 Y100.719 E4.04449
G1 X170.921 Y100.72 E.36193
G1 X170.815 Y101.792 F9000
;TYPE:Bottom surface
;WIDTH:0.500804
G1 F3000
G1 X170.094 Y101.072 E.038
G1 X169.447 Y101.071 E.02416
G1 X170.609 Y102.233 E.06131
G1 X170.609 Y102.881 E.02416
G1 X168.799 Y101.071 E.09549
G1 X168.152 Y101.071 E.02416
G1 X170.609 Y103.529 E.12966
G1 X170.609 Y104.176 E.02416
G1 X167.504 Y101.071 E.16383
G1 X166.856 Y101.071 E.02416
G1 X170.609 Y104.824 E.198
G1 X170.609 Y105.471 E.02416
G1 X166.209 Y101.071 E.23217
G1 X165.561 Y101.071 E.02416
M73 C48
G1 X170.609 Y106.119 E.26635
G1 X170.609 Y106.766 E.02416
G1 X164.914 Y101.071 E.30052
G1 X164.266 Y101.071 E.02416
G1 X170.609 Y107.414 E.33469
G1 X170.609 Y108.061 E.02416
G1 X163.618 Y101.071 E.36886
G1 X162.971 Y101.071 E.02416
G1 X170.609 Y108.709 E.40303
G1 X170.609 Y109.356 E.02416
G1 X162.323 Y101.071 E.43721
G1 X161.676 Y101.071 E.02416
G1 X170.609 Y110.004 E.47138
G1 X170.609 Y110.652 E.02416
G1 X161.555 Y101.598 E.47772
G1 X161.555 Y102.246 E.02416
G1 X170.609 Y111.299 E.47772
G1 X170.609 Y111.947 E.02416
G1 X161.555 Y102.893 E.47772
G1 X161.555 Y103.541 E.02416
G1 X170.609 Y112.594 E.47772
G1 X170.609 Y113.242 E.02416
G1 X161.555 Y104.188 E.47772
G1 X161.555 Y104.836 E.02416
G1 X170.609 Y113.889 E.47773
G1 X170.609 Y114.537 E.02416
G1 X161.555 Y105.483 E.47773
G1 X161.555 Y106.131 E.02416
G1 X170.609 Y115.184 E.47773
M73 P1 R57
G1 X170.609 Y115.832 E.02416
G1 X161.555 Y106.778 E.47773
G1 X161.555 Y107.426 E.02416
G1 X170.609 Y116.479 E.47773
G1 X170.609 Y117.127 E.02416
G1 X161.555 Y108.073 E.47773
G1 X161.555 Y108.721 E.02416
G1 X170.609 Y117.775 E.47773
G1 X170.609 Y118.422 E.02416
G1 X161.555 Y109.368 E.47773
G1 X161.555 Y110.016 E.02416
G1 X170.609 Y119.07 E.47773
G1 X170.609 Y119.717 E.02416
G1 X161.555 Y110.664 E.47773
G1 X161.555 Y111.311 E.02416
G1 X170.609 Y120.365 E.47773
G1 X170.609 Y121.012 E.02416
G1 X161.555 Y111.959 E.47773
M73 P1 R56
G1 X161.555 Y112.606 E.02416
G1 X170.609 Y121.66 E.47774
G1 X170.609 Y122.307 E.02416
G1 X161.555 Y113.254 E.47774
G1 X161.555 Y113.901 E.02416
G1 X170.609 Y122.955 E.47774
G1 X170.609 Y123.602 E.02416
G1 X161.555 Y114.549 E.47774
G1 X161.555 Y115.196 E.02416
G1 X170.609 Y124.25 E.47774
G1 X170.609 Y124.898 E.02416
G1 X161.555 Y115.844 E.47774
G1 X161.555 Y116.491 E.02416
G1 X170.609 Y125.545 E.47774
G1 X170.609 Y126.193 E.02416
G1 X161.555 Y117.139 E.47774
G1 X161.555 Y117.786 E.02416
G1 X170.609 Y126.84 E.47774
G1 X170.609 Y127.488 E.02416
G1 X161.555 Y118.434 E.47774
G1 X161.555 Y119.081 E.02416
G1 X170.609 Y128.135 E.47774
G1 X170.609 Y128.783 E.02416
G1 X161.555 Y119.729 E.47774
G1 X161.555 Y120.376 E.02416
G1 X170.609 Y129.43 E.47775
G1 X170.609 Y130.078 E.02416
G1 X161.555 Y121.024 E.47775
G1 X161.555 Y121.672 E.02416
G1 X170.609 Y130.725 E.47775
G1 X170.609 Y131.373 E.02416
G1 X161.555 Y122.319 E.47775
G1 X161.555 Y122.967 E.02416
G1 X170.609 Y132.021 E.47775
G1 X170.609 Y132.668 E.02416
G1 X161.555 Y123.614 E.47775
G1 X161.555 Y124.262 E.02416
G1 X170.609 Y133.316 E.47775
G1 X170.609 Y133.963 E.02416
G1 X161.555 Y124.909 E.47775
G1 X161.555 Y125.557 E.02416
G1 X170.609 Y134.611 E.47775
G1 X170.609 Y135.258 E.02416
G1 X161.555 Y126.204 E.47775
G1 X161.555 Y126.852 E.02416
G1 X170.609 Y135.906 E.47775
G1 X170.609 Y136.553 E.02416
G1 X161.555 Y127.499 E.47775
G1 X161.555 Y128.147 E.02416
G1 X170.609 Y137.201 E.47775
G1 X170.609 Y137.848 E.02416
G1 X161.555 Y128.794 E.47776
G1 X161.555 Y129.442 E.02416
G1 X170.609 Y138.496 E.47776
G1 X170.609 Y139.144 E.02416
G1 X161.555 Y130.089 E.47776
G1 X161.555 Y130.737 E.02416
G1 X170.609 Y139.791 E.47776
G1 X170.609 Y140.439 E.02416
G1 X161.555 Y131.384 E.47776
G1 X161.555 Y132.032 E.02416
G1 X170.609 Y141.086 E.47776
G1 X170.609 Y141.734 E.02416
G1 X161.555 Y132.68 E.47776
G1 X161.555 Y133.327 E.02416
G1 X170.609 Y142.381 E.47776
G1 X170.609 Y143.029 E.02416
G1 X161.555 Y133.975 E.47776
G1 X161.555 Y134.622 E.02416
G1 X170.609 Y143.676 E.47776
G1 X170.609 Y144.324 E.02416
G1 X161.555 Y135.27 E.47776
G1 X161.555 Y135.917 E.02416
G1 X170.609 Y144.971 E.47776
G1 X170.609 Y145.619 E.02416
G1 X161.555 Y136.565 E.47777
G1 X161.555 Y137.212 E.02416
G1 X170.609 Y146.267 E.47777
G1 X170.609 Y146.914 E.02416
G1 X161.555 Y137.86 E.47777
G1 X161.554 Y138.507 E.02416
G1 X170.609 Y147.562 E.47777
G1 X170.609 Y148.209 E.02416
G1 X161.554 Y139.155 E.47777
G1 X161.554 Y139.802 E.02416
G1 X170.609 Y148.857 E.47777
G1 X170.609 Y149.504 E.02416
G1 X161.554 Y140.45 E.47777
G1 X161.554 Y141.097 E.02416
G1 X170.609 Y150.152 E.47777
G1 X170.609 Y150.799 E.02416
G1 X161.554 Y141.745 E.47777
G1 X161.554 Y142.392 E.02416
G1 X170.609 Y151.447 E.47777
G1 X170.609 Y152.094 E.02416
G1 X161.554 Y143.04 E.47777
G1 X161.554 Y143.688 E.02416
G1 X170.609 Y152.742 E.47777
G1 X170.609 Y153.39 E.02416
G1 X161.554 Y144.335 E.47778
G1 X161.554 Y144.983 E.02416
G1 X170.609 Y154.037 E.47778
G1 X170.609 Y154.685 E.02416
G1 X161.554 Y145.63 E.47778
G1 X161.554 Y146.278 E.02416
G1 X170.609 Y155.332 E.47778
G1 X170.609 Y155.98 E.02416
G1 X161.554 Y146.925 E.47778
G1 X161.554 Y147.573 E.02416
G1 X170.609 Y156.627 E.47778
G1 X170.609 Y157.275 E.02416
G1 X161.554 Y148.22 E.47778
G1 X161.554 Y148.868 E.02416
G1 X170.609 Y157.922 E.47778
G1 X170.609 Y158.57 E.02416
G1 X161.554 Y149.515 E.47778
G1 X161.554 Y150.163 E.02416
G1 X170.609 Y159.217 E.47778
G1 X170.609 Y159.865 E.02416
G1 X161.554 Y150.81 E.47778
G1 X161.554 Y151.458 E.02416
G1 X170.609 Y160.513 E.47778
G1 X170.609 Y161.16 E.02416
G1 X161.554 Y152.105 E.47779
G1 X161.554 Y152.753 E.02416
G1 X170.609 Y161.808 E.47779
G1 X170.609 Y162.455 E.02416
G1 X161.554 Y153.401 E.47779
G1 X161.554 Y154.048 E.02416
G1 X170.609 Y163.103 E.47779
G1 X170.609 Y163.75 E.02416
G1 X161.554 Y154.696 E.47779
G1 X161.554 Y155.343 E.02416
G1 X170.609 Y164.398 E.47779
G1 X170.609 Y165.045 E.02416
G1 X161.554 Y155.991 E.47779
G1 X161.554 Y156.638 E.02416
G1 X170.609 Y165.693 E.47779
G1 X170.609 Y166.34 E.02416
G1 X161.554 Y157.286 E.47779
G1 X161.554 Y157.933 E.02416
G1 X170.609 Y166.988 E.47779
G1 X170.609 Y167.636 E.02416
G1 X161.554 Y158.581 E.47779
G1 X161.554 Y159.228 E.02416
G1 X170.609 Y168.283 E.47779
G1 X170.609 Y168.931 E.02416
G1 X161.554 Y159.876 E.4778
G1 X161.554 Y160.523 E.02416
G1 X170.609 Y169.578 E.4778
G1 X170.609 Y170.226 E.02416
G1 X161.554 Y161.171 E.4778
G1 X161.554 Y161.818 E.02416
G1 X170.609 Y170.873 E.4778
G1 X170.609 Y171.521 E.02416
G1 X161.554 Y162.466 E.4778
G1 X161.554 Y163.113 E.02416
G1 X170.609 Y172.168 E.4778
G1 X170.609 Y172.816 E.02416
G1 X161.554 Y163.761 E.4778
G1 X161.554 Y164.409 E.02416
G1 X170.609 Y173.463 E.4778
G1 X170.609 Y174.111 E.02416
G1 X161.554 Y165.056 E.4778
G1 X161.554 Y165.704 E.02416
G1 X170.609 Y174.759 E.4778
G1 X170.609 Y175.406 E.02416
G1 X161.554 Y166.351 E.4778
G1 X161.554 Y166.999 E.02416
G1 X170.609 Y176.054 E.4778
G1 X170.609 Y176.701 E.02416
G1 X161.554 Y167.646 E.4778
G1 X161.554 Y168.294 E.02416
G1 X170.609 Y177.349 E.47781
G1 X170.609 Y177.996 E.02416
G1 X161.554 Y168.941 E.47781
G1 X161.554 Y169.589 E.02416
G1 X170.609 Y178.644 E.47781
G1 X170.609 Y179.291 E.02416
G1 X161.554 Y170.236 E.47781
G1 X161.554 Y170.884 E.02416
G1 X170.609 Y179.939 E.47781
G1 X170.609 Y180.586 E.02416
G1 X161.554 Y171.531 E.47781
G1 X161.554 Y172.179 E.02416
G1 X170.609 Y181.234 E.47781
G1 X170.609 Y181.882 E.02416
G1 X161.554 Y172.826 E.47781
G1 X161.554 Y173.474 E.02416
G1 X170.609 Y182.529 E.47781
G1 X170.609 Y183.177 E.02416
G1 X161.554 Y174.121 E.47781
G1 X161.554 Y174.769 E.02416
G1 X170.609 Y183.824 E.47781
G1 X170.609 Y184.472 E.02416
G1 X161.554 Y175.417 E.47781
G1 X161.554 Y176.064 E.02416
G1 X170.609 Y185.119 E.47782
G1 X170.609 Y185.767 E.02416
G1 X161.554 Y176.712 E.47782
G1 X161.554 Y177.359 E.02416
G1 X170.609 Y186.414 E.47782
G1 X170.609 Y187.062 E.02416
G1 X161.554 Y178.007 E.47782
G1 X161.554 Y178.654 E.02416
G1 X170.609 Y187.709 E.47782
M73 P2 R56
G1 X170.609 Y188.357 E.02416
G1 X161.554 Y179.302 E.47782
G1 X161.554 Y179.949 E.02416
G1 X170.609 Y189.005 E.47782
G1 X170.609 Y189.652 E.02416
G1 X161.553 Y180.597 E.47782
G1 X161.553 Y181.244 E.02416
G1 X170.609 Y190.3 E.47782
G1 X170.609 Y190.947 E.02416
G1 X161.553 Y181.892 E.47782
G1 X161.553 Y182.539 E.02416
G1 X170.609 Y191.595 E.47782
G1 X170.609 Y192.242 E.02416
G1 X161.553 Y183.187 E.47782
G1 X161.553 Y183.834 E.02416
G1 X170.609 Y192.89 E.47783
G1 X170.609 Y193.537 E.02416
G1 X161.553 Y184.482 E.47783
G1 X161.553 Y185.129 E.02416
G1 X170.609 Y194.185 E.47783
G1 X170.609 Y194.832 E.02416
G1 X161.553 Y185.777 E.47783
G1 X161.553 Y186.425 E.02416
G1 X170.609 Y195.48 E.47783
G1 X170.609 Y196.128 E.02416
G1 X161.553 Y187.072 E.47783
G1 X161.553 Y187.72 E.02416
G1 X170.609 Y196.775 E.47783
G1 X170.609 Y197.423 E.02416
G1 X161.553 Y188.367 E.47783
G1 X161.553 Y189.015 E.02416
G1 X170.609 Y198.07 E.47783
G1 X170.609 Y198.718 E.02416
G1 X161.553 Y189.662 E.47783
G1 X161.553 Y190.31 E.02416
G1 X170.609 Y199.365 E.47783
G1 X170.609 Y200.013 E.02416
G1 X161.553 Y190.957 E.47783
G1 X161.553 Y191.605 E.02416
G1 X170.609 Y200.66 E.47784
G1 X170.609 Y201.308 E.02416
G1 X161.553 Y192.252 E.47784
G1 X161.553 Y192.9 E.02416
G1 X170.609 Y201.955 E.47784
G1 X170.609 Y202.603 E.02416
G1 X161.553 Y193.547 E.47784
G1 X161.553 Y194.195 E.02416
G1 X170.609 Y203.251 E.47784
G1 X170.609 Y203.898 E.02416
G1 X161.553 Y194.842 E.47784
G1 X161.553 Y195.49 E.02416
G1 X170.609 Y204.546 E.47784
G1 X170.609 Y205.193 E.02416
G1 X161.553 Y196.138 E.47784
G1 X161.553 Y196.785 E.02416
G1 X170.609 Y205.841 E.47784
G1 X170.609 Y206.488 E.02416
G1 X161.553 Y197.433 E.47784
G1 X161.553 Y198.08 E.02416
G1 X170.609 Y207.136 E.47784
G1 X170.609 Y207.783 E.02416
G1 X161.553 Y198.728 E.47784
G1 X161.553 Y199.375 E.02416
G1 X170.609 Y208.431 E.47785
G1 X170.609 Y208.966 E.01995
G1 X170.496 Y208.965 E.00422
G1 X161.553 Y200.023 E.47188
G1 X161.553 Y200.67 E.02416
G1 X169.848 Y208.965 E.43768
G1 X169.199 Y208.964 E.02419
G1 X161.553 Y201.318 E.40347
G1 X161.553 Y201.965 E.02416
G1 X168.551 Y208.963 E.36926
G1 X167.903 Y208.963 E.02419
G1 X161.553 Y202.613 E.33505
G1 X161.553 Y203.26 E.02416
G1 X167.254 Y208.962 E.30085
G1 X166.606 Y208.961 E.02419
G1 X161.553 Y203.908 E.26664
G1 X161.553 Y204.555 E.02416
G1 X165.958 Y208.96 E.23243
G1 X165.31 Y208.96 E.02419
G1 X161.553 Y205.203 E.19822
G1 X161.553 Y205.85 E.02416
G1 X164.661 Y208.959 E.16402
G1 X164.013 Y208.958 E.02419
G1 X161.553 Y206.498 E.12981
G1 X161.553 Y207.146 E.02416
G1 X163.365 Y208.957 E.0956
G1 X162.716 Y208.957 E.02419
G1 X161.553 Y207.793 E.0614
G1 X161.553 Y208.441 E.02416
G1 X162.274 Y209.162 E.03805
; stop printing object Post.stl id:0 copy 0
; printing object Post.stl id:1 copy 0
G1 E-.8
EXCLUDE_OBJECT_END NAME=Post.stl_id_0_copy_0
EXCLUDE_OBJECT_START NAME=Post.stl_id_1_copy_0
G1 Z.6 F9000
G1 X149.713 Y99.806 Z.6
G1 Z.2
G1 E.8 F1800
;TYPE:Outer wall
;WIDTH:0.5
G1 F3000
G1 X149.713 Y210.233 E4.11301
G1 X138.125 Y210.22 E.43162
G1 X138.128 Y99.805 E4.11255
G1 X149.673 Y99.806 E.43003
G1 X149.256 Y100.263 F9000
;TYPE:Inner wall
G1 F3000
G1 X149.256 Y209.776 E4.07894
G1 X138.582 Y209.763 E.39757
M73 C47
G1 X138.585 Y100.262 E4.07852
G1 X149.216 Y100.263 E.39598
G1 X148.799 Y100.72 F9000
G1 F3000
G1 X148.799 Y209.318 E4.04487
G1 X139.039 Y209.307 E.36352
G1 X139.042 Y100.719 E4.04449
M73 P2 R55
G1 X148.759 Y100.72 E.36193
G1 X148.653 Y101.792 F9000
;TYPE:Bottom surface
;WIDTH:0.500804
G1 F3000
G1 X147.933 Y101.072 E.038
G1 X147.285 Y101.071 E.02416
G1 X148.447 Y102.233 E.06131
G1 X148.447 Y102.881 E.02416
G1 X146.638 Y101.071 E.09549
G1 X145.99 Y101.071 E.02416
G1 X148.447 Y103.529 E.12966
