; generated by SuperSlicer 2.5.59 on 2023-08-26 at 15:22:35 UTC


;
;

;
;
; 

; external perimeters extrusion width = 0.40mm
; perimeters extrusion width = 0.46mm
; infill extrusion width = 0.64mm
; solid infill extrusion width = 0.56mm
; top infill extrusion width = 0.40mm
; support material extrusion width = 0.46mm
; first layer extrusion width = 0.50mm

; external perimeters extrusion width = 0.40mm
; perimeters extrusion width = 0.46mm
; infill extrusion width = 0.64mm
; solid infill extrusion width = 0.56mm
; top infill extrusion width = 0.40mm
; support material extrusion width = 0.46mm
; first layer extrusion width = 0.50mm

; external perimeters extrusion width = 0.40mm
; perimeters extrusion width = 0.46mm
; infill extrusion width = 0.64mm
; solid infill extrusion width = 0.56mm
; top infill extrusion width = 0.40mm
; support material extrusion width = 0.46mm
; first layer extrusion width = 0.50mm

; external perimeters extrusion width = 0.40mm
; perimeters extrusion width = 0.46mm
; infill extrusion width = 0.64mm
; solid infill extrusion width = 0.56mm
; top infill extrusion width = 0.40mm
; support material extrusion width = 0.46mm
; first layer extrusion width = 0.50mm

; external perimeters extrusion width = 0.40mm
; perimeters extrusion width = 0.46mm
; infill extrusion width = 0.64mm
; solid infill extrusion width = 0.56mm
; top infill extrusion width = 0.40mm
; support material extrusion width = 0.46mm
; first layer extrusion width = 0.50mm

; external perimeters extrusion width = 0.40mm
; perimeters extrusion width = 0.46mm
; infill extrusion width = 0.64mm
; solid infill extrusion width = 0.56mm
; top infill extrusion width = 0.40mm
; support material extrusion width = 0.46mm
; first layer extrusion width = 0.50mm

; external perimeters extrusion width = 0.40mm
; perimeters extrusion width = 0.46mm
; infill extrusion width = 0.64mm
; solid infill extrusion width = 0.56mm
; top infill extrusion width = 0.40mm
; support material extrusion width = 0.46mm
; first layer extrusion width = 0.50mm

; object:{"name":"Base X100","id":"Base X100.5 Y98.5.stl id:0 copy 0","object_center":[170.660926,69.784351,0.000000],"boundingbox_center":[170.660926,69.784351,4.875000],"boundingbox_size":[174.277360,61.690930,9.750000]}
EXCLUDE_OBJECT_DEFINE NAME=Base_X100_5_Y98_5_stl_id_0_copy_0 CENTER=170.660926,69.784351 POLYGON=[[83.522240,39.520324],[83.529952,39.429368],[83.552928,39.340644],[83.590592,39.256356],[83.642008,39.178560],[83.705928,39.109176],[83.780744,39.049924],[83.864656,39.002260],[83.955568,38.967340],[84.051256,38.946040],[84.149352,38.938880],[257.172480,38.938880],[257.270576,38.946040],[257.366272,38.967340],[257.457216,39.002260],[257.541104,39.049924],[257.615936,39.109176],[257.679840,39.178560],[257.731264,39.256356],[257.768928,39.340644],[257.791872,39.429368],[257.799584,39.520324],[257.799584,100.048368],[257.791872,100.139336],[257.768928,100.228040],[257.731264,100.312344],[257.679840,100.390136],[257.615936,100.459520],[257.541104,100.518768],[257.457216,100.566448],[257.366272,100.601360],[257.270576,100.622648],[257.172480,100.629816],[84.149352,100.629816],[84.051256,100.622648],[83.955568,100.601360],[83.864656,100.566448],[83.780744,100.518768],[83.705928,100.459520],[83.642008,100.390136],[83.590592,100.312344],[83.552928,100.228040],[83.529952,100.139336],[83.522240,100.048368],[83.522240,39.520324]]
; object:{"name":"Base X100","id":"Base X100.5 Y98.5.stl id:1 copy 0","object_center":[170.660925,137.307643,0.000000],"boundingbox_center":[170.660925,137.307643,4.875000],"boundingbox_size":[173.410309,61.355653,9.750000]}
EXCLUDE_OBJECT_DEFINE NAME=Base_X100_5_Y98_5_stl_id_1_copy_0 CENTER=170.660925,137.307643 POLYGON=[[83.955768,107.208096],[83.963440,107.117640],[83.986296,107.029400],[84.023776,106.945568],[84.074936,106.868192],[84.138536,106.799192],[84.212984,106.740256],[84.296480,106.692848],[84.386936,106.658120],[84.482144,106.636944],[84.579760,106.629824],[256.742096,106.629824],[256.839696,106.636944],[256.934912,106.658120],[257.025392,106.692848],[257.108880,106.740256],[257.183312,106.799192],[257.246880,106.868192],[257.298064,106.945568],[257.335536,107.029400],[257.358400,107.117640],[257.366096,107.208096],[257.366096,167.407200],[257.358400,167.497664],[257.335536,167.585888],[257.298064,167.669728],[257.246880,167.747104],[257.183312,167.816096],[257.108880,167.875024],[257.025392,167.922448],[256.934912,167.957168],[256.839696,167.978368],[256.742096,167.985472],[84.579760,167.985472],[84.482144,167.978368],[84.386936,167.957168],[84.296480,167.922448],[84.212984,167.875024],[84.138536,167.816096],[84.074936,167.747104],[84.023776,167.669728],[83.986296,167.585888],[83.963440,167.497664],[83.955768,167.407200],[83.955768,107.208096]]
; object:{"name":"Post","id":"Post.stl id:2 copy 0","object_center":[71.442802,91.516091,0.000000],"boundingbox_center":[71.442802,91.516091,10.875000],"boundingbox_size":[12.161605,110.969398,21.750000]}
EXCLUDE_OBJECT_DEFINE NAME=Post_stl_id_2_copy_0 CENTER=71.442802,91.516091 POLYGON=[[65.362000,36.031392],[65.364168,36.031392],[77.417544,36.045212],[77.520384,36.045332],[77.523608,36.045348],[77.523608,146.766928],[77.522952,146.785248],[77.520384,146.807520],[77.517304,146.823488],[77.512976,146.839104],[77.510808,146.846912],[77.500488,146.873088],[77.495184,146.883856],[77.483096,146.904368],[77.473976,146.917232],[77.461480,146.932304],[77.447832,146.946080],[77.436168,146.956112],[77.417544,146.969456],[77.407784,146.975296],[77.384032,146.986688],[77.377032,146.989344],[77.348320,146.997232],[77.344664,146.997920],[77.311488,147.000800],[65.574120,147.000800],[65.537292,146.997232],[65.501572,146.986688],[65.468064,146.969456],[65.437776,146.946080],[65.411628,146.917232],[65.390420,146.883856],[65.374796,146.846912],[65.365220,146.807520],[65.362000,146.766928],[65.362000,36.031392]]
; object:{"name":"Post","id":"Post.stl id:3 copy 0","object_center":[53.281197,91.516091,0.000000],"boundingbox_center":[53.281197,91.516091,10.875000],"boundingbox_size":[12.161605,110.969398,21.750000]}
EXCLUDE_OBJECT_DEFINE NAME=Post_stl_id_3_copy_0 CENTER=53.281197,91.516091 POLYGON=[[47.200392,36.031392],[47.202564,36.031392],[59.255940,36.045212],[59.358776,36.045332],[59.362000,36.045348],[59.362000,146.766928],[59.361348,146.785248],[59.358780,146.807520],[59.355696,146.823488],[59.349204,146.846912],[59.338880,146.873088],[59.333580,146.883856],[59.321488,146.904368],[59.312372,146.917232],[59.299868,146.932304],[59.286228,146.946080],[59.274564,146.956112],[59.255940,146.969456],[59.246176,146.975296],[59.222428,146.986688],[59.215428,146.989344],[59.186712,146.997232],[59.183064,146.997920],[59.149880,147.000800],[47.412516,147.000800],[47.375684,146.997232],[47.339964,146.986688],[47.306456,146.969456],[47.276168,146.946080],[47.250024,146.917232],[47.228812,146.883856],[47.213188,146.846912],[47.203616,146.807520],[47.200392,146.766928],[47.200392,36.031392]]
; object:{"name":"Base X100","id":"Base X100.5 Y98.5.stl id:4 copy 0","object_center":[170.660925,204.663299,0.000000],"boundingbox_center":[170.660925,204.663299,4.875000],"boundingbox_size":[173.410309,61.355653,9.750000]}
EXCLUDE_OBJECT_DEFINE NAME=Base_X100_5_Y98_5_stl_id_4_copy_0 CENTER=170.660925,204.663299 POLYGON=[[83.955768,174.563744],[83.963440,174.473296],[83.986296,174.385056],[84.023776,174.301232],[84.074936,174.223840],[84.138536,174.154848],[84.212984,174.095920],[84.296480,174.048512],[84.386936,174.013776],[84.482144,173.992592],[84.579760,173.985472],[256.742096,173.985472],[256.839696,173.992592],[256.934912,174.013776],[257.025392,174.048512],[257.108880,174.095920],[257.183312,174.154848],[257.246880,174.223840],[257.298064,174.301232],[257.335536,174.385056],[257.358400,174.473296],[257.366096,174.563744],[257.366096,234.762848],[257.358400,234.853312],[257.335536,234.941552],[257.298064,235.025376],[257.246880,235.102752],[257.183312,235.171760],[257.108880,235.230688],[257.025392,235.278112],[256.934912,235.312816],[256.839696,235.334016],[256.742096,235.341120],[84.579760,235.341120],[84.482144,235.334016],[84.386936,235.312816],[84.296480,235.278112],[84.212984,235.230688],[84.138536,235.171760],[84.074936,235.102752],[84.023776,235.025376],[83.986296,234.941552],[83.963440,234.853312],[83.955768,234.762848],[83.955768,174.563744]]
; object:{"name":"Post","id":"Post.stl id:5 copy 0","object_center":[71.442802,208.485333,0.000000],"boundingbox_center":[71.442802,208.485333,10.875000],"boundingbox_size":[12.161605,110.969398,21.750000]}
EXCLUDE_OBJECT_DEFINE NAME=Post_stl_id_5_copy_0 CENTER=71.442802,208.485333 POLYGON=[[65.362000,153.000640],[65.364168,153.000640],[65.479020,153.000768],[65.549332,153.000848],[66.123420,153.001504],[77.348320,153.014368],[77.480912,153.014528],[77.523608,153.014592],[77.523608,263.736176],[77.522952,263.754512],[77.520384,263.776768],[77.517304,263.792720],[77.512976,263.808352],[77.510808,263.816160],[77.500488,263.842352],[77.495184,263.853088],[77.483096,263.873632],[77.473976,263.886480],[77.461480,263.901552],[77.447832,263.915312],[77.436168,263.925360],[77.417544,263.938720],[77.407784,263.944544],[77.384032,263.955936],[77.377032,263.958592],[77.348320,263.966496],[77.344664,263.967168],[77.311488,263.970032],[65.574120,263.970032],[65.537292,263.966496],[65.501572,263.955936],[65.468064,263.938720],[65.437776,263.915312],[65.411628,263.886480],[65.390420,263.853088],[65.374796,263.816160],[65.365220,263.776768],[65.362000,263.736176],[65.362000,153.000640]]
; object:{"name":"Post","id":"Post.stl id:6 copy 0","object_center":[53.281197,208.485333,0.000000],"boundingbox_center":[53.281197,208.485333,10.875000],"boundingbox_size":[12.161605,110.969398,21.750000]}
EXCLUDE_OBJECT_DEFINE NAME=Post_stl_id_6_copy_0 CENTER=53.281197,208.485333 POLYGON=[[47.200392,153.000640],[47.202564,153.000640],[47.317412,153.000768],[47.387724,153.000848],[47.961812,153.001504],[59.186712,153.014368],[59.319308,153.014528],[59.362000,153.014592],[59.362000,263.736176],[59.361348,263.754512],[59.358780,263.776768],[59.355696,263.792720],[59.351368,263.808352],[59.349204,263.816160],[59.338880,263.842352],[59.333580,263.853088],[59.321488,263.873632],[59.312372,263.886480],[59.299868,263.901552],[59.286228,263.915312],[59.274564,263.925360],[59.255940,263.938720],[59.246176,263.944544],[59.222428,263.955936],[59.215428,263.958592],[59.186712,263.966496],[59.183064,263.967168],[59.149880,263.970032],[47.412516,263.970032],[47.375684,263.966496],[47.339964,263.955936],[47.306456,263.938720],[47.276168,263.915312],[47.250024,263.886480],[47.228812,263.853088],[47.213188,263.816160],[47.203616,263.776768],[47.200392,263.736176],[47.200392,153.000640]]
; plater:{"center":[152.500000,150.000712,0.000000],"boundingbox_center":[152.500000,150.000712,10.875000],"boundingbox_size":[210.599212,227.938640,21.750000]}

M73 P0 R375
;TYPE:Custom
START_PRINT T_BED=60 T_EXTRUDER=210
M107
G21 ; set units to millimeters
G90 ; use absolute coordinates
M82 ; use absolute distances for extrusion
G92 E0
; Filament gcode

    PRESSURE_ADVANCE_SELECT FILAMENT=PLA
;_TOOLCHANGE 0
M109 S210 ; set temperature and wait for it to be reached
M190 S60 ; set bed temperature and wait for it to be reached
M107
;LAYER_CHANGE
;Z:0.2
;HEIGHT:0.2
G1 Z0.2 F9000
G1 E-0.8 F2400
M204 S1000
G1 X44.016 Y34.465 F9000
G1 E0 F1800
;TYPE:Skirt
;WIDTH:0.52
G1 X43.621 Y36.132 E0.06793
G1 X43.621 Y263.72 E9.09622
G1 X43.834 Y264.96 E9.14612
G1 X45.367 Y266.93 E9.24513
G1 X47.41 Y267.542 E9.32977
G1 X77.877 Y267.499 E10.53836
G1 X257.488 Y238.877 E17.75329
G1 X258.633 Y238.5 E17.80115
G1 X259.685 Y237.761 E17.85214
G1 X260.487 Y236.696 E17.90503
G1 X260.894 Y235.531 E17.95395
G1 X260.972 Y234.766 E17.98446
G1 X261.406 Y100.052 E23.32852
G1 X261.406 Y39.529 E25.72943
G1 X261.327 Y38.751 E25.76044
G1 X260.921 Y37.587 E25.80934
G1 X260.119 Y36.521 E25.86226
G1 X258.918 Y35.711 E25.91972
G1 X258.138 Y35.444 E25.95242
G1 X257.318 Y35.339 E25.98521
G1 X77.447 Y32.43 E33.12151
G1 X65.503 Y32.416 E33.59533
M73 P0 R374
G1 X47.337 Y32.416 E34.31596
G1 X45.116 Y33.153 E34.40878
G1 X44.016 Y34.465 E34.47671
G1 X44.492 Y34.586 F9000
G1 F1800
G1 X44.099 Y36.132 E34.53997
G1 X44.099 Y263.72 E43.56826
G1 X44.287 Y264.811 E43.61215
G1 X45.623 Y266.527 E43.69845
G1 X47.41 Y267.065 E43.7725
G1 X77.802 Y267.028 E44.97811
G1 X257.412 Y238.406 E52.19305
G1 X258.43 Y238.068 E52.23557
G1 X259.361 Y237.411 E52.28079
G1 X260.069 Y236.466 E52.32763
G1 X260.423 Y235.451 E52.37027
G1 X260.495 Y234.765 E52.39764
G1 X260.929 Y100.05 E57.7417
G1 X260.929 Y39.529 E60.14255
G1 X260.857 Y38.831 E60.17036
G1 X260.503 Y37.817 E60.21298
G1 X259.794 Y36.871 E60.25986
G1 X258.714 Y36.142 E60.31155
G1 X258.034 Y35.91 E60.34005
G1 X257.311 Y35.816 E60.369
G1 X77.439 Y32.907 E67.50531
G1 X65.502 Y32.893 E67.97884
G1 X47.337 Y32.893 E68.69945
G1 X45.578 Y33.412 E68.7722
G1 X44.492 Y34.586 E68.83565
G92 E0
G1 E-0.8 F2400
; printing object Base X100.5 Y98.5.stl id:0 copy 0
EXCLUDE_OBJECT_START NAME=Base_X100_5_Y98_5_stl_id_0_copy_0
G1 X83.929 Y100.167 F9000
G1 E0 F1800
;TYPE:External perimeter
;WIDTH:0.5
G1 X83.897 Y100.108 E0.00254
G1 X83.881 Y100.019 E0.006
G1 X83.881 Y39.55 E2.30419
G1 X83.897 Y39.46 E2.30765
G1 X83.929 Y39.402 E2.31019
G1 X84.061 Y39.314 E2.3162
G1 X84.175 Y39.297 E2.32058
G1 X84.648 Y39.297 E2.33857
G1 X257.249 Y39.309 E8.8985
G1 X257.337 Y39.35 E8.9022
G1 X257.393 Y39.402 E8.90508
G1 X257.425 Y39.46 E8.90762
G1 X257.44 Y39.55 E8.91108
G1 X257.44 Y100.019 E11.20927
G1 X257.425 Y100.108 E11.21273
G1 X257.337 Y100.218 E11.21808
G1 X257.261 Y100.254 E11.22129
G1 X257.147 Y100.271 E11.22567
G1 X84.175 Y100.271 E17.7997
G1 X84.061 Y100.254 E17.80408
G1 X83.929 Y100.167 E17.8101
;WIPE_START
M204 S3000
G1 X84.079 Y99.796 F9000
;WIPE_END
M204 S1000
G1 X84.339 Y99.814
;TYPE:Internal perimeter
G1 F1800
G1 X84.339 Y39.755 E20.09274
G1 X84.648 Y39.755 E20.10451
G1 X256.983 Y39.766 E26.65433
G1 X256.983 Y99.814 E28.93655
G1 X84.339 Y99.814 E35.49815
M73 P0 R373
G1 X84.796 Y99.357 F9000
G1 F1800
G1 X84.796 Y40.212 E37.74605
G1 X256.526 Y40.223 E44.27289
G1 X256.526 Y99.357 E46.52037
G1 X84.796 Y99.357 E53.04722
G92 E0
G1 E-0.8 F2400
G1 X256.458 Y41.215 F9000
G1 E0 F1800
;TYPE:Solid infill
;WIDTH:0.498809
G1 F2400
G1 X255.534 Y40.291 E0.04955
G1 X254.887 Y40.291 F9000
G1 F2400
G1 X256.458 Y41.862 E0.13376
G1 X256.458 Y42.508 F9000
G1 F2400
G1 X254.241 Y40.291 E0.25263
G1 X253.594 Y40.291 F9000
G1 F2400
G1 X256.458 Y43.155 E0.40617
G1 X256.458 Y43.801 F9000
G1 F2400
G1 X252.948 Y40.291 E0.59437
G1 X252.301 Y40.291 F9000
G1 F2400
G1 X256.458 Y44.447 E0.81724
G1 X256.458 Y45.094 F9000
G1 F2400
G1 X251.655 Y40.291 E1.07476
G1 X251.008 Y40.291 F9000
G1 F2400
G1 X256.458 Y45.74 E1.36695
G1 X256.458 Y46.387 F9000
G1 F2400
G1 X250.362 Y40.291 E1.69381
G1 X249.716 Y40.291 F9000
G1 F2400
G1 X256.458 Y47.033 E2.05533
G1 X256.458 Y47.679 F9000
G1 F2400
G1 X249.069 Y40.291 E2.45151
G1 X248.423 Y40.291 F9000
G1 F2400
G1 X256.458 Y48.326 E2.88235
G1 X256.458 Y48.972 F9000
G1 F2400
G1 X247.776 Y40.291 E3.34786
G1 X247.13 Y40.291 F9000
G1 F2400
G1 X256.458 Y49.619 E3.84803
G1 X256.458 Y50.265 F9000
G1 F2400
G1 X246.483 Y40.291 E4.38286
G1 X245.837 Y40.291 F9000
G1 F2400
G1 X256.458 Y50.911 E4.95236
G1 X256.458 Y51.558 F9000
G1 F2400
G1 X245.19 Y40.291 E5.55652
G1 X244.544 Y40.291 F9000
G1 F2400
G1 X256.458 Y52.204 E6.19534
G1 X256.458 Y52.851 F9000
G1 F2400
G1 X243.898 Y40.29 E6.86883
G1 X243.251 Y40.29 F9000
G1 F2400
G1 X256.458 Y53.497 E7.57698
G1 X256.458 Y54.143 F9000
G1 F2400
G1 X242.605 Y40.29 E8.31979
G1 X241.958 Y40.29 F9000
G1 F2400
G1 X256.458 Y54.79 E9.09727
G1 X256.458 Y55.436 F9000
G1 F2400
G1 X241.312 Y40.29 E9.90941
G1 X240.665 Y40.29 F9000
G1 F2400
G1 X256.458 Y56.083 E10.75621
G1 X256.458 Y56.729 F9000
G1 F2400
G1 X240.019 Y40.29 E11.63768
G1 X239.372 Y40.29 F9000
G1 F2400
G1 X256.458 Y57.375 E12.55381
G1 X256.458 Y58.022 F9000
G1 F2400
G1 X238.726 Y40.29 E13.5046
G1 X238.079 Y40.29 F9000
