; HEADER_BLOCK_START
; generated by OrcaSlicer 1.6.6 on 2023-08-25 at 19:29:34
; total layer number: 60
; HEADER_BLOCK_END

; THUMBNAIL_BLOCK_START
; THUMBNAIL_BLOCK_END

; external perimeters extrusion width = 0.40mm
; perimeters extrusion width = 0.45mm
; infill extrusion width = 0.45mm
; solid infill extrusion width = 0.40mm
; top infill extrusion width = 0.40mm
; first layer extrusion width = 0.50mm

; EXECUTABLE_BLOCK_START
EXCLUDE_OBJECT_DEFINE NAME=Print_in_Place_Easel_NEW_VERSION.stl_id_0_copy_0 CENTER=155,155 POLYGON=[[77.6401,129.352],[77.6759,128.361],[77.7636,127.373],[77.9032,126.391],[78.0941,125.418],[78.3359,124.456],[84.6209,102.498],[150.002,102.504],[225.384,102.511],[231.665,124.469],[231.907,125.431],[232.097,126.404],[232.237,127.386],[232.324,128.374],[232.36,129.365],[232.36,129.368],[232.343,130.36],[232.275,131.349],[232.154,132.334],[231.982,133.31],[231.759,134.277],[231.486,135.23],[231.162,136.168],[230.79,137.087],[230.37,137.986],[229.904,138.861],[229.143,140.152],[228.851,140.566],[228.519,140.948],[168.787,205.765],[168.438,206.132],[168.054,206.462],[167.638,206.751],[167.195,206.997],[166.73,207.197],[166.247,207.348],[165.75,207.45],[165.247,207.502],[164.74,207.502],[144.74,207.5],[144.236,207.449],[143.74,207.347],[143.257,207.195],[142.791,206.995],[142.349,206.749],[141.933,206.46],[141.549,206.13],[141.2,205.763],[81.4789,140.936],[81.1467,140.553],[80.8547,140.139],[80.0945,138.848],[79.6282,137.973],[79.2085,137.074],[78.8366,136.155],[78.5135,135.217],[78.2401,134.264],[78.0172,133.297],[77.8453,132.32],[77.725,131.336],[77.6565,130.346],[77.6565,130.344],[77.6401,129.352]]
M73 P0 R55
;TYPE:Custom
START_PRINT T_BED=70 T_EXTRUDER=235
G90
G21
M83 ; use relative distances for extrusion
; Filament gcode
PRESSURE_ADVANCE_SELECT FILAMENT=PETG
M106 S0
;LAYER_CHANGE
;Z:0.2
;HEIGHT:0.2
;BEFORE_LAYER_CHANGE
;0.2
G92 E0

SET_VELOCITY_LIMIT ACCEL=1500 ACCEL_TO_DECEL=750
G1 E-.8 F3000
G1 Z.4 F9000
G1 X83.002 Y100.653
G1 Z.4
G1 Z.2
G1 E.8 F1800
;TYPE:Skirt
;WIDTH:0.5
G1 F3000
G1 X84.621 Y100.044 E.06247
G1 X150.003 Y100.05 E2.36066
G1 X225.384 Y100.056 E2.72172
G1 X226.715 Y100.448 E.0501
G1 X227.746 Y101.837 E.06247
G1 X234.027 Y123.795 E.82462
G1 X234.53 Y126.061 E.0838
G1 X234.772 Y128.16 E.07626
G1 X234.8 Y130.4 E.08091
G1 X234.593 Y132.632 E.08092
G1 X234.154 Y134.828 E.08084
G1 X233.485 Y136.969 E.08099
G1 X232.596 Y139.026 E.08092
G1 X231.261 Y141.399 E.09833
G1 X230.706 Y142.178 E.03454
G1 X170.219 Y207.825 E3.22298
G1 X169.042 Y208.768 E.05446
G1 X168.164 Y209.255 E.03624
G1 X166.982 Y209.693 E.04551
G1 X165.999 Y209.895 E.03624
G1 X165.246 Y209.959 E.02726
G1 X144.498 Y209.944 E.74914
G1 X143.245 Y209.753 E.04575
G1 X142.288 Y209.453 E.03624
G1 X141.156 Y208.897 E.04551
G1 X140.332 Y208.324 E.03624
G1 X139.393 Y207.428 E.04689
G1 X79.292 Y142.165 E3.20332
G1 X78.737 Y141.386 E.03454
G1 X77.977 Y140.095 E.05409
G1 X76.931 Y137.996 E.0847
G1 X76.514 Y136.955 E.04047
G1 X75.878 Y134.941 E.07626
G1 X75.406 Y132.618 E.08557
G1 X75.2 Y130.387 E.08092
G1 X75.22 Y128.275 E.07626
G1 X75.331 Y127.03 E.04513
G1 X75.711 Y124.821 E.08092
G1 X82.259 Y101.825 E.8633
G1 X82.98 Y100.687 E.04866
; printing object Print_in_Place_Easel_NEW_VERSION.stl id:0 copy 0
G1 E-.8
EXCLUDE_OBJECT_START NAME=Print_in_Place_Easel_NEW_VERSION.stl_id_0_copy_0
G1 Z.6 F9000
G1 X160.019 Y162.758 Z.6
G1 Z.2
G1 E.8 F1800
;TYPE:Outer wall
;WIDTH:0.499999
G1 F3000
G1 X160.182 Y162.689 E.00639
G1 X160.247 Y162.529 E.00624
G1 X160.252 Y102.757 E2.15811
G1 X169.752 Y102.758 E.34301
G1 X169.75 Y124.598 E.78854
G1 X169.753 Y124.634 E.00129
G1 X169.834 Y124.774 E.00585
G1 X169.996 Y124.826 E.00614
G1 X170.143 Y124.757 E.00586
G1 X171.271 Y123.598 E.05838
G1 X172.395 Y122.517 E.05633
G1 X173.553 Y121.472 E.05633
G1 X174.745 Y120.465 E.05633
G1 X175.97 Y119.498 E.05633
G1 X177.225 Y118.572 E.05633
G1 X178.487 Y117.703 E.05531
G1 X179.823 Y116.844 E.05735
G1 X181.162 Y116.045 E.05633
G1 X182.528 Y115.289 E.05633
G1 X183.917 Y114.579 E.05633
G1 X185.302 Y113.927 E.05529
G1 X186.761 Y113.296 E.05737
G1 X188.212 Y112.725 E.05633
G1 X189.655 Y112.211 E.05528
G1 X191.168 Y111.726 E.05738
G1 X192.668 Y111.299 E.05632
G1 X194.182 Y110.921 E.05634
G1 X195.708 Y110.593 E.05633
G1 X197.243 Y110.315 E.05633
G1 X198.786 Y110.088 E.05633
G1 X200.336 Y109.91 E.05633
G1 X201.891 Y109.783 E.05633
G1 X203.449 Y109.708 E.05633
G1 X205.009 Y109.682 E.05633
G1 X206.569 Y109.708 E.05633
G1 X208.128 Y109.785 E.05633
G1 X209.7 Y109.914 E.05697
G1 X209.779 Y109.907 E.00285
G1 X209.917 Y109.8 E.00629
G1 X213.981 Y102.762 E.29345
G1 X224.951 Y102.763 E.39607
G1 X219.773 Y111.73 E.37387
G1 X219.757 Y111.764 E.00135
G1 X219.758 Y111.927 E.0059
G1 X219.886 Y112.057 E.00659
G1 X220.825 Y112.43 E.03647
G1 X221.714 Y112.839 E.03534
G1 X222.58 Y113.295 E.03534
G1 X223.421 Y113.795 E.03534
G1 X224.22 Y114.329 E.03469
G1 X225.019 Y114.924 E.03599
G1 X225.771 Y115.55 E.03533
G1 X226.49 Y116.215 E.03534
G1 X227.172 Y116.917 E.03534
G1 X227.817 Y117.653 E.03534
G1 X228.422 Y118.422 E.03534
G1 X228.986 Y119.222 E.03534
G1 X229.507 Y120.051 E.03534
G1 X229.975 Y120.89 E.03471
G1 X230.415 Y121.784 E.03597
G1 X230.799 Y122.684 E.03533
G1 X231.136 Y123.603 E.03534
G1 X231.424 Y124.539 E.03534
G1 X231.662 Y125.488 E.03534
G1 X231.851 Y126.448 E.03534
G1 X231.988 Y127.417 E.03534
G1 X232.063 Y128.264 E.0307
G1 X232.108 Y129.499 E.04461
G1 X232.093 Y130.349 E.03069
G1 X232.026 Y131.325 E.03534
G1 X231.907 Y132.297 E.03534
G1 X231.74 Y133.245 E.03476
G1 X231.517 Y134.214 E.03592
G1 X231.247 Y135.155 E.03533
G1 X230.928 Y136.08 E.03534
G1 X230.561 Y136.987 E.03534
G1 X230.147 Y137.874 E.03534
G1 X229.686 Y138.739 E.03538
G1 X228.793 Y140.215 E.06228
G1 X228.339 Y140.775 E.02602
G1 X227.797 Y141.25 E.02603
G1 X227.196 Y141.648 E.02602
G1 X226.536 Y141.939 E.02605
G1 X225.844 Y142.139 E.02601
G1 X225.129 Y142.219 E.02597
G1 X224.407 Y142.203 E.02608
G1 X223.701 Y142.065 E.02597
G1 X223.016 Y141.833 E.02608
G1 X222.382 Y141.49 E.02604
G1 X221.8 Y141.064 E.02602
G1 X221.298 Y140.547 E.02603
G1 X220.87 Y139.967 E.02603
G1 X220.546 Y139.323 E.02603
G1 X220.312 Y138.642 E.02603
G1 X220.195 Y137.93 E.02603
G1 X220.175 Y137.21 E.02602
G1 X220.277 Y136.496 E.02603
G1 X220.474 Y135.802 E.02603
G1 X221.38 Y133.924 E.07529
G1 X221.73 Y132.958 E.03712
G1 X221.901 Y132.397 E.02116
G1 X222.107 Y131.472 E.03424
G1 X222.216 Y130.815 E.02403
G1 X222.295 Y129.984 E.03014
G1 X222.319 Y129.205 E.02814
G1 X222.29 Y128.398 E.02914
G1 X222.167 Y127.348 E.03818
G1 X222.074 Y126.799 E.02009
G1 X221.833 Y125.84 E.03571
G1 X221.652 Y125.256 E.02207
G1 X221.299 Y124.36 E.03478
G1 X221.021 Y123.757 E.02399
G1 X220.635 Y123.048 E.02914
G1 X220.208 Y122.373 E.02882
G1 X220.101 Y122.284 E.00504
G1 X218.744 Y121.733 E.05288
G1 X217.42 Y121.251 E.05085
G1 X216.667 Y121.009 E.02855
G1 X216.056 Y120.812 E.0232
G1 X214.676 Y120.425 E.05176
G1 X213.282 Y120.089 E.05175
G1 X211.877 Y119.805 E.05175
G1 X210.463 Y119.574 E.05175
G1 X209.04 Y119.396 E.05176
G1 X207.621 Y119.272 E.05144
G1 X206.181 Y119.201 E.05203
G1 X204.749 Y119.183 E.05171
G1 X203.317 Y119.219 E.05172
G1 X201.884 Y119.309 E.05187
G1 X200.457 Y119.452 E.05176
G1 X199.021 Y119.652 E.05236
G1 X197.634 Y119.896 E.05083
G1 X196.226 Y120.2 E.05202
G1 X194.836 Y120.554 E.0518
G1 X193.464 Y120.959 E.05164
G1 X192.102 Y121.417 E.05188
G1 X190.739 Y121.934 E.05265
G1 X189.441 Y122.481 E.05085
G1 X188.15 Y123.084 E.05145
G1 X186.868 Y123.741 E.05202
G1 X185.617 Y124.444 E.0518
G1 X184.397 Y125.189 E.05163
G1 X183.2 Y125.984 E.05188
G1 X182.017 Y126.836 E.05263
G1 X180.905 Y127.701 E.05088
G1 X179.813 Y128.618 E.05145
G1 X178.746 Y129.584 E.05201
G1 X177.941 Y130.37 E.0406
G1 X176.731 Y131.625 E.06296
G1 X175.783 Y132.7 E.05175
G1 X174.875 Y133.81 E.05175
G1 X174.01 Y134.953 E.05176
G1 X173.423 Y135.792 E.037
G1 X172.416 Y137.324 E.06619
G1 X171.684 Y138.557 E.05175
G1 X170.994 Y139.823 E.05206
G1 X170.357 Y141.107 E.05176
G1 X169.769 Y142.41 E.0516
G1 X169.749 Y142.504 E.00347
G1 X169.744 Y202.382 E2.16195
G1 X169.719 Y202.989 E.02194
G1 X169.586 Y203.697 E.02603
G1 X169.358 Y204.381 E.02603
G1 X169.019 Y205.017 E.02603
G1 X168.597 Y205.602 E.02603
G1 X168.083 Y206.107 E.02603
G1 X167.506 Y206.539 E.02603
G1 X166.864 Y206.867 E.02603
G1 X166.184 Y207.106 E.02603
G1 X165.473 Y207.227 E.02603
G1 X164.753 Y207.252 E.02602
G1 X164.038 Y207.154 E.02603
G1 X163.344 Y206.962 E.02603
G1 X162.691 Y206.655 E.02603
G1 X162.086 Y206.264 E.02603
G1 X161.555 Y205.776 E.02603
G1 X161.095 Y205.221 E.02603
G1 X160.735 Y204.597 E.02603
G1 X160.462 Y203.929 E.02603
G1 X160.305 Y203.226 E.02603
G1 X160.244 Y202.501 E.02626
G1 X160.247 Y167.486 E1.26426
G1 X160.181 Y167.326 E.00624
G1 X160.018 Y167.258 E.00639
G1 X158.999 Y167.257 E.03679
G1 X158.98 Y162.757 E.16248
G1 X159.979 Y162.758 E.03605
G1 X160.106 Y163.198 F9000
;TYPE:Inner wall
G1 F3000
G1 X160.276 Y163.164 E.00629
G1 X160.424 Y163.082 E.00608
G1 X160.624 Y162.85 E.01107
G1 X160.704 Y162.529 E.01196
G1 X160.709 Y103.215 E2.1416
G1 X169.295 Y103.215 E.31
G1 X169.293 Y124.598 E.77204
G1 X169.326 Y124.808 E.00769
G1 X169.477 Y125.065 E.01073
G1 X169.682 Y125.216 E.0092
G1 X169.947 Y125.283 E.00989
G1 X170.227 Y125.237 E.01022
G1 X170.47 Y125.076 E.01055
G1 X171.593 Y123.923 E.05811
G1 X172.706 Y122.851 E.05579
G1 X173.854 Y121.816 E.05579
G1 X175.035 Y120.819 E.05579
G1 X176.247 Y119.862 E.05579
G1 X177.49 Y118.944 E.05579
G1 X178.74 Y118.083 E.05478
G1 X180.064 Y117.233 E.05681
G1 X181.39 Y116.441 E.05578
G1 X182.742 Y115.693 E.05579
G1 X184.118 Y114.989 E.05579
G1 X185.49 Y114.343 E.05476
G1 X186.935 Y113.718 E.05684
G1 X188.373 Y113.153 E.05578
G1 X189.801 Y112.644 E.05475
G1 X191.3 Y112.163 E.05685
G1 X192.786 Y111.741 E.05578
G1 X194.286 Y111.367 E.0558
G1 X195.796 Y111.042 E.05579
G1 X197.317 Y110.766 E.05579
G1 X198.846 Y110.541 E.05579
G1 X200.381 Y110.365 E.05579
G1 X201.921 Y110.24 E.0558
G1 X203.464 Y110.164 E.05579
G1 X205.009 Y110.14 E.05579
G1 X206.554 Y110.165 E.05579
G1 X208.098 Y110.241 E.05579
G1 X209.663 Y110.369 E.0567
G1 X209.805 Y110.366 E.00514
G1 X210.087 Y110.265 E.01081
G1 X210.313 Y110.029 E.01178
G1 X214.245 Y103.219 E.28393
G1 X224.159 Y103.22 E.35796
G1 X219.377 Y111.501 E.34528
G1 X219.298 Y111.709 E.00799
G1 X219.306 Y112.013 E.01099
G1 X219.453 Y112.294 E.01146
G1 X219.717 Y112.481 E.01169
G1 X220.644 Y112.85 E.03604
G1 X221.512 Y113.25 E.03447
G1 X222.357 Y113.694 E.03447
G1 X223.177 Y114.182 E.03447
G1 X223.956 Y114.702 E.03383
G1 X224.736 Y115.283 E.03512
G1 X225.47 Y115.894 E.03446
G1 X226.171 Y116.542 E.03447
G1 X226.836 Y117.227 E.03447
G1 X227.465 Y117.945 E.03447
G1 X228.055 Y118.695 E.03447
G1 X228.605 Y119.476 E.03447
G1 X229.114 Y120.284 E.03447
G1 X229.57 Y121.103 E.03385
G1 X229.999 Y121.975 E.0351
G1 X230.374 Y122.853 E.03446
G1 X230.703 Y123.749 E.03447
G1 X230.984 Y124.662 E.03447
G1 X231.216 Y125.587 E.03447
G1 X231.4 Y126.524 E.03447
G1 X231.534 Y127.47 E.03447
G1 X231.608 Y128.305 E.03027
G1 X231.651 Y129.491 E.04288
G1 X231.637 Y130.329 E.03026
G1 X231.571 Y131.282 E.03447
G1 X231.455 Y132.229 E.03447
G1 X231.292 Y133.154 E.0339
G1 X231.074 Y134.1 E.03505
G1 X230.811 Y135.017 E.03446
G1 X230.5 Y135.92 E.03447
G1 X230.142 Y136.805 E.03447
G1 X229.738 Y137.67 E.03447
G1 X229.287 Y138.515 E.0346
G1 X228.42 Y139.952 E.06058
G1 X228.009 Y140.457 E.02352
G1 X227.519 Y140.887 E.02352
G1 X226.976 Y141.246 E.02352
G1 X226.38 Y141.51 E.02354
G1 X225.754 Y141.69 E.0235
G1 X225.108 Y141.762 E.02349
G1 X224.456 Y141.748 E.02355
G1 X223.817 Y141.623 E.02349
G1 X223.2 Y141.414 E.02355
G1 X222.626 Y141.103 E.02353
G1 X222.101 Y140.719 E.02351
G1 X221.647 Y140.252 E.02352
G1 X221.26 Y139.727 E.02352
G1 X220.967 Y139.146 E.02352
G1 X220.755 Y138.53 E.02352
G1 X220.65 Y137.887 E.02352
G1 X220.632 Y137.236 E.02352
G1 X220.724 Y136.591 E.02352
G1 X220.902 Y135.964 E.02352
G1 X221.164 Y135.401 E.02245
G1 X221.574 Y134.599 E.03249
G1 X221.807 Y134.086 E.02035
G1 X222.167 Y133.091 E.03821
G1 X222.346 Y132.502 E.02225
G1 X222.558 Y131.546 E.03534
G1 X222.67 Y130.859 E.02512
G1 X222.751 Y129.998 E.03123
G1 X222.775 Y129.189 E.02923
G1 X222.745 Y128.352 E.03023
G1 X222.617 Y127.272 E.03928
G1 X222.518 Y126.694 E.02118
G1 X222.27 Y125.705 E.0368
G1 X222.079 Y125.093 E.02314
G1 X221.715 Y124.169 E.03589
G1 X221.423 Y123.538 E.02508
G1 X220.945 Y122.683 E.03535
G1 X220.52 Y122.031 E.02812
G1 X220.273 Y121.86 E.01084
G1 X218.9 Y121.303 E.05349
G1 X217.56 Y120.816 E.05147
G1 X216.808 Y120.574 E.02855
G1 X216.179 Y120.372 E.02382
G1 X214.783 Y119.98 E.05237
G1 X213.373 Y119.641 E.05237
G1 X211.951 Y119.354 E.05237
G1 X210.519 Y119.121 E.05237
G1 X209.08 Y118.941 E.05237
G1 X207.66 Y118.817 E.05144
G1 X206.189 Y118.744 E.05319
G1 X204.955 Y118.729 E.04454
G1 X203.286 Y118.763 E.0603
G1 X201.838 Y118.854 E.05237
G1 X200.394 Y119 E.05239
G1 X198.958 Y119.199 E.05236
G1 X197.555 Y119.446 E.05144
G1 X196.115 Y119.756 E.05317
G1 X194.954 Y120.052 E.04327
G1 X193.315 Y120.527 E.06159
G1 X191.94 Y120.99 E.05239
G1 X190.561 Y121.513 E.05326
G1 X189.248 Y122.067 E.05147
G1 X187.957 Y122.67 E.05145
G1 X186.647 Y123.341 E.05315
G1 X185.632 Y123.91 E.04199
G1 X184.141 Y124.811 E.06289
G1 X182.933 Y125.613 E.05239
G1 X181.736 Y126.475 E.05323
G1 X180.611 Y127.351 E.05149
G1 X179.52 Y128.267 E.05145
G1 X178.429 Y129.255 E.05313
G1 X177.621 Y130.042 E.04072
G1 X176.388 Y131.323 E.06419
G1 X175.429 Y132.411 E.05237
G1 X174.511 Y133.534 E.05237
G1 X173.636 Y134.691 E.05237
G1 X173.048 Y135.53 E.037
G1 X172.032 Y137.076 E.06681
G1 X171.278 Y138.346 E.0533
G1 X170.585 Y139.62 E.05237
G1 X169.94 Y140.919 E.05237
G1 X169.352 Y142.222 E.0516
G1 X169.292 Y142.504 E.01041
G1 X169.287 Y202.382 E2.16195
G1 X169.264 Y202.943 E.02027
G1 X169.143 Y203.583 E.02352
G1 X168.938 Y204.201 E.02352
G1 X168.631 Y204.776 E.02352
G1 X168.25 Y205.304 E.02352
G1 X167.786 Y205.761 E.02352
G1 X167.264 Y206.151 E.02352
G1 X166.684 Y206.447 E.02352
G1 X166.069 Y206.663 E.02352
G1 X165.427 Y206.773 E.02352
M73 P0 R54
G1 X164.776 Y206.794 E.02352
G1 X164.131 Y206.707 E.02352
G1 X163.503 Y206.533 E.02352
G1 X162.913 Y206.256 E.02352
G1 X162.366 Y205.902 E.02352
G1 X161.887 Y205.461 E.02352
G1 X161.471 Y204.96 E.02352
G1 X161.145 Y204.395 E.02352
G1 X160.898 Y203.792 E.02352
G1 X160.757 Y203.157 E.02352
G1 X160.701 Y202.49 E.02417
G1 X160.704 Y167.486 E1.26384
G1 X160.667 Y167.265 E.00811
G1 X160.508 Y167.006 E.01096
G1 X160.277 Y166.851 E.01006
G1 X160.018 Y166.8 E.0095
G1 X159.454 Y166.8 E.02036
G1 X159.439 Y163.215 E.12947
G1 X160.019 Y163.215 E.02092
G1 X160.066 Y163.205 E.00176
G1 X160.168 Y163.63 F9000
G1 F3000
G1 X160.448 Y163.588 E.01022
G1 X160.694 Y163.451 E.01014
G1 X160.926 Y163.223 E.01177
G1 X161.1 Y162.898 E.0133
G1 X161.161 Y162.529 E.01351
G1 X161.166 Y103.672 E2.1251
G1 X168.838 Y103.672 E.27699
G1 X168.836 Y124.598 E.75553
G1 X168.891 Y124.948 E.01281
G1 X169.042 Y125.252 E.01222
G1 X169.252 Y125.479 E.01119
G1 X169.598 Y125.675 E.01437
G1 X169.926 Y125.739 E.01207
G1 X170.247 Y125.709 E.01164
G1 X170.572 Y125.575 E.01268
G1 X170.798 Y125.395 E.01044
G1 X171.915 Y124.247 E.05785
G1 X173.018 Y123.185 E.05525
G1 X174.154 Y122.161 E.05525
G1 X175.324 Y121.174 E.05526
G1 X176.525 Y120.225 E.05525
G1 X177.756 Y119.316 E.05525
G1 X178.993 Y118.464 E.05424
G1 X180.304 Y117.621 E.05627
G1 X181.618 Y116.837 E.05524
G1 X182.957 Y116.096 E.05526
G1 X184.32 Y115.4 E.05525
G1 X185.678 Y114.76 E.05422
G1 X187.109 Y114.141 E.0563
G1 X188.533 Y113.581 E.05524
G1 X189.948 Y113.077 E.05421
G1 X191.433 Y112.601 E.05631
G1 X192.904 Y112.182 E.05524
G1 X194.389 Y111.812 E.05526
G1 X195.885 Y111.49 E.05525
G1 X197.391 Y111.218 E.05525
G1 X198.905 Y110.994 E.05525
G1 X200.425 Y110.82 E.05525
G1 X201.951 Y110.696 E.05526
G1 X203.479 Y110.621 E.05525
G1 X205.009 Y110.597 E.05525
G1 X206.539 Y110.622 E.05525
G1 X208.068 Y110.697 E.05526
G1 X209.625 Y110.825 E.05643
G1 X209.863 Y110.82 E.00856
G1 X210.203 Y110.721 E.01279
G1 X210.526 Y110.495 E.01426
G1 X210.708 Y110.258 E.01079
G1 X214.509 Y103.676 E.2744
