; HEADER_BLOCK_START
; generated by OrcaSlicer 1.7.0-beta on 2023-09-21 at 17:43:42
; total layer number: 39
; HEADER_BLOCK_END

; THUMBNAIL_BLOCK_START
; THUMBNAIL_BLOCK_END

; external perimeters extrusion width = 0.40mm
; perimeters extrusion width = 0.45mm
; infill extrusion width = 0.45mm
; solid infill extrusion width = 0.40mm
; top infill extrusion width = 0.40mm
; support material extrusion width = 0.40mm
; first layer extrusion width = 0.50mm

; EXECUTABLE_BLOCK_START
EXCLUDE_OBJECT_DEFINE NAME=Pulley_alignment_tool.stl_id_0_copy_0 CENTER=155,155 POLYGON=[[122.354,136.356],[122.354,136.352],[122.418,135.434],[122.432,135.349],[122.452,135.265],[122.48,135.184],[122.515,135.105],[122.556,135.029],[126.536,128.135],[126.581,128.061],[126.632,127.992],[126.689,127.927],[126.751,127.867],[126.818,127.813],[127.581,127.298],[127.584,127.296],[128.383,126.849],[128.39,126.846],[129.22,126.469],[129.231,126.464],[130.086,126.16],[130.102,126.155],[130.975,125.924],[130.995,125.919],[131.881,125.763],[131.905,125.76],[132.797,125.678],[132.825,125.677],[133.716,125.671],[176.283,125.671],[177.174,125.677],[177.202,125.678],[178.095,125.76],[178.118,125.763],[179.004,125.919],[179.024,125.924],[179.898,126.155],[179.913,126.159],[180.768,126.464],[180.779,126.469],[181.609,126.846],[181.617,126.849],[182.416,127.296],[182.419,127.298],[183.182,127.813],[183.249,127.867],[183.311,127.927],[183.368,127.992],[183.419,128.061],[183.463,128.135],[187.444,135.029],[187.485,135.105],[187.52,135.184],[187.548,135.265],[187.568,135.349],[187.582,135.434],[187.646,136.352],[187.646,136.356],[187.634,137.271],[187.633,137.279],[187.545,138.186],[187.543,138.198],[187.38,139.091],[187.376,139.107],[187.139,139.979],[187.133,139.998],[186.826,140.844],[186.817,140.866],[186.441,141.679],[186.428,141.704],[185.988,142.479],[164.705,179.343],[164.253,180.112],[164.238,180.135],[163.722,180.867],[163.707,180.886],[163.129,181.576],[163.115,181.59],[162.478,182.231],[162.466,182.242],[161.775,182.83],[161.765,182.838],[161.024,183.368],[161.017,183.373],[160.23,183.841],[160.227,183.843],[159.4,184.246],[159.32,184.277],[159.237,184.301],[159.152,184.318],[159.067,184.327],[158.981,184.329],[151.019,184.329],[150.933,184.327],[150.848,184.318],[150.763,184.301],[150.68,184.277],[150.6,184.246],[149.773,183.843],[149.77,183.841],[148.983,183.373],[148.976,183.368],[148.235,182.838],[148.225,182.831],[147.534,182.243],[147.522,182.232],[146.885,181.591],[146.872,181.576],[146.293,180.887],[146.278,180.868],[145.762,180.136],[145.747,180.112],[145.295,179.343],[124.012,142.48],[123.572,141.705],[123.559,141.68],[123.183,140.866],[123.174,140.844],[122.867,139.999],[122.861,139.979],[122.624,139.107],[122.62,139.092],[122.457,138.199],[122.455,138.187],[122.366,137.279],[122.366,137.271],[122.354,136.356]]
M73 P0 R17
;TYPE:Custom
START_PRINT T_BED=60 T_EXTRUDER=220
G90
G21
M83 ; use relative distances for extrusion
; filament start gcode
PRESSURE_ADVANCE_SELECT FILAMENT=PLA
M106 S0
;LAYER_CHANGE
;Z:0.2
;HEIGHT:0.2
;BEFORE_LAYER_CHANGE
;0.2
G92 E0

;_SET_FAN_SPEED_CHANGING_LAYER
SET_VELOCITY_LIMIT ACCEL=1500 ACCEL_TO_DECEL=750
G1 E-.8 F3000
G1 Z.4 F9000
G1 X124.888 Y126.032
G1 Z.4
G1 Z.2
G1 E.8 F1800
;TYPE:Skirt
;WIDTH:0.5
G1 F3000
G1 X126.114 Y125.135 E.05658
G1 X127.329 Y124.456 E.05185
G1 X129.228 Y123.691 E.07623
G1 X130.574 Y123.338 E.05185
G1 X132.849 Y123.062 E.08535
G1 X176.239 Y123.058 E1.61612
G1 X178.538 Y123.184 E.08574
G1 X180.537 Y123.619 E.07623
G1 X181.628 Y123.995 E.04295
G1 X182.89 Y124.566 E.05161
G1 X183.886 Y125.135 E.04271
G1 X184.88 Y125.824 E.04506
G1 X185.518 Y126.503 E.0347
G1 X189.745 Y133.787 E.31368
G1 X190.104 Y134.711 E.03692
G1 X190.26 Y136.409 E.06349
G1 X190.145 Y138.452 E.07623
G1 X189.892 Y139.821 E.05185
G1 X189.175 Y141.997 E.08535
G1 X188.233 Y143.815 E.07623
G1 X166.53 Y181.399 E1.61651
G1 X165.153 Y183.231 E.08535
G1 X164.176 Y184.219 E.05176
G1 X162.563 Y185.482 E.07632
G1 X161.367 Y186.196 E.05185
G1 X160.329 Y186.69 E.04282
G1 X159.733 Y186.868 E.02317
G1 X158.986 Y186.944 E.02797
G1 X150.884 Y186.941 E.30178
G1 X150.181 Y186.848 E.02641
G1 X149.443 Y186.591 E.02913
G1 X147.643 Y185.617 E.07623
G1 X146.334 Y184.655 E.06047
G1 X144.847 Y183.231 E.07671
G1 X143.6 Y181.603 E.07639
G1 X121.319 Y143.033 E1.65907
G1 X120.731 Y141.771 E.05185
G1 X120.346 Y140.69 E.04271
G1 X119.855 Y138.452 E.08535
G1 X119.746 Y136.163 E.08535
G1 X119.847 Y134.958 E.04506
G1 X120.091 Y134.121 E.03247
G1 X124.275 Y126.823 E.31332
G1 X124.863 Y126.063 E.03578
G1 X125.204 Y126.362 F9000
G1 F3000
G1 X126.369 Y125.513 E.05367
G1 X127.518 Y124.872 E.04898
G1 X129.38 Y124.122 E.0748
G1 X130.652 Y123.789 E.04898
G1 X132.85 Y123.519 E.08248
G1 X176.239 Y123.515 E1.61605
G1 X178.459 Y123.634 E.08282
G1 X180.422 Y124.061 E.0748
G1 X181.474 Y124.425 E.04148
G1 X182.667 Y124.966 E.04878
G1 X183.63 Y125.514 E.04128
G1 X184.593 Y126.18 E.04361
G1 X185.15 Y126.774 E.03031
G1 X189.344 Y134.007 E.31141
G1 X189.66 Y134.821 E.03253
G1 X189.803 Y136.402 E.05914
G1 X189.69 Y138.407 E.0748
G1 X189.451 Y139.7 E.04898
G1 X188.76 Y141.804 E.08248
G1 X187.837 Y143.588 E.0748
G1 X166.135 Y181.169 E1.61639
G1 X164.802 Y182.938 E.08249
G1 X163.879 Y183.871 E.04891
G1 X162.296 Y185.111 E.07487
G1 X161.167 Y185.785 E.04898
G1 X160.165 Y186.263 E.04137
G1 X159.644 Y186.42 E.02024
G1 X158.986 Y186.487 E.02464
G1 X150.895 Y186.484 E.30137
G1 X150.28 Y186.402 E.0231
G1 X149.643 Y186.18 E.02514
G1 X147.877 Y185.224 E.0748
G1 X146.631 Y184.308 E.05759
G1 X145.198 Y182.938 E.07386
G1 X143.974 Y181.341 E.07493
G1 X121.715 Y142.805 E1.65754
G1 X120.85 Y140.767 E.08249
G1 X120.339 Y138.612 E.08249
G1 X120.221 Y137.51 E.04128
G1 X120.202 Y136.195 E.04898
G1 X120.298 Y135.028 E.04361
G1 X120.51 Y134.305 E.02808
G1 X124.671 Y127.051 E.31146
G1 X125.18 Y126.393 E.03099
; printing object Pulley_alignment_tool.stl id:0 copy 0
G1 E-.8
EXCLUDE_OBJECT_START NAME=Pulley_alignment_tool.stl_id_0_copy_0
G1 Z.6 F9000
G1 X155 Y144.026 Z.6
M73 P1 R17
G1 Z.2
G1 E.8 F1800
;TYPE:Outer wall
G1 F3000
G1 X166.23 Y137.542 E.483
G1 X166.203 Y136.503 E.03872
G1 X166.253 Y135.624 E.03279
G1 X166.378 Y134.753 E.03279
G1 X166.575 Y133.895 E.03279
G1 X166.844 Y133.056 E.03279
G1 X167.182 Y132.244 E.03279
G1 X167.588 Y131.463 E.03279
G1 X168.058 Y130.718 E.03279
G1 X168.589 Y130.016 E.03279
G1 X169.177 Y129.361 E.03279
G1 X169.818 Y128.758 E.03279
G1 X170.508 Y128.211 E.03279
G1 X171.241 Y127.724 E.03279
G1 X172.013 Y127.3 E.03279
G1 X172.818 Y126.943 E.03279
G1 X173.649 Y126.655 E.03279
G1 X174.503 Y126.438 E.0328
G1 X175.154 Y126.328 E.02459
G1 X175.37 Y126.293 E.00816
G1 X176.249 Y126.222 E.03282
G1 X177.129 Y126.226 E.0328
G1 X177.787 Y126.283 E.0246
G1 X178.005 Y126.303 E.00817
G1 X178.873 Y126.454 E.03281
G1 X179.725 Y126.677 E.03279
G1 X180.348 Y126.897 E.0246
G1 X180.554 Y126.971 E.00817
G1 X181.356 Y127.334 E.0328
G1 X182.125 Y127.763 E.03279
G1 X182.85 Y128.253 E.03258
G1 X182.983 Y128.406 E.00755
G1 X183.035 Y128.585 E.00694
G1 X183.028 Y128.7 E.0043
G1 X182.992 Y128.81 E.0043
G1 X182.93 Y128.907 E.0043
G1 X182.84 Y128.989 E.00451
G1 X174.871 Y133.593 E.34281
G1 X174.614 Y133.756 E.01133
G1 X174.369 Y133.945 E.01154
G1 X174.14 Y134.154 E.01154
G1 X173.931 Y134.382 E.01154
G1 X173.742 Y134.628 E.01154
G1 X173.576 Y134.889 E.01154
G1 X173.433 Y135.164 E.01154
G1 X173.314 Y135.45 E.01154
G1 X173.221 Y135.746 E.01154
G1 X173.154 Y136.048 E.01154
G1 X173.114 Y136.355 E.01154
G1 X173.1 Y136.664 E.01154
G1 X173.114 Y136.974 E.01154
G1 X173.154 Y137.281 E.01154
G1 X173.221 Y137.583 E.01154
G1 X173.314 Y137.879 E.01154
G1 X173.433 Y138.165 E.01154
G1 X173.576 Y138.44 E.01154
G1 X173.742 Y138.701 E.01154
G1 X173.934 Y138.95 E.01171
G1 X174.314 Y139.335 E.02014
G1 X174.613 Y139.572 E.01419
G1 X174.875 Y139.739 E.01161
G1 X175.15 Y139.882 E.01154
G1 X175.436 Y140.001 E.01154
G1 X175.732 Y140.094 E.01154
G1 X176.034 Y140.161 E.01154
G1 X176.341 Y140.201 E.01154
G1 X176.651 Y140.215 E.01154
G1 X176.96 Y140.201 E.01154
G1 X177.267 Y140.161 E.01154
G1 X177.569 Y140.094 E.01154
G1 X177.865 Y140.001 E.01154
G1 X178.151 Y139.882 E.01154
G1 X178.421 Y139.742 E.01133
G1 X186.388 Y135.145 E.3426
G1 X186.552 Y135.1 E.00632
G1 X186.734 Y135.122 E.00685
G1 X186.898 Y135.223 E.00718
G1 X187.004 Y135.378 E.007
G1 X187.036 Y135.507 E.00492
G1 X187.096 Y136.374 E.03238
G1 X187.084 Y137.254 E.03279
G1 X186.997 Y138.13 E.03279
G1 X186.837 Y138.996 E.03279
G1 X186.605 Y139.845 E.03279
G1 X186.302 Y140.671 E.03279
G1 X185.93 Y141.469 E.03279
G1 X185.493 Y142.233 E.03279
G1 X184.993 Y142.958 E.03279
G1 X184.433 Y143.638 E.03282
G1 X184.281 Y143.796 E.00816
G1 X183.819 Y144.268 E.02459
G1 X183.153 Y144.844 E.0328
G1 X182.442 Y145.363 E.03279
G1 X181.689 Y145.819 E.03279
G1 X180.899 Y146.211 E.03283
G1 X180.697 Y146.294 E.00816
G1 X180.082 Y146.534 E.02457
G1 X179.239 Y146.788 E.0328
G1 X178.378 Y146.97 E.03279
G1 X177.504 Y147.079 E.03279
G1 X176.623 Y147.114 E.03285
G1 X175.745 Y147.075 E.03271
G1 X174.872 Y146.961 E.03281
G1 X174.012 Y146.775 E.03279
G1 X173.17 Y146.517 E.03279
G1 X172.154 Y146.093 E.041
G1 X171.567 Y145.794 E.02454
G1 X170.68 Y145.25 E.03875
G1 X159.45 Y151.734 E.483
G1 X159.45 Y164.701 E.483
G1 X160.364 Y165.197 E.03875
G1 X160.917 Y165.556 E.02454
G1 X161.792 Y166.224 E.04099
G1 X162.436 Y166.824 E.03279
G1 X163.028 Y167.475 E.03279
G1 X163.563 Y168.175 E.03281
G1 X164.035 Y168.915 E.03271
G1 X164.446 Y169.696 E.03285
G1 X164.788 Y170.507 E.03279
G1 X165.062 Y171.344 E.03279
G1 X165.263 Y172.201 E.0328
G1 X165.362 Y172.854 E.02458
G1 X165.392 Y173.07 E.00815
G1 X165.447 Y173.95 E.03284
G1 X165.428 Y174.83 E.03279
G1 X165.335 Y175.706 E.03279
G1 X165.169 Y176.57 E.0328
G1 X164.991 Y177.206 E.02459
G1 X164.931 Y177.417 E.00816
G1 X164.621 Y178.242 E.03282
G1 X164.244 Y179.037 E.03279
G1 X163.801 Y179.798 E.03279
G1 X163.296 Y180.519 E.03279
G1 X162.731 Y181.195 E.03279
G1 X162.112 Y181.82 E.03279
G1 X161.61 Y182.25 E.02461
G1 X161.443 Y182.392 E.00817
G1 X160.727 Y182.905 E.0328
G1 X159.971 Y183.356 E.03279
G1 X159.19 Y183.737 E.03238
G1 X159.068 Y183.772 E.00471
G1 X158.953 Y183.775 E.0043
G1 X158.775 Y183.718 E.00694
G1 X158.624 Y183.574 E.00778
G1 X158.579 Y183.482 E.0038
G1 X158.553 Y183.363 E.00456
G1 X158.55 Y174.159 E.34281
G1 X158.537 Y173.855 E.01133
G1 X158.496 Y173.548 E.01154
G1 X158.429 Y173.246 E.01154
G1 X158.335 Y172.946 E.01171
G1 X158.109 Y172.454 E.02014
G1 X157.909 Y172.13 E.0142
G1 X157.72 Y171.882 E.01161
G1 X157.51 Y171.654 E.01154
G1 X157.282 Y171.445 E.01154
G1 X157.036 Y171.256 E.01154
G1 X156.775 Y171.09 E.01154
G1 X156.5 Y170.947 E.01154
G1 X156.214 Y170.828 E.01154
G1 X155.919 Y170.735 E.01154
G1 X155.616 Y170.668 E.01154
G1 X155.309 Y170.628 E.01154
G1 X155 Y170.614 E.01154
G1 X154.691 Y170.628 E.01154
G1 X154.383 Y170.668 E.01154
G1 X154.081 Y170.735 E.01154
G1 X153.786 Y170.828 E.01154
G1 X153.5 Y170.947 E.01154
G1 X153.221 Y171.092 E.01171
G1 X152.776 Y171.4 E.02014
G1 X152.491 Y171.653 E.01419
G1 X152.28 Y171.882 E.01161
G1 X152.092 Y172.128 E.01154
G1 X151.925 Y172.389 E.01154
G1 X151.782 Y172.664 E.01154
G1 X151.664 Y172.95 E.01154
G1 X151.571 Y173.246 E.01154
G1 X151.504 Y173.548 E.01154
G1 X151.463 Y173.855 E.01154
G1 X151.45 Y174.159 E.01133
G1 X151.447 Y183.363 E.34281
G1 X151.421 Y183.481 E.00451
G1 X151.369 Y183.584 E.0043
G1 X151.292 Y183.67 E.0043
G1 X151.192 Y183.734 E.00441
G1 X151.005 Y183.778 E.00718
G1 X150.81 Y183.737 E.00741
G1 X150.029 Y183.356 E.03238
G1 X149.273 Y182.905 E.03279
G1 X148.557 Y182.392 E.0328
G1 X148.39 Y182.25 E.00817
G1 X147.888 Y181.821 E.02461
G1 X147.269 Y181.195 E.03279
G1 X146.704 Y180.519 E.03281
G1 X146.577 Y180.34 E.00817
G1 X146.199 Y179.798 E.0246
G1 X145.756 Y179.037 E.0328
G1 X145.379 Y178.242 E.03279
G1 X145.069 Y177.417 E.03282
G1 X144.831 Y176.571 E.03275
G1 X144.665 Y175.706 E.0328
G1 X144.572 Y174.831 E.03279
G1 X144.552 Y173.95 E.03279
G1 X144.608 Y173.072 E.03279
G1 X144.736 Y172.201 E.03279
G1 X144.938 Y171.344 E.03279
G1 X145.211 Y170.507 E.03279
G1 X145.554 Y169.696 E.03279
G1 X145.964 Y168.917 E.03279
G1 X146.437 Y168.175 E.03279
G1 X146.972 Y167.476 E.03279
G1 X147.563 Y166.824 E.03279
G1 X148.208 Y166.224 E.03279
G1 X148.9 Y165.68 E.03279
G1 X149.636 Y165.197 E.03279
G1 X150.55 Y164.701 E.03872
G1 X150.55 Y151.734 E.483
G1 X139.32 Y145.25 E.483
G1 X138.433 Y145.794 E.03875
G1 X137.846 Y146.093 E.02454
G1 X136.83 Y146.517 E.04099
G1 X135.988 Y146.775 E.03281
G1 X135.344 Y146.918 E.02455
G1 X135.13 Y146.961 E.00815
G1 X134.255 Y147.075 E.03285
G1 X133.375 Y147.114 E.03281
G1 X132.716 Y147.091 E.02456
G1 X132.498 Y147.079 E.00815
G1 X131.623 Y146.97 E.03285
G1 X130.761 Y146.788 E.03281
G1 X130.128 Y146.6 E.02457
G1 X129.919 Y146.535 E.00815
G1 X129.1 Y146.211 E.03284
G1 X128.311 Y145.819 E.03279
G1 X127.558 Y145.363 E.03279
G1 X126.847 Y144.845 E.03279
G1 X126.181 Y144.268 E.0328
G1 X125.719 Y143.797 E.02458
G1 X125.567 Y143.639 E.00817
G1 X125.007 Y142.958 E.03282
G1 X124.507 Y142.234 E.03279
G1 X124.07 Y141.47 E.03279
G1 X123.698 Y140.672 E.03279
G1 X123.395 Y139.845 E.03279
G1 X123.163 Y138.996 E.03279
G1 X123.003 Y138.13 E.03279
G1 X122.916 Y137.254 E.03279
G1 X122.904 Y136.374 E.03279
G1 X122.965 Y135.501 E.03258
G1 X123.036 Y135.305 E.00778
G1 X123.133 Y135.197 E.00541
G1 X123.228 Y135.138 E.00416
G1 X123.333 Y135.106 E.0041
G1 X123.491 Y135.107 E.00591
G1 X123.656 Y135.167 E.00652
G1 X131.579 Y139.742 E.34077
G1 X131.849 Y139.882 E.01133
G1 X132.135 Y140.001 E.01154
G1 X132.43 Y140.094 E.01154
G1 X132.733 Y140.161 E.01154
G1 X133.04 Y140.201 E.01154
G1 X133.349 Y140.215 E.01154
G1 X133.659 Y140.201 E.01154
G1 X133.966 Y140.161 E.01154
G1 X134.268 Y140.094 E.01154
G1 X134.564 Y140.001 E.01153
G1 X134.85 Y139.882 E.01154
G1 X135.129 Y139.737 E.01171
G1 X135.573 Y139.429 E.02014
G1 X135.858 Y139.176 E.0142
G1 X136.069 Y138.946 E.01161
G1 X136.257 Y138.701 E.01153
G1 X136.424 Y138.44 E.01154
G1 X136.567 Y138.165 E.01154
G1 X136.685 Y137.879 E.01154
G1 X136.779 Y137.583 E.01154
G1 X136.846 Y137.281 E.01154
G1 X136.886 Y136.974 E.01154
G1 X136.9 Y136.664 E.01154
G1 X136.886 Y136.355 E.01154
G1 X136.846 Y136.048 E.01154
G1 X136.779 Y135.746 E.01154
G1 X136.685 Y135.45 E.01154
G1 X136.567 Y135.164 E.01154
G1 X136.424 Y134.889 E.01154
G1 X136.257 Y134.628 E.01154
G1 X136.069 Y134.382 E.01154
G1 X135.86 Y134.154 E.01154
G1 X135.631 Y133.945 E.01154
G1 X135.386 Y133.756 E.01154
G1 X135.129 Y133.593 E.01133
G1 X127.201 Y129.016 E.34097
G1 X127.047 Y128.879 E.00766
G1 X126.972 Y128.702 E.00718
G1 X126.965 Y128.585 E.00436
G1 X126.988 Y128.474 E.00421
G1 X127.048 Y128.359 E.00483
G1 X127.157 Y128.248 E.00582
G1 X127.875 Y127.763 E.03224
G1 X128.643 Y127.334 E.03278
G1 X129.445 Y126.971 E.03279
G1 X130.275 Y126.677 E.0328
G1 X131.126 Y126.454 E.03277
G1 X131.994 Y126.303 E.03279
G1 X132.871 Y126.226 E.03279
G1 X133.752 Y126.222 E.03281
G1 X133.971 Y126.239 E.00817
G1 X134.628 Y126.293 E.02459
G1 X135.497 Y126.438 E.0328
G1 X136.35 Y126.655 E.03279
G1 X137.182 Y126.943 E.03279
G1 X137.987 Y127.3 E.03279
G1 X138.758 Y127.724 E.03279
G1 X139.493 Y128.211 E.03283
G1 X139.666 Y128.346 E.00815
G1 X140.181 Y128.758 E.02457
G1 X140.823 Y129.361 E.0328
G1 X141.411 Y130.016 E.03279
G1 X141.942 Y130.718 E.03279
G1 X142.412 Y131.462 E.03279
G1 X142.818 Y132.244 E.03279
G1 X143.157 Y133.058 E.03285
G1 X143.425 Y133.894 E.0327
G1 X143.622 Y134.753 E.03281
G1 X143.747 Y135.624 E.03279
G1 X143.797 Y136.503 E.03279
G1 X143.77 Y137.542 E.03872
G1 X154.965 Y144.006 E.48151
G1 X154.933 Y144.515 F9000
;TYPE:Inner wall
G1 F3000
G1 X155 Y144.554 E.00288
G1 X166.694 Y137.802 E.50296
G1 X166.66 Y136.51 E.04814
G1 X166.708 Y135.67 E.03135
G1 X166.827 Y134.836 E.03135
G1 X167.016 Y134.016 E.03135
G1 X167.273 Y133.214 E.03135
G1 X167.597 Y132.437 E.03135
G1 X167.985 Y131.69 E.03135
G1 X168.434 Y130.979 E.03135
G1 X168.942 Y130.307 E.03135
G1 X169.504 Y129.681 E.03135
G1 X170.117 Y129.104 E.03135
G1 X170.777 Y128.581 E.03135
G1 X171.478 Y128.115 E.03135
G1 X172.216 Y127.71 E.03135
G1 X172.985 Y127.369 E.03135
