; generated by SuperSlicer 2.5.59 on 2023-06-08 at 23:34:07 UTC


;
;

;
;
; 

; external perimeters extrusion width = 0.40mm
; perimeters extrusion width = 0.46mm
; infill extrusion width = 0.64mm
; solid infill extrusion width = 0.56mm
; top infill extrusion width = 0.40mm
; first layer extrusion width = 0.50mm

; external perimeters extrusion width = 0.40mm
; perimeters extrusion width = 0.46mm
; infill extrusion width = 0.64mm
; solid infill extrusion width = 0.56mm
; top infill extrusion width = 0.40mm
; first layer extrusion width = 0.50mm

; object:{"name":"saboteur_card","id":"saboteur_card.stl id:0 copy 0","object_center":[117.000000,150.000001,0.000000],"boundingbox_center":[117.000000,150.000001,2.500001],"boundingbox_size":[65.000000,95.000000,5.000002]}
EXCLUDE_OBJECT_DEFINE NAME=saboteur_card_stl_id_0_copy_0 CENTER=117.000000,150.000001 POLYGON=[[84.500000,120.044992],[86.385424,104.384360],[94.541488,102.500000],[139.458512,102.500000],[149.500000,104.384360],[149.500000,195.615632],[147.614576,197.500000],[86.385424,197.500000],[84.500000,179.955008],[84.500000,120.044992]]
; object:{"name":"saboteur_card","id":"saboteur_card.stl id:1 copy 0","object_center":[188.000000,150.000001,0.000000],"boundingbox_center":[188.000000,150.000001,2.500001],"boundingbox_size":[65.000000,95.000000,5.000002]}
EXCLUDE_OBJECT_DEFINE NAME=saboteur_card_stl_id_1_copy_0 CENTER=188.000000,150.000001 POLYGON=[[155.500000,120.044992],[157.385424,104.384360],[165.541488,102.500000],[210.458512,102.500000],[220.500000,104.384360],[220.500000,195.615632],[218.614576,197.500000],[157.385424,197.500000],[155.500000,179.955008],[155.500000,120.044992]]
; plater:{"center":[152.500000,150.000001,0.000000],"boundingbox_center":[152.500000,150.000001,2.500001],"boundingbox_size":[136.000000,95.000000,5.000002]}

M73 P0 R45
;TYPE:Custom
START_PRINT T_BED=60 T_EXTRUDER=200
M107
G21 ; set units to millimeters
G90 ; use absolute coordinates
M82 ; use absolute distances for extrusion
G92 E0
; Filament gcode

    PRESSURE_ADVANCE_SELECT FILAMENT=PLA
;_TOOLCHANGE 0
M109 S200 ; set temperature and wait for it to be reached
M190 S60 ; set bed temperature and wait for it to be reached
M107
;LAYER_CHANGE
;Z:0.2
;HEIGHT:0.2
G1 Z0.2 F9000
G1 E-0.8 F3000
M204 S1000
G1 X84.264 Y101.506 F9000
G1 E0 F1800
;TYPE:Skirt
;WIDTH:0.52
G1 X83.164 Y102.818 E0.06793
G1 X82.77 Y104.484 E0.13586
G1 X82.77 Y195.516 E3.74701
G1 X83.507 Y197.737 E3.83984
G1 X84.819 Y198.837 E3.90777
G1 X86.485 Y199.231 E3.9757
G1 X218.515 Y199.231 E9.21321
M73 P0 R45
G1 X220.736 Y198.494 E9.30604
G1 X221.836 Y197.182 E9.37397
G1 X222.23 Y195.516 E9.4419
G1 X222.23 Y104.484 E13.05305
G1 X221.493 Y102.263 E13.14588
G1 X220.181 Y101.163 E13.21381
G1 X218.515 Y100.769 E13.28174
G1 X86.485 Y100.769 E18.51925
G1 X84.264 Y101.506 E18.61208
G1 X84.642 Y101.856 F9000
G1 F1800
G1 X83.641 Y102.937 E18.67053
G1 X83.247 Y104.484 E18.73389
G1 X83.247 Y195.516 E22.34504
G1 X83.766 Y197.275 E22.4178
G1 X84.938 Y198.36 E22.48115
G1 X86.485 Y198.754 E22.54451
G1 X218.515 Y198.754 E27.78202
M73 P1 R44
G1 X220.274 Y198.235 E27.85477
G1 X221.359 Y197.063 E27.91813
G1 X221.753 Y195.516 E27.98149
G1 X221.753 Y104.484 E31.59264
G1 X221.234 Y102.725 E31.6654
G1 X220.062 Y101.64 E31.72875
G1 X218.515 Y101.246 E31.79211
G1 X86.485 Y101.246 E37.02962
G1 X84.726 Y101.765 E37.10238
G1 X84.642 Y101.856 E37.10728
G92 E0
G1 E-0.8 F3000
; printing object saboteur_card.stl id:0 copy 0
EXCLUDE_OBJECT_START NAME=saboteur_card_stl_id_0_copy_0
G1 X139.407 Y179.532 F9000
G1 E0 F1800
;TYPE:Internal perimeter
;WIDTH:0.5
G1 X139.452 Y178.69 E0.03208
G1 X139.452 Y121.31 E2.21284
M73 P1 R44
G1 X139.405 Y120.423 E2.2466
G1 X139.261 Y119.513 E2.28163
G1 X139.022 Y118.623 E2.31665
G1 X138.692 Y117.763 E2.35168
G1 X138.273 Y116.942 E2.38671
G1 X137.771 Y116.169 E2.42174
G1 X137.191 Y115.453 E2.45676
G1 X136.539 Y114.801 E2.4918
G1 X135.822 Y114.221 E2.52682
G1 X135.049 Y113.72 E2.56185
G1 X134.228 Y113.301 E2.59689
G1 X133.367 Y112.971 E2.63193
G1 X132.477 Y112.733 E2.66696
G1 X131.566 Y112.588 E2.702
G1 X130.674 Y112.542 E2.73596
G1 X103.326 Y112.542 E3.77535
G1 X102.434 Y112.588 E3.8093
G1 X101.523 Y112.733 E3.84435
G1 X100.633 Y112.971 E3.87938
G1 X99.772 Y113.301 E3.91442
G1 X98.951 Y113.72 E3.94945
G1 X98.178 Y114.221 E3.98448
G1 X97.461 Y114.801 E4.01951
G1 X96.809 Y115.453 E4.05454
G1 X96.229 Y116.169 E4.08957
G1 X95.727 Y116.942 E4.1246
G1 X95.308 Y117.763 E4.15962
G1 X94.978 Y118.623 E4.19465
G1 X94.739 Y119.513 E4.22968
G1 X94.595 Y120.423 E4.2647
G1 X94.548 Y121.31 E4.29846
G1 X94.548 Y178.69 E6.47923
G1 X94.595 Y179.577 E6.51299
G1 X94.739 Y180.487 E6.54802
G1 X94.978 Y181.377 E6.58304
G1 X95.308 Y182.237 E6.61807
G1 X95.727 Y183.058 E6.6531
G1 X96.229 Y183.831 E6.68812
G1 X96.809 Y184.547 E6.72315
G1 X97.461 Y185.199 E6.75818
G1 X98.178 Y185.779 E6.79321
G1 X98.951 Y186.28 E6.82824
G1 X99.772 Y186.699 E6.86328
G1 X100.633 Y187.029 E6.89832
G1 X101.523 Y187.267 E6.93335
G1 X102.434 Y187.412 E6.96839
G1 X103.326 Y187.458 E7.00235
G1 X130.679 Y187.458 E8.04192
G1 X131.566 Y187.412 E8.0757
G1 X132.477 Y187.267 E8.11073
G1 X133.367 Y187.029 E8.14577
G1 X134.228 Y186.699 E8.1808
G1 X135.049 Y186.28 E8.21584
G1 X135.822 Y185.779 E8.25087
G1 X136.539 Y185.199 E8.2859
G1 X137.191 Y184.547 E8.32093
G1 X137.771 Y183.831 E8.35596
G1 X138.273 Y183.058 E8.39098
G1 X138.692 Y182.237 E8.42601
G1 X139.022 Y181.377 E8.46104
G1 X139.261 Y180.487 E8.49606
G1 X139.405 Y179.577 E8.53109
G1 X139.407 Y179.532 E8.53278
G1 X138.951 Y179.507 F9000
G1 F1800
G1 X138.995 Y178.678 E8.56433
G1 X138.995 Y121.322 E10.74419
G1 X138.95 Y120.471 E10.77658
G1 X138.813 Y119.608 E10.80979
G1 X138.587 Y118.765 E10.84299
G1 X138.274 Y117.949 E10.87619
G1 X137.877 Y117.171 E10.9094
G1 X137.401 Y116.438 E10.94261
G1 X136.851 Y115.759 E10.97581
G1 X136.233 Y115.141 E11.00902
G1 X135.554 Y114.592 E11.04223
G1 X134.821 Y114.116 E11.07544
G1 X134.042 Y113.719 E11.10866
G1 X133.226 Y113.406 E11.14187
G1 X132.382 Y113.18 E11.17509
G1 X131.518 Y113.044 E11.20831
G1 X130.662 Y112.999 E11.2409
G1 X103.338 Y112.999 E12.27938
G1 X102.482 Y113.044 E12.31197
G1 X101.618 Y113.18 E12.3452
G1 X100.774 Y113.406 E12.37841
G1 X99.958 Y113.719 E12.41162
G1 X99.179 Y114.116 E12.44484
G1 X98.446 Y114.592 E12.47805
G1 X97.767 Y115.141 E12.51126
G1 X97.149 Y115.759 E12.54447
G1 X96.599 Y116.438 E12.57767
G1 X96.123 Y117.171 E12.61088
G1 X95.726 Y117.949 E12.64409
G1 X95.413 Y118.765 E12.67729
G1 X95.187 Y119.608 E12.7105
G1 X95.05 Y120.471 E12.7437
G1 X95.005 Y121.322 E12.7761
G1 X95.005 Y178.678 E14.95595
G1 X95.05 Y179.529 E14.98835
G1 X95.187 Y180.392 E15.02155
G1 X95.413 Y181.235 E15.05475
G1 X95.726 Y182.051 E15.08796
G1 X96.123 Y182.829 E15.12117
G1 X96.599 Y183.562 E15.15437
G1 X97.149 Y184.241 E15.18758
G1 X97.767 Y184.859 E15.22079
G1 X98.446 Y185.408 E15.254
G1 X99.179 Y185.884 E15.28721
G1 X99.958 Y186.281 E15.32042
G1 X100.774 Y186.594 E15.35364
G1 X101.618 Y186.82 E15.38685
G1 X102.482 Y186.956 E15.42007
G1 X103.338 Y187.001 E15.45266
G1 X130.667 Y187.001 E16.49133
G1 X131.518 Y186.956 E16.52374
G1 X132.382 Y186.82 E16.55696
G1 X133.226 Y186.594 E16.59017
G1 X134.042 Y186.281 E16.62339
G1 X134.821 Y185.884 E16.6566
G1 X135.554 Y185.408 E16.68982
G1 X136.233 Y184.859 E16.72302
G1 X136.851 Y184.241 E16.75624
G1 X137.401 Y183.562 E16.78944
G1 X137.877 Y182.829 E16.82265
G1 X138.274 Y182.051 E16.85585
G1 X138.587 Y181.235 E16.88906
G1 X138.813 Y180.392 E16.92226
G1 X138.95 Y179.529 E16.95546
G1 X138.951 Y179.507 E16.95631
G1 X138.495 Y179.481 F9000
;TYPE:External perimeter
G1 F1800
G1 X138.537 Y178.666 E16.98734
G1 X138.537 Y121.334 E19.16628
G1 X138.495 Y120.519 E19.19732
G1 X138.365 Y119.704 E19.2287
G1 X138.152 Y118.906 E19.26008
G1 X137.856 Y118.135 E19.29146
G1 X137.481 Y117.4 E19.32285
G1 X137.031 Y116.707 E19.35423
G1 X136.511 Y116.066 E19.38561
G1 X135.927 Y115.482 E19.41701
G1 X135.285 Y114.962 E19.44839
G1 X134.592 Y114.512 E19.47978
G1 X133.856 Y114.138 E19.51118
G1 X133.084 Y113.842 E19.54257
G1 X132.287 Y113.628 E19.57397
G1 X131.471 Y113.499 E19.60537
G1 X130.65 Y113.456 E19.63659
G1 X103.35 Y113.456 E20.67418
G1 X102.529 Y113.499 E20.7054
G1 X101.713 Y113.628 E20.7368
G1 X100.916 Y113.842 E20.76819
G1 X100.144 Y114.138 E20.79959
G1 X99.408 Y114.512 E20.83098
G1 X98.715 Y114.962 E20.86237
G1 X98.073 Y115.482 E20.89376
G1 X97.489 Y116.066 E20.92515
G1 X96.969 Y116.707 E20.95654
G1 X96.519 Y117.4 E20.98792
G1 X96.144 Y118.135 E21.0193
G1 X95.848 Y118.906 E21.05069
G1 X95.635 Y119.704 E21.08207
G1 X95.505 Y120.519 E21.11345
G1 X95.463 Y121.334 E21.14448
G1 X95.463 Y178.666 E23.32343
G1 X95.505 Y179.481 E23.35446
G1 X95.635 Y180.296 E23.38584
G1 X95.848 Y181.094 E23.41722
G1 X96.144 Y181.865 E23.4486
G1 X96.519 Y182.6 E23.47999
G1 X96.969 Y183.293 E23.51137
G1 X97.489 Y183.934 E23.54276
G1 X98.073 Y184.518 E23.57415
G1 X98.715 Y185.038 E23.60554
G1 X99.408 Y185.488 E23.63693
G1 X100.144 Y185.862 E23.66832
G1 X100.916 Y186.158 E23.69972
G1 X101.713 Y186.372 E23.73111
G1 X102.529 Y186.501 E23.76251
G1 X103.35 Y186.544 E23.79373
G1 X130.655 Y186.544 E24.8315
G1 X131.471 Y186.501 E24.86255
G1 X132.287 Y186.372 E24.89394
G1 X133.084 Y186.158 E24.92533
G1 X133.856 Y185.862 E24.95673
G1 X134.592 Y185.488 E24.98812
G1 X135.285 Y185.038 E25.01952
G1 X135.927 Y184.518 E25.0509
G1 X136.511 Y183.934 E25.08229
G1 X137.031 Y183.293 E25.11368
G1 X137.481 Y182.6 E25.14506
G1 X137.856 Y181.865 E25.17645
G1 X138.152 Y181.094 E25.20783
G1 X138.365 Y180.296 E25.23921
G1 X138.495 Y179.481 E25.27059
;WIPE_START
M204 S3000
G1 X138.857 Y179.312 F9000
;WIPE_END
G92 E0
G1 E-0.8 F3000
M204 S1000
G1 X87.65 Y194.351 F9000
G1 E0 F1800
;TYPE:Internal perimeter
G1 X87.65 Y105.649 E3.37127
G1 X146.35 Y105.649 E5.60228
M73 P2 R44
G1 X146.35 Y194.351 E8.97355
G1 X87.65 Y194.351 E11.20455
G1 X87.193 Y194.809 F9000
G1 F1800
G1 X87.193 Y105.191 E14.61057
G1 X146.807 Y105.191 E16.87632
G1 X146.807 Y194.809 E20.28234
G1 X87.193 Y194.809 E22.54808
G1 X86.735 Y195.266 F9000
;TYPE:External perimeter
G1 F1800
G1 X86.735 Y104.734 E25.98884
G1 X147.265 Y104.734 E28.28933
G1 X147.265 Y195.266 E31.7301
M73 P3 R43
G1 X86.735 Y195.266 E34.03059
;WIPE_START
M204 S3000
G1 X86.935 Y194.919 F9000
;WIPE_END
G92 E0
G1 E-0.8 F3000
M204 S1000
G1 X145.358 Y105.717 F9000
G1 E0 F1800
;TYPE:Solid infill
;WIDTH:0.492903
G1 F2400
G1 X146.282 Y106.641 E0.04896
G1 X146.282 Y107.287 F9000
M73 P3 R43
G1 F2400
G1 X144.711 Y105.717 E0.13217
G1 X144.065 Y105.717 F9000
G1 F2400
G1 X146.282 Y107.934 E0.24963
G1 X146.282 Y108.58 F9000
G1 F2400
G1 X143.419 Y105.717 E0.40134
G1 X142.772 Y105.717 F9000
G1 F2400
G1 X146.282 Y109.227 E0.5873
G1 X146.282 Y109.873 F9000
G1 F2400
G1 X142.126 Y105.717 E0.80751
G1 X141.479 Y105.717 F9000
G1 F2400
G1 X146.282 Y110.519 E1.06197
G1 X146.282 Y111.166 F9000
G1 F2400
G1 X140.833 Y105.717 E1.35068
G1 X140.187 Y105.717 F9000
G1 F2400
G1 X146.282 Y111.812 E1.67364
G1 X146.282 Y112.459 F9000
G1 F2400
G1 X139.54 Y105.717 E2.03086
G1 X138.894 Y105.717 F9000
G1 F2400
G1 X146.282 Y113.105 E2.42232
G1 X146.282 Y113.752 F9000
G1 F2400
G1 X138.247 Y105.717 E2.84804
G1 X137.601 Y105.717 F9000
G1 F2400
G1 X146.282 Y114.398 E3.308
G1 X146.282 Y115.044 F9000
G1 F2400
G1 X136.955 Y105.717 E3.80222
G1 X136.308 Y105.717 F9000
G1 F2400
G1 X146.282 Y115.691 E4.33068
G1 X146.282 Y116.337 F9000
G1 F2400
G1 X135.662 Y105.717 E4.8934
G1 X135.015 Y105.717 F9000
G1 F2400
G1 X146.282 Y116.984 E5.49037
G1 X146.282 Y117.63 F9000
G1 F2400
G1 X134.369 Y105.717 E6.12159
G1 X133.723 Y105.717 F9000
G1 F2400
G1 X146.282 Y118.276 E6.78706
G1 X146.282 Y118.923 F9000
G1 F2400
G1 X133.076 Y105.717 E7.48678
G1 X132.43 Y105.717 F9000
G1 F2400
G1 X146.282 Y119.569 E8.22075
G1 X146.282 Y120.216 F9000
G1 F2400
G1 X131.783 Y105.717 E8.98897
G1 X131.137 Y105.717 F9000
G1 F2400
G1 X146.282 Y120.862 E9.79144
G1 X146.282 Y121.508 F9000
G1 F2400
G1 X130.491 Y105.717 E10.62817
G1 X129.844 Y105.717 F9000
G1 F2400
G1 X146.282 Y122.155 E11.49914
G1 X146.282 Y122.801 F9000
G1 F2400
G1 X129.198 Y105.717 E12.40436
G1 X128.551 Y105.717 F9000
G1 F2400
G1 X146.282 Y123.448 E13.34384
G1 X146.282 Y124.094 F9000
G1 F2400
G1 X127.905 Y105.717 E14.31756
G1 X127.258 Y105.717 F9000
G1 F2400
G1 X135.494 Y113.953 E14.75395
G1 X134.057 Y113.162 F9000
G1 F2400
G1 X126.612 Y105.717 E15.14845
G1 X125.966 Y105.717 F9000
G1 F2400
G1 X133.091 Y112.842 E15.52599
G1 X132.27 Y112.668 F9000
G1 F2400
G1 X125.319 Y105.717 E15.89429
G1 X124.673 Y105.717 F9000
G1 F2400
G1 X131.476 Y112.52 E16.25473
G1 X130.828 Y112.519 F9000
G1 F2400
G1 X124.026 Y105.717 E16.61513
G1 X123.38 Y105.717 F9000
G1 F2400
G1 X130.181 Y112.518 E16.97546
G1 X129.533 Y112.517 F9000
G1 F2400
G1 X122.734 Y105.717 E17.33574
G1 X122.087 Y105.717 F9000
G1 F2400
G1 X128.886 Y112.515 E17.69596
G1 X128.238 Y112.514 F9000
G1 F2400
G1 X121.441 Y105.717 E18.05613
G1 X120.794 Y105.717 F9000
G1 F2400
G1 X127.591 Y112.513 E18.41624
G1 X126.943 Y112.512 F9000
G1 F2400
G1 X120.148 Y105.717 E18.77629
G1 X119.502 Y105.717 F9000
G1 F2400
G1 X126.296 Y112.511 E19.13629
G1 X125.648 Y112.51 F9000
G1 F2400
G1 X118.855 Y105.717 E19.49623
G1 X118.209 Y105.717 F9000
G1 F2400
G1 X125.001 Y112.509 E19.85611
G1 X124.353 Y112.508 F9000
G1 F2400
G1 X117.562 Y105.717 E20.21594
G1 X116.916 Y105.717 F9000
G1 F2400
G1 X123.706 Y112.507 E20.57571
G1 X123.058 Y112.506 F9000
G1 F2400
G1 X116.27 Y105.717 E20.93543
G1 X115.623 Y105.717 F9000
G1 F2400
G1 X122.411 Y112.505 E21.29509
G1 X121.763 Y112.504 F9000
G1 F2400
G1 X114.977 Y105.717 E21.65469
G1 X114.33 Y105.717 F9000
G1 F2400
G1 X121.116 Y112.503 E22.01424
G1 X120.469 Y112.502 F9000
G1 F2400
G1 X113.684 Y105.717 E22.37373
G1 X113.038 Y105.717 F9000
G1 F2400
G1 X119.821 Y112.501 E22.73316
G1 X119.174 Y112.5 F9000
G1 F2400
G1 X112.391 Y105.717 E23.09253
G1 X111.745 Y105.717 F9000
G1 F2400
G1 X118.526 Y112.498 E23.45185
G1 X117.879 Y112.497 F9000
G1 F2400
G1 X111.098 Y105.717 E23.81112
G1 X110.452 Y105.717 F9000
G1 F2400
G1 X117.231 Y112.496 E24.17033
G1 X116.584 Y112.495 F9000
G1 F2400
G1 X109.805 Y105.717 E24.52948
G1 X109.159 Y105.717 F9000
G1 F2400
G1 X115.936 Y112.494 E24.88857
G1 X115.289 Y112.493 F9000
G1 F2400
G1 X108.513 Y105.717 E25.24761
G1 X107.866 Y105.717 F9000
G1 F2400
G1 X114.641 Y112.492 E25.60659
G1 X113.994 Y112.491 F9000
G1 F2400
G1 X107.22 Y105.717 E25.96552
G1 X106.573 Y105.717 F9000
G1 F2400
G1 X113.346 Y112.49 E26.32439
G1 X112.699 Y112.489 F9000
G1 F2400
G1 X105.927 Y105.717 E26.6832
G1 X105.281 Y105.717 F9000
G1 F2400
G1 X112.051 Y112.488 E27.04195
G1 X111.404 Y112.487 F9000
G1 F2400
G1 X104.634 Y105.717 E27.40065
G1 X103.988 Y105.717 F9000
G1 F2400
G1 X110.756 Y112.486 E27.7593
G1 X110.109 Y112.485 F9000
G1 F2400
G1 X103.341 Y105.717 E28.11788
G1 X102.695 Y105.717 F9000
G1 F2400
G1 X109.462 Y112.484 E28.47641
G1 X108.814 Y112.482 F9000
G1 F2400
G1 X102.049 Y105.717 E28.83489
G1 X101.402 Y105.717 F9000
G1 F2400
G1 X108.167 Y112.481 E29.19331
G1 X107.519 Y112.48 F9000
G1 F2400
G1 X100.756 Y105.717 E29.55167
G1 X100.109 Y105.717 F9000
G1 F2400
G1 X106.872 Y112.479 E29.90997
G1 X106.224 Y112.478 F9000
G1 F2400
G1 X99.463 Y105.717 E30.26822
G1 X98.817 Y105.717 F9000
G1 F2400
G1 X105.577 Y112.477 E30.62641
G1 X104.929 Y112.476 F9000
G1 F2400
G1 X98.17 Y105.717 E30.98455
G1 X97.524 Y105.717 F9000
G1 F2400
G1 X104.282 Y112.475 E31.34263
G1 X103.634 Y112.474 F9000
G1 F2400
G1 X96.877 Y105.717 E31.70065
G1 X96.231 Y105.717 F9000
G1 F2400
G1 X103.019 Y112.506 E32.06034
G1 X102.435 Y112.567 F9000
G1 F2400
G1 X95.585 Y105.717 E32.42331
G1 X94.938 Y105.717 F9000
G1 F2400
G1 X101.85 Y112.629 E32.78955
M73 P4 R43
G1 X101.306 Y112.731 F9000
G1 F2400
G1 X94.292 Y105.717 E33.1612
G1 X93.645 Y105.717 F9000
G1 F2400
G1 X100.818 Y112.89 E33.54125
G1 X100.33 Y113.048 F9000
G1 F2400
G1 X92.999 Y105.717 E33.92969
G1 X92.353 Y105.717 F9000
G1 F2400
G1 X99.842 Y113.206 E34.32652
G1 X99.402 Y113.413 F9000
G1 F2400
G1 X91.706 Y105.717 E34.73429
G1 X91.06 Y105.717 F9000
G1 F2400
G1 X98.974 Y113.631 E35.15362
G1 X98.592 Y113.896 F9000
G1 F2400
G1 X90.413 Y105.717 E35.58697
