; generated by SuperSlicer 2.5.59 on 2023-05-07 at 22:35:58 UTC


;
;

;
;
; 

; external perimeters extrusion width = 0.40mm
; perimeters extrusion width = 0.46mm
; infill extrusion width = 0.64mm
; solid infill extrusion width = 0.56mm
; top infill extrusion width = 0.40mm
; support material extrusion width = 0.46mm
; first layer extrusion width = 0.50mm

; external perimeters extrusion width = 0.40mm
; perimeters extrusion width = 0.46mm
; infill extrusion width = 0.64mm
; solid infill extrusion width = 0.56mm
; top infill extrusion width = 0.40mm
; support material extrusion width = 0.46mm
; first layer extrusion width = 0.50mm

; external perimeters extrusion width = 0.40mm
; perimeters extrusion width = 0.46mm
; infill extrusion width = 0.64mm
; solid infill extrusion width = 0.56mm
; top infill extrusion width = 0.40mm
; support material extrusion width = 0.46mm
; first layer extrusion width = 0.50mm

; object:{"name":"Shotsaver_V2","id":"Shotsaver_V2.stl id:0 copy 0","object_center":[152.500000,122.000000,0.000000],"boundingbox_center":[152.500000,122.000000,8.657583],"boundingbox_size":[49.261002,22.000000,17.315166]}
EXCLUDE_OBJECT_DEFINE NAME=Shotsaver_V2_stl_id_0_copy_0 CENTER=152.500000,122.000000 POLYGON=[[127.869496,114.627944],[127.870496,114.624000],[127.889496,114.559000],[127.908504,114.501000],[127.927504,114.448000],[127.946504,114.399000],[127.965504,114.353000],[128.004504,114.269000],[128.023496,114.231000],[128.043504,114.194000],[128.062504,114.159000],[128.101504,114.094000],[128.140504,114.033008],[128.179504,113.977000],[128.238496,113.900000],[128.278504,113.852000],[128.297504,113.830000],[128.356504,113.765000],[128.544952,113.561640],[128.609776,113.497000],[129.397704,112.854008],[130.239640,112.299000],[130.962736,111.922336],[131.155992,111.837000],[132.381224,111.474000],[133.744112,111.211000],[135.113264,111.053000],[136.734128,111.000000],[177.130496,111.000000],[177.130496,133.000000],[138.422576,133.000000],[136.743328,132.947008],[135.200128,132.789000],[133.810776,132.526000],[132.585480,132.162992],[131.539112,131.701008],[129.038496,130.572008],[128.996504,130.552000],[128.955504,130.532000],[128.917496,130.511992],[128.881504,130.492008],[128.846496,130.472000],[128.813504,130.452000],[128.751496,130.412000],[128.722504,130.392000],[128.666504,130.352008],[128.590504,130.291000],[128.566496,130.271000],[128.543504,130.251008],[128.499496,130.211000],[128.478504,130.190992],[128.418504,130.131000],[128.399504,130.110992],[128.363496,130.071000],[128.312504,130.011000],[128.296512,129.991000],[128.265504,129.950000],[128.236496,129.910000],[128.208496,129.869992],[128.169496,129.810000],[128.133496,129.750000],[128.089512,129.670000],[128.059512,129.610000],[128.041504,129.570008],[128.023496,129.529008],[127.991504,129.449008],[127.963504,129.369000],[127.933504,129.269000],[127.918504,129.209000],[127.909504,129.169008],[127.897496,129.108000],[127.890504,129.067992],[127.884496,129.028000],[127.879504,128.988008],[127.869496,128.888000],[127.869496,114.627944]]
; object:{"name":"Shotsaver_V2","id":"Shotsaver_V2.stl id:1 copy 0","object_center":[152.500000,150.000000,0.000000],"boundingbox_center":[152.500000,150.000000,8.657583],"boundingbox_size":[49.261002,22.000000,17.315166]}
EXCLUDE_OBJECT_DEFINE NAME=Shotsaver_V2_stl_id_1_copy_0 CENTER=152.500000,150.000000 POLYGON=[[127.869496,142.627952],[127.870496,142.624000],[127.889496,142.559008],[127.908504,142.501008],[127.927504,142.448000],[127.946504,142.399008],[127.965504,142.352992],[128.004504,142.268992],[128.023496,142.231008],[128.043504,142.194000],[128.062504,142.158992],[128.101504,142.094000],[128.140504,142.033008],[128.179504,141.977008],[128.238496,141.900000],[128.278504,141.852000],[128.297504,141.830000],[128.356504,141.764992],[128.544952,141.561648],[128.609776,141.496992],[129.397704,140.854000],[130.239640,140.298992],[130.962736,139.922336],[131.155992,139.837008],[132.381224,139.474000],[133.744112,139.210992],[135.113264,139.052992],[136.734128,139.000000],[177.130496,139.000000],[177.130496,161.000000],[138.422576,161.000000],[136.743328,160.947008],[135.200128,160.789008],[133.810776,160.526000],[132.585480,160.162992],[131.539112,159.701008],[129.038496,158.572000],[128.996504,158.552000],[128.955504,158.532000],[128.917496,158.512000],[128.881504,158.492000],[128.846496,158.472000],[128.813504,158.452000],[128.751496,158.412000],[128.722504,158.392000],[128.666504,158.352000],[128.590504,158.291008],[128.566496,158.270992],[128.543504,158.251008],[128.499496,158.210992],[128.478504,158.190992],[128.418504,158.130992],[128.399504,158.110992],[128.363496,158.070992],[128.312504,158.011008],[128.296512,157.990992],[128.265504,157.950000],[128.236496,157.910000],[128.208496,157.870000],[128.169496,157.810000],[128.133496,157.750000],[128.089512,157.670000],[128.059512,157.610000],[128.041504,157.570000],[128.023496,157.529008],[127.991504,157.449008],[127.963504,157.369008],[127.933504,157.268992],[127.918504,157.209008],[127.909504,157.169008],[127.897496,157.108000],[127.890504,157.068000],[127.884496,157.028000],[127.879504,156.988000],[127.869496,156.888000],[127.869496,142.627952]]
; object:{"name":"Shotsaver_V2","id":"Shotsaver_V2.stl id:2 copy 0","object_center":[152.500000,178.000000,0.000000],"boundingbox_center":[152.500000,178.000000,8.657583],"boundingbox_size":[49.261002,22.000000,17.315166]}
EXCLUDE_OBJECT_DEFINE NAME=Shotsaver_V2_stl_id_2_copy_0 CENTER=152.500000,178.000000 POLYGON=[[127.869496,170.627952],[127.870496,170.624000],[127.889496,170.559008],[127.908504,170.501008],[127.927504,170.448000],[127.946504,170.399008],[127.965504,170.352992],[128.004504,170.268992],[128.023496,170.231008],[128.043504,170.194000],[128.062504,170.158992],[128.101504,170.094000],[128.140504,170.033008],[128.179504,169.977008],[128.238496,169.900000],[128.278504,169.852000],[128.297504,169.830000],[128.356504,169.764992],[128.544952,169.561648],[128.609776,169.496992],[129.397704,168.854000],[130.239640,168.298992],[130.962736,167.922336],[131.155992,167.837008],[132.381224,167.474000],[133.744112,167.210992],[135.113264,167.052992],[136.734128,167.000000],[177.130496,167.000000],[177.130496,189.000000],[138.422576,189.000000],[136.743328,188.947008],[135.200128,188.789008],[133.810776,188.526000],[132.585480,188.162992],[131.539112,187.701008],[129.038496,186.572000],[128.996504,186.552000],[128.955504,186.532000],[128.917496,186.512000],[128.881504,186.492000],[128.846496,186.472000],[128.813504,186.452000],[128.751496,186.412000],[128.722504,186.392000],[128.666504,186.352000],[128.590504,186.291008],[128.566496,186.270992],[128.543504,186.251008],[128.499496,186.210992],[128.478504,186.190992],[128.418504,186.130992],[128.399504,186.110992],[128.363496,186.070992],[128.312504,186.011008],[128.296512,185.990992],[128.265504,185.950000],[128.236496,185.910000],[128.208496,185.870000],[128.169496,185.810000],[128.133496,185.750000],[128.089512,185.670000],[128.059512,185.610000],[128.041504,185.570000],[128.023496,185.529008],[127.991504,185.449008],[127.963504,185.369008],[127.933504,185.268992],[127.918504,185.209008],[127.909504,185.169008],[127.897496,185.108000],[127.890504,185.068000],[127.884496,185.028000],[127.879504,184.988000],[127.869496,184.888000],[127.869496,170.627952]]
; plater:{"center":[152.500000,150.000000,0.000000],"boundingbox_center":[152.500000,150.000000,8.657583],"boundingbox_size":[49.261002,78.000000,17.315166]}

M73 P0 R58
;TYPE:Custom
START_PRINT T_BED=70 T_EXTRUDER=235
M107
G21 ; set units to millimeters
G90 ; use absolute coordinates
M82 ; use absolute distances for extrusion
G92 E0
; Filament gcode
PRESSURE_ADVANCE_SELECT FILAMENT=PETG
;_TOOLCHANGE 0
M109 S235 ; set temperature and wait for it to be reached
M190 S70 ; set bed temperature and wait for it to be reached
M107
;LAYER_CHANGE
;Z:0.2
;HEIGHT:0.2
G1 Z0.2 F9000
G1 E-1 F3000
M204 S1000
G1 X125.741 Y111.273 F9000
G1 E0 F1800
;TYPE:Skirt
;WIDTH:0.52
G1 X125.151 Y112.004 E0.03612
G1 X124.845 Y112.511 E0.05892
G1 X124.451 Y113.444 E0.09788
G1 X124.254 Y114.643 E0.14464
G1 X124.254 Y184.881 E2.84735
G1 X124.442 Y186.192 E2.89831
G1 X124.86 Y187.286 E2.94337
G1 X125.645 Y188.449 E2.99736
G1 X126.229 Y189.025 E3.02893
G1 X126.857 Y189.489 E3.05896
G1 X127.566 Y189.87 E3.08996
G1 X128.433 Y190.176 E3.12531
G1 X129.834 Y190.366 E3.17971
G1 X177.03 Y190.366 E4.99581
M73 P0 R58
G1 X179.251 Y189.629 E5.08585
G1 X180.351 Y188.316 E5.15174
G1 X180.746 Y186.65 E5.21764
G1 X180.746 Y113.35 E8.03817
G1 X180.009 Y111.129 E8.12821
G1 X178.697 Y110.029 E8.1941
G1 X177.03 Y109.634 E8.26
G1 X129.191 Y109.634 E10.10081
G1 X127.635 Y109.976 E10.16213
G1 X126.733 Y110.448 E10.20131
G1 X125.741 Y111.273 E10.25096
G1 X126.093 Y111.595 F9000
G1 F1800
G1 X125.541 Y112.279 E10.28479
G1 X124.907 Y113.584 E10.34061
G1 X124.731 Y114.643 E10.38192
G1 X124.731 Y184.881 E13.08463
G1 X124.899 Y186.058 E13.13038
G1 X125.292 Y187.082 E13.17258
G1 X125.995 Y188.125 E13.22099
G1 X126.53 Y188.655 E13.24994
G1 X127.103 Y189.08 E13.27742
G1 X127.75 Y189.43 E13.30572
G1 X128.541 Y189.711 E13.338
G1 X129.834 Y189.889 E13.38823
G1 X177.03 Y189.889 E15.20432
M73 P0 R57
G1 X178.79 Y189.369 E15.27489
G1 X179.875 Y188.198 E15.33635
G1 X180.269 Y186.65 E15.39781
G1 X180.269 Y113.35 E18.21834
G1 X179.75 Y111.591 E18.28891
G1 X178.578 Y110.505 E18.35037
G1 X177.03 Y110.111 E18.41182
G1 X129.191 Y110.111 E20.25263
G1 X127.835 Y110.409 E20.30609
G1 X127.001 Y110.843 E20.34223
G1 X126.093 Y111.595 E20.38761
G92 E0
G1 E-1 F3000
; printing object Shotsaver_V2.stl id:0 copy 0
EXCLUDE_OBJECT_START NAME=Shotsaver_V2_stl_id_0_copy_0
G1 X129.278 Y122.786 F9000
G1 E0 F1800
;TYPE:Internal perimeter
;WIDTH:0.5
G1 X129.336 Y122.625 E0.00631
G1 X129.134 Y122.057 E0.02852
G1 X129.134 Y114.867 E0.2936
G1 X129.182 Y114.764 E0.29779
G1 X129.296 Y114.623 E0.30447
G1 X129.439 Y114.514 E0.31111
G1 X175.866 Y114.514 E2.02269
G1 X175.866 Y129.486 E2.57464
G1 X129.877 Y129.486 E4.27009
G1 X129.633 Y129.445 E4.27921
G1 X129.448 Y129.353 E4.28682
G1 X129.29 Y129.203 E4.29485
G1 X129.184 Y129.014 E4.30285
G1 X129.134 Y128.782 E4.3116
G1 X129.134 Y123.193 E4.51764
G1 X129.278 Y122.786 E4.53356
G1 X128.822 Y122.706 F9000
G1 F1800
G1 X128.851 Y122.625 E4.53671
G1 X128.677 Y122.136 E4.55585
G1 X128.677 Y114.764 E4.82762
G1 X128.793 Y114.519 E4.83762
G1 X128.976 Y114.293 E4.84834
G1 X129.191 Y114.129 E4.8583
G1 X129.347 Y114.057 E4.86464
G1 X176.323 Y114.057 E6.59649
G1 X176.323 Y129.943 E7.18214
G1 X129.86 Y129.943 E8.89507
G1 X129.709 Y129.932 E8.90063
G1 X129.492 Y129.881 E8.90886
G1 X129.319 Y129.809 E8.91578
G1 X129.184 Y129.728 E8.92157
G1 X129.053 Y129.62 E8.92784
G1 X128.93 Y129.488 E8.9345
G1 X128.837 Y129.349 E8.94064
G1 X128.748 Y129.162 E8.94829
G1 X128.677 Y128.831 E8.96077
G1 X128.677 Y123.114 E9.17153
G1 X128.822 Y122.706 E9.18751
G1 X128.365 Y122.625 F9000
;TYPE:External perimeter
G1 F1800
G1 X128.22 Y122.215 E9.20356
G1 X128.22 Y114.68 E9.48132
G1 X128.236 Y114.626 E9.48344
G1 X128.403 Y114.274 E9.49779
G1 X128.655 Y113.963 E9.51255
G1 X128.953 Y113.735 E9.52638
G1 X129.246 Y113.6 E9.53828
G1 X176.78 Y113.6 E11.29068
G1 X176.78 Y130.4 E11.91003
G1 X129.843 Y130.4 E13.64043
G1 X129.64 Y130.385 E13.64793
G1 X129.351 Y130.318 E13.65887
G1 X129.112 Y130.218 E13.66844
G1 X128.921 Y130.102 E13.67666
G1 X128.739 Y129.954 E13.68532
G1 X128.571 Y129.772 E13.69445
G1 X128.439 Y129.576 E13.70316
G1 X128.32 Y129.324 E13.71343
G1 X128.252 Y129.095 E13.72225
G1 X128.22 Y128.863 E13.73087
G1 X128.22 Y123.035 E13.94572
G1 X128.365 Y122.625 E13.96178
;WIPE_START
M204 S3000
G1 X128.687 Y122.387 F9000
;WIPE_END
G92 E0
G1 E-1 F3000
M204 S1000
G1 X175.798 Y115.507 F9000
G1 E0 F1800
;TYPE:Solid infill
;WIDTH:0.495503
G1 F2400
G1 X174.874 Y114.583 E0.04774
G1 X174.227 Y114.583 F9000
G1 F2400
G1 X175.798 Y116.153 E0.12888
G1 X175.798 Y116.799 F9000
G1 F2400
G1 X173.581 Y114.583 E0.24341
G1 X172.935 Y114.583 F9000
G1 F2400
G1 X175.798 Y117.446 E0.39135
G1 X175.798 Y118.092 F9000
G1 F2400
G1 X172.288 Y114.583 E0.57268
G1 X171.642 Y114.583 F9000
G1 F2400
G1 X175.798 Y118.739 E0.78741
G1 X175.798 Y119.385 F9000
G1 F2400
G1 X170.995 Y114.583 E1.03554
G1 X170.349 Y114.583 F9000
G1 F2400
G1 X175.798 Y120.032 E1.31707
G1 X175.798 Y120.678 F9000
G1 F2400
G1 X169.703 Y114.583 E1.632
G1 X169.056 Y114.583 F9000
G1 F2400
G1 X175.798 Y121.324 E1.98032
G1 X175.798 Y121.971 F9000
G1 F2400
G1 X168.41 Y114.583 E2.36205
G1 X167.763 Y114.583 F9000
G1 F2400
G1 X175.798 Y122.617 E2.77717
G1 X175.798 Y123.264 F9000
G1 F2400
G1 X167.117 Y114.583 E3.22569
G1 X166.471 Y114.583 F9000
G1 F2400
G1 X175.798 Y123.91 E3.70761
G1 X175.798 Y124.556 F9000
G1 F2400
G1 X165.824 Y114.583 E4.22292
G1 X165.178 Y114.583 F9000
G1 F2400
G1 X175.798 Y125.203 E4.77164
G1 X175.798 Y125.849 F9000
G1 F2400
G1 X164.531 Y114.583 E5.35375
G1 X163.885 Y114.583 F9000
G1 F2400
G1 X175.798 Y126.496 E5.96926
G1 X175.798 Y127.142 F9000
G1 F2400
G1 X163.238 Y114.583 E6.61817
G1 X162.592 Y114.583 F9000
G1 F2400
G1 X175.798 Y127.788 E7.30048
G1 X175.798 Y128.435 F9000
G1 F2400
G1 X161.946 Y114.583 E8.01619
G1 X161.299 Y114.583 F9000
G1 F2400
G1 X175.798 Y129.081 E8.76529
G1 X175.487 Y129.417 F9000
G1 F2400
G1 X160.653 Y114.583 E9.53174
G1 X160.006 Y114.583 F9000
G1 F2400
G1 X174.84 Y129.416 E10.29817
G1 X174.193 Y129.416 F9000
G1 F2400
G1 X159.36 Y114.583 E11.06456
G1 X158.714 Y114.583 F9000
G1 F2400
G1 X173.546 Y129.415 E11.83092
G1 X172.899 Y129.415 F9000
G1 F2400
G1 X158.067 Y114.583 E12.59726
G1 X157.421 Y114.583 F9000
G1 F2400
G1 X172.252 Y129.414 E13.36356
G1 X171.605 Y129.414 F9000
G1 F2400
G1 X156.774 Y114.583 E14.12983
G1 X156.128 Y114.583 F9000
G1 F2400
G1 X170.958 Y129.413 E14.89608
G1 X170.311 Y129.412 F9000
G1 F2400
G1 X155.482 Y114.583 E15.66229
G1 X154.835 Y114.583 F9000
G1 F2400
G1 X169.664 Y129.412 E16.42847
G1 X169.017 Y129.411 F9000
G1 F2400
G1 X154.189 Y114.583 E17.19463
G1 X153.542 Y114.583 F9000
G1 F2400
G1 X168.37 Y129.411 E17.96075
G1 X167.723 Y129.41 F9000
G1 F2400
G1 X152.896 Y114.583 E18.72685
G1 X152.25 Y114.583 F9000
G1 F2400
G1 X167.076 Y129.409 E19.49291
G1 X166.429 Y129.409 F9000
G1 F2400
G1 X151.603 Y114.583 E20.25895
M73 P1 R57
G1 X150.957 Y114.583 F9000
G1 F2400
G1 X165.782 Y129.408 E21.02495
G1 X165.135 Y129.408 F9000
G1 F2400
G1 X150.31 Y114.583 E21.79093
G1 X149.664 Y114.583 F9000
G1 F2400
G1 X164.488 Y129.407 E22.55688
G1 X163.841 Y129.407 F9000
G1 F2400
G1 X149.018 Y114.583 E23.32279
G1 X148.371 Y114.583 F9000
G1 F2400
G1 X163.194 Y129.406 E24.08868
G1 X162.547 Y129.405 F9000
G1 F2400
G1 X147.725 Y114.583 E24.85454
G1 X147.078 Y114.583 F9000
G1 F2400
G1 X161.9 Y129.405 E25.62036
G1 X161.253 Y129.404 F9000
G1 F2400
G1 X146.432 Y114.583 E26.38616
G1 X145.785 Y114.583 F9000
G1 F2400
G1 X160.607 Y129.404 E27.15193
G1 X159.96 Y129.403 F9000
G1 F2400
G1 X145.139 Y114.583 E27.91767
G1 X144.493 Y114.583 F9000
G1 F2400
G1 X159.313 Y129.403 E28.68337
G1 X158.666 Y129.402 F9000
G1 F2400
G1 X143.846 Y114.583 E29.44905
G1 X143.2 Y114.583 F9000
G1 F2400
G1 X158.019 Y129.401 E30.2147
G1 X157.372 Y129.401 F9000
G1 F2400
G1 X142.553 Y114.583 E30.98032
G1 X141.907 Y114.583 F9000
G1 F2400
G1 X156.725 Y129.4 E31.74591
G1 X156.078 Y129.4 F9000
G1 F2400
G1 X141.261 Y114.583 E32.51147
G1 X140.614 Y114.583 F9000
G1 F2400
G1 X155.431 Y129.399 E33.277
G1 X154.784 Y129.399 F9000
G1 F2400
G1 X139.968 Y114.583 E34.0425
G1 X139.321 Y114.583 F9000
G1 F2400
G1 X154.137 Y129.398 E34.80797
G1 X153.49 Y129.397 F9000
G1 F2400
G1 X138.675 Y114.583 E35.57341
G1 X138.029 Y114.583 F9000
G1 F2400
G1 X152.843 Y129.397 E36.33882
G1 X152.196 Y129.396 F9000
G1 F2400
G1 X137.382 Y114.583 E37.1042
G1 X136.736 Y114.583 F9000
G1 F2400
G1 X151.549 Y129.396 E37.86955
G1 X150.902 Y129.395 F9000
G1 F2400
G1 X136.089 Y114.583 E38.63487
G1 X135.443 Y114.583 F9000
G1 F2400
G1 X150.255 Y129.394 E39.40016
G1 X149.608 Y129.394 F9000
G1 F2400
G1 X134.797 Y114.583 E40.16542
G1 X134.15 Y114.583 F9000
G1 F2400
G1 X148.961 Y129.393 E40.93065
