; generated by SuperSlicer 2.5.59 on 2023-04-27 at 23:10:13 UTC


;
;

;
;
; 

; external perimeters extrusion width = 0.40mm
; perimeters extrusion width = 0.46mm
; infill extrusion width = 0.64mm
; solid infill extrusion width = 0.56mm
; top infill extrusion width = 0.40mm
; support material extrusion width = 0.46mm
; first layer extrusion width = 0.50mm

; object:{"name":"Small_HDD_adapter_35_to_25_v2","id":"Small_HDD_adapter_35_to_25_v2.stl id:0 copy 0","object_center":[152.500000,150.000000,0.000000],"boundingbox_center":[152.500000,150.000000,3.000000],"boundingbox_size":[119.699997,101.500000,6.000000]}
EXCLUDE_OBJECT_DEFINE NAME=Small_HDD_adapter_35_to_25_v2_stl_id_0_copy_0 CENTER=152.500000,150.000000 POLYGON=[[92.650000,99.250000],[212.350000,99.250000],[212.350000,200.750000],[92.650000,200.750000],[92.650000,99.250000]]
; plater:{"center":[152.500000,150.000000,0.000000],"boundingbox_center":[152.500000,150.000000,3.000000],"boundingbox_size":[119.699997,101.500000,6.000000]}

M73 P0 R62
;TYPE:Custom
START_PRINT T_BED=70 T_EXTRUDER=235
M107
G21 ; set units to millimeters
G90 ; use absolute coordinates
M82 ; use absolute distances for extrusion
G92 E0
; Filament gcode
PRESSURE_ADVANCE_SELECT FILAMENT=PETG
;_TOOLCHANGE 0
M104 S235 ; set temperature
M109 S235 ; set temperature and wait for it to be reached
M190 S70 ; set bed temperature and wait for it to be reached
M107
;LAYER_CHANGE
;Z:0.2
;HEIGHT:0.2
G1 Z0.2 F9000
G1 E-1 F3000
M204 S1000
G1 X90.529 Y96.371 F9000
G1 E0 F1800
;TYPE:Skirt
;WIDTH:0.52
G1 X89.429 Y97.684 E0.06793
G1 X89.034 Y99.35 E0.13586
G1 X89.034 Y200.65 E4.15437
G1 X89.771 Y202.871 E4.24719
G1 X91.084 Y203.971 E4.31513
G1 X92.75 Y204.366 E4.38306
G1 X212.25 Y204.366 E9.12354
G1 X214.471 Y203.629 E9.21637
G1 X215.571 Y202.316 E9.2843
G1 X215.966 Y200.65 E9.35223
G1 X215.966 Y99.35 E13.37074
G1 X215.229 Y97.129 E13.46356
G1 X213.916 Y96.029 E13.53149
G1 X212.25 Y95.634 E13.59943
G1 X92.75 Y95.634 E18.33991
M73 P0 R61
G1 X90.529 Y96.371 E18.43274
G1 X90.907 Y96.721 F9000
G1 F1800
G1 X89.905 Y97.802 E18.49119
G1 X89.511 Y99.35 E18.55455
G1 X89.511 Y200.65 E22.57305
M73 P1 R61
G1 X90.031 Y202.409 E22.64581
G1 X91.202 Y203.495 E22.70917
G1 X92.75 Y203.889 E22.77252
G1 X212.25 Y203.889 E27.51301
G1 X214.009 Y203.369 E27.58577
G1 X215.095 Y202.198 E27.64912
G1 X215.489 Y200.65 E27.71248
G1 X215.489 Y99.35 E31.73098
G1 X214.969 Y97.591 E31.80374
G1 X213.798 Y96.505 E31.8671
G1 X212.25 Y96.111 E31.93046
G1 X92.75 Y96.111 E36.67094
G1 X90.991 Y96.631 E36.7437
G1 X90.907 Y96.721 E36.7486
G92 E0
G1 E-1 F3000
; printing object Small_HDD_adapter_35_to_25_v2.stl id:0 copy 0
EXCLUDE_OBJECT_START NAME=Small_HDD_adapter_35_to_25_v2_stl_id_0_copy_0
G1 X189.852 Y199.486 F9000
G1 E0 F1800
;TYPE:Internal perimeter
;WIDTH:0.5
G1 X190.283 Y198.638 E0.03614
G1 X190.432 Y197.702 E0.07217
G1 X190.283 Y196.765 E0.10821
G1 X189.901 Y196.014 E0.14025
G1 X211.086 Y196.014 E0.94542
G1 X211.086 Y199.486 E1.07737
G1 X189.852 Y199.486 E1.88437
G1 X188.746 Y199.943 F9000
G1 F1800
G1 X189.479 Y199.211 E1.92374
G1 X189.843 Y198.495 E1.95427
G1 X189.969 Y197.702 E1.9848
G1 X189.843 Y196.908 E2.01534
G1 X189.479 Y196.194 E2.04582
G1 X188.842 Y195.557 E2.08004
G1 X211.543 Y195.557 E2.9428
G1 X211.543 Y199.943 E3.10949
G1 X188.746 Y199.943 E3.97593
G92 E0
G1 E-1 F3000
G1 X189.926 Y103.986 F9000
G1 E0 F1800
G1 X190.283 Y103.285 E0.0299
G1 X190.432 Y102.348 E0.06595
G1 X190.283 Y101.412 E0.10198
G1 X189.827 Y100.514 E0.14025
G1 X211.086 Y100.514 E0.94822
G1 X211.086 Y103.986 E1.08016
G1 X189.926 Y103.986 E1.88437
G1 X188.892 Y104.443 F9000
G1 F1800
G1 X189.479 Y103.856 E1.9159
G1 X189.843 Y103.142 E1.94638
G1 X189.969 Y102.348 E1.97693
G1 X189.843 Y101.555 E2.00745
G1 X189.479 Y100.839 E2.03799
G1 X188.696 Y100.057 E2.08004
G1 X211.543 Y100.057 E2.94838
G1 X211.543 Y104.443 E3.11507
G1 X188.892 Y104.443 E3.97594
G92 E0
G1 E-1 F3000
G1 X159.313 Y150.061 F9000
G1 E0 F1800
G1 X144.03 Y134.777 E0.82149
G1 X143.114 Y135.692 E0.87071
G1 X128.746 Y150.061 E1.64302
G1 X144.03 Y165.344 E2.46451
G1 X159.313 Y150.061 E3.28598
G1 X158.667 Y150.061 F9000
;TYPE:External perimeter
G1 F1800
G1 X144.03 Y135.423 E4.07273
G1 X143.438 Y136.015 E4.10457
G1 X129.392 Y150.061 E4.85951
G1 X144.03 Y164.698 E5.64626
G1 X158.667 Y150.061 E6.43298
;WIPE_START
M204 S3000
G1 X158.95 Y149.778 F9000
;WIPE_END
G92 E0
G1 E-1 F3000
M204 S1000
G1 X143.757 Y134.504 F9000
G1 E0 F1800
;TYPE:Internal perimeter
G1 X128.473 Y119.221 E0.82149
G1 X127.549 Y120.145 E0.87117
G1 X113.19 Y134.504 E1.64296
G1 X113.246 Y134.56 E1.64597
G1 X97.745 Y150.061 E2.47914
G1 X113.246 Y165.561 E3.31227
G1 X113.19 Y165.617 E3.31528
G1 X128.473 Y180.901 E4.13678
G1 X143.757 Y165.617 E4.9583
M73 P1 R61
G1 X128.256 Y150.117 E5.79144
G1 X128.312 Y150.061 E5.79445
G1 X128.256 Y150.005 E5.79746
G1 X143.757 Y134.504 E6.63062
G1 X143.111 Y134.504 F9000
;TYPE:External perimeter
G1 F1800
G1 X128.473 Y119.867 E7.41738
G1 X127.872 Y120.468 E7.44968
G1 X113.836 Y134.504 E8.2041
G1 X128.473 Y149.142 E8.99085
G1 X143.111 Y134.504 E9.77763
;WIPE_START
M204 S3000
G1 X143.394 Y134.221 F9000
;WIPE_END
G92 E0
G1 E-1 F3000
M204 S1000
G1 X127.666 Y150.061 F9000
G1 E0 F1800
G1 X113.029 Y135.423 E0.78675
G1 X112.437 Y136.015 E0.81859
G1 X98.391 Y150.061 E1.57353
G1 X113.029 Y164.698 E2.36028
G1 X127.666 Y150.061 E3.147
;WIPE_START
M204 S3000
G1 X127.949 Y149.778 F9000
;WIPE_END
G92 E0
G1 E-1 F3000
M204 S1000
G1 X113.836 Y165.617 F9000
G1 E0 F1800
G1 X128.473 Y180.255 E0.78675
G1 X143.111 Y165.617 E1.57353
G1 X128.473 Y150.98 E2.36028
G1 X114.437 Y165.016 E3.1147
G1 X113.836 Y165.617 E3.147
;WIPE_START
M204 S3000
G1 X113.553 Y165.9 F9000
;WIPE_END
G92 E0
G1 E-1 F3000
M204 S1000
G1 X128.473 Y118.674 F9000
G1 E0 F1800
;TYPE:Internal perimeter
G1 X141.708 Y105.439 E0.71137
G1 X141.295 Y104.443 E0.75236
G1 X115.652 Y104.443 E1.72698
G1 X115.239 Y105.439 E1.76797
G1 X128.473 Y118.674 E2.47932
G1 X128.473 Y118.028 F9000
;TYPE:External perimeter
G1 F1800
G1 X141.169 Y105.332 E3.16171
G1 X140.99 Y104.9 E3.17949
G1 X115.957 Y104.9 E4.13089
G1 X115.778 Y105.332 E4.14867
G1 X128.473 Y118.028 E4.83104
;WIPE_START
M204 S3000
G1 X128.756 Y118.311 F9000
;WIPE_END
M204 S1000
G1 X128.2 Y118.947
;TYPE:Internal perimeter
G1 F1800
G1 X113.697 Y104.443 E5.61059
G1 X112.137 Y104.443 E5.6699
G1 X100.444 Y116.135 E6.29836
G1 X100.444 Y117.867 E6.3642
G1 X100.167 Y117.937 E6.37504
G1 X99.985 Y117.596 E6.38971
G1 X99.635 Y117.171 E6.41065
G1 X99.21 Y116.821 E6.43158
G1 X98.724 Y116.561 E6.45254
G1 X98.196 Y116.4 E6.47349
G1 X97.648 Y116.347 E6.49442
G1 X97.1 Y116.4 E6.51535
G1 X96.572 Y116.561 E6.53631
G1 X96.086 Y116.821 E6.55726
G1 X95.661 Y117.171 E6.5782
G1 X95.311 Y117.596 E6.59913
G1 X95.051 Y118.082 E6.62009
G1 X94.89 Y118.61 E6.64104
G1 X94.837 Y119.158 E6.66197
G1 X94.89 Y119.706 E6.6829
G1 X95.051 Y120.234 E6.70386
G1 X95.311 Y120.72 E6.72481
G1 X95.661 Y121.145 E6.74575
G1 X96.086 Y121.495 E6.76668
G1 X96.572 Y121.755 E6.78764
G1 X97.1 Y121.916 E6.8086
G1 X97.648 Y121.969 E6.82952
G1 X98.196 Y121.916 E6.85045
G1 X98.724 Y121.755 E6.87141
G1 X99.21 Y121.495 E6.89236
G1 X99.635 Y121.145 E6.9133
G1 X99.985 Y120.72 E6.93423
G1 X100.167 Y120.379 E6.9489
G1 X100.444 Y120.449 E6.95975
G1 X100.444 Y121.759 E7.00954
G1 X101.747 Y123.062 E7.07957
G1 X100.444 Y123.601 E7.13317
G1 X100.444 Y127.738 E7.29039
G1 X100.167 Y127.808 E7.30124
G1 X99.985 Y127.467 E7.31591
G1 X99.635 Y127.042 E7.33684
G1 X99.21 Y126.692 E7.35778
G1 X98.724 Y126.432 E7.37873
G1 X98.196 Y126.272 E7.39969
G1 X97.648 Y126.218 E7.42062
G1 X97.1 Y126.272 E7.44154
G1 X96.572 Y126.432 E7.4625
G1 X96.086 Y126.692 E7.48346
G1 X95.661 Y127.042 E7.50439
G1 X95.311 Y127.467 E7.52533
G1 X95.051 Y127.953 E7.54628
G1 X94.89 Y128.481 E7.56724
G1 X94.837 Y129.029 E7.58817
G1 X94.89 Y129.577 E7.6091
G1 X95.051 Y130.105 E7.63005
G1 X95.311 Y130.591 E7.65101
G1 X95.661 Y131.016 E7.67194
G1 X96.086 Y131.366 E7.69288
G1 X96.572 Y131.626 E7.71383
G1 X97.1 Y131.787 E7.73479
G1 X97.648 Y131.84 E7.75572
G1 X98.196 Y131.787 E7.77665
G1 X98.724 Y131.626 E7.7976
G1 X99.21 Y131.366 E7.81856
G1 X99.635 Y131.016 E7.83949
G1 X99.985 Y130.591 E7.86043
G1 X100.167 Y130.25 E7.8751
G1 X100.444 Y130.32 E7.88594
G1 X100.444 Y132.345 E7.96291
G1 X93.843 Y132.345 E8.21379
G1 X93.843 Y146.159 E8.73882
G1 X97.472 Y149.788 E8.93388
G1 X112.756 Y134.504 E9.7554
G1 X112.7 Y134.447 E9.75844
G1 X128.2 Y118.947 E10.59158
G92 E0
G1 E-1 F3000
G1 X101.173 Y123.794 F9000
G1 E0 F1800
;TYPE:External perimeter
G1 X100.901 Y123.907 E0.01121
G1 X100.901 Y132.802 E0.34928
G1 X94.3 Y132.802 E0.60016
G1 X94.3 Y145.97 E1.10062
G1 X97.472 Y149.142 E1.27112
G1 X112.11 Y134.504 E2.05789
G1 X101.333 Y123.728 E2.63712
G1 X101.173 Y123.794 E2.64369
;WIPE_START
M204 S3000
G1 X100.856 Y123.55 F9000
;WIPE_END
G92 E0
G1 E-1 F3000
M204 S1000
G1 X99.821 Y129.929 F9000
G1 E0 F1800
G1 X99.955 Y129.488 E0.01752
G1 X100 Y129.029 E0.03503
G1 X99.955 Y128.57 E0.05254
G1 X99.821 Y128.129 E0.07007
G1 X99.603 Y127.722 E0.0876
G1 X99.311 Y127.366 E0.10512
G1 X98.955 Y127.074 E0.12264
G1 X98.548 Y126.856 E0.14018
G1 X98.107 Y126.722 E0.1577
G1 X97.648 Y126.677 E0.17521
G1 X97.189 Y126.722 E0.19272
G1 X96.748 Y126.856 E0.21024
G1 X96.341 Y127.074 E0.22778
G1 X95.985 Y127.366 E0.2453
G1 X95.693 Y127.722 E0.26282
G1 X95.475 Y128.129 E0.28035
G1 X95.341 Y128.57 E0.29788
G1 X95.296 Y129.029 E0.31539
G1 X95.341 Y129.488 E0.3329
G1 X95.475 Y129.929 E0.35042
G1 X95.693 Y130.336 E0.36795
G1 X95.985 Y130.692 E0.38547
G1 X96.341 Y130.984 E0.40299
G1 X96.748 Y131.202 E0.42053
G1 X97.189 Y131.336 E0.43805
G1 X97.648 Y131.381 E0.45556
G1 X98.107 Y131.336 E0.47307
G1 X98.548 Y131.202 E0.4906
G1 X98.955 Y130.984 E0.50813
G1 X99.311 Y130.692 E0.52565
G1 X99.603 Y130.336 E0.54317
G1 X99.821 Y129.929 E0.5607
;WIPE_START
M204 S3000
G1 X100.216 Y129.864 F9000
;WIPE_END
G92 E0
G1 E-1 F3000
M204 S1000
G1 X100 Y119.158 F9000
G1 E0 F1800
G1 X99.955 Y118.699 E0.01751
G1 X99.821 Y118.258 E0.03503
G1 X99.603 Y117.851 E0.05257
G1 X99.311 Y117.495 E0.07009
G1 X98.955 Y117.203 E0.08761
G1 X98.548 Y116.985 E0.10514
G1 X98.107 Y116.851 E0.12267
G1 X97.648 Y116.806 E0.14018
G1 X97.189 Y116.851 E0.15769
G1 X96.748 Y116.985 E0.17521
G1 X96.341 Y117.203 E0.19274
G1 X95.985 Y117.495 E0.21026
G1 X95.693 Y117.851 E0.22778
G1 X95.475 Y118.258 E0.24532
G1 X95.341 Y118.699 E0.26284
G1 X95.296 Y119.158 E0.28035
G1 X95.341 Y119.617 E0.29786
G1 X95.475 Y120.058 E0.31539
G1 X95.693 Y120.465 E0.33292
G1 X95.985 Y120.821 E0.35044
G1 X96.341 Y121.113 E0.36796
G1 X96.748 Y121.331 E0.38549
G1 X97.189 Y121.465 E0.40302
G1 X97.648 Y121.51 E0.42053
G1 X98.107 Y121.465 E0.43804
G1 X98.548 Y121.331 E0.45556
G1 X98.955 Y121.113 E0.47309
G1 X99.311 Y120.821 E0.49061
G1 X99.603 Y120.465 E0.50813
G1 X99.821 Y120.058 E0.52567
G1 X99.955 Y119.617 E0.54319
G1 X100 Y119.158 E0.5607
;WIPE_START
M204 S3000
G1 X100.339 Y118.947 F9000
;WIPE_END
G92 E0
G1 E-1 F3000
M204 S1000
G1 X127.554 Y118.947 F9000
M73 P2 R60
G1 E0 F1800
G1 X113.508 Y104.9 E0.75499
G1 X112.326 Y104.9 E0.79991
G1 X100.901 Y116.324 E1.41397
G1 X100.901 Y121.57 E1.61333
G1 X112.917 Y133.584 E2.25913
G1 X127.554 Y118.947 E3.04586
;WIPE_START
M204 S3000
G1 X127.837 Y118.664 F9000
;WIPE_END
G92 E0
G1 E-1 F3000
M204 S1000
G1 X100.167 Y108.057 F9000
G1 E0 F1800
;TYPE:Internal perimeter
G1 X99.985 Y107.716 E0.01467
G1 X99.635 Y107.291 E0.0356
G1 X99.21 Y106.941 E0.05654
G1 X98.724 Y106.681 E0.07749
G1 X98.196 Y106.52 E0.09845
G1 X97.648 Y106.467 E0.11938
G1 X97.1 Y106.52 E0.14031
G1 X96.572 Y106.681 E0.16126
G1 X96.086 Y106.941 E0.18222
G1 X95.661 Y107.291 E0.20316
G1 X95.311 Y107.716 E0.22409
G1 X95.051 Y108.202 E0.24505
G1 X94.89 Y108.73 E0.266
G1 X94.837 Y109.278 E0.28693
G1 X94.89 Y109.826 E0.30786
G1 X95.051 Y110.354 E0.32882
G1 X95.311 Y110.84 E0.34977
G1 X95.661 Y111.265 E0.37071
G1 X96.086 Y111.615 E0.39164
G1 X96.572 Y111.875 E0.4126
G1 X97.1 Y112.035 E0.43355
G1 X97.648 Y112.089 E0.45448
G1 X98.196 Y112.035 E0.47541
G1 X98.724 Y111.875 E0.49637
G1 X99.21 Y111.615 E0.51732
G1 X99.635 Y111.265 E0.53826
G1 X99.985 Y110.84 E0.55919
G1 X100.167 Y110.499 E0.57386
G1 X100.444 Y110.569 E0.58471
G1 X100.444 Y114.18 E0.72196
G1 X101.44 Y114.593 E0.76296
G1 X110.594 Y105.439 E1.25496
G1 X110.181 Y104.443 E1.29595
G1 X100.444 Y104.443 E1.66603
G1 X100.444 Y107.987 E1.80073
G1 X100.167 Y108.057 E1.81158
G92 E0
G1 E-1 F3000
G1 X110.055 Y105.332 F9000
G1 E0 F1800
;TYPE:External perimeter
G1 X109.876 Y104.9 E0.01778
G1 X100.901 Y104.9 E0.35888
G1 X100.901 Y113.875 E0.69998
G1 X101.333 Y114.054 E0.71776
G1 X110.055 Y105.332 E1.18654
;WIPE_START
M204 S3000
G1 X110.401 Y105.132 F9000
;WIPE_END
G92 E0
G1 E-1 F3000
M204 S1000
G1 X100 Y109.278 F9000
G1 E0 F1800
G1 X99.955 Y108.819 E0.01751
G1 X99.821 Y108.378 E0.03503
G1 X99.603 Y107.971 E0.05257
G1 X99.311 Y107.615 E0.07009
G1 X98.955 Y107.323 E0.08761
G1 X98.548 Y107.105 E0.10514
G1 X98.107 Y106.971 E0.12267
G1 X97.648 Y106.926 E0.14018
G1 X97.189 Y106.971 E0.15769
G1 X96.748 Y107.105 E0.17521
G1 X96.341 Y107.323 E0.19274
G1 X95.985 Y107.615 E0.21026
G1 X95.693 Y107.971 E0.22778
G1 X95.475 Y108.378 E0.24532
G1 X95.341 Y108.819 E0.26284
G1 X95.296 Y109.278 E0.28035
G1 X95.341 Y109.737 E0.29786
G1 X95.475 Y110.178 E0.31539
G1 X95.693 Y110.585 E0.33292
G1 X95.985 Y110.941 E0.35044
G1 X96.341 Y111.233 E0.36796
G1 X96.748 Y111.451 E0.38549
G1 X97.189 Y111.585 E0.40302
G1 X97.648 Y111.63 E0.42053
G1 X98.107 Y111.585 E0.43804
G1 X98.548 Y111.451 E0.45556
G1 X98.955 Y111.233 E0.47309
G1 X99.311 Y110.941 E0.49061
G1 X99.603 Y110.585 E0.50813
G1 X99.821 Y110.178 E0.52567
G1 X99.955 Y109.737 E0.54319
G1 X100 Y109.278 E0.5607
;WIPE_START
M204 S3000
G1 X100.339 Y109.067 F9000
;WIPE_END
G92 E0
G1 E-1 F3000
M204 S1000
G1 X140.475 Y100.514 F9000
G1 E0 F1800
;TYPE:Internal perimeter
G1 X140.018 Y101.411 E0.03826
G1 X139.869 Y102.348 E0.07432
G1 X140.018 Y103.286 E0.11041
G1 X140.376 Y103.986 E0.1403
G1 X115.346 Y103.986 E1.09159
G1 X114.919 Y105.018 E1.13405
G1 X113.887 Y103.986 E1.18952
G1 X111.947 Y103.986 E1.26322
G1 X110.914 Y105.019 E1.31874
G1 X110.487 Y103.986 E1.36123
G1 X99.987 Y103.986 E1.76029
G1 X99.987 Y106.988 E1.87438
G1 X99.465 Y106.559 E1.90004
G1 X98.9 Y106.257 E1.92442
G1 X98.286 Y106.07 E1.94881
G1 X97.648 Y106.008 E1.97315
G1 X97.01 Y106.07 E1.9975
G1 X96.396 Y106.257 E2.02189
G1 X95.831 Y106.559 E2.04627
G1 X95.336 Y106.966 E2.07062
G1 X94.929 Y107.461 E2.09497
G1 X94.627 Y108.026 E2.11935
G1 X94.44 Y108.64 E2.14374
G1 X94.378 Y109.278 E2.16808
G1 X94.44 Y109.916 E2.19243
G1 X94.627 Y110.53 E2.21682
G1 X94.929 Y111.095 E2.24119
G1 X95.336 Y111.59 E2.26554
G1 X95.831 Y111.997 E2.2899
G1 X96.396 Y112.299 E2.31427
G1 X97.01 Y112.486 E2.33866
G1 X97.648 Y112.548 E2.36301
G1 X98.286 Y112.486 E2.38735
G1 X98.9 Y112.299 E2.41174
G1 X99.465 Y111.997 E2.43612
G1 X99.987 Y111.568 E2.46178
G1 X99.987 Y114.486 E2.57267
G1 X101.019 Y114.913 E2.61513
G1 X99.987 Y115.946 E2.67062
G1 X99.987 Y116.868 E2.70567
M73 P2 R60
G1 X99.465 Y116.439 E2.73133
G1 X98.9 Y116.137 E2.75571
G1 X98.286 Y115.95 E2.7801
G1 X97.648 Y115.888 E2.80444
G1 X97.01 Y115.95 E2.82879
G1 X96.396 Y116.137 E2.85318
G1 X95.831 Y116.439 E2.87756
G1 X95.336 Y116.846 E2.90191
G1 X94.929 Y117.341 E2.92626
G1 X94.627 Y117.906 E2.95064
G1 X94.44 Y118.52 E2.97502
G1 X94.378 Y119.158 E2.99937
G1 X94.44 Y119.796 E3.02372
G1 X94.627 Y120.41 E3.04811
G1 X94.929 Y120.975 E3.07248
G1 X95.336 Y121.47 E3.09683
G1 X95.831 Y121.877 E3.12119
G1 X96.396 Y122.179 E3.14556
G1 X97.01 Y122.366 E3.16995
G1 X97.648 Y122.428 E3.1943
G1 X98.286 Y122.366 E3.21864
G1 X98.9 Y122.179 E3.24303
G1 X99.465 Y121.877 E3.26741
G1 X99.987 Y121.448 E3.29307
G1 X99.987 Y121.948 E3.31208
G1 X100.94 Y122.901 E3.3633
G1 X99.987 Y123.296 E3.40251
G1 X99.987 Y126.739 E3.53336
G1 X99.465 Y126.31 E3.55902
G1 X98.9 Y126.008 E3.5834
G1 X98.286 Y125.821 E3.60779
G1 X97.648 Y125.759 E3.63213
G1 X97.01 Y125.821 E3.65648
G1 X96.396 Y126.008 E3.68087
G1 X95.831 Y126.31 E3.70524
G1 X95.336 Y126.717 E3.72959
G1 X94.929 Y127.212 E3.75395
G1 X94.627 Y127.777 E3.77832
