; generated by SuperSlicer 2.5.59 on 2023-04-17 at 06:05:42 UTC


;
;

;
;
; 

; external perimeters extrusion width = 0.40mm
; perimeters extrusion width = 0.46mm
; infill extrusion width = 0.64mm
; solid infill extrusion width = 0.56mm
; top infill extrusion width = 0.40mm
; support material extrusion width = 0.46mm
; first layer extrusion width = 0.50mm

; external perimeters extrusion width = 0.40mm
; perimeters extrusion width = 0.46mm
; infill extrusion width = 0.64mm
; solid infill extrusion width = 0.56mm
; top infill extrusion width = 0.40mm
; support material extrusion width = 0.46mm
; first layer extrusion width = 0.50mm

; object:{"name":"Steam_Deck_Stick_Saver_tabbed","id":"Steam_Deck_Stick_Saver_tabbed.stl id:0 copy 0","object_center":[150.059390,137.224064,0.000000],"boundingbox_center":[150.059390,137.224064,2.212503],"boundingbox_size":[30.881203,20.021931,4.425005]}
EXCLUDE_OBJECT_DEFINE NAME=Steam_Deck_Stick_Saver_tabbed_stl_id_0_copy_0 CENTER=150.059390,137.224064 POLYGON=[[134.618784,134.306736],[134.639152,134.022096],[134.699792,133.743256],[134.799536,133.475888],[134.936272,133.225448],[135.107280,132.997008],[135.309072,132.795224],[135.537504,132.624224],[135.787968,132.487456],[136.055328,132.387744],[153.502592,127.562816],[153.930224,127.457648],[154.359680,127.371320],[154.789424,127.303776],[155.217888,127.254936],[155.643472,127.224728],[156.064688,127.213096],[156.484592,127.219976],[156.909216,127.245408],[157.337088,127.289464],[157.766640,127.352208],[158.196320,127.433712],[158.624576,127.534032],[159.049840,127.653256],[159.470544,127.791440],[159.885136,127.948656],[160.292112,128.124848],[160.690288,128.319184],[161.078592,128.530504],[161.456000,128.757664],[161.821408,128.999512],[162.173808,129.254880],[162.512144,129.522648],[162.835328,129.801640],[163.142336,130.090696],[163.434976,130.391600],[163.717840,130.708936],[163.989888,131.041792],[164.249968,131.389112],[164.496944,131.749848],[164.729664,132.122944],[164.946976,132.507336],[165.147728,132.901992],[165.330752,133.305832],[165.495248,133.717680],[165.499984,140.717696],[165.336032,141.129776],[165.153568,141.533872],[164.953344,141.928816],[164.736528,142.313552],[164.504256,142.687008],[164.257696,143.048144],[163.997984,143.395888],[163.726304,143.729184],[163.443760,144.047008],[163.151424,144.348384],[162.844944,144.637760],[162.522240,144.917072],[162.184352,145.185184],[161.832368,145.440944],[161.467312,145.683232],[161.090272,145.910864],[160.702288,146.122672],[160.304400,146.317536],[159.897680,146.494304],[159.483296,146.652096],[159.062752,146.790864],[158.637600,146.910656],[158.209408,147.011568],[157.779760,147.093648],[157.350160,147.156960],[156.922224,147.201584],[156.497488,147.227584],[156.077440,147.235024],[155.656400,147.223952],[155.230912,147.194320],[154.802528,147.146048],[154.372800,147.079072],[153.943296,146.993312],[153.515600,146.888736],[136.055328,142.225712],[135.787968,142.126000],[135.537504,141.989232],[135.309072,141.818224],[135.107280,141.616448],[134.936272,141.388000],[134.799536,141.137552],[134.699792,140.870192],[134.639152,140.591360],[134.618784,140.306736],[134.618784,134.306736]]
; object:{"name":"Steam_Deck_Stick_Saver_tabbed","id":"Steam_Deck_Stick_Saver_tabbed.stl id:1 copy 0","object_center":[154.940419,162.775961,0.000000],"boundingbox_center":[154.940419,162.775961,2.212503],"boundingbox_size":[30.881203,20.021931,4.425005]}
EXCLUDE_OBJECT_DEFINE NAME=Steam_Deck_Stick_Saver_tabbed_stl_id_1_copy_0 CENTER=154.940419,162.775961 POLYGON=[[139.499824,159.858608],[139.520176,159.573984],[139.580832,159.295152],[139.680544,159.027792],[139.817312,158.777344],[139.988320,158.548912],[140.190096,158.347120],[140.418528,158.176112],[140.668976,158.039360],[140.936336,157.939632],[158.383616,153.114720],[158.811248,153.009536],[159.240720,152.923216],[159.670464,152.855664],[160.098912,152.806832],[160.524512,152.776624],[160.945712,152.764992],[161.365616,152.771872],[161.790240,152.797296],[162.218112,152.841360],[162.647664,152.904096],[163.077344,152.985600],[163.505600,153.085936],[163.930864,153.205152],[164.351568,153.343344],[164.766176,153.500544],[165.173136,153.676736],[165.571312,153.871072],[165.959632,154.082400],[166.337024,154.309552],[166.702432,154.551408],[167.054848,154.806784],[167.393168,155.074544],[167.716352,155.353536],[168.023360,155.642592],[168.316016,155.943504],[168.598864,156.260832],[168.870912,156.593696],[169.130992,156.941008],[169.377968,157.301744],[169.610688,157.674832],[169.828000,158.059232],[170.028752,158.453888],[170.211776,158.857728],[170.376288,159.269584],[170.381008,166.269600],[170.217072,166.681664],[170.034592,167.085776],[169.834368,167.480720],[169.617552,167.865456],[169.385280,168.238912],[169.138736,168.600032],[168.879024,168.947792],[168.607328,169.281104],[168.324800,169.598912],[168.032448,169.900288],[167.725968,170.189648],[167.403264,170.468960],[167.065392,170.737072],[166.713392,170.992848],[166.348336,171.235120],[165.971296,171.462736],[165.583312,171.674560],[165.185424,171.869424],[164.778704,172.046208],[164.364320,172.204000],[163.943776,172.342752],[163.518624,172.462560],[163.090432,172.563456],[162.660784,172.645536],[162.231184,172.708848],[161.803248,172.753472],[161.378512,172.779488],[160.958464,172.786928],[160.537424,172.775856],[160.111936,172.746224],[159.683552,172.697936],[159.253824,172.630960],[158.824320,172.545216],[158.396624,172.440624],[140.936336,167.777600],[140.668976,167.677888],[140.418528,167.541120],[140.190096,167.370112],[139.988320,167.168336],[139.817312,166.939904],[139.680544,166.689456],[139.580832,166.422096],[139.520176,166.143248],[139.499824,165.858608],[139.499824,159.858608]]
; plater:{"center":[152.499904,150.000012,0.000000],"boundingbox_center":[152.499904,150.000012,2.212503],"boundingbox_size":[35.762232,45.573828,4.425005]}

M73 P0 R10
;TYPE:Custom
START_PRINT T_BED=60 T_EXTRUDER=220
M107
G21 ; set units to millimeters
G90 ; use absolute coordinates
M82 ; use absolute distances for extrusion
G92 E0
; Filament gcode
;_TOOLCHANGE 0
M109 S220 ; set temperature and wait for it to be reached
M190 S60 ; set bed temperature and wait for it to be reached
M107
;LAYER_CHANGE
;Z:0.2
;HEIGHT:0.2
G1 Z0.2 F9000
M204 S1000
M73 P0 R10
G1 X132.747 Y130.244
;TYPE:Skirt
;WIDTH:0.52
G1 F1800
G1 X132.209 Y130.836 E0.03081
G1 X131.63 Y131.737 E0.07202
G1 X131.165 Y132.982 E0.12314
G1 X131.003 Y134.31 E0.17465
G1 X131.032 Y140.842 E0.42599
G1 X136.046 Y167.184 E1.45779
G1 X136.511 Y168.429 E1.50892
G1 X136.927 Y169.112 E1.53973
G1 X137.437 Y169.73 E1.57054
G1 X138.246 Y170.431 E1.61174
G1 X138.93 Y170.848 E1.64256
G1 X139.666 Y171.163 E1.67337
G1 X140.722 Y171.42 E1.71518
G1 X159.721 Y174.039 E2.45318
G1 X160.842 Y174.11 E2.4964
G1 X162.263 Y174.041 E2.55115
G1 X163.935 Y173.725 E2.61661
G1 X165.01 Y173.378 E2.66008
G1 X166.307 Y172.792 E2.71483
G1 X167.278 Y172.214 E2.75831
G1 X168.41 Y171.353 E2.81305
G1 X169.227 Y170.573 E2.85653
G1 X170.139 Y169.481 E2.91126
G1 X170.925 Y168.289 E2.96619
G1 X171.485 Y166.326 E3.04475
G1 X171.485 Y159.225 E3.31801
G1 X171.419 Y158.528 E3.34495
G1 X166.538 Y132.976 E4.34594
G1 X166.043 Y131.71 E4.39825
G1 X165.242 Y130.497 E4.45419
G1 X164.313 Y129.392 E4.50971
G1 X163.481 Y128.605 E4.55381
G1 X162.087 Y127.587 E4.6202
G1 X160.814 Y126.907 E4.67573
G1 X159.749 Y126.486 E4.71983
M73 P1 R10
G1 X158.077 Y126.059 E4.78623
G1 X156.642 Y125.901 E4.84176
G1 X154.677 Y125.98 E4.91745
G1 X135.809 Y128.75 E5.65126
G1 X134.785 Y129.003 E5.69183
G1 X133.811 Y129.447 E5.73303
G1 X132.747 Y130.244 E5.78416
G1 X133.085 Y130.581 F9000
G1 F1800
G1 X132.59 Y131.122 E5.81235
G1 X132.048 Y131.965 E5.85094
G1 X131.631 Y133.083 E5.89684
G1 X131.48 Y134.31 E5.94442
G1 X131.508 Y140.808 E6.19445
G1 X136.513 Y167.082 E7.22363
G1 X136.929 Y168.2 E7.26953
G1 X137.309 Y168.826 E7.29773
G1 X137.774 Y169.393 E7.32592
G1 X138.532 Y170.049 E7.36451
G1 X139.159 Y170.429 E7.3927
G1 X139.833 Y170.716 E7.42089
G1 X140.787 Y170.947 E7.45868
G1 X159.787 Y173.567 E8.19668
G1 X160.837 Y173.633 E8.23717
G1 X162.222 Y173.565 E8.29054
G1 X163.267 Y173.395 E8.33127
G1 X164.602 Y173.019 E8.38463
G1 X166.094 Y172.365 E8.44734
G1 X167.003 Y171.824 E8.48806
G1 X168.108 Y170.984 E8.54143
G1 X168.873 Y170.253 E8.58215
G1 X169.762 Y169.189 E8.63551
G1 X170.52 Y168.037 E8.68857
G1 X171.008 Y166.326 E8.75704
G1 X171.008 Y159.225 E9.0303
G1 X170.95 Y158.617 E9.05378
G1 X166.069 Y133.065 E10.05478
G1 X165.638 Y131.962 E10.10037
G1 X164.865 Y130.79 E10.15439
G1 X163.96 Y129.713 E10.20851
G1 X163.18 Y128.975 E10.24982
G1 X161.846 Y127.999 E10.31342
G1 X160.606 Y127.336 E10.36755
G1 X159.607 Y126.941 E10.40886
G1 X158.006 Y126.531 E10.47246
G1 X156.608 Y126.377 E10.52659
G1 X154.746 Y126.452 E10.5983
G1 X135.878 Y129.222 E11.33211
G1 X134.952 Y129.45 E11.3688
G1 X134.04 Y129.866 E11.40739
G1 X133.085 Y130.581 E11.45329
G92 E0
; printing object Steam_Deck_Stick_Saver_tabbed.stl id:0 copy 0
EXCLUDE_OBJECT_START NAME=Steam_Deck_Stick_Saver_tabbed_stl_id_0_copy_0
G1 X150.558 Y133.571 F9000
;TYPE:Internal perimeter
;WIDTH:0.5
G1 F1800
G1 X151.089 Y133.571 E0.01956
G1 X150.752 Y134.088 E0.04232
G1 X150.476 Y134.618 E0.06434
G1 X150.252 Y135.172 E0.08637
G1 X150.082 Y135.745 E0.1084
G1 X149.968 Y136.331 E0.13043
G1 X149.91 Y136.926 E0.15245
G1 X149.91 Y137.524 E0.17448
G1 X149.968 Y138.118 E0.19651
G1 X150.082 Y138.705 E0.21853
G1 X150.252 Y139.277 E0.24056
G1 X150.476 Y139.831 E0.26259
M73 P2 R10
G1 X150.753 Y140.361 E0.28461
G1 X151.197 Y141.043 E0.3146
G1 X136.664 Y141.043 E0.85036
G1 X136.428 Y141.013 E0.85911
G1 X136.225 Y140.92 E0.86737
G1 X136.068 Y140.784 E0.87502
G1 X135.956 Y140.61 E0.88267
G1 X135.892 Y140.395 E0.89094
G1 X135.883 Y140.262 E0.89585
G1 X135.883 Y134.352 E1.11372
G1 X135.892 Y134.219 E1.11863
G1 X135.956 Y134.004 E1.1269
G1 X136.068 Y133.829 E1.13455
G1 X136.3 Y133.648 E1.1454
G1 X136.531 Y133.58 E1.15428
G1 X136.664 Y133.571 E1.15919
G1 X150.558 Y133.571 E1.67142
G1 X150.44 Y133.114 F9000
G1 F1800
G1 X150.526 Y133.114 E1.67461
G1 X151.138 Y132.428 E1.70849
G1 X151.518 Y132.063 E1.7279
G1 X151.924 Y131.728 E1.74731
G1 X152.354 Y131.424 E1.76673
G1 X152.806 Y131.155 E1.78614
G1 X153.278 Y130.92 E1.80555
G1 X153.766 Y130.722 E1.82497
G1 X154.268 Y130.562 E1.84438
G1 X154.78 Y130.441 E1.86379
G1 X155.3 Y130.359 E1.88321
G1 X155.825 Y130.316 E1.90262
G1 X156.352 Y130.314 E1.92204
G1 X156.614 Y130.333 E1.93174
G1 X156.877 Y130.352 E1.94145
G1 X157.398 Y130.429 E1.96086
G1 X157.911 Y130.547 E1.98028
G1 X158.414 Y130.702 E1.99969
G1 X158.904 Y130.896 E2.0191
G1 X159.377 Y131.126 E2.03852
G1 X159.832 Y131.392 E2.05793
G1 X160.265 Y131.692 E2.07734
G1 X160.674 Y132.023 E2.09676
G1 X161.057 Y132.385 E2.11617
G1 X161.554 Y132.932 E2.14342
G1 X159.932 Y132.919 E2.20321
G1 X159.779 Y132.78 E2.21082
G1 X159.336 Y132.449 E2.23122
G1 X158.862 Y132.162 E2.25163
G1 X158.363 Y131.922 E2.27203
G1 X157.844 Y131.731 E2.29244
G1 X157.309 Y131.591 E2.31284
G1 X156.762 Y131.503 E2.33325
G1 X156.21 Y131.467 E2.35365
G1 X155.657 Y131.485 E2.37406
G1 X155.108 Y131.556 E2.39446
G1 X154.568 Y131.679 E2.41487
G1 X154.043 Y131.854 E2.43527
G1 X153.537 Y132.078 E2.45568
G1 X153.054 Y132.349 E2.47608
G1 X152.601 Y132.666 E2.49649
G1 X152.179 Y133.025 E2.5169
G1 X151.794 Y133.423 E2.5373
G1 X151.449 Y133.855 E2.55771
G1 X151.147 Y134.319 E2.57811
G1 X150.891 Y134.81 E2.59852
G1 X150.684 Y135.323 E2.61892
G1 X150.526 Y135.854 E2.63933
G1 X150.42 Y136.397 E2.65973
G1 X150.367 Y136.948 E2.68014
G1 X150.367 Y137.501 E2.70054
G1 X150.421 Y138.052 E2.72095
G1 X150.526 Y138.596 E2.74135
G1 X150.684 Y139.126 E2.76176
G1 X150.892 Y139.639 E2.78216
G1 X151.148 Y140.13 E2.80257
G1 X151.45 Y140.594 E2.82297
G1 X151.795 Y141.027 E2.84338
G1 X152.18 Y141.424 E2.86379
G1 X152.602 Y141.783 E2.88419
G1 X153.056 Y142.099 E2.9046
G1 X153.538 Y142.371 E2.925
G1 X154.044 Y142.595 E2.94541
G1 X154.569 Y142.769 E2.96581
G1 X155.109 Y142.892 E2.98622
G1 X155.658 Y142.963 E3.00662
G1 X156.211 Y142.981 E3.02703
G1 X156.764 Y142.945 E3.04743
G1 X157.31 Y142.857 E3.06784
G1 X157.845 Y142.717 E3.08824
G1 X158.365 Y142.525 E3.10865
G1 X158.863 Y142.285 E3.12905
G1 X159.337 Y141.998 E3.14946
G1 X159.78 Y141.667 E3.16987
G1 X159.933 Y141.528 E3.17748
G1 X161.553 Y141.514 E3.2372
G1 X161.078 Y142.041 E3.26337
G1 X160.703 Y142.4 E3.28251
G1 X160.301 Y142.729 E3.30165
G1 X159.877 Y143.027 E3.32079
G1 X159.431 Y143.293 E3.33993
G1 X158.966 Y143.524 E3.35906
G1 X158.485 Y143.72 E3.3782
G1 X157.991 Y143.88 E3.39734
G1 X157.486 Y144.001 E3.41648
G1 X156.974 Y144.085 E3.43562
G1 X156.457 Y144.13 E3.45476
G1 X155.937 Y144.136 E3.4739
G1 X155.419 Y144.103 E3.49304
G1 X154.905 Y144.031 E3.51218
G1 X154.398 Y143.921 E3.53132
G1 X153.9 Y143.773 E3.55046
G1 X153.415 Y143.588 E3.5696
G1 X152.945 Y143.367 E3.58874
G1 X152.493 Y143.112 E3.60788
G1 X152.062 Y142.823 E3.62702
G1 X151.653 Y142.503 E3.64616
G1 X151.27 Y142.153 E3.6653
G1 X150.654 Y141.5 E3.69839
G1 X136.648 Y141.5 E4.21474
G1 X136.449 Y141.485 E4.22207
G1 X136.283 Y141.449 E4.22833
G1 X135.975 Y141.309 E4.24083
G1 X135.719 Y141.087 E4.25333
G1 X135.536 Y140.801 E4.26582
G1 X135.44 Y140.476 E4.27832
G1 X135.426 Y140.278 E4.28565
G1 X135.426 Y134.336 E4.50472
G1 X135.44 Y134.137 E4.51205
G1 X135.536 Y133.812 E4.52454
G1 X135.719 Y133.527 E4.53704
G1 X135.975 Y133.305 E4.54954
G1 X136.124 Y133.223 E4.5558
G1 X136.449 Y133.128 E4.5683
G1 X136.648 Y133.114 E4.57562
G1 X150.44 Y133.114 E5.08409
G1 X150.322 Y132.657 F9000
;TYPE:External perimeter
G1 F1800
G1 X150.809 Y132.111 E5.11106
G1 X151.213 Y131.722 E5.13176
G1 X151.646 Y131.364 E5.15246
G1 X152.105 Y131.041 E5.17316
G1 X152.587 Y130.753 E5.19386
G1 X153.09 Y130.503 E5.21455
G1 X153.61 Y130.292 E5.23525
G1 X154.145 Y130.122 E5.25595
G1 X154.691 Y129.992 E5.27665
G1 X155.246 Y129.904 E5.29735
G1 X155.806 Y129.859 E5.31804
G1 X156.367 Y129.857 E5.33874
G1 X156.647 Y129.877 E5.34909
G1 X156.927 Y129.897 E5.35944
G1 X157.482 Y129.98 E5.38014
G1 X158.03 Y130.105 E5.40084
G1 X158.566 Y130.271 E5.42153
G1 X159.088 Y130.477 E5.44223
G1 X159.593 Y130.723 E5.46293
G1 X160.078 Y131.006 E5.48363
G1 X160.539 Y131.326 E5.50433
G1 X160.976 Y131.679 E5.52502
G1 X161.383 Y132.065 E5.54572
G1 X161.761 Y132.481 E5.56642
G1 X162.105 Y132.923 E5.58708
G1 X162.457 Y133.467 E5.61099
G1 X161.563 Y133.39 E5.6441
G1 X159.754 Y133.374 E5.71079
G1 X159.488 Y133.133 E5.72402
G1 X159.08 Y132.829 E5.7428
G1 X158.644 Y132.565 E5.76158
G1 X158.185 Y132.344 E5.78037
G1 X157.707 Y132.168 E5.79915
G1 X157.214 Y132.039 E5.81794
G1 X156.711 Y131.957 E5.83672
G1 X156.203 Y131.925 E5.8555
G1 X155.693 Y131.941 E5.87429
G1 X155.188 Y132.006 E5.89307
G1 X154.691 Y132.12 E5.91185
G1 X154.208 Y132.28 E5.93064
G1 X153.742 Y132.487 E5.94942
G1 X153.298 Y132.737 E5.9682
G1 X152.88 Y133.028 E5.98699
G1 X152.492 Y133.359 E6.00577
G1 X152.138 Y133.725 E6.02455
G1 X151.82 Y134.123 E6.04334
G1 X151.542 Y134.55 E6.06212
G1 X151.307 Y135.002 E6.0809
G1 X151.115 Y135.474 E6.09969
G1 X150.971 Y135.963 E6.11847
G1 X150.873 Y136.463 E6.13726
G1 X150.824 Y136.97 E6.15604
G1 X150.824 Y137.479 E6.17482
G1 X150.873 Y137.987 E6.19361
G1 X150.971 Y138.487 E6.21239
G1 X151.116 Y138.975 E6.23117
G1 X151.307 Y139.447 E6.24996
G1 X151.543 Y139.899 E6.26874
G1 X151.821 Y140.326 E6.28752
G1 X152.139 Y140.724 E6.30631
G1 X152.493 Y141.09 E6.32509
G1 X152.881 Y141.421 E6.34387
G1 X153.299 Y141.712 E6.36266
G1 X153.743 Y141.962 E6.38144
G1 X154.209 Y142.168 E6.40023
G1 X154.692 Y142.329 E6.41901
G1 X155.189 Y142.442 E6.43779
G1 X155.695 Y142.507 E6.45658
G1 X156.204 Y142.523 E6.47536
G1 X156.712 Y142.491 E6.49414
G1 X157.215 Y142.409 E6.51293
G1 X157.708 Y142.28 E6.53171
G1 X158.186 Y142.104 E6.55049
G1 X158.645 Y141.883 E6.56928
G1 X159.081 Y141.619 E6.58806
G1 X159.489 Y141.314 E6.60684
G1 X159.755 Y141.073 E6.62007
G1 X161.563 Y141.057 E6.68675
G1 X162.458 Y140.98 E6.71987
M73 P3 R10
G1 X162.115 Y141.511 E6.74321
G1 X161.777 Y141.948 E6.76358
G1 X161.406 Y142.36 E6.78399
