; generated by SuperSlicer 2.5.59 on 2023-05-27 at 17:33:42 UTC


;
;

;
;
; 

; external perimeters extrusion width = 0.40mm
; perimeters extrusion width = 0.46mm
; infill extrusion width = 0.64mm
; solid infill extrusion width = 0.56mm
; top infill extrusion width = 0.40mm
; first layer extrusion width = 0.50mm

; external perimeters extrusion width = 0.40mm
; perimeters extrusion width = 0.46mm
; infill extrusion width = 0.64mm
; solid infill extrusion width = 0.56mm
; top infill extrusion width = 0.40mm
; first layer extrusion width = 0.50mm

; external perimeters extrusion width = 0.40mm
; perimeters extrusion width = 0.46mm
; infill extrusion width = 0.64mm
; solid infill extrusion width = 0.56mm
; top infill extrusion width = 0.40mm
; first layer extrusion width = 0.50mm

; object:{"name":"Strain Relief LGX Umbilical Spacer","id":"Strain Relief LGX Umbilical Spacer.stl id:0 copy 0","object_center":[176.490555,132.834086,0.000000],"boundingbox_center":[176.490555,132.834086,8.000000],"boundingbox_size":[7.099998,7.100001,16.000000]}
EXCLUDE_OBJECT_DEFINE NAME=Strain_Relief_LGX_Umbilical_Spacer_stl_id_0_copy_0 CENTER=176.490555,132.834086 POLYGON=[[172.940560,132.834088],[172.943936,132.679248],[172.954064,132.524688],[172.970928,132.370728],[172.994496,132.217640],[173.024704,132.065736],[173.061520,131.915280],[173.104864,131.766584],[173.154656,131.619920],[173.210784,131.475568],[173.273168,131.333800],[173.341680,131.194888],[173.416176,131.059096],[173.496528,130.926680],[173.582560,130.797896],[173.674144,130.672992],[173.771104,130.552200],[173.873216,130.435744],[173.980336,130.323872],[174.092208,130.216752],[174.208672,130.114640],[174.329456,130.017688],[174.454368,129.926104],[174.583152,129.840056],[174.715552,129.759704],[174.851344,129.685200],[174.990272,129.616696],[175.132032,129.554320],[175.276384,129.498184],[175.423056,129.448392],[175.571744,129.405064],[175.722192,129.368240],[175.874096,129.338032],[176.027184,129.314456],[176.181152,129.297608],[176.335712,129.287472],[176.490560,129.284088],[176.645408,129.287472],[176.799952,129.297608],[176.953920,129.314456],[177.107008,129.338032],[177.258912,129.368240],[177.409360,129.405064],[177.558064,129.448392],[177.704720,129.498184],[177.849072,129.554320],[177.990848,129.616696],[178.129760,129.685200],[178.265552,129.759704],[178.397968,129.840056],[178.526752,129.926104],[178.651664,130.017688],[178.772448,130.114640],[178.888896,130.216752],[179.000784,130.323872],[179.107888,130.435744],[179.210000,130.552200],[179.306960,130.672992],[179.398544,130.797896],[179.484592,130.926680],[179.564944,131.059096],[179.639456,131.194888],[179.707952,131.333800],[179.770320,131.475568],[179.826464,131.619920],[179.876256,131.766584],[179.919584,131.915280],[179.956400,132.065736],[179.986624,132.217640],[180.010176,132.370728],[180.027040,132.524688],[180.037168,132.679248],[180.040560,132.834088],[180.037168,132.988936],[180.027040,133.143496],[180.010176,133.297456],[179.986624,133.450544],[179.956400,133.602448],[179.919584,133.752896],[179.876256,133.901600],[179.826464,134.048264],[179.770320,134.192616],[179.707952,134.334384],[179.639456,134.473296],[179.564944,134.609088],[179.484592,134.741504],[179.398544,134.870288],[179.306960,134.995200],[179.210000,135.115984],[179.107888,135.232432],[179.000784,135.344320],[178.888896,135.451424],[178.772448,135.553536],[178.651664,135.650496],[178.526752,135.742080],[178.397968,135.828128],[178.265552,135.908480],[178.129760,135.982992],[177.990848,136.051488],[177.849072,136.113856],[177.704720,136.170000],[177.558064,136.219792],[177.409360,136.263120],[177.258912,136.299936],[177.107008,136.330160],[176.953920,136.353712],[176.799952,136.370576],[176.645408,136.380704],[176.490560,136.384096],[176.335712,136.380704],[176.181152,136.370576],[176.027184,136.353712],[175.874096,136.330160],[175.722192,136.299936],[175.571744,136.263120],[175.423056,136.219792],[175.276384,136.170000],[175.132032,136.113856],[174.990272,136.051488],[174.851344,135.982992],[174.715552,135.908480],[174.583152,135.828128],[174.454368,135.742080],[174.329456,135.650496],[174.208672,135.553536],[174.092208,135.451424],[173.980336,135.344320],[173.873216,135.232432],[173.771104,135.115984],[173.674144,134.995200],[173.582560,134.870288],[173.496528,134.741504],[173.416176,134.609088],[173.341680,134.473296],[173.273168,134.334384],[173.210784,134.192616],[173.154656,134.048264],[173.104864,133.901600],[173.061520,133.752896],[173.024704,133.602448],[172.994496,133.450544],[172.970928,133.297456],[172.954064,133.143496],[172.943936,132.988936],[172.940560,132.834088]]
; object:{"name":"Strain Relief LGX Umbilical","id":"Strain Relief LGX Umbilical.stl id:1 copy 0","object_center":[150.429464,146.341020,0.000000],"boundingbox_center":[150.429464,146.341020,2.000033],"boundingbox_size":[50.939999,52.059135,4.000067]}
EXCLUDE_OBJECT_DEFINE NAME=Strain_Relief_LGX_Umbilical_stl_id_1_copy_0 CENTER=150.429464,146.341020 POLYGON=[[124.959456,153.311440],[124.981248,152.258096],[125.046584,151.206544],[125.155352,150.158592],[125.307376,149.116032],[125.502376,148.080656],[125.740032,147.054224],[126.019928,146.038512],[126.341600,145.035232],[126.704480,144.046112],[127.107960,143.072864],[127.551352,142.117104],[128.033888,141.180528],[128.554752,140.264688],[129.113024,139.371200],[141.429456,120.671448],[141.789456,120.311448],[159.069456,120.311448],[159.429456,120.671448],[175.498352,151.672240],[175.525904,151.726304],[175.566848,151.811152],[175.589776,151.861328],[175.629232,151.952928],[175.647904,151.998912],[175.685360,152.097280],[175.700192,152.138848],[175.735152,152.243936],[175.746560,152.280832],[175.778496,152.392640],[175.786912,152.424656],[175.815312,152.543088],[175.821168,152.570032],[175.845520,152.695008],[175.849296,152.716736],[175.869088,152.848080],[175.871216,152.864496],[175.885952,153.002048],[175.886896,153.013040],[175.896096,153.156608],[175.896320,153.162112],[175.899456,153.311440],[175.877664,154.364800],[175.812336,155.416368],[175.703568,156.464304],[175.551552,157.506864],[175.356560,158.542256],[175.118896,159.568688],[174.838992,160.584400],[174.517312,161.587680],[174.154432,162.576784],[173.750944,163.550048],[173.307568,164.505776],[172.825024,165.442368],[172.304176,166.358208],[171.745888,167.251712],[171.151120,168.121360],[170.520912,168.965664],[169.856320,169.783184],[169.158480,170.572528],[168.428592,171.332336],[168.316656,171.439360],[168.200128,171.541424],[168.079280,171.638288],[167.954320,171.729792],[167.825488,171.815776],[167.693024,171.896064],[167.557184,171.970464],[167.418224,172.038880],[167.276432,172.101184],[167.132032,172.157232],[166.985344,172.206928],[166.836608,172.250176],[166.686144,172.286896],[166.534208,172.317040],[166.381120,172.340496],[166.227136,172.357264],[166.072592,172.367312],[165.917744,172.370592],[165.762896,172.367104],[165.608336,172.356896],[165.454384,172.339936],[165.301312,172.316288],[165.149424,172.285984],[164.998992,172.249072],[131.249560,163.261040],[131.187120,163.242960],[131.125520,163.222208],[131.064896,163.198800],[131.005328,163.172800],[130.946944,163.144240],[130.889848,163.113168],[130.834168,163.079664],[130.779968,163.043776],[130.727384,163.005568],[130.676512,162.965120],[130.627440,162.922512],[130.580248,162.877824],[130.535048,162.831120],[130.491912,162.782496],[130.450912,162.732064],[130.412144,162.679904],[130.375672,162.626096],[125.554880,155.279440],[125.515416,155.218880],[125.496136,155.188256],[125.474904,155.153728],[125.435064,155.086464],[125.418504,155.057456],[125.400280,155.024784],[125.360576,154.950656],[125.346552,154.923424],[125.331128,154.892816],[125.292072,154.811760],[125.280392,154.786464],[125.267576,154.758064],[125.229688,154.669984],[125.220184,154.646800],[125.209736,154.620752],[125.173552,154.525616],[125.166000,154.504672],[125.157696,154.481152],[125.123768,154.378960],[125.117952,154.360352],[125.111576,154.339488],[125.080424,154.230256],[125.076144,154.214112],[125.071424,154.196016],[125.043608,154.079824],[125.040616,154.066224],[125.037336,154.050976],[125.013392,153.927904],[125.011472,153.916928],[125.009368,153.904656],[124.989832,153.774832],[124.988744,153.766544],[124.987568,153.757264],[124.972968,153.620848],[124.972488,153.615312],[124.971952,153.609104],[124.962840,153.466288],[124.962712,153.463520],[124.959456,153.311440]]
; object:{"name":"Strain Relief LGX Umbilical Spacer","id":"Strain Relief LGX Umbilical Spacer.stl id:2 copy 0","object_center":[142.494096,176.138549,0.000000],"boundingbox_center":[142.494096,176.138549,8.000000],"boundingbox_size":[7.099998,7.100001,16.000000]}
EXCLUDE_OBJECT_DEFINE NAME=Strain_Relief_LGX_Umbilical_Spacer_stl_id_2_copy_0 CENTER=142.494096,176.138549 POLYGON=[[138.944096,176.138544],[138.947472,175.983712],[138.957616,175.829152],[138.974480,175.675184],[138.998032,175.522096],[139.028240,175.370192],[139.065056,175.219744],[139.108400,175.071040],[139.158192,174.924384],[139.214320,174.780032],[139.276704,174.638256],[139.345216,174.499344],[139.419712,174.363552],[139.500064,174.231136],[139.586112,174.102352],[139.677696,173.977440],[139.774640,173.856656],[139.876752,173.740208],[139.983872,173.628320],[140.095744,173.521216],[140.212208,173.419104],[140.332992,173.322144],[140.457904,173.230560],[140.586688,173.144512],[140.719088,173.064160],[140.854896,172.989648],[140.993808,172.921152],[141.135568,172.858784],[141.279920,172.802640],[141.426592,172.752848],[141.575280,172.709520],[141.725744,172.672704],[141.877648,172.642480],[142.030736,172.618928],[142.184688,172.602048],[142.339248,172.591936],[142.494096,172.588544],[142.648944,172.591936],[142.803504,172.602048],[142.957456,172.618928],[143.110544,172.642480],[143.262448,172.672704],[143.412896,172.709520],[143.561600,172.752848],[143.708272,172.802640],[143.852608,172.858784],[143.994384,172.921152],[144.133296,172.989648],[144.269088,173.064160],[144.401504,173.144512],[144.530288,173.230560],[144.655200,173.322144],[144.775984,173.419104],[144.892448,173.521216],[145.004320,173.628320],[145.111440,173.740208],[145.213552,173.856656],[145.310496,173.977440],[145.402080,174.102352],[145.488128,174.231136],[145.568480,174.363552],[145.642992,174.499344],[145.711488,174.638256],[145.773872,174.780032],[145.830000,174.924384],[145.879792,175.071040],[145.923120,175.219744],[145.959952,175.370192],[145.990160,175.522096],[146.013712,175.675184],[146.030576,175.829152],[146.040704,175.983712],[146.044096,176.138544],[146.040704,176.293392],[146.030576,176.447952],[146.013712,176.601920],[145.990160,176.755008],[145.959952,176.906912],[145.923120,177.057360],[145.879792,177.206048],[145.830000,177.352720],[145.773872,177.497072],[145.711488,177.638848],[145.642992,177.777760],[145.568480,177.913552],[145.488128,178.045952],[145.402080,178.174752],[145.310496,178.299648],[145.213552,178.420448],[145.111440,178.536896],[145.004320,178.648768],[144.892448,178.755888],[144.775984,178.858000],[144.655200,178.954960],[144.530288,179.046544],[144.401504,179.132592],[144.269088,179.212944],[144.133296,179.287440],[143.994384,179.355936],[143.852608,179.418320],[143.708272,179.474464],[143.561600,179.524240],[143.412896,179.567584],[143.262448,179.604400],[143.110544,179.634608],[142.957456,179.658176],[142.803504,179.675040],[142.648944,179.685168],[142.494096,179.688560],[142.339248,179.685168],[142.184688,179.675040],[142.030736,179.658176],[141.877648,179.634608],[141.725744,179.604400],[141.575280,179.567584],[141.426592,179.524240],[141.279920,179.474464],[141.135568,179.418320],[140.993808,179.355936],[140.854896,179.287440],[140.719088,179.212944],[140.586688,179.132592],[140.457904,179.046544],[140.332992,178.954960],[140.212208,178.858000],[140.095744,178.755888],[139.983872,178.648768],[139.876752,178.536896],[139.774640,178.420448],[139.677696,178.299648],[139.586112,178.174752],[139.500064,178.045952],[139.419712,177.913552],[139.345216,177.777760],[139.276704,177.638848],[139.214320,177.497072],[139.158192,177.352720],[139.108400,177.206048],[139.065056,177.057360],[139.028240,176.906912],[138.998032,176.755008],[138.974480,176.601920],[138.957616,176.447952],[138.947472,176.293392],[138.944096,176.138544]]
; plater:{"center":[152.500009,150.000001,0.000000],"boundingbox_center":[152.500009,150.000001,8.000000],"boundingbox_size":[55.081090,59.377097,16.000000]}

M73 P0 R32
;TYPE:Custom
START_PRINT T_BED=100 T_EXTRUDER=250
M107
G21 ; set units to millimeters
G90 ; use absolute coordinates
M82 ; use absolute distances for extrusion
G92 E0
; Filament gcode

    PRESSURE_ADVANCE_SELECT FILAMENT=ABS
;_TOOLCHANGE 0
M104 S250 ; set temperature
M109 S250 ; set temperature and wait for it to be reached
M190 S100 ; set bed temperature and wait for it to be reached
M107
;LAYER_CHANGE
;Z:0.2
;HEIGHT:0.2
G1 Z0.2 F9000
M73 P0 R32
G1 E-0.5 F3000
M204 S1000
G1 X138.723 Y118.674 F9000
G1 E0 F1800
;TYPE:Skirt
;WIDTH:0.52
G1 X125.747 Y138.501 E0.87042
G1 X125.083 Y139.669 E0.9198
G1 X124.104 Y141.67 E1.00162
G1 X123.589 Y142.912 E1.051
G1 X122.865 Y145.018 E1.13282
G1 X122.508 Y146.314 E1.1822
G1 X122.051 Y148.494 E1.26402
G1 X121.563 Y152.504 E1.41241
G1 X121.552 Y153.549 E1.45078
G1 X121.639 Y154.436 E1.48355
G1 X121.817 Y155.236 E1.51362
G1 X122.131 Y156.106 E1.54761
G1 X122.568 Y156.947 E1.58243
G1 X136.541 Y180.124 E2.57658
G1 X137.38 Y181.152 E2.62533
G1 X138.253 Y181.912 E2.66784
G1 X139.32 Y182.561 E2.71371
G1 X140.484 Y183.015 E2.75958
G1 X141.489 Y183.229 E2.79735
G1 X142.345 Y183.301 E2.82891
G1 X143.499 Y183.229 E2.87136
G1 X144.504 Y183.015 E2.90912
G1 X167.885 Y175.396 E3.81242
G1 X169.134 Y174.883 E3.86205
G1 X170.284 Y174.116 E3.91282
G1 X171.544 Y172.875 E3.97775
G1 X173.088 Y171.064 E4.06521
G1 X174.478 Y169.13 E4.15267
G1 X175.19 Y167.99 E4.20206
G1 X176.319 Y165.894 E4.28952
G1 X177.27 Y163.711 E4.37698
G1 X177.994 Y161.605 E4.45879
G1 X178.611 Y159.177 E4.5508
G1 X183.57 Y133.93 E5.49596
G1 X183.653 Y132.985 E5.53081
G1 X183.613 Y132.061 E5.56476
G1 X183.467 Y131.215 E5.59629
G1 X183.165 Y130.232 E5.63406
G1 X182.657 Y129.192 E5.67657
G1 X181.88 Y128.115 E5.72536
G1 X180.979 Y127.251 E5.77123
G1 X180.132 Y126.668 E5.809
G1 X160.625 Y117.356 E6.60303
G1 X159.029 Y116.996 E6.66312
G1 X141.83 Y116.996 E7.29493
G1 X139.966 Y117.497 E7.3658
G1 X138.723 Y118.674 E7.42871
G1 X139.121 Y118.935 F9000
G1 F1800
G1 X126.152 Y138.754 E8.29874
G1 X124.536 Y141.871 E8.42771
G1 X123.319 Y145.164 E8.55668
G1 X122.519 Y148.583 E8.68565
G1 X122.04 Y152.519 E8.83131
G1 X122.107 Y154.345 E8.89844
G1 X122.272 Y155.095 E8.92664
G1 X122.572 Y155.924 E8.95902
G1 X122.977 Y156.701 E8.9912
G1 X136.932 Y179.851 E9.98415
G1 X137.71 Y180.808 E10.02946
G1 X138.544 Y181.534 E10.07007
G1 X139.541 Y182.138 E10.11288
G1 X140.627 Y182.56 E10.1557
G1 X141.541 Y182.755 E10.19003
G1 X142.345 Y182.824 E10.21968
G1 X143.447 Y182.755 E10.26023
G1 X144.361 Y182.56 E10.29455
G1 X167.737 Y174.943 E11.19768
G1 X168.924 Y174.455 E11.24481
G1 X169.97 Y173.757 E11.291
G1 X171.2 Y172.545 E11.35443
G1 X172.718 Y170.763 E11.44044
G1 X174.084 Y168.861 E11.52645
G1 X174.776 Y167.754 E11.57439
G1 X175.886 Y165.693 E11.6604
G1 X176.822 Y163.547 E11.74641
G1 X177.539 Y161.459 E11.8275
G1 X178.143 Y159.085 E11.91747
G1 X183.1 Y133.847 E12.86229
G1 X183.176 Y132.985 E12.89408
G1 X183.137 Y132.103 E12.92651
G1 X182.999 Y131.308 E12.95613
G1 X182.724 Y130.415 E12.99046
G1 X182.239 Y129.422 E13.03107
G1 X181.515 Y128.422 E13.07642
G1 X180.672 Y127.616 E13.11923
G1 X179.903 Y127.086 E13.15357
G1 X160.42 Y117.787 E13.94658
G1 X159.029 Y117.473 E13.99895
G1 X141.83 Y117.473 E14.63077
G1 X140.3 Y117.857 E14.68871
G1 X139.121 Y118.935 E14.74738
G92 E0
G1 E-0.5 F3000
; printing object Strain Relief LGX Umbilical Spacer.stl id:0 copy 0
EXCLUDE_OBJECT_START NAME=Strain_Relief_LGX_Umbilical_Spacer_stl_id_0_copy_0
G1 X174.155 Y134.189 F9000
G1 E0 F1800
;TYPE:External perimeter
;WIDTH:0.5
