; generated by SuperSlicer 2.5.59 on 2023-05-27 at 22:18:56 UTC


;
;

;
;
; 

; external perimeters extrusion width = 0.40mm
; perimeters extrusion width = 0.46mm
; infill extrusion width = 0.64mm
; solid infill extrusion width = 0.56mm
; top infill extrusion width = 0.40mm
; first layer extrusion width = 0.50mm

; external perimeters extrusion width = 0.40mm
; perimeters extrusion width = 0.46mm
; infill extrusion width = 0.64mm
; solid infill extrusion width = 0.56mm
; top infill extrusion width = 0.40mm
; first layer extrusion width = 0.50mm

; object:{"name":"Tomatoes","id":"Tomatoes.stl id:0 copy 0","object_center":[114.500000,149.997536,0.000000],"boundingbox_center":[114.500000,149.997536,1.700024],"boundingbox_size":[70.000000,207.407776,3.400048]}
EXCLUDE_OBJECT_DEFINE NAME=Tomatoes_stl_id_0_copy_0 CENTER=114.500000,149.997536 POLYGON=[[79.500000,198.404672],[79.558320,197.217584],[79.732712,196.041936],[114.500000,46.293656],[149.267296,196.041936],[149.441680,197.217584],[149.500000,198.404672],[149.500000,234.182656],[149.441680,235.369744],[149.267296,236.545392],[148.978496,237.698288],[148.578096,238.817344],[148.069952,239.891744],[147.458928,240.911168],[146.750928,241.865792],[145.952752,242.746432],[145.072128,243.544592],[144.117504,244.252592],[128.752072,253.668256],[128.562256,253.701424],[128.363560,253.678080],[111.326376,251.550208],[89.248272,246.060960],[88.095368,245.772176],[86.976328,245.371760],[85.901920,244.863616],[84.882496,244.252592],[83.927872,243.544592],[83.047232,242.746432],[82.249072,241.865792],[81.541080,240.911168],[80.930056,239.891744],[80.421896,238.817344],[80.021496,237.698288],[79.732712,236.545392],[79.558320,235.369744],[79.500000,234.182656],[79.500000,198.404672]]
; object:{"name":"Strawberries","id":"Strawberries.stl id:1 copy 0","object_center":[190.500000,149.999707,0.000000],"boundingbox_center":[190.500000,149.999707,1.700000],"boundingbox_size":[70.000000,204.755096,3.400001]}
EXCLUDE_OBJECT_DEFINE NAME=Strawberries_stl_id_1_copy_0 CENTER=190.500000,149.999707 POLYGON=[[155.500000,199.733184],[155.558320,198.546096],[155.732720,197.370432],[190.500000,47.622160],[225.267296,197.370432],[225.441680,198.546096],[225.500000,199.733184],[225.500000,235.511152],[225.441680,236.698240],[225.267296,237.873904],[224.978496,239.026800],[224.578096,240.145840],[224.069952,241.220240],[223.458928,242.239664],[222.750928,243.194304],[217.456912,249.961872],[217.421344,249.967568],[201.832272,252.376112],[201.810688,252.377264],[182.162272,251.045408],[165.248272,247.389472],[164.095360,247.100672],[162.976336,246.700272],[161.901920,246.192112],[160.882496,245.581088],[159.927872,244.873088],[159.047248,244.074944],[158.249072,243.194304],[157.541072,242.239664],[156.930048,241.220240],[156.421904,240.145840],[156.021504,239.026800],[155.732720,237.873904],[155.558320,236.698240],[155.500000,235.511152],[155.500000,199.733184]]
; plater:{"center":[152.500000,149.997536,0.000000],"boundingbox_center":[152.500000,149.997536,1.700024],"boundingbox_size":[146.000000,207.407776,3.400048]}

M73 P0 R95
M73 P0 R95
;TYPE:Custom
START_PRINT T_BED=100 T_EXTRUDER=250
M107
G21 ; set units to millimeters
G90 ; use absolute coordinates
M82 ; use absolute distances for extrusion
G92 E0
; Filament gcode

    PRESSURE_ADVANCE_SELECT FILAMENT=ABS
;_TOOLCHANGE 0
M109 S250 ; set temperature and wait for it to be reached
M190 S100 ; set bed temperature and wait for it to be reached
M107
;LAYER_CHANGE
;Z:0.2
;HEIGHT:0.2
G1 Z0.2 F9000
M73 P0 R95
M73 P0 R95
G1 E-0.5 F3000
M204 S1000
G1 X110.927 Y45.397 F9000
G1 E0 F1800
;TYPE:Skirt
;WIDTH:0.52
G1 X76.211 Y195.223 E5.64949
G1 X75.983 Y196.682 E5.70373
G1 X75.884 Y198.407 E5.7672
G1 X75.884 Y234.18 E7.08128
G1 X75.947 Y235.542 E7.13136
G1 X76.156 Y237.071 E7.18804
G1 X76.619 Y238.921 E7.2581
G1 X77.156 Y240.368 E7.31478
G1 X77.659 Y241.433 E7.35808
G1 X78.437 Y242.766 E7.41475
G1 X79.342 Y244.016 E7.47143
G1 X80.365 Y245.171 E7.52811
G1 X81.778 Y246.452 E7.59817
G1 X83.028 Y247.356 E7.65485
G1 X84.36 Y248.134 E7.71153
G1 X85.763 Y248.778 E7.76821
G1 X87.222 Y249.281 E7.82489
G1 X110.443 Y255.055 E8.70389
G1 X128.126 Y257.291 E9.35861
G1 X201.883 Y255.992 E12.06841
G1 X217.97 Y253.534 E12.66619
G1 X218.988 Y253.222 E12.7053
G1 X220.326 Y252.153 E12.7682
G1 X225.658 Y245.344 E13.0859
G1 X226.563 Y244.094 E13.14258
G1 X227.341 Y242.762 E13.19926
G1 X227.984 Y241.359 E13.25594
G1 X228.487 Y239.901 E13.31262
G1 X228.773 Y238.757 E13.35592
G1 X229.017 Y237.234 E13.4126
G1 X229.111 Y235.691 E13.46937
G1 X229.116 Y199.736 E14.79014
G1 X229.053 Y198.374 E14.84023
G1 X228.844 Y196.845 E14.89691
G1 X194.222 Y47.265 E20.53683
G1 X194.073 Y46.726 E20.55736
G1 X193.517 Y45.578 E20.6042
G1 X192.224 Y44.455 E20.66711
G1 X190.565 Y44.032 E20.73001
G1 X114.565 Y42.703 E23.52221
G1 X113.183 Y42.944 E23.57374
G1 X111.765 Y43.904 E23.63665
G1 X110.927 Y45.397 E23.69955
G1 X111.386 Y45.529 F9000
G1 F1800
G1 X76.676 Y195.331 E29.34815
G1 X76.454 Y196.752 E29.40099
G1 X76.361 Y198.407 E29.46188
G1 X76.361 Y234.18 E30.77596
G1 X76.423 Y235.519 E30.82518
G1 X76.627 Y237.001 E30.88015
G1 X77.068 Y238.76 E30.94676
G1 X77.587 Y240.164 E31.00173
G1 X78.241 Y241.509 E31.05669
G1 X78.847 Y242.52 E31.09998
G1 X79.725 Y243.731 E31.15495
G1 X80.943 Y245.075 E31.22157
G1 X82.062 Y246.068 E31.27653
G1 X83.273 Y246.947 E31.33149
G1 X84.564 Y247.703 E31.38645
G1 X85.924 Y248.328 E31.44141
G1 X87.338 Y248.818 E31.49637
G1 X110.558 Y254.592 E32.37534
G1 X128.182 Y256.817 E33.02784
G1 X201.874 Y255.515 E35.73529
G1 X217.897 Y253.062 E36.3307
G1 X218.686 Y252.835 E36.36087
G1 X219.95 Y251.859 E36.41953
G1 X225.275 Y245.06 E36.73677
G1 X226.153 Y243.849 E36.79173
G1 X226.909 Y242.558 E36.84669
G1 X227.535 Y241.199 E36.90165
G1 X227.932 Y240.089 E36.94495
G1 X228.311 Y238.641 E36.99991
G1 X228.546 Y237.164 E37.05487
G1 X228.635 Y235.668 E37.10992
G1 X228.639 Y199.736 E38.42984
G1 X228.577 Y198.397 E38.47907
G1 X228.373 Y196.915 E38.53403
G1 X193.757 Y47.372 E44.17254
M73 P1 R94
G1 X193.25 Y46.035 E44.22507
G1 X192.097 Y44.929 E44.28373
G1 X190.557 Y44.509 E44.3424
G1 X114.557 Y43.18 E47.1346
G1 X113.556 Y43.32 E47.17173
G1 X112.19 Y44.148 E47.23039
G1 X111.386 Y45.529 E47.28906
G92 E0
G1 E-0.5 F3000
; printing object Tomatoes.stl id:0 copy 0
EXCLUDE_OBJECT_START NAME=Tomatoes_stl_id_0_copy_0
G1 X114.352 Y57.511 F9000
G1 E0 F1800
;TYPE:Internal perimeter
;WIDTH:0.5
G1 X114.648 Y57.511 E0.01043
G1 X117.614 Y71.522 E0.51445
G1 X117.614 Y181.083 E4.37035
G1 X117.652 Y181.805 E4.39577
G1 X117.774 Y182.575 E4.42322
G1 X117.976 Y183.328 E4.45065
G1 X118.255 Y184.056 E4.47809
G1 X118.609 Y184.751 E4.50553
G1 X119.034 Y185.405 E4.53297
G1 X119.524 Y186.01 E4.56041
G1 X120.075 Y186.562 E4.58785
G1 X120.681 Y187.052 E4.61529
G1 X121.335 Y187.477 E4.64273
G1 X122.03 Y187.831 E4.67017
G1 X122.758 Y188.11 E4.69761
G1 X123.511 Y188.312 E4.72505
G1 X124.281 Y188.434 E4.75249
G1 X125.003 Y188.472 E4.77792
G1 X137.336 Y188.472 E5.21196
G1 X138.362 Y188.522 E5.24814
G1 X139.326 Y188.665 E5.28244
G1 X140.272 Y188.902 E5.31674
G1 X141.189 Y189.23 E5.35103
G1 X142.07 Y189.647 E5.38533
G1 X142.906 Y190.148 E5.41962
G1 X143.689 Y190.729 E5.45392
G1 X144.411 Y191.383 E5.48821
G1 X145.065 Y192.105 E5.52251
G1 X145.646 Y192.888 E5.55681
G1 X146.147 Y193.724 E5.5911
G1 X146.563 Y194.605 E5.6254
G1 X146.891 Y195.522 E5.65969
G1 X147.128 Y196.467 E5.69399
G1 X147.271 Y197.431 E5.72829
G1 X147.322 Y198.458 E5.76447
G1 X147.322 Y234.129 E7.01987
G1 X147.271 Y235.156 E7.05605
G1 X147.128 Y236.12 E7.09034
G1 X146.891 Y237.065 E7.12464
G1 X146.563 Y237.983 E7.15894
G1 X146.147 Y238.864 E7.19323
G1 X145.646 Y239.7 E7.22753
G1 X145.065 Y240.482 E7.26183
G1 X144.411 Y241.204 E7.29612
G1 X143.689 Y241.859 E7.33042
G1 X142.906 Y242.439 E7.36471
G1 X142.07 Y242.94 E7.39901
G1 X141.189 Y243.357 E7.43331
G1 X140.272 Y243.685 E7.4676
G1 X139.326 Y243.922 E7.5019
G1 X138.362 Y244.065 E7.53619
G1 X137.336 Y244.115 E7.57237
G1 X127.318 Y244.115 E7.92494
G1 X125.999 Y246.729 E8.02796
G1 X124.424 Y244.115 E8.13535
G1 X115.93 Y244.115 E8.4343
G1 X114.216 Y245.598 E8.51405
G1 X113.607 Y246.161 E8.54324
G1 X113.045 Y246.73 E8.5714
G1 X112.798 Y246.582 E8.58152
G1 X113.57 Y244.115 E8.67248
G1 X91.664 Y244.115 E9.44344
G1 X90.638 Y244.065 E9.47962
G1 X89.674 Y243.922 E9.51391
G1 X88.728 Y243.685 E9.54821
G1 X87.811 Y243.357 E9.5825
G1 X86.93 Y242.94 E9.6168
G1 X86.094 Y242.439 E9.6511
G1 X85.311 Y241.859 E9.68539
G1 X84.589 Y241.204 E9.71969
G1 X83.935 Y240.482 E9.75399
G1 X83.354 Y239.7 E9.78828
G1 X82.853 Y238.864 E9.82258
G1 X82.437 Y237.983 E9.85687
G1 X82.109 Y237.065 E9.89117
G1 X81.872 Y236.12 E9.92547
G1 X81.729 Y235.156 E9.95976
G1 X81.678 Y234.129 E9.99594
G1 X81.678 Y198.458 E11.25134
G1 X81.729 Y197.431 E11.28752
G1 X81.872 Y196.467 E11.32182
G1 X82.109 Y195.522 E11.35612
G1 X82.437 Y194.605 E11.39041
G1 X82.853 Y193.724 E11.42471
G1 X83.354 Y192.888 E11.459
G1 X83.935 Y192.105 E11.4933
G1 X84.589 Y191.383 E11.5276
G1 X85.311 Y190.729 E11.56189
G1 X86.094 Y190.148 E11.59619
G1 X86.93 Y189.647 E11.63048
G1 X87.811 Y189.23 E11.66478
G1 X88.728 Y188.902 E11.69908
G1 X89.674 Y188.665 E11.73337
G1 X90.638 Y188.522 E11.76767
G1 X91.664 Y188.472 E11.80385
G1 X103.997 Y188.472 E12.23789
G1 X104.719 Y188.434 E12.26332
G1 X105.489 Y188.312 E12.29076
G1 X106.242 Y188.11 E12.3182
G1 X106.97 Y187.831 E12.34564
G1 X107.665 Y187.477 E12.37308
G1 X108.319 Y187.052 E12.40052
G1 X108.925 Y186.562 E12.42796
G1 X109.476 Y186.01 E12.4554
G1 X109.966 Y185.405 E12.48284
G1 X110.391 Y184.751 E12.51028
G1 X110.745 Y184.056 E12.53772
G1 X111.024 Y183.328 E12.56516
G1 X111.226 Y182.575 E12.5926
G1 X111.348 Y181.805 E12.62004
G1 X111.386 Y181.083 E12.64546
G1 X111.386 Y71.522 E16.50136
M73 P1 R94
G1 X114.352 Y57.511 E17.00538
G92 E0
G1 E-0.5 F3000
G1 X127.002 Y247.717 F9000
G1 E0 F1800
G1 X127.719 Y248.687 E0.04244
G1 X128.89 Y250.171 E0.10898
G1 X128.49 Y250.757 E0.13397
G1 X128.224 Y250.364 E0.1507
G1 X127.393 Y249.04 E0.2057
G1 X126.712 Y247.911 E0.25211
G1 X127.002 Y247.717 E0.26439
G92 E0
G1 E-0.5 F3000
G1 X114.352 Y55.304 F9000
G1 E0 F1800
G1 X114.648 Y55.304 E0.01043
G1 X118.071 Y71.474 E0.59213
G1 X118.071 Y181.071 E4.44929
G1 X118.107 Y181.757 E4.47345
G1 X118.221 Y182.48 E4.49921
G1 X118.411 Y183.187 E4.52496
G1 X118.673 Y183.87 E4.55071
G1 X119.005 Y184.522 E4.57647
G1 X119.404 Y185.135 E4.60222
G1 X119.864 Y185.704 E4.62797
G1 X120.382 Y186.222 E4.65373
G1 X120.95 Y186.682 E4.67948
G1 X121.564 Y187.081 E4.70523
G1 X122.216 Y187.413 E4.73099
G1 X122.899 Y187.675 E4.75674
G1 X123.606 Y187.864 E4.78249
G1 X124.329 Y187.979 E4.80825
G1 X125.015 Y188.015 E4.83241
G1 X137.347 Y188.015 E5.26643
G1 X138.407 Y188.067 E5.3038
G1 X139.416 Y188.217 E5.33967
G1 X140.404 Y188.464 E5.37555
G1 X141.364 Y188.808 E5.41142
G1 X142.286 Y189.244 E5.4473
G1 X143.16 Y189.768 E5.48318
G1 X143.979 Y190.375 E5.51905
G1 X144.734 Y191.059 E5.55493
G1 X145.419 Y191.815 E5.59081
G1 X146.026 Y192.634 E5.62668
G1 X146.55 Y193.508 E5.66256
G1 X146.986 Y194.429 E5.69844
G1 X147.329 Y195.389 E5.73431
G1 X147.577 Y196.378 E5.77019
G1 X147.727 Y197.386 E5.80607
G1 X147.779 Y198.447 E5.84343
G1 X147.779 Y234.14 E7.09962
G1 X147.727 Y235.201 E7.13699
G1 X147.577 Y236.209 E7.17287
G1 X147.329 Y237.198 E7.20874
G1 X146.986 Y238.158 E7.24462
G1 X146.55 Y239.079 E7.2805
G1 X146.026 Y239.954 E7.31637
G1 X145.419 Y240.773 E7.35225
G1 X144.734 Y241.528 E7.38813
G1 X143.979 Y242.212 E7.424
G1 X143.16 Y242.82 E7.45988
G1 X142.286 Y243.344 E7.49575
G1 X141.364 Y243.78 E7.53163
G1 X140.404 Y244.123 E7.56751
G1 X139.416 Y244.371 E7.60339
G1 X138.407 Y244.52 E7.63926
G1 X137.347 Y244.572 E7.67663
G1 X127.599 Y244.572 E8.01969
G1 X126.645 Y246.465 E8.09427
G1 X128.083 Y248.411 E8.17946
G1 X128.752 Y249.277 E8.21798
G1 X129.46 Y250.146 E8.25742
G1 X129.008 Y250.81 E8.28567
G1 X128.478 Y251.503 E8.31639
G1 X128.171 Y251.101 E8.33421
G1 X127.841 Y250.613 E8.35493
G1 X127.003 Y249.28 E8.41035
G1 X124.166 Y244.572 E8.60379
G1 X116.1 Y244.572 E8.88767
G1 X114.521 Y245.939 E8.96116
G1 X113.925 Y246.49 E8.98972
G1 X112.93 Y247.497 E9.03956
G1 X112.211 Y248.385 E9.07977
G1 X111.962 Y248.289 E9.08914
G1 X112.034 Y247.628 E9.11252
G1 X112.127 Y247.197 E9.12804
G1 X112.948 Y244.572 E9.22484
G1 X91.653 Y244.572 E9.9743
G1 X90.593 Y244.52 E10.01167
G1 X89.584 Y244.371 E10.04754
G1 X88.596 Y244.123 E10.08342
G1 X87.636 Y243.78 E10.11929
G1 X86.714 Y243.344 E10.15517
G1 X85.84 Y242.82 E10.19105
G1 X85.021 Y242.212 E10.22692
G1 X84.266 Y241.528 E10.2628
G1 X83.581 Y240.773 E10.29868
G1 X82.974 Y239.954 E10.33455
G1 X82.45 Y239.079 E10.37043
G1 X82.014 Y238.158 E10.40631
G1 X81.671 Y237.198 E10.44218
G1 X81.423 Y236.209 E10.47806
G1 X81.273 Y235.201 E10.51394
G1 X81.221 Y234.14 E10.5513
G1 X81.221 Y198.447 E11.80749
G1 X81.273 Y197.386 E11.84486
G1 X81.423 Y196.378 E11.88074
G1 X81.671 Y195.389 E11.91661
G1 X82.014 Y194.429 E11.95249
G1 X82.45 Y193.508 E11.98837
G1 X82.974 Y192.634 E12.02424
G1 X83.581 Y191.815 E12.06012
G1 X84.266 Y191.059 E12.096
G1 X85.021 Y190.375 E12.13187
G1 X85.84 Y189.768 E12.16775
G1 X86.714 Y189.244 E12.20363
G1 X87.636 Y188.808 E12.2395
G1 X88.596 Y188.464 E12.27538
G1 X89.584 Y188.217 E12.31126
G1 X90.593 Y188.067 E12.34713
G1 X91.653 Y188.015 E12.3845
G1 X103.985 Y188.015 E12.81852
G1 X104.671 Y187.979 E12.84268
G1 X105.394 Y187.864 E12.86843
G1 X106.101 Y187.675 E12.89419
G1 X106.784 Y187.413 E12.91994
G1 X107.436 Y187.081 E12.94569
G1 X108.05 Y186.682 E12.97145
G1 X108.618 Y186.222 E12.9972
G1 X109.136 Y185.704 E13.02295
G1 X109.596 Y185.135 E13.04871
G1 X109.995 Y184.522 E13.07446
G1 X110.327 Y183.87 E13.10021
G1 X110.589 Y183.187 E13.12597
G1 X110.779 Y182.48 E13.15172
G1 X110.893 Y181.757 E13.17747
G1 X110.929 Y181.071 E13.20164
G1 X110.929 Y71.474 E17.0588
G1 X114.352 Y55.304 E17.6405
G92 E0
G1 E-0.5 F3000
G1 X114.352 Y53.097 F9000
G1 E0 F1800
G1 X114.648 Y53.097 E0.01043
G1 X118.528 Y71.426 E0.66981
G1 X118.528 Y181.059 E4.52823
G1 X118.562 Y181.709 E4.55113
G1 X118.669 Y182.385 E4.5752
G1 X118.846 Y183.045 E4.59926
G1 X119.091 Y183.684 E4.62333
G1 X119.402 Y184.293 E4.6474
G1 X119.774 Y184.866 E4.67147
G1 X120.204 Y185.398 E4.69553
G1 X120.688 Y185.881 E4.7196
G1 X121.219 Y186.312 E4.74367
G1 X121.793 Y186.684 E4.76774
G1 X122.402 Y186.995 E4.7918
G1 X123.041 Y187.24 E4.81587
G1 X123.701 Y187.417 E4.83994
G1 X124.377 Y187.524 E4.864
G1 X125.027 Y187.558 E4.8869
G1 X137.358 Y187.558 E5.3209
G1 X138.452 Y187.612 E5.35945
G1 X139.505 Y187.768 E5.3969
G1 X140.537 Y188.026 E5.43436
G1 X141.539 Y188.385 E5.47182
G1 X142.501 Y188.84 E5.50928
G1 X143.414 Y189.387 E5.54673
G1 X144.269 Y190.021 E5.58419
G1 X145.058 Y190.736 E5.62165
G1 X145.773 Y191.524 E5.6591
G1 X146.407 Y192.379 E5.69656
G1 X146.954 Y193.292 E5.73402
G1 X147.409 Y194.254 E5.77148
G1 X147.767 Y195.256 E5.80893
G1 X148.026 Y196.289 E5.84639
G1 X148.182 Y197.342 E5.88385
G1 X148.236 Y198.436 E5.9224
G1 X148.236 Y234.152 E7.17938
G1 X148.182 Y235.246 E7.21793
G1 X148.026 Y236.298 E7.25539
G1 X147.767 Y237.331 E7.29284
G1 X147.409 Y238.333 E7.3303
G1 X146.954 Y239.295 E7.36776
G1 X146.407 Y240.208 E7.40522
G1 X145.773 Y241.063 E7.44267
G1 X145.058 Y241.851 E7.48013
G1 X144.269 Y242.566 E7.51759
G1 X143.414 Y243.2 E7.55504
G1 X142.501 Y243.747 E7.5925
G1 X141.539 Y244.202 E7.62996
G1 X140.537 Y244.561 E7.66742
G1 X139.505 Y244.82 E7.70487
G1 X138.452 Y244.976 E7.74233
G1 X137.358 Y245.029 E7.78088
G1 X127.88 Y245.029 E8.11443
G1 X127.179 Y246.419 E8.16921
G1 X128.448 Y248.136 E8.24433
G1 X129.111 Y248.993 E8.28246
G1 X130.019 Y250.109 E8.33312
G1 X129.919 Y250.284 E8.3402
G1 X129.379 Y251.077 E8.37399
G1 X128.773 Y251.871 E8.40912
G1 X128.458 Y252.23 E8.42594
G1 X127.8 Y251.368 E8.4641
G1 X127.458 Y250.863 E8.48555
G1 X126.614 Y249.52 E8.54139
G1 X123.908 Y245.029 E8.7259
G1 X116.27 Y245.029 E8.99469
G1 X114.826 Y246.28 E9.06193
G1 X114.243 Y246.818 E9.08986
G1 X113.271 Y247.802 E9.13854
G1 X111.576 Y249.896 E9.23335
G1 X111.498 Y249.027 E9.26407
G1 X111.49 Y248.543 E9.28111
