; HEADER_BLOCK_START
; generated by OrcaSlicer 1.6.3 on 2023-06-30 at 12:48:36
; total layer number: 21
; HEADER_BLOCK_END

; THUMBNAIL_BLOCK_START
; THUMBNAIL_BLOCK_END

; external perimeters extrusion width = 0.40mm
; perimeters extrusion width = 0.45mm
; infill extrusion width = 0.45mm
; solid infill extrusion width = 0.40mm
; top infill extrusion width = 0.40mm
; first layer extrusion width = 0.50mm

; EXECUTABLE_BLOCK_START
EXCLUDE_OBJECT_DEFINE NAME=Untitled.stl_id_0_copy_0 CENTER=165.002,165 POLYGON=[[122.52,197.384],[122.68,180.43],[122.84,163.477],[149.571,100.611],[180.813,100.611],[207.484,163.095],[207.484,197.384],[180.813,229.389],[149.571,229.389],[122.52,197.384]]
M73 P0 R89
M73 C71
;TYPE:Custom
START_PRINT T_BED=60 T_EXTRUDER=220
G90
G21
M83 ; use relative distances for extrusion
; filament start gcode
PRESSURE_ADVANCE_SELECT FILAMENT=PLA
M106 S0
;LAYER_CHANGE
;Z:0.2
;HEIGHT:0.2
M204 S500
G1 E-.8 F3000
G1 Z.4 F9000
G1 X147.31 Y99.65
G1 Z.2
G1 E.8 F1800
;TYPE:Skirt
;WIDTH:0.5
G1 F900
G1 X148.191 Y98.578 E.05169
G1 X149.571 Y98.154 E.05376
G1 X180.813 Y98.154 E1.16365
G1 X182.144 Y98.546 E.05169
G1 X183.073 Y99.646 E.05364
G1 X209.744 Y162.131 E2.53045
G1 X209.941 Y163.095 E.03667
G1 X209.941 Y197.384 E1.27711
G1 X209.371 Y198.957 E.06231
G1 X182.701 Y230.962 E1.55172
G1 X181.547 Y231.734 E.05169
G1 X180.813 Y231.846 E.02767
G1 X149.571 Y231.846 E1.16365
M73 P0 R88
G1 X148.24 Y231.454 E.05169
G1 X147.694 Y230.975 E.02704
G1 X120.644 Y198.97 E1.56082
M73 C70
G1 X120.063 Y197.361 E.06372
G1 X120.383 Y163.453 E1.26297
G1 X120.579 Y162.515 E.0357
G1 X147.286 Y99.705 E2.54215
; printing object Untitled.stl id:0 copy 0
EXCLUDE_OBJECT_START NAME=Untitled.stl_id_0_copy_0
G1 E-.8 F3000
G1 Z.6 F9000
G1 X180.625 Y164.23 Z.2
G1 E.8 F1800
;TYPE:Inner wall
;WIDTH:0.499999
G1 F900
G1 X180.792 Y164.26 E.00631
G1 X206.32 Y164.26 E.95082
G1 X206.32 Y196.22 E1.19039
G1 X180.792 Y196.22 E.95082
G1 X180.587 Y196.238 E.00766
G1 X180.209 Y196.379 E.01501
G1 X179.899 Y196.649 E.01534
G1 X179.713 Y196.986 E.0143
G1 X179.649 Y197.362 E.01423
G1 X179.649 Y228.225 E1.14951
G1 X150.735 Y228.225 E1.07693
G1 X150.735 Y197.362 E1.14951
G1 X150.722 Y197.193 E.00632
G1 X150.594 Y196.813 E.01496
G1 X150.34 Y196.498 E.01508
G1 X149.992 Y196.292 E.01506
G1 X149.592 Y196.22 E.01511
G1 X123.696 Y196.22 E.96455
G1 X123.993 Y164.623 E1.17691
G1 X149.692 Y164.219 E.95729
G1 X150.072 Y164.118 E.01464
G1 X150.4 Y163.889 E.01492
G1 X150.634 Y163.551 E.01531
G1 X150.731 Y163.182 E.01421
G1 X150.735 Y101.775 E2.28717
G1 X179.649 Y101.775 E1.07693
G1 X179.649 Y163.081 E2.28341
M73 P1 R88
G1 X179.661 Y163.286 E.00764
G1 X179.789 Y163.666 E.01494
G1 X180.044 Y163.981 E.01508
G1 X180.4 Y164.19 E.01541
G1 X180.566 Y164.22 E.00626
G1 X180.694 Y163.779 F9000
G1 F900
G1 X180.792 Y163.802 E.00373
G1 X206.777 Y163.802 E.96784
G1 X206.777 Y196.677 E1.22444
G1 X180.792 Y196.677 E.96784
G1 X180.639 Y196.694 E.00571
G1 X180.372 Y196.82 E.01102
G1 X180.178 Y197.056 E.01137
G1 X180.106 Y197.362 E.01171
G1 X180.106 Y228.682 E1.16653
G1 X150.278 Y228.682 E1.11098
G1 X150.278 Y197.362 E1.16653
G1 X150.265 Y197.228 E.00502
G1 X150.141 Y196.952 E.01128
G1 X149.902 Y196.751 E.01162
G1 X149.592 Y196.677 E.01187
G1 X123.234 Y196.677 E.98174
G1 X123.54 Y164.173 E1.2107
G1 X149.664 Y163.763 E.97312
G1 X149.962 Y163.658 E.01178
G1 X150.18 Y163.434 E.01164
G1 X150.275 Y163.142 E.01146
G1 X150.278 Y101.318 E2.30269
M73 P1 R87
G1 X180.106 Y101.318 E1.11098
G1 X180.106 Y163.081 E2.30043
M73 C69
G1 X180.119 Y163.251 E.00634
G1 X180.242 Y163.527 E.01127
G1 X180.484 Y163.73 E.01176
G1 X180.636 Y163.766 E.0058
G1 X180.792 Y163.345 F9000
;TYPE:Outer wall
G1 F900
G1 X207.234 Y163.345 E.98487
G1 X207.234 Y197.134 E1.25849
G1 X180.792 Y197.134 E.98487
G1 X180.634 Y197.197 E.00633
G1 X180.563 Y197.362 E.0067
G1 X180.563 Y229.139 E1.18356
G1 X149.821 Y229.139 E1.14503
G1 X149.821 Y197.362 E1.18356
G1 X149.758 Y197.205 E.0063
G1 X149.596 Y197.134 E.0066
G1 X122.773 Y197.134 E.99906
G1 X123.088 Y163.723 E1.24449
G1 X149.596 Y163.31 E.98745
G1 X149.737 Y163.258 E.00561
G1 X149.82 Y163.101 E.0066
G1 X149.821 Y100.861 E2.31821
G1 X180.563 Y100.861 E1.14503
M73 P2 R87
G1 X180.563 Y163.117 E2.31879
G1 X180.626 Y163.274 E.0063
G1 X180.736 Y163.322 E.0045
G1 X180.812 Y163.423
G1 E-.8 F3000
G1 Z.6 F9000
G1 X179.503 Y102.848 Z.2
G1 E.8 F1800
;TYPE:Bottom surface
;WIDTH:0.501119
G1 F1200
G1 X178.782 Y102.127 E.03805
G1 X178.134 Y102.127 E.02419
G1 X179.297 Y103.29 E.06141
G1 X179.297 Y103.938 E.02419
G1 X177.486 Y102.127 E.09562
G1 X176.838 Y102.127 E.02419
G1 X179.297 Y104.586 E.12984
G1 X179.297 Y105.234 E.02419
G1 X176.19 Y102.127 E.16406
G1 X175.542 Y102.127 E.02419
G1 X179.297 Y105.882 E.19827
G1 X179.297 Y106.53 E.02419
G1 X174.894 Y102.127 E.23249
G1 X174.246 Y102.127 E.02419
G1 X179.297 Y107.178 E.2667
G1 X179.297 Y107.826 E.02419
G1 X173.598 Y102.127 E.30092
G1 X172.95 Y102.127 E.02419
G1 X179.297 Y108.474 E.33514
G1 X179.297 Y109.122 E.02419
G1 X172.302 Y102.127 E.36935
G1 X171.654 Y102.127 E.02419
G1 X179.297 Y109.77 E.40357
G1 X179.297 Y110.418 E.02419
G1 X171.006 Y102.127 E.43778
G1 X170.358 Y102.127 E.02419
G1 X179.297 Y111.066 E.472
G1 X179.297 Y111.714 E.02419
G1 X169.71 Y102.127 E.50622
G1 X169.062 Y102.127 E.02419
G1 X179.297 Y112.362 E.54043
G1 X179.297 Y113.01 E.02419
G1 X168.414 Y102.127 E.57465
G1 X167.766 Y102.127 E.02419
G1 X179.297 Y113.658 E.60886
G1 X179.297 Y114.306 E.02419
G1 X167.118 Y102.127 E.64308
G1 X166.47 Y102.127 E.02419
G1 X179.297 Y114.954 E.6773
G1 X179.297 Y115.602 E.02419
G1 X165.822 Y102.127 E.71151
G1 X165.174 Y102.127 E.02419
G1 X179.297 Y116.25 E.74573
G1 X179.297 Y116.898 E.02419
G1 X164.526 Y102.127 E.77994
G1 X163.878 Y102.127 E.02419
G1 X179.297 Y117.546 E.81416
G1 X179.297 Y118.194 E.02419
G1 X163.23 Y102.127 E.84837
G1 X162.582 Y102.127 E.02419
G1 X179.297 Y118.842 E.88259
G1 X179.297 Y119.49 E.02419
G1 X161.934 Y102.127 E.91681
G1 X161.286 Y102.127 E.02419
G1 X179.297 Y120.138 E.95102
G1 X179.297 Y120.786 E.02419
G1 X160.638 Y102.127 E.98524
G1 X159.99 Y102.127 E.02419
G1 X179.297 Y121.434 E1.01945
M73 P2 R86
G1 X179.297 Y122.082 E.02419
G1 X159.342 Y102.127 E1.05367
G1 X158.694 Y102.127 E.02419
G1 X179.297 Y122.73 E1.08789
G1 X179.297 Y123.378 E.02419
G1 X158.046 Y102.127 E1.1221
M73 C68
G1 X157.398 Y102.127 E.02419
G1 X179.297 Y124.026 E1.15632
G1 X179.297 Y124.674 E.02419
G1 X156.75 Y102.127 E1.19053
G1 X156.102 Y102.127 E.02419
G1 X179.297 Y125.322 E1.22475
G1 X179.297 Y125.97 E.02419
G1 X155.454 Y102.127 E1.25897
G1 X154.806 Y102.127 E.02419
G1 X179.297 Y126.618 E1.29318
G1 X179.297 Y127.266 E.02419
G1 X154.158 Y102.127 E1.3274
G1 X153.51 Y102.127 E.02419
G1 X179.297 Y127.914 E1.36161
G1 X179.297 Y128.562 E.02419
G1 X152.862 Y102.127 E1.39583
G1 X152.214 Y102.127 E.02419
G1 X179.297 Y129.21 E1.43005
G1 X179.297 Y129.858 E.02419
G1 X151.566 Y102.127 E1.46426
G1 X151.087 Y102.127 E.0179
G1 X151.087 Y102.296 E.0063
G1 X179.297 Y130.506 E1.48957
G1 X179.297 Y131.154 E.02419
G1 X151.087 Y102.944 E1.48957
M73 P3 R86
G1 X151.087 Y103.592 E.02419
G1 X179.297 Y131.802 E1.48957
G1 X179.297 Y132.45 E.02419
G1 X151.087 Y104.24 E1.48957
G1 X151.087 Y104.888 E.02419
G1 X179.297 Y133.098 E1.48957
G1 X179.297 Y133.746 E.02419
G1 X151.087 Y105.536 E1.48957
G1 X151.087 Y106.184 E.02419
G1 X179.297 Y134.394 E1.48957
G1 X179.297 Y135.042 E.02419
G1 X151.087 Y106.832 E1.48957
G1 X151.087 Y107.48 E.02419
G1 X179.297 Y135.69 E1.48957
G1 X179.297 Y136.338 E.02419
G1 X151.087 Y108.128 E1.48957
G1 X151.087 Y108.776 E.02419
G1 X179.297 Y136.986 E1.48957
G1 X179.297 Y137.634 E.02419
G1 X151.087 Y109.424 E1.48957
G1 X151.087 Y110.072 E.02419
G1 X179.297 Y138.282 E1.48957
G1 X179.297 Y138.93 E.02419
G1 X151.087 Y110.72 E1.48957
G1 X151.087 Y111.368 E.02419
G1 X179.297 Y139.578 E1.48957
G1 X179.297 Y140.226 E.02419
G1 X151.087 Y112.016 E1.48957
G1 X151.087 Y112.664 E.02419
G1 X179.297 Y140.874 E1.48957
G1 X179.297 Y141.522 E.02419
G1 X151.087 Y113.312 E1.48957
G1 X151.087 Y113.96 E.02419
M73 P3 R85
G1 X179.297 Y142.17 E1.48957
G1 X179.297 Y142.818 E.02419
G1 X151.087 Y114.608 E1.48957
G1 X151.087 Y115.256 E.02419
G1 X179.297 Y143.466 E1.48957
M73 C67
G1 X179.297 Y144.114 E.02419
G1 X151.087 Y115.904 E1.48957
G1 X151.087 Y116.552 E.02419
G1 X179.297 Y144.762 E1.48957
G1 X179.297 Y145.409 E.02419
G1 X151.087 Y117.2 E1.48957
G1 X151.087 Y117.848 E.02419
G1 X179.297 Y146.057 E1.48957
G1 X179.297 Y146.705 E.02419
G1 X151.087 Y118.495 E1.48957
G1 X151.087 Y119.143 E.02419
G1 X179.297 Y147.353 E1.48957
G1 X179.297 Y148.001 E.02419
G1 X151.087 Y119.791 E1.48957
M73 P4 R85
G1 X151.087 Y120.439 E.02419
G1 X179.297 Y148.649 E1.48957
G1 X179.297 Y149.297 E.02419
G1 X151.087 Y121.087 E1.48957
G1 X151.087 Y121.735 E.02419
G1 X179.297 Y149.945 E1.48957
G1 X179.297 Y150.593 E.02419
G1 X151.087 Y122.383 E1.48957
G1 X151.087 Y123.031 E.02419
G1 X179.297 Y151.241 E1.48957
G1 X179.297 Y151.889 E.02419
G1 X151.087 Y123.679 E1.48957
G1 X151.087 Y124.327 E.02419
G1 X179.297 Y152.537 E1.48957
G1 X179.297 Y153.185 E.02419
G1 X151.087 Y124.975 E1.48957
G1 X151.087 Y125.623 E.02419
G1 X179.297 Y153.833 E1.48957
G1 X179.297 Y154.481 E.02419
G1 X151.087 Y126.271 E1.48957
G1 X151.087 Y126.919 E.02419
G1 X179.297 Y155.129 E1.48957
G1 X179.297 Y155.777 E.02419
G1 X151.087 Y127.567 E1.48957
G1 X151.087 Y128.215 E.02419
G1 X179.297 Y156.425 E1.48957
G1 X179.297 Y157.073 E.02419
G1 X151.087 Y128.863 E1.48957
G1 X151.087 Y129.511 E.02419
G1 X179.297 Y157.721 E1.48957
G1 X179.297 Y158.369 E.02419
G1 X151.087 Y130.159 E1.48957
G1 X151.087 Y130.807 E.02419
G1 X179.297 Y159.017 E1.48957
G1 X179.297 Y159.665 E.02419
G1 X151.087 Y131.455 E1.48957
G1 X151.087 Y132.103 E.02419
G1 X179.297 Y160.313 E1.48957
G1 X179.297 Y160.961 E.02419
G1 X151.087 Y132.751 E1.48957
M73 P4 R84
G1 X151.087 Y133.399 E.02419
G1 X179.297 Y161.609 E1.48957
G1 X179.297 Y162.257 E.02419
G1 X151.087 Y134.047 E1.48957
M73 C66
G1 X151.087 Y134.695 E.02419
G1 X179.503 Y163.111 E1.50044
G1 E-.8 F3000
G1 Z.6 F9000
G1 X205.421 Y164.406 Z.2
G1 E.8 F1800
G1 F1200
G1 X205.968 Y164.952 E.02886
G1 X205.968 Y165.6 E.02419
G1 X204.979 Y164.611 E.05221
G1 X204.331 Y164.611 E.0242
G1 X205.968 Y166.248 E.08643
G1 X205.968 Y166.896 E.02419
G1 X203.683 Y164.611 E.12065
G1 X203.035 Y164.611 E.0242
G1 X205.968 Y167.544 E.15487
G1 X205.968 Y168.192 E.02419
G1 X202.387 Y164.611 E.18908
G1 X201.739 Y164.611 E.0242
G1 X205.968 Y168.84 E.2233
G1 X205.968 Y169.488 E.02419
G1 X201.091 Y164.611 E.25752
G1 X200.443 Y164.611 E.0242
G1 X205.968 Y170.136 E.29174
G1 X205.968 Y170.784 E.02419
G1 X199.795 Y164.611 E.32596
G1 X199.147 Y164.611 E.0242
G1 X205.968 Y171.432 E.36017
G1 X205.968 Y172.08 E.02419
G1 X198.499 Y164.611 E.39439
G1 X197.85 Y164.611 E.0242
G1 X205.968 Y172.728 E.42861
G1 X205.968 Y173.376 E.02419
G1 X197.202 Y164.611 E.46283
M73 P5 R84
G1 X196.554 Y164.611 E.0242
G1 X205.968 Y174.024 E.49705
G1 X205.968 Y174.672 E.02419
G1 X195.906 Y164.611 E.53126
G1 X195.258 Y164.611 E.0242
G1 X205.968 Y175.32 E.56548
G1 X205.968 Y175.968 E.02419
G1 X194.61 Y164.611 E.5997
G1 X193.962 Y164.611 E.0242
G1 X205.968 Y176.616 E.63392
G1 X205.968 Y177.264 E.02419
G1 X193.314 Y164.611 E.66813
G1 X192.666 Y164.611 E.0242
G1 X205.968 Y177.912 E.70235
G1 X205.968 Y178.56 E.02419
G1 X192.018 Y164.611 E.73657
G1 X191.37 Y164.611 E.0242
G1 X205.968 Y179.208 E.77079
G1 X205.968 Y179.856 E.02419
G1 X190.722 Y164.611 E.80501
G1 X190.074 Y164.611 E.0242
G1 X205.968 Y180.504 E.83922
G1 X205.968 Y181.152 E.02419
G1 X189.426 Y164.611 E.87344
G1 X188.778 Y164.611 E.0242
G1 X205.968 Y181.8 E.90766
G1 X205.968 Y182.448 E.02419
G1 X188.13 Y164.61 E.94188
G1 X187.482 Y164.61 E.0242
G1 X205.968 Y183.096 E.9761
G1 X205.968 Y183.744 E.02419
G1 X186.834 Y164.61 E1.01031
G1 X186.186 Y164.61 E.0242
G1 X205.968 Y184.392 E1.04453
G1 X205.968 Y185.04 E.02419
G1 X185.538 Y164.61 E1.07875
G1 X184.89 Y164.61 E.0242
G1 X205.968 Y185.688 E1.11297
G1 X205.968 Y186.336 E.02419
G1 X184.242 Y164.61 E1.14718
G1 X183.594 Y164.61 E.0242
G1 X205.968 Y186.984 E1.1814
G1 X205.968 Y187.632 E.02419
G1 X182.946 Y164.61 E1.21562
G1 X182.298 Y164.61 E.0242
G1 X205.968 Y188.28 E1.24984
G1 X205.968 Y188.928 E.02419
G1 X181.65 Y164.61 E1.28406
G1 X181.002 Y164.61 E.0242
G1 X205.968 Y189.576 E1.31827
G1 X205.968 Y190.224 E.02419
G1 X151.087 Y135.343 E2.89787
G1 X151.087 Y135.991 E.02419
G1 X205.968 Y190.872 E2.89787
G1 X205.968 Y191.52 E.02419
G1 X151.087 Y136.639 E2.89787
G1 X151.087 Y137.287 E.02419
G1 X205.968 Y192.168 E2.89787
M73 P5 R83
G1 X205.968 Y192.816 E.02419
G1 X151.087 Y137.935 E2.89787
M73 C65
G1 X151.087 Y138.583 E.02419
G1 X205.968 Y193.464 E2.89787
M73 P6 R83
G1 X205.968 Y194.112 E.02419
G1 X151.087 Y139.231 E2.89787
G1 X151.087 Y139.879 E.02419
G1 X205.968 Y194.76 E2.89787
G1 X205.968 Y195.408 E.02419
G1 X151.087 Y140.527 E2.89787
G1 X151.087 Y141.175 E.02419
G1 X205.779 Y195.868 E2.88793
G1 X205.131 Y195.868 E.02419
G1 X151.087 Y141.823 E2.85372
G1 X151.087 Y142.471 E.02419
G1 X204.484 Y195.868 E2.8195
G1 X203.836 Y195.868 E.02419
G1 X151.087 Y143.119 E2.78529
G1 X151.087 Y143.767 E.02419
G1 X203.188 Y195.868 E2.75107
G1 X202.54 Y195.868 E.02419
G1 X151.087 Y144.415 E2.71685
G1 X151.087 Y145.063 E.02419
G1 X201.892 Y195.868 E2.68264
G1 X201.244 Y195.868 E.02419
G1 X151.087 Y145.711 E2.64842
G1 X151.087 Y146.359 E.02419
G1 X200.596 Y195.868 E2.61421
G1 X199.948 Y195.868 E.02419
G1 X151.087 Y147.007 E2.57999
G1 X151.087 Y147.655 E.02419
G1 X199.3 Y195.868 E2.54577
M73 P7 R82
G1 X198.652 Y195.868 E.02419
G1 X151.087 Y148.303 E2.51156
M73 C64
G1 X151.087 Y148.951 E.02419
G1 X198.004 Y195.868 E2.47734
G1 X197.356 Y195.868 E.02419
G1 X151.087 Y149.599 E2.44313
G1 X151.087 Y150.247 E.02419
G1 X196.708 Y195.868 E2.40891
G1 X196.06 Y195.868 E.02419
G1 X151.087 Y150.895 E2.37469
G1 X151.087 Y151.543 E.02419
G1 X195.412 Y195.868 E2.34048
G1 X194.764 Y195.868 E.02419
G1 X151.087 Y152.191 E2.30626
G1 X151.087 Y152.839 E.02419
G1 X194.116 Y195.868 E2.27205
G1 X193.468 Y195.868 E.02419
G1 X151.087 Y153.487 E2.23783
G1 X151.087 Y154.135 E.02419
G1 X192.82 Y195.868 E2.20361
G1 X192.172 Y195.868 E.02419
G1 X151.087 Y154.783 E2.1694
G1 X151.087 Y155.431 E.02419
G1 X191.524 Y195.868 E2.13518
G1 X190.876 Y195.868 E.02419
G1 X151.087 Y156.079 E2.10097
G1 X151.087 Y156.727 E.02419
G1 X190.228 Y195.868 E2.06675
G1 X189.58 Y195.868 E.02419
G1 X151.087 Y157.375 E2.03253
G1 X151.087 Y158.023 E.02419
G1 X188.932 Y195.868 E1.99832
G1 X188.284 Y195.868 E.02419
G1 X151.087 Y158.671 E1.9641
G1 X151.087 Y159.319 E.02419
G1 X187.636 Y195.868 E1.92989
M73 P8 R82
G1 X186.988 Y195.868 E.02419
G1 X151.087 Y159.967 E1.89567
G1 X151.087 Y160.615 E.02419
G1 X186.34 Y195.868 E1.86146
M73 P8 R81
G1 X185.692 Y195.868 E.02419
G1 X151.087 Y161.263 E1.82724
G1 X151.087 Y161.911 E.02419
G1 X185.044 Y195.868 E1.79302
M73 C63
G1 X184.396 Y195.868 E.02419
G1 X151.087 Y162.559 E1.75881
G1 X151.078 Y163.198 E.02388
G1 X183.748 Y195.868 E1.72504
G1 X183.1 Y195.868 E.02419
G1 X150.944 Y163.712 E1.69791
G1 X150.817 Y163.939 E.00971
G1 X150.685 Y164.1 E.00779
G1 X182.452 Y195.868 E1.67741
G1 X181.804 Y195.868 E.02419
G1 X150.322 Y164.385 E1.66236
G1 X150.114 Y164.482 E.00854
G1 X149.841 Y164.553 E.01053
G1 X181.156 Y195.868 E1.65351
G1 X180.785 Y195.868 E.01386
G1 X180.536 Y195.896 E.00935
G1 X149.22 Y164.58 E1.65355
G1 X148.582 Y164.59 E.02382
G1 X180.061 Y196.068 E1.66214
G1 X179.877 Y196.18 E.00803
G1 X179.696 Y196.352 E.00932
G1 X147.944 Y164.6 E1.67659
G1 X147.306 Y164.61 E.02382
G1 X179.437 Y196.741 E1.69661
G1 X179.38 Y196.87 E.00527
G1 X179.313 Y197.14 E.01038
G1 X179.305 Y197.256 E.00436
G1 X146.668 Y164.62 E1.72328
G1 X146.03 Y164.63 E.02382
G1 X179.297 Y197.897 E1.75658
G1 X179.297 Y198.545 E.02419
G1 X145.392 Y164.64 E1.79026
G1 X144.754 Y164.65 E.02382
G1 X179.297 Y199.193 E1.82395
G1 X179.297 Y199.841 E.02419
G1 X144.116 Y164.66 E1.85764
G1 X143.478 Y164.67 E.02382
G1 X179.297 Y200.489 E1.89133
G1 X179.297 Y201.137 E.02419
G1 X142.84 Y164.68 E1.92502
G1 X142.202 Y164.69 E.02382
G1 X179.297 Y201.785 E1.95871
M73 P9 R81
