; generated by SuperSlicer 2.5.59 on 2023-06-30 at 21:08:50 UTC


;
;

;
;
; 

; external perimeters extrusion width = 0.40mm
; perimeters extrusion width = 0.46mm
; infill extrusion width = 0.64mm
; solid infill extrusion width = 0.56mm
; top infill extrusion width = 0.40mm
; support material extrusion width = 0.46mm
; first layer extrusion width = 0.50mm

; object:{"name":"Untitled","id":"Untitled.stl id:0 copy 0","object_center":[152.502471,149.999996,0.000000],"boundingbox_center":[152.502471,149.999996,2.070000],"boundingbox_size":[84.963303,128.778003,4.138926]}
EXCLUDE_OBJECT_DEFINE NAME=Untitled_stl_id_0_copy_0 CENTER=152.502471,149.999996 POLYGON=[[110.020824,182.383792],[110.180424,165.430176],[110.340320,148.476560],[137.071296,85.611000],[168.313456,85.611000],[194.984128,148.095360],[194.984128,182.383792],[168.313456,214.389008],[137.071296,214.389008],[110.020824,182.383792]]
; plater:{"center":[152.502471,149.999996,0.000000],"boundingbox_center":[152.502471,149.999996,2.070000],"boundingbox_size":[84.963303,128.778003,4.138926]}

M73 P0 R53
M73 P0 R53
;TYPE:Custom
START_PRINT T_BED=60 T_EXTRUDER=210
M107
G21 ; set units to millimeters
G90 ; use absolute coordinates
M82 ; use absolute distances for extrusion
G92 E0
; Filament gcode

    PRESSURE_ADVANCE_SELECT FILAMENT=PLA
;_TOOLCHANGE 0
M109 S210 ; set temperature and wait for it to be reached
M190 S60 ; set bed temperature and wait for it to be reached
M107
;LAYER_CHANGE
;Z:0.2
;HEIGHT:0.2
G1 Z0.2 F9000
M73 P0 R53
G1 E-0.8 F2400
M204 S1000
G1 X133.752 Y84.257 F9000
G1 E0 F1800
;TYPE:Skirt
;WIDTH:0.52
G1 X107.02 Y147.121 E2.70988
G1 X106.724 Y148.54 E2.76738
G1 X106.406 Y182.249 E4.10464
G1 X106.51 Y183.155 E4.14082
G1 X107.284 Y184.682 E4.20875
G1 X134.333 Y216.687 E5.87108
G1 X135.505 Y217.61 E5.93024
G1 X137.171 Y218.005 E5.99817
G1 X168.213 Y218.005 E7.22959
G1 X169.698 Y217.695 E7.28975
G1 X171.068 Y216.668 E7.35768
G1 X197.739 Y184.662 E9.01035
G1 X198.6 Y182.284 E9.1107
G1 X198.6 Y148.195 E10.46297
G1 X198.301 Y146.737 E10.52203
G1 X171.631 Y84.252 E13.2171
M73 P0 R53
G1 X171.192 Y83.49 E13.25199
G1 X169.88 Y82.39 E13.31992
G1 X168.213 Y81.995 E13.38785
G1 X137.171 Y81.995 E14.61927
G1 X136.293 Y82.101 E14.65436
G1 X134.767 Y82.878 E14.72229
G1 X133.752 Y84.257 E14.79022
G1 X134.191 Y84.444 F9000
G1 F1800
G1 X107.459 Y147.308 E17.5001
G1 X107.201 Y148.545 E17.55022
G1 X106.883 Y182.253 E18.88749
G1 X107.648 Y184.374 E18.97693
G1 X134.698 Y216.379 E20.63926
G1 X135.623 Y217.134 E20.68663
G1 X137.171 Y217.528 E20.74999
G1 X168.213 Y217.528 E21.98141
G1 X169.408 Y217.299 E22.02965
G1 X170.701 Y216.362 E22.09301
G1 X197.372 Y184.357 E23.74568
G1 X198.123 Y182.284 E23.83315
G1 X198.123 Y148.195 E25.18542
G1 X197.863 Y146.924 E25.23689
G1 X171.192 Y84.44 E27.93196
G1 X169.761 Y82.866 E28.01632
G1 X168.213 Y82.472 E28.07968
G1 X137.171 Y82.472 E29.3111
G1 X135.159 Y83.173 E29.39563
G1 X134.191 Y84.444 E29.45899
G92 E0
G1 E-0.8 F2400
; printing object Untitled.stl id:0 copy 0
EXCLUDE_OBJECT_START NAME=Untitled_stl_id_0_copy_0
G1 X167.963 Y148.445 F9000
G1 E0 F1800
;TYPE:External perimeter
;WIDTH:0.5
G1 X194.634 Y148.445 E1.01365
M73 P1 R53
G1 X194.634 Y182.034 E2.29023
G1 X167.963 Y182.034 E3.30388
G1 X167.963 Y214.039 E4.52028
G1 X137.421 Y214.039 E5.68108
G1 X137.421 Y182.034 E6.89748
G1 X110.374 Y182.034 E7.92544
G1 X110.687 Y148.821 E9.18778
G1 X137.421 Y148.405 E10.20398
G1 X137.421 Y85.961 E12.57723
G1 X167.963 Y85.961 E13.73802
G1 X167.963 Y148.445 E16.11282
;WIPE_START
M204 S3000
G1 X167.963 Y148.845 F9000
;WIPE_END
M204 S1000
G1 X167.506 Y148.445
;TYPE:Internal perimeter
G1 F1800
G1 X167.506 Y148.902 E16.1302
G1 X194.177 Y148.902 E17.14385
G1 X194.177 Y181.577 E18.38568
G1 X167.506 Y181.577 E19.39933
G1 X167.506 Y213.582 E20.61573
M73 P1 R52
G1 X137.878 Y213.582 E21.74178
G1 X137.878 Y181.577 E22.95818
G1 X110.836 Y181.577 E23.98598
G1 X111.14 Y149.271 E25.21385
G1 X137.878 Y148.855 E26.2302
G1 X137.878 Y86.418 E28.60318
G1 X167.506 Y86.418 E29.72923
G1 X167.506 Y148.445 E32.08666
G1 X167.049 Y148.445 F9000
G1 F1800
G1 X167.049 Y149.36 E32.12141
G1 X193.72 Y149.36 E33.13506
G1 X193.72 Y181.12 E34.34215
G1 X167.049 Y181.12 E35.3558
G1 X167.049 Y213.125 E36.5722
G1 X138.335 Y213.125 E37.66351
G1 X138.335 Y181.12 E38.87991
G1 X111.297 Y181.12 E39.90754
G1 X111.593 Y149.721 E41.10093
G1 X138.335 Y149.305 E42.11744
G1 X138.335 Y86.875 E44.49016
G1 X167.049 Y86.875 E45.58146
G1 X167.049 Y148.445 E47.92152
G92 E0
G1 E-0.8 F2400
G1 X166.981 Y87.868 F9000
G1 E0 F1800
;TYPE:Solid infill
;WIDTH:0.497955
G1 F2400
G1 X166.057 Y86.944 E0.04946
G1 X165.41 Y86.944 F9000
G1 F2400
G1 X166.981 Y88.514 E0.13352
G1 X166.981 Y89.16 F9000
G1 F2400
G1 X164.764 Y86.944 E0.25218
G1 X164.118 Y86.944 F9000
G1 F2400
G1 X166.981 Y89.807 E0.40545
G1 X166.981 Y90.453 F9000
G1 F2400
G1 X163.471 Y86.944 E0.59331
G1 X162.825 Y86.944 F9000
G1 F2400
G1 X166.981 Y91.1 E0.81578
G1 X166.981 Y91.746 F9000
G1 F2400
G1 X162.178 Y86.944 E1.07285
G1 X161.532 Y86.944 F9000
G1 F2400
G1 X166.981 Y92.393 E1.36452
G1 X166.981 Y93.039 F9000
G1 F2400
G1 X160.886 Y86.944 E1.6908
G1 X160.239 Y86.944 F9000
G1 F2400
G1 X166.981 Y93.685 E2.05167
G1 X166.981 Y94.332 F9000
G1 F2400
G1 X159.593 Y86.944 E2.44715
G1 X158.946 Y86.944 F9000
G1 F2400
G1 X166.981 Y94.978 E2.87723
G1 X166.981 Y95.625 F9000
G1 F2400
G1 X158.3 Y86.944 E3.34191
G1 X157.653 Y86.944 F9000
G1 F2400
G1 X166.981 Y96.271 E3.84119
G1 X166.981 Y96.917 F9000
G1 F2400
G1 X157.007 Y86.944 E4.37507
G1 X156.361 Y86.944 F9000
G1 F2400
G1 X166.981 Y97.564 E4.94356
G1 X166.981 Y98.21 F9000
G1 F2400
G1 X155.714 Y86.944 E5.54664
G1 X155.068 Y86.944 F9000
G1 F2400
G1 X166.981 Y98.857 E6.18433
G1 X166.981 Y99.503 F9000
G1 F2400
G1 X154.421 Y86.944 E6.85662
G1 X153.775 Y86.944 F9000
G1 F2400
G1 X166.981 Y100.149 E7.56351
G1 X166.981 Y100.796 F9000
G1 F2400
G1 X153.129 Y86.944 E8.305
M73 P2 R52
G1 X152.482 Y86.944 F9000
G1 F2400
G1 X166.981 Y101.442 E9.0811
G1 X166.981 Y102.089 F9000
G1 F2400
G1 X151.836 Y86.944 E9.8918
G1 X151.189 Y86.944 F9000
G1 F2400
G1 X166.981 Y102.735 E10.73709
G1 X166.981 Y103.381 F9000
G1 F2400
G1 X150.543 Y86.944 E11.61699
G1 X149.897 Y86.944 F9000
G1 F2400
G1 X166.981 Y104.028 E12.5315
G1 X166.981 Y104.674 F9000
G1 F2400
G1 X149.25 Y86.944 E13.4806
G1 X148.604 Y86.944 F9000
G1 F2400
G1 X166.981 Y105.321 E14.4643
G1 X166.981 Y105.967 F9000
G1 F2400
G1 X147.957 Y86.944 E15.48261
G1 X147.311 Y86.944 F9000
G1 F2400
G1 X166.981 Y106.613 E16.53552
G1 X166.981 Y107.26 F9000
G1 F2400
G1 X146.665 Y86.944 E17.62303
G1 X146.018 Y86.944 F9000
G1 F2400
G1 X166.981 Y107.906 E18.74514
G1 X166.981 Y108.553 F9000
G1 F2400
G1 X145.372 Y86.944 E19.90185
G1 X144.725 Y86.944 F9000
G1 F2400
G1 X166.981 Y109.199 E21.09317
G1 X166.981 Y109.846 F9000
G1 F2400
G1 X144.079 Y86.944 E22.31909
M73 P3 R52
G1 X143.433 Y86.944 F9000
G1 F2400
G1 X166.981 Y110.492 E23.5796
G1 X166.981 Y111.138 F9000
G1 F2400
G1 X142.786 Y86.944 E24.87472
G1 X142.14 Y86.944 F9000
G1 F2400
G1 X166.981 Y111.785 E26.20445
G1 X166.981 Y112.431 F9000
G1 F2400
G1 X141.493 Y86.944 E27.56877
G1 X140.847 Y86.944 F9000
G1 F2400
G1 X166.981 Y113.078 E28.9677
G1 X166.981 Y113.724 F9000
G1 F2400
G1 X140.2 Y86.944 E30.40122
G1 X139.554 Y86.944 F9000
G1 F2400
G1 X166.981 Y114.37 E31.86935
G1 X166.981 Y115.017 F9000
G1 F2400
G1 X138.908 Y86.944 E33.37208
G1 X138.404 Y87.086 F9000
G1 F2400
G1 X166.981 Y115.663 E34.90177
G1 X166.981 Y116.31 F9000
G1 F2400
G1 X138.404 Y87.733 E36.43147
G1 X138.404 Y88.379 F9000
G1 F2400
G1 X166.981 Y116.956 E37.96116
G1 X166.981 Y117.602 F9000
G1 F2400
G1 X138.404 Y89.026 E39.49085
G1 X138.404 Y89.672 F9000
G1 F2400
G1 X166.981 Y118.249 E41.02055
G1 X166.981 Y118.895 F9000
G1 F2400
G1 X138.404 Y90.318 E42.55024
G1 X138.404 Y90.965 F9000
G1 F2400
G1 X166.981 Y119.542 E44.07993
G1 X166.981 Y120.188 F9000
G1 F2400
G1 X138.404 Y91.611 E45.60963
G1 X138.404 Y92.258 F9000
G1 F2400
G1 X166.981 Y120.834 E47.13932
G1 X166.981 Y121.481 F9000
G1 F2400
G1 X138.404 Y92.904 E48.66901
G1 X138.404 Y93.55 F9000
G1 F2400
G1 X166.981 Y122.127 E50.1987
G1 X166.981 Y122.774 F9000
G1 F2400
G1 X138.404 Y94.197 E51.7284
G1 X138.404 Y94.843 F9000
G1 F2400
G1 X166.981 Y123.42 E53.25809
M73 P3 R51
G1 X166.981 Y124.066 F9000
G1 F2400
G1 X138.404 Y95.49 E54.78778
G1 X138.404 Y96.136 F9000
G1 F2400
G1 X166.981 Y124.713 E56.31748
G1 X166.981 Y125.359 F9000
G1 F2400
G1 X138.404 Y96.783 E57.84717
G1 X138.404 Y97.429 F9000
G1 F2400
G1 X166.981 Y126.006 E59.37686
G1 X166.981 Y126.652 F9000
G1 F2400
G1 X138.404 Y98.075 E60.90656
G1 X138.404 Y98.722 F9000
G1 F2400
G1 X166.981 Y127.299 E62.43625
G1 X166.981 Y127.945 F9000
G1 F2400
G1 X138.404 Y99.368 E63.96594
G1 X138.404 Y100.015 F9000
G1 F2400
G1 X166.981 Y128.591 E65.49564
G1 X166.981 Y129.238 F9000
G1 F2400
G1 X138.404 Y100.661 E67.02533
G1 X138.404 Y101.307 F9000
G1 F2400
G1 X166.981 Y129.884 E68.55502
G1 X166.981 Y130.531 F9000
G1 F2400
G1 X138.404 Y101.954 E70.08472
G1 X138.404 Y102.6 F9000
G1 F2400
G1 X166.981 Y131.177 E71.61441
G1 X166.981 Y131.823 F9000
G1 F2400
G1 X138.404 Y103.247 E73.1441
G1 X138.404 Y103.893 F9000
G1 F2400
G1 X166.981 Y132.47 E74.67379
G1 X166.981 Y133.116 F9000
G1 F2400
G1 X138.404 Y104.539 E76.20349
G1 X138.404 Y105.186 F9000
G1 F2400
G1 X166.981 Y133.763 E77.73318
G1 X166.981 Y134.409 F9000
G1 F2400
G1 X138.404 Y105.832 E79.26287
G1 X138.404 Y106.479 F9000
G1 F2400
G1 X166.981 Y135.055 E80.79257
G1 X166.981 Y135.702 F9000
G1 F2400
G1 X138.404 Y107.125 E82.32226
G1 X138.404 Y107.771 F9000
G1 F2400
G1 X166.981 Y136.348 E83.85195
G1 X166.981 Y136.995 F9000
G1 F2400
G1 X138.404 Y108.418 E85.38165
G1 X138.404 Y109.064 F9000
G1 F2400
G1 X166.981 Y137.641 E86.91134
G1 X166.981 Y138.287 F9000
G1 F2400
G1 X138.404 Y109.711 E88.44103
G1 X138.404 Y110.357 F9000
G1 F2400
G1 X166.981 Y138.934 E89.97073
G1 X166.981 Y139.58 F9000
G1 F2400
G1 X138.404 Y111.003 E91.50042
G1 X138.404 Y111.65 F9000
G1 F2400
G1 X166.981 Y140.227 E93.03011
G1 X166.981 Y140.873 F9000
G1 F2400
G1 X138.404 Y112.296 E94.55981
G1 X138.404 Y112.943 F9000
G1 F2400
G1 X166.981 Y141.519 E96.0895
G1 X166.981 Y142.166 F9000
G1 F2400
G1 X138.404 Y113.589 E97.61919
G1 X138.404 Y114.236 F9000
G1 F2400
G1 X166.981 Y142.812 E99.14888
G1 X166.981 Y143.459 F9000
M73 P4 R51
G1 F2400
G1 X138.404 Y114.882 E100.67858
G1 X138.404 Y115.528 F9000
G1 F2400
G1 X166.981 Y144.105 E102.20827
G1 X166.981 Y144.752 F9000
G1 F2400
G1 X138.404 Y116.175 E103.73796
G1 X138.404 Y116.821 F9000
G1 F2400
G1 X166.981 Y145.398 E105.26766
G1 X166.981 Y146.044 F9000
G1 F2400
G1 X138.404 Y117.468 E106.79735
G1 X138.404 Y118.114 F9000
G1 F2400
G1 X166.981 Y146.691 E108.32704
M73 P5 R51
G1 X166.981 Y147.337 F9000
G1 F2400
G1 X138.404 Y118.76 E109.85674
G1 X138.404 Y119.407 F9000
G1 F2400
G1 X166.981 Y147.984 E111.38643
G1 X166.981 Y148.63 F9000
G1 F2400
G1 X138.404 Y120.053 E112.91612
G1 X138.404 Y120.7 F9000
G1 F2400
G1 X166.981 Y149.276 E114.44582
G92 E0
G1 E-0.8
G1 X192.989 Y149.428 F9000
G1 E0 F1800
G1 F2400
G1 X193.651 Y150.091 E0.03547
G1 X193.651 Y150.737 F9000
G1 F2400
G1 X192.342 Y149.428 E0.10555
G1 X191.696 Y149.428 F9000
G1 F2400
G1 X193.651 Y151.384 E0.21022
G1 X193.651 Y152.03 F9000
G1 F2400
G1 X191.05 Y149.428 E0.3495
G1 X190.403 Y149.428 F9000
G1 F2400
G1 X193.651 Y152.676 E0.52338
G1 X193.651 Y153.323 F9000
G1 F2400
G1 X189.757 Y149.428 E0.73186
G1 X189.11 Y149.428 F9000
G1 F2400
G1 X193.651 Y153.969 E0.97494
G1 X193.651 Y154.616 F9000
G1 F2400
G1 X188.464 Y149.428 E1.25262
G1 X187.818 Y149.428 F9000
G1 F2400
G1 X193.651 Y155.262 E1.56491
G1 X193.651 Y155.908 F9000
G1 F2400
G1 X187.171 Y149.428 E1.91179
G1 X186.525 Y149.428 F9000
G1 F2400
G1 X193.651 Y156.555 E2.29328
G1 X193.651 Y157.201 F9000
G1 F2400
G1 X185.878 Y149.428 E2.70937
G1 X185.232 Y149.428 F9000
G1 F2400
G1 X193.651 Y157.848 E3.16007
G1 X193.651 Y158.494 F9000
G1 F2400
G1 X184.585 Y149.428 E3.64536
G1 X183.939 Y149.428 F9000
G1 F2400
G1 X193.651 Y159.14 E4.16525
G1 X193.651 Y159.787 F9000
G1 F2400
G1 X183.293 Y149.428 E4.71975
G1 X182.646 Y149.428 F9000
G1 F2400
G1 X193.651 Y160.433 E5.30885
G1 X193.651 Y161.08 F9000
G1 F2400
G1 X182 Y149.428 E5.93255
G1 X181.353 Y149.428 F9000
G1 F2400
G1 X193.651 Y161.726 E6.59085
G1 X193.651 Y162.372 F9000
G1 F2400
G1 X180.707 Y149.428 E7.28376
G1 X180.061 Y149.428 F9000
G1 F2400
G1 X193.651 Y163.019 E8.01126
G1 X193.651 Y163.665 F9000
G1 F2400
G1 X179.414 Y149.428 E8.77337
G1 X178.768 Y149.428 F9000
G1 F2400
G1 X193.651 Y164.312 E9.57008
G1 X193.651 Y164.958 F9000
G1 F2400
G1 X178.121 Y149.428 E10.40139
G1 X177.475 Y149.428 F9000
G1 F2400
G1 X193.651 Y165.605 E11.2673
G1 X193.651 Y166.251 F9000
G1 F2400
G1 X176.829 Y149.428 E12.16782
G1 X176.182 Y149.428 F9000
G1 F2400
G1 X193.651 Y166.897 E13.10293
G1 X193.651 Y167.544 F9000
G1 F2400
G1 X175.536 Y149.428 E14.07265
G1 X174.889 Y149.428 F9000
G1 F2400
G1 X193.651 Y168.19 E15.07697
G1 X193.651 Y168.837 F9000
G1 F2400
G1 X174.243 Y149.428 E16.11589
G1 X173.597 Y149.428 F9000
G1 F2400
G1 X193.651 Y169.483 E17.18941
G1 X193.651 Y170.129 F9000
G1 F2400
G1 X172.95 Y149.428 E18.29753
G1 X172.304 Y149.428 F9000
G1 F2400
G1 X193.651 Y170.776 E19.44026
G1 X193.651 Y171.422 F9000
G1 F2400
G1 X171.657 Y149.428 E20.61759
G1 X171.011 Y149.428 F9000
G1 F2400
G1 X193.651 Y172.069 E21.82952
G1 X193.651 Y172.715 F9000
G1 F2400
G1 X170.365 Y149.428 E23.07605
G1 X169.718 Y149.428 F9000
G1 F2400
G1 X193.651 Y173.361 E24.35718
G1 X193.651 Y174.008 F9000
G1 F2400
G1 X169.072 Y149.428 E25.67291
G1 X168.425 Y149.428 F9000
G1 F2400
G1 X193.651 Y174.654 E27.02325
G1 X193.651 Y175.301 F9000
G1 F2400
G1 X167.779 Y149.428 E28.40819
M73 P5 R50
G1 X167.132 Y149.428 F9000
G1 F2400
G1 X193.651 Y175.947 E29.82773
G1 X193.651 Y176.593 F9000
G1 F2400
G1 X138.404 Y121.346 E32.78508
G1 X138.404 Y121.992 F9000
G1 F2400
G1 X193.651 Y177.24 E35.74243
G1 X193.651 Y177.886 F9000
G1 F2400
G1 X138.404 Y122.639 E38.69979
G1 X138.404 Y123.285 F9000
G1 F2400
G1 X193.651 Y178.533 E41.65714
G1 X193.651 Y179.179 F9000
G1 F2400
G1 X138.404 Y123.932 E44.61449
G1 X138.404 Y124.578 F9000
G1 F2400
G1 X193.651 Y179.825 E47.57184
G1 X193.651 Y180.472 F9000
G1 F2400
G1 X138.404 Y125.224 E50.5292
G1 X138.404 Y125.871 F9000
G1 F2400
G1 X193.584 Y181.051 E53.48295
G1 X192.938 Y181.051 F9000
G1 F2400
G1 X138.404 Y126.517 E56.40211
G1 X138.404 Y127.164 F9000
G1 F2400
G1 X192.291 Y181.051 E59.28666
G1 X191.645 Y181.051 F9000
G1 F2400
G1 X138.404 Y127.81 E62.13661
G1 X138.404 Y128.456 F9000
G1 F2400
G1 X190.999 Y181.051 E64.95196
G1 X190.352 Y181.051 F9000
G1 F2400
G1 X138.404 Y129.103 E67.73271
G1 X138.404 Y129.749 F9000
G1 F2400
G1 X189.706 Y181.051 E70.47886
G1 X189.059 Y181.051 F9000
G1 F2400
G1 X138.404 Y130.396 E73.1904
G1 X138.404 Y131.042 F9000
G1 F2400
G1 X188.413 Y181.051 E75.86734
M73 P6 R50
G1 X187.767 Y181.051 F9000
G1 F2400
G1 X138.404 Y131.689 E78.50969
M73 P7 R50
G1 X138.404 Y132.335 F9000
G1 F2400
G1 X187.12 Y181.051 E81.11743
G1 X186.474 Y181.051 F9000
G1 F2400
G1 X138.404 Y132.981 E83.69056
G1 X138.404 Y133.628 F9000
G1 F2400
G1 X185.827 Y181.051 E86.2291
G1 X185.181 Y181.051 F9000
G1 F2400
G1 X138.404 Y134.274 E88.73303
G1 X138.404 Y134.921 F9000
G1 F2400
G1 X184.535 Y181.051 E91.20237
G1 X183.888 Y181.051 F9000
G1 F2400
G1 X138.404 Y135.567 E93.6371
G1 X138.404 Y136.213 F9000
G1 F2400
G1 X183.242 Y181.051 E96.03723
G1 X182.595 Y181.051 F9000
G1 F2400
G1 X138.404 Y136.86 E98.40276
G1 X138.404 Y137.506 F9000
G1 F2400
G1 X181.949 Y181.051 E100.73368
G1 X181.302 Y181.051 F9000
G1 F2400
G1 X138.404 Y138.153 E103.03001
G1 X138.404 Y138.799 F9000
G1 F2400
G1 X180.656 Y181.051 E105.29173
G1 X180.01 Y181.051 F9000
G1 F2400
G1 X138.404 Y139.445 E107.51885
G1 X138.404 Y140.092 F9000
G1 F2400
G1 X179.363 Y181.051 E109.71137
G1 X178.717 Y181.051 F9000
G1 F2400
G1 X138.404 Y140.738 E111.86929
G1 X138.404 Y141.385 F9000
G1 F2400
G1 X178.07 Y181.051 E113.9926
G1 X177.424 Y181.051 F9000
G1 F2400
G1 X138.404 Y142.031 E116.08132
G1 X138.404 Y142.677 F9000
G1 F2400
G1 X176.778 Y181.051 E118.13543
G1 X176.131 Y181.051 F9000
G1 F2400
G1 X138.404 Y143.324 E120.15494
