; generated by SuperSlicer 2.5.59 on 2023-06-08 at 04:23:19 UTC


;
;

;
;
; 

; external perimeters extrusion width = 0.40mm
; perimeters extrusion width = 0.46mm
; infill extrusion width = 0.64mm
; solid infill extrusion width = 0.56mm
; top infill extrusion width = 0.40mm
; support material extrusion width = 0.46mm
; first layer extrusion width = 0.50mm

; external perimeters extrusion width = 0.40mm
; perimeters extrusion width = 0.46mm
; infill extrusion width = 0.64mm
; solid infill extrusion width = 0.56mm
; top infill extrusion width = 0.40mm
; support material extrusion width = 0.46mm
; first layer extrusion width = 0.50mm

; object:{"name":"X Gantry Aligner","id":"X Gantry Aligner.stl id:0 copy 0","object_center":[130.024282,153.912187,0.000000],"boundingbox_center":[130.024282,153.912187,10.000000],"boundingbox_size":[49.098000,103.000000,20.000000]}
EXCLUDE_OBJECT_DEFINE NAME=X_Gantry_Aligner_stl_id_0_copy_0 CENTER=130.024282,153.912187 POLYGON=[[105.475288,102.412184],[126.370288,102.412184],[154.573296,175.412192],[154.573296,205.412192],[119.575288,205.412192],[105.475288,124.409184],[105.475288,102.412184]]
; object:{"name":"X Gantry Aligner","id":"X Gantry Aligner.stl id:1 copy 0","object_center":[174.975719,146.087813,0.000000],"boundingbox_center":[174.975719,146.087813,10.000000],"boundingbox_size":[49.098000,103.000000,20.000000]}
EXCLUDE_OBJECT_DEFINE NAME=X_Gantry_Aligner_stl_id_1_copy_0 CENTER=174.975719,146.087813 POLYGON=[[150.426720,94.587816],[171.321712,94.587816],[199.524720,167.587808],[199.524720,197.587808],[164.526720,197.587808],[150.426720,116.584816],[150.426720,94.587816]]
; plater:{"center":[152.500000,150.000000,0.000000],"boundingbox_center":[152.500000,150.000000,10.000000],"boundingbox_size":[94.049437,110.824374,20.000000]}

M73 P0 R113
;TYPE:Custom
START_PRINT T_BED=60 T_EXTRUDER=200
M107
G21 ; set units to millimeters
G90 ; use absolute coordinates
M82 ; use absolute distances for extrusion
G92 E0
; Filament gcode

    PRESSURE_ADVANCE_SELECT FILAMENT=PLA
;_TOOLCHANGE 0
M104 S200 ; set temperature
M109 S200 ; set temperature and wait for it to be reached
M190 S60 ; set bed temperature and wait for it to be reached
M107
;LAYER_CHANGE
;Z:0.2
;HEIGHT:0.2
G1 Z0.2 F9000
M73 P0 R113
G1 E-0.8 F3000
M204 S1000
G1 X103.354 Y99.533 F9000
G1 E0 F1800
;TYPE:Skirt
;WIDTH:0.52
G1 X102.254 Y100.846 E0.06793
G1 X101.86 Y102.512 E0.13586
G1 X101.86 Y124.309 E1.00054
G1 X101.915 Y124.946 E1.02591
G1 X116.015 Y205.949 E4.28756
G1 X116.697 Y207.533 E4.35596
G1 X118.009 Y208.633 E4.42389
G1 X119.675 Y209.028 E4.49183
G1 X154.473 Y209.028 E5.87224
G1 X155.11 Y208.973 E5.89761
G1 X200.062 Y201.148 E7.70761
G1 X201.646 Y200.467 E7.77602
G1 X202.746 Y199.154 E7.84395
G1 X203.14 Y197.488 E7.91188
G1 X203.14 Y167.688 E9.09403
G1 X202.891 Y166.349 E9.14806
G1 X174.688 Y93.349 E12.25253
G1 X174.2 Y92.467 E12.2925
G1 X172.888 Y91.367 E12.36043
G1 X171.222 Y90.972 E12.42836
G1 X150.527 Y90.972 E13.24932
G1 X149.89 Y91.027 E13.27469
G1 X104.938 Y98.852 E15.08469
G1 X103.354 Y99.533 E15.15309
G1 X103.732 Y99.884 F9000
G1 F1800
G1 X102.731 Y100.964 E15.21155
G1 X102.337 Y102.512 E15.2749
G1 X102.385 Y124.865 E16.16161
G1 X116.485 Y205.868 E19.42326
G1 X116.956 Y207.071 E19.47454
G1 X118.127 Y208.157 E19.5379
G1 X119.675 Y208.551 E19.60126
G1 X155.029 Y208.503 E21.0037
G1 X199.98 Y200.678 E22.81371
G1 X201.184 Y200.207 E22.86499
G1 X202.269 Y199.036 E22.92834
G1 X202.663 Y197.488 E22.9917
G1 X202.663 Y167.688 E24.17385
G1 X202.446 Y166.521 E24.22094
G1 X174.243 Y93.521 E27.32541
G1 X172.77 Y91.843 E27.41398
G1 X171.222 Y91.449 E27.47733
G1 X149.971 Y91.497 E28.32032
G1 X105.02 Y99.322 E30.13033
G1 X103.816 Y99.793 E30.18161
G1 X103.732 Y99.884 E30.18651
G92 E0
G1 E-0.8 F3000
; printing object X Gantry Aligner.stl id:0 copy 0
EXCLUDE_OBJECT_START NAME=X_Gantry_Aligner_stl_id_0_copy_0
G1 X120.839 Y159.764 F9000
G1 E0 F1800
;TYPE:Internal perimeter
;WIDTH:0.5
G1 X120.839 Y123.145 E1.39174
G1 X107.787 Y123.145 E1.88784
G1 X118.585 Y160.144 E3.3527
G1 X120.839 Y159.822 E3.43927
G1 X120.839 Y159.764 E3.44148
G1 X120.382 Y159.396 F9000
G1 F1800
G1 X120.382 Y123.602 E4.80189
G1 X108.396 Y123.602 E5.25745
G1 X118.912 Y159.636 E6.68408
G1 X120.382 Y159.426 E6.74052
G1 X120.382 Y159.396 E6.74162
G1 X119.925 Y159.029 F9000
;TYPE:External perimeter
G1 F1800
G1 X119.925 Y124.059 E8.0707
G1 X109.006 Y124.059 E8.48572
G1 X119.24 Y159.127 E9.87413
G1 X119.925 Y159.029 E9.90043
;WIPE_START
M204 S3000
G1 X120.325 Y159.01 F9000
;WIPE_END
G92 E0
G1 E-0.8 F3000
M204 S1000
G1 X128.406 Y201.379 F9000
G1 E0 F1800
;TYPE:Internal perimeter
G1 X150.939 Y201.379 E0.85641
G1 X150.939 Y176.676 E1.79528
G1 X153.309 Y176.676 E1.88534
G1 X153.309 Y204.148 E2.92944
G1 X120.839 Y204.148 E4.16349
G1 X120.839 Y170.409 E5.44581
G1 X107.046 Y123.145 E7.31705
G1 X106.739 Y123.145 E7.32871
G1 X106.739 Y103.676 E8.06865
G1 X125.106 Y103.676 E8.7667
G1 X125.106 Y177.479 E11.57168
M73 P1 R113
G1 X128.406 Y177.479 E11.6971
G1 X128.406 Y201.379 E12.60545
M73 P1 R113
G1 X128.863 Y200.922 F9000
G1 F1800
G1 X150.482 Y200.922 E13.42711
G1 X150.482 Y176.219 E14.36598
G1 X153.766 Y176.219 E14.49079
G1 X153.766 Y204.605 E15.56963
G1 X120.382 Y204.605 E16.83843
G1 X120.382 Y170.474 E18.13563
G1 X106.704 Y123.602 E19.99137
G1 X106.282 Y123.602 E20.00737
G1 X106.282 Y103.219 E20.78205
G1 X125.563 Y103.219 E21.51484
G1 X125.563 Y177.022 E24.31982
G1 X128.863 Y177.022 E24.44525
G1 X128.863 Y200.922 E25.3536
G1 X129.32 Y200.465 F9000
;TYPE:External perimeter
G1 F1800
G1 X150.025 Y200.465 E26.14052
G1 X150.025 Y175.762 E27.07939
G1 X154.223 Y175.762 E27.23894
G1 X154.223 Y205.062 E28.35252
G1 X119.925 Y205.062 E29.65606
G1 X119.925 Y170.539 E30.96816
G1 X106.361 Y124.059 E32.80838
G1 X105.825 Y124.059 E32.82873
G1 X105.825 Y102.762 E33.63815
G1 X126.02 Y102.762 E34.40569
G1 X126.02 Y176.565 E37.21067
G1 X129.32 Y176.565 E37.33609
G1 X129.32 Y200.465 E38.24444
;WIPE_START
M204 S3000
G1 X129.32 Y200.865 F9000
;WIPE_END
G92 E0
G1 E-0.8 F3000
M204 S1000
G1 X118.3 Y160.434 F9000
G1 E0 F1800
;TYPE:Gap fill
;WIDTH:0.32318
G1 X107.34 Y122.899 E0.91124
G92 E0
G1 E-0.8 F3000
G1 X125.038 Y104.669 F9000
G1 E0 F1800
;TYPE:Solid infill
;WIDTH:0.490405
G1 F2400
G1 X124.114 Y103.745 E0.04871
G1 X123.467 Y103.745 F9000
G1 F2400
G1 X125.038 Y105.315 E0.1315
G1 X125.038 Y105.962 F9000
G1 F2400
G1 X122.821 Y103.745 E0.24836
G1 X122.174 Y103.745 F9000
G1 F2400
G1 X125.038 Y106.608 E0.3993
G1 X125.038 Y107.254 F9000
G1 F2400
G1 X121.528 Y103.745 E0.58432
G1 X120.882 Y103.745 F9000
G1 F2400
G1 X125.038 Y107.901 E0.80341
G1 X125.038 Y108.547 F9000
G1 F2400
G1 X120.235 Y103.745 E1.05659
G1 X119.589 Y103.745 F9000
G1 F2400
G1 X125.038 Y109.194 E1.34383
G1 X125.038 Y109.84 F9000
G1 F2400
G1 X118.942 Y103.745 E1.66516
G1 X118.296 Y103.745 F9000
G1 F2400
G1 X125.038 Y110.487 E2.02056
G1 X125.038 Y111.133 F9000
G1 F2400
G1 X117.65 Y103.745 E2.41004
G1 X117.003 Y103.745 F9000
G1 F2400
G1 X125.038 Y111.779 E2.8336
G1 X125.038 Y112.426 F9000
G1 F2400
G1 X116.357 Y103.745 E3.29124
G1 X115.71 Y103.745 F9000
G1 F2400
G1 X125.038 Y113.072 E3.78295
G1 X125.038 Y113.719 F9000
G1 F2400
G1 X115.064 Y103.745 E4.30874
G1 X114.417 Y103.745 F9000
G1 F2400
G1 X125.038 Y114.365 E4.8686
G1 X125.038 Y115.011 F9000
G1 F2400
G1 X113.771 Y103.745 E5.46254
G1 X113.125 Y103.745 F9000
G1 F2400
G1 X125.038 Y115.658 E6.09056
G1 X125.038 Y116.304 F9000
G1 F2400
G1 X112.478 Y103.745 E6.75266
G1 X111.832 Y103.745 F9000
G1 F2400
G1 X125.038 Y116.951 E7.44883
G1 X125.038 Y117.597 F9000
G1 F2400
G1 X111.185 Y103.745 E8.17908
G1 X110.539 Y103.745 F9000
G1 F2400
G1 X125.038 Y118.243 E8.94341
G1 X125.038 Y118.89 F9000
G1 F2400
G1 X109.893 Y103.745 E9.74182
G1 X109.246 Y103.745 F9000
G1 F2400
G1 X125.038 Y119.536 E10.5743
G1 X125.038 Y120.183 F9000
G1 F2400
G1 X108.6 Y103.745 E11.44086
G1 X107.953 Y103.745 F9000
G1 F2400
G1 X125.038 Y120.829 E12.34149
G1 X125.038 Y121.475 F9000
G1 F2400
G1 X107.307 Y103.745 E13.27621
G1 X106.808 Y103.892 F9000
G1 F2400
G1 X125.038 Y122.122 E14.23723
G1 X125.038 Y122.768 F9000
G1 F2400
G1 X106.808 Y104.539 E15.19825
G1 X106.808 Y105.185 F9000
G1 F2400
G1 X125.038 Y123.415 E16.15927
G1 X125.038 Y124.061 F9000
G1 F2400
G1 X106.808 Y105.831 E17.12029
G1 X106.808 Y106.478 F9000
G1 F2400
G1 X125.038 Y124.707 E18.08131
G1 X125.038 Y125.354 F9000
G1 F2400
G1 X106.808 Y107.124 E19.04233
G1 X106.808 Y107.771 F9000
G1 F2400
G1 X125.038 Y126 E20.00336
G1 X125.038 Y126.647 F9000
G1 F2400
G1 X106.808 Y108.417 E20.96438
G1 X106.808 Y109.064 F9000
G1 F2400
G1 X120.821 Y123.076 E21.70311
G1 X120.175 Y123.076 F9000
G1 F2400
G1 X106.808 Y109.71 E22.40776
G1 X106.808 Y110.356 F9000
G1 F2400
G1 X119.528 Y123.076 E23.07834
G1 X118.882 Y123.076 F9000
G1 F2400
G1 X106.808 Y111.003 E23.71484
G1 X106.808 Y111.649 F9000
G1 F2400
G1 X118.235 Y123.076 E24.31726
G1 X117.589 Y123.076 F9000
G1 F2400
G1 X106.808 Y112.296 E24.8856
G1 X106.808 Y112.942 F9000
G1 F2400
G1 X116.943 Y123.076 E25.41987
G1 X116.296 Y123.076 F9000
G1 F2400
G1 X106.808 Y113.588 E25.92006
G1 X106.808 Y114.235 F9000
G1 F2400
G1 X115.65 Y123.076 E26.38618
G1 X115.003 Y123.076 F9000
G1 F2400
G1 X106.808 Y114.881 E26.81822
G1 X106.808 Y115.528 F9000
G1 F2400
G1 X114.357 Y123.076 E27.21618
G1 X113.71 Y123.076 F9000
G1 F2400
G1 X106.808 Y116.174 E27.58006
G1 X106.808 Y116.82 F9000
G1 F2400
G1 X113.064 Y123.076 E27.90986
G1 X112.418 Y123.076 F9000
G1 F2400
G1 X106.808 Y117.467 E28.20559
G1 X106.808 Y118.113 F9000
G1 F2400
G1 X111.771 Y123.076 E28.46725
G1 X111.125 Y123.076 F9000
G1 F2400
G1 X106.808 Y118.76 E28.69482
G1 X106.808 Y119.406 F9000
G1 F2400
G1 X110.478 Y123.076 E28.88832
G1 X109.832 Y123.076 F9000
G1 F2400
G1 X106.808 Y120.052 E29.04774
G1 X106.808 Y120.699 F9000
G1 F2400
G1 X109.186 Y123.076 E29.17308
G1 X108.539 Y123.076 F9000
G1 F2400
G1 X106.808 Y121.345 E29.26435
G1 X106.808 Y121.992 F9000
G1 F2400
G1 X107.893 Y123.076 E29.32154
G92 E0
G1 E-0.8 F3000
G1 X120.908 Y123.164 F9000
G1 E0 F1800
G1 F2400
G1 X125.038 Y127.293 E0.2177
G1 X125.038 Y127.94 F9000
G1 F2400
G1 X120.908 Y123.81 E0.43541
G1 X120.908 Y124.456 F9000
G1 F2400
G1 X125.038 Y128.586 E0.65311
G1 X125.038 Y129.232 F9000
G1 F2400
G1 X120.908 Y125.103 E0.87081
G1 X120.908 Y125.749 F9000
G1 F2400
G1 X125.038 Y129.879 E1.08851
G1 X125.038 Y130.525 F9000
G1 F2400
G1 X120.908 Y126.396 E1.30622
G1 X120.908 Y127.042 F9000
G1 F2400
G1 X125.038 Y131.172 E1.52392
G1 X125.038 Y131.818 F9000
G1 F2400
G1 X120.908 Y127.688 E1.74162
G1 X120.908 Y128.335 F9000
G1 F2400
G1 X125.038 Y132.464 E1.95933
G1 X125.038 Y133.111 F9000
G1 F2400
G1 X120.908 Y128.981 E2.17703
G1 X120.908 Y129.628 F9000
G1 F2400
G1 X125.038 Y133.757 E2.39473
G1 X125.038 Y134.404 F9000
G1 F2400
G1 X120.908 Y130.274 E2.61243
G1 X120.908 Y130.92 F9000
G1 F2400
G1 X125.038 Y135.05 E2.83014
G1 X125.038 Y135.696 F9000
G1 F2400
G1 X120.908 Y131.567 E3.04784
G1 X120.908 Y132.213 F9000
G1 F2400
G1 X125.038 Y136.343 E3.26554
G1 X125.038 Y136.989 F9000
G1 F2400
G1 X120.908 Y132.86 E3.48324
G1 X120.908 Y133.506 F9000
G1 F2400
G1 X125.038 Y137.636 E3.70095
G1 X125.038 Y138.282 F9000
G1 F2400
G1 X120.908 Y134.152 E3.91865
G1 X120.908 Y134.799 F9000
G1 F2400
G1 X125.038 Y138.928 E4.13635
G1 X125.038 Y139.575 F9000
G1 F2400
G1 X120.908 Y135.445 E4.35406
G1 X120.908 Y136.092 F9000
G1 F2400
G1 X125.038 Y140.221 E4.57176
G1 X125.038 Y140.868 F9000
G1 F2400
G1 X120.908 Y136.738 E4.78946
G1 X120.908 Y137.384 F9000
G1 F2400
G1 X125.038 Y141.514 E5.00716
G1 X125.038 Y142.16 F9000
G1 F2400
G1 X120.908 Y138.031 E5.22487
G1 X120.908 Y138.677 F9000
G1 F2400
G1 X125.038 Y142.807 E5.44257
G1 X125.038 Y143.453 F9000
G1 F2400
G1 X120.908 Y139.324 E5.66027
G1 X120.908 Y139.97 F9000
G1 F2400
G1 X125.038 Y144.1 E5.87797
G1 X125.038 Y144.746 F9000
G1 F2400
G1 X120.908 Y140.617 E6.09568
G1 X120.908 Y141.263 F9000
G1 F2400
G1 X125.038 Y145.393 E6.31338
G1 X125.038 Y146.039 F9000
G1 F2400
G1 X120.908 Y141.909 E6.53108
G1 X120.908 Y142.556 F9000
G1 F2400
G1 X125.038 Y146.685 E6.74879
G1 X125.038 Y147.332 F9000
G1 F2400
G1 X120.908 Y143.202 E6.96649
G1 X120.908 Y143.849 F9000
G1 F2400
G1 X125.038 Y147.978 E7.18419
G1 X125.038 Y148.625 F9000
G1 F2400
G1 X120.908 Y144.495 E7.40189
G1 X120.908 Y145.141 F9000
G1 F2400
G1 X125.038 Y149.271 E7.6196
G1 X125.038 Y149.917 F9000
G1 F2400
G1 X120.908 Y145.788 E7.8373
G1 X120.908 Y146.434 F9000
G1 F2400
G1 X125.038 Y150.564 E8.055
G1 X125.038 Y151.21 F9000
G1 F2400
G1 X120.908 Y147.081 E8.27271
G1 X120.908 Y147.727 F9000
G1 F2400
G1 X125.038 Y151.857 E8.49041
G1 X125.038 Y152.503 F9000
G1 F2400
G1 X120.908 Y148.373 E8.70811
G1 X120.908 Y149.02 F9000
G1 F2400
G1 X125.038 Y153.149 E8.92581
G1 X125.038 Y153.796 F9000
G1 F2400
G1 X120.908 Y149.666 E9.14352
G1 X120.908 Y150.313 F9000
G1 F2400
G1 X125.038 Y154.442 E9.36122
G1 X125.038 Y155.089 F9000
G1 F2400
G1 X120.908 Y150.959 E9.57892
M73 P2 R112
G1 X120.908 Y151.605 F9000
G1 F2400
G1 X125.038 Y155.735 E9.79662
G1 X125.038 Y156.381 F9000
G1 F2400
G1 X120.908 Y152.252 E10.01433
G1 X120.908 Y152.898 F9000
G1 F2400
G1 X125.038 Y157.028 E10.23203
G1 X125.038 Y157.674 F9000
G1 F2400
G1 X120.908 Y153.545 E10.44973
G1 X120.908 Y154.191 F9000
G1 F2400
G1 X125.038 Y158.321 E10.66744
G1 X125.038 Y158.967 F9000
G1 F2400
G1 X120.908 Y154.837 E10.88514
G1 X120.908 Y155.484 F9000
G1 F2400
G1 X125.038 Y159.613 E11.10284
G1 X125.038 Y160.26 F9000
G1 F2400
G1 X120.908 Y156.13 E11.32054
G1 X120.908 Y156.777 F9000
G1 F2400
G1 X125.038 Y160.906 E11.53825
G1 X125.038 Y161.553 F9000
G1 F2400
G1 X120.908 Y157.423 E11.75595
G1 X120.908 Y158.07 F9000
G1 F2400
G1 X125.038 Y162.199 E11.97365
G1 X125.038 Y162.846 F9000
G1 F2400
G1 X120.908 Y158.716 E12.19135
G1 X120.908 Y159.362 F9000
G1 F2400
G1 X125.038 Y163.492 E12.40906
G1 X125.038 Y164.138 F9000
G1 F2400
G1 X120.797 Y159.897 E12.63263
G1 X120.231 Y159.978 F9000
G1 F2400
G1 X125.038 Y164.785 E12.88602
G1 X125.038 Y165.431 F9000
G1 F2400
G1 X119.665 Y160.059 E13.16923
G1 X119.1 Y160.14 F9000
G1 F2400
G1 X125.038 Y166.078 E13.48225
G1 X125.038 Y166.724 F9000
G1 F2400
G1 X118.534 Y160.221 E13.82509
G1 X118.166 Y160.498 F9000
G1 F2400
G1 X125.038 Y167.37 E14.18736
G1 X125.038 Y168.017 F9000
G1 F2400
G1 X118.225 Y161.204 E14.54653
G1 X118.491 Y162.117 F9000
G1 F2400
G1 X125.038 Y168.663 E14.89165
G1 X125.038 Y169.31 F9000
G1 F2400
G1 X118.757 Y163.029 E15.22273
G1 X119.024 Y163.942 F9000
G1 F2400
G1 X125.038 Y169.956 E15.53977
G1 X125.038 Y170.602 F9000
G1 F2400
G1 X119.29 Y164.855 E15.84276
G1 X119.556 Y165.768 F9000
G1 F2400
G1 X125.038 Y171.249 E16.13171
G1 X125.038 Y171.895 F9000
G1 F2400
G1 X119.823 Y166.68 E16.40662
G1 X120.089 Y167.593 F9000
G1 F2400
G1 X125.038 Y172.542 E16.66749
G1 X125.038 Y173.188 F9000
G1 F2400
G1 X120.356 Y168.506 E16.91431
G1 X120.622 Y169.419 F9000
G1 F2400
G1 X125.038 Y173.834 E17.14709
G1 X125.038 Y174.481 F9000
G1 F2400
G1 X120.888 Y170.332 E17.36582
G1 X120.908 Y170.998 F9000
G1 F2400
G1 X125.038 Y175.127 E17.58352
G1 X125.038 Y175.774 F9000
G1 F2400
G1 X120.908 Y171.644 E17.80123
G1 X120.908 Y172.29 F9000
G1 F2400
G1 X125.038 Y176.42 E18.01893
G1 X125.038 Y177.066 F9000
G1 F2400
G1 X120.908 Y172.937 E18.23663
G92 E0
G1 E-0.8 F3000
G1 X127.458 Y177.548 F9000
G1 E0 F1800
G1 F2400
G1 X128.338 Y178.427 E0.04636
G1 X128.338 Y179.074 F9000
G1 F2400
G1 X126.812 Y177.548 E0.12679
G1 X126.165 Y177.548 F9000
G1 F2400
G1 X128.338 Y179.72 E0.24131
G1 X128.338 Y180.366 F9000
G1 F2400
G1 X125.519 Y177.548 E0.3899
G92 E0
G1 E-0.8 F3000
G1 X128.338 Y181.013 F9000
G1 E0 F1800
G1 F2400
G1 X120.908 Y173.583 E0.39167
G1 X120.908 Y174.23 F9000
G1 F2400
G1 X128.338 Y181.659 E0.78334
G1 X128.338 Y182.306 F9000
G1 F2400
G1 X120.908 Y174.876 E1.17501
M73 P2 R112
G1 X120.908 Y175.523 F9000
G1 F2400
G1 X128.338 Y182.952 E1.56668
G1 X128.338 Y183.599 F9000
G1 F2400
G1 X120.908 Y176.169 E1.95836
G1 X120.908 Y176.815 F9000
G1 F2400
G1 X128.338 Y184.245 E2.35003
G1 X128.338 Y184.891 F9000
G1 F2400
G1 X120.908 Y177.462 E2.7417
G1 X120.908 Y178.108 F9000
G1 F2400
G1 X128.338 Y185.538 E3.13337
G1 X128.338 Y186.184 F9000
G1 F2400
