; HEADER_BLOCK_START
; generated by OrcaSlicer 1.6.2 on 2023-05-22 at 19:34:00
; total layer number: 72
; HEADER_BLOCK_END

; THUMBNAIL_BLOCK_START
; THUMBNAIL_BLOCK_END

; external perimeters extrusion width = 0.40mm
; perimeters extrusion width = 0.45mm
; infill extrusion width = 0.45mm
; solid infill extrusion width = 0.40mm
; top infill extrusion width = 0.40mm
; first layer extrusion width = 0.50mm

; external perimeters extrusion width = 0.40mm
; perimeters extrusion width = 0.45mm
; infill extrusion width = 0.45mm
; solid infill extrusion width = 0.40mm
; top infill extrusion width = 0.40mm
; first layer extrusion width = 0.50mm

; EXECUTABLE_BLOCK_START
EXCLUDE_OBJECT_DEFINE NAME=Y_gantry_top_left.stl_id_0_copy_0 CENTER=168.4,155 POLYGON=[[157.5,137.114],[166.358,125.406],[166.64,125.057],[166.943,124.725],[167.266,124.414],[167.608,124.123],[167.967,123.854],[168.343,123.608],[168.733,123.386],[169.136,123.189],[169.55,123.017],[169.975,122.871],[170.408,122.752],[170.847,122.66],[171.291,122.596],[171.739,122.559],[172.187,122.551],[172.636,122.57],[173.082,122.617],[173.524,122.692],[173.961,122.795],[174.391,122.924],[174.812,123.08],[175.222,123.262],[175.62,123.469],[176.005,123.701],[176.374,123.956],[176.727,124.234],[177.062,124.533],[177.377,124.852],[177.672,125.19],[177.945,125.546],[178.196,125.919],[178.423,126.306],[178.625,126.707],[178.802,127.119],[178.953,127.542],[179.077,127.973],[179.174,128.411],[179.244,128.855],[179.286,129.301],[179.3,129.75],[179.3,180.25],[179.286,180.698],[179.244,181.145],[179.175,181.588],[179.078,182.026],[178.953,182.457],[178.803,182.88],[178.626,183.292],[178.424,183.692],[178.197,184.079],[177.947,184.452],[177.674,184.808],[177.379,185.146],[177.064,185.465],[176.73,185.764],[176.377,186.042],[176.008,186.297],[175.624,186.529],[175.227,186.736],[174.817,186.918],[174.396,187.074],[173.967,187.204],[173.53,187.307],[173.088,187.382],[172.642,187.43],[172.194,187.449],[171.745,187.441],[171.298,187.405],[170.854,187.341],[170.415,187.25],[169.982,187.132],[169.558,186.986],[169.143,186.815],[168.74,186.618],[168.35,186.396],[167.975,186.151],[167.615,185.883],[167.273,185.593],[166.95,185.282],[166.647,184.951],[166.364,184.602],[157.5,172.921],[157.5,137.114]]
EXCLUDE_OBJECT_DEFINE NAME=Y_gantry_top_right.stl_id_1_copy_0 CENTER=141.6,155 POLYGON=[[130.7,137.114],[139.558,125.406],[139.84,125.057],[140.143,124.725],[140.466,124.414],[140.808,124.123],[141.167,123.854],[141.543,123.608],[141.933,123.386],[142.336,123.189],[142.75,123.017],[143.175,122.871],[143.608,122.752],[144.047,122.66],[144.491,122.596],[144.939,122.559],[145.387,122.551],[145.836,122.57],[146.282,122.617],[146.724,122.692],[147.161,122.795],[147.591,122.924],[148.012,123.08],[148.422,123.262],[148.82,123.469],[149.205,123.701],[149.574,123.956],[149.927,124.234],[150.262,124.533],[150.577,124.852],[150.872,125.19],[151.145,125.546],[151.396,125.919],[151.623,126.306],[151.825,126.707],[152.002,127.119],[152.153,127.542],[152.277,127.973],[152.374,128.411],[152.444,128.855],[152.486,129.301],[152.5,129.75],[152.5,180.25],[152.486,180.698],[152.444,181.145],[152.375,181.588],[152.278,182.026],[152.153,182.457],[152.003,182.88],[151.826,183.292],[151.624,183.692],[151.397,184.079],[151.147,184.452],[150.874,184.808],[150.579,185.146],[150.264,185.465],[149.93,185.764],[149.577,186.042],[149.208,186.297],[148.824,186.529],[148.427,186.736],[148.017,186.918],[147.596,187.074],[147.167,187.204],[146.73,187.307],[146.288,187.382],[145.842,187.43],[145.394,187.449],[144.945,187.441],[144.498,187.405],[144.054,187.341],[143.615,187.25],[143.182,187.132],[142.758,186.986],[142.343,186.815],[141.94,186.618],[141.55,186.396],[141.175,186.151],[140.815,185.883],[140.473,185.593],[140.15,185.282],[139.847,184.951],[139.564,184.602],[130.7,172.921],[130.7,137.114]]
M73 P0 R53
;TYPE:Custom
START_PRINT T_BED=100 T_EXTRUDER=245
G90
G21
M83 ; use relative distances for extrusion
; Filament gcode
PRESSURE_ADVANCE_SELECT FILAMENT=ABS
M106 S0
;LAYER_CHANGE
;Z:0.2
;HEIGHT:0.2
M204 S500
G1 E-.8 F3000
G1 Z.4 F9000
G1 X138.34 Y123.648
G1 Z.2
G1 E.8 F1800
;TYPE:Skirt
;WIDTH:0.5
G1 X139.162 Y122.822 E.04104
G1 X140.1 Y122.093 E.0418
G1 X141.113 Y121.495 E.04141
G1 X142.194 Y121.031 E.04141
G1 X143.75 Y120.625 E.05659
G1 X145.077 Y120.497 E.0469
G1 X172.465 Y120.501 E.96391
G1 X174.213 Y120.739 E.06207
G1 X175.852 Y121.289 E.06085
G1 X177.389 Y122.154 E.06207
G1 X178.425 Y122.992 E.0469
G1 X179.499 Y124.189 E.05659
G1 X180.39 Y125.634 E.05974
G1 X180.916 Y126.93 E.04923
G1 X181.291 Y128.653 E.06207
G1 X181.357 Y129.75 E.03867
G1 X181.357 Y180.25 E1.77729
G1 X181.173 Y182.081 E.06477
G1 X180.915 Y183.072 E.03604
G1 X180.488 Y184.164 E.04126
G1 X179.924 Y185.196 E.04139
G1 X179.234 Y186.148 E.04139
G1 X178.421 Y187.012 E.04175
G1 X177.52 Y187.753 E.04103
G1 X176.436 Y188.428 E.04496
G1 X175.37 Y188.91 E.04118
G1 X174.22 Y189.26 E.0423
G1 X173.06 Y189.456 E.04139
G1 X145.04 Y189.503 E.98614
G1 X143.183 Y189.261 E.06593
G1 X141.513 Y188.696 E.06203
G1 X140.472 Y188.148 E.04139
G1 X139.512 Y187.474 E.04129
G1 X138.75 Y186.791 E.03601
G1 X137.974 Y185.907 E.04139
G1 X128.743 Y173.744 E.53739
G1 X128.243 Y172.259 E.05515
G1 X128.243 Y137.777 E1.21356
G1 X128.741 Y136.294 E.05504
G1 X138.303 Y123.696 E.55664
; printing object Y_gantry_top_left.stl id:0 copy 0
EXCLUDE_OBJECT_START NAME=Y_gantry_top_left.stl_id_0_copy_0
G1 E-.8 F3000
G1 Z.6 F9000
G1 X158.664 Y171.867 Z.2
G1 E.8 F1800
;TYPE:Inner wall
;WIDTH:0.499999
G1 X158.664 Y138.168 E1.18602
G1 X167.18 Y126.912 E.49675
G1 X167.783 Y126.147 E.03427
G1 X168.381 Y125.519 E.0305
G1 X168.894 Y125.118 E.02292
G1 X169.509 Y124.748 E.02528
G1 X170.165 Y124.459 E.0252
G1 X170.852 Y124.257 E.0252
G1 X171.559 Y124.143 E.0252
G1 X172.275 Y124.12 E.0252
G1 X172.806 Y124.17 E.01878
G1 X173.36 Y124.271 E.01984
G1 X173.98 Y124.442 E.02262
G1 X174.49 Y124.661 E.01951
G1 X175.081 Y124.984 E.02371
G1 X175.569 Y125.325 E.02097
G1 X176.081 Y125.777 E.02403
G1 X176.462 Y126.19 E.01979
G1 X176.882 Y126.781 E.02552
G1 X177.178 Y127.316 E.02149
G1 X177.461 Y128.025 E.02686
G1 X177.627 Y128.672 E.02354
G1 X177.697 Y129.182 E.0181
G1 X177.736 Y129.825 E.02266
G1 X177.736 Y179.254 E1.73961
G1 X177.734 Y180.262 E.03547
G1 X177.689 Y180.882 E.02189
G1 X177.614 Y181.399 E.01838
G1 X177.445 Y181.999 E.02193
G1 X177.267 Y182.488 E.01833
G1 X176.981 Y183.043 E.02196
G1 X176.69 Y183.499 E.01904
G1 X176.299 Y184.001 E.02238
G1 X175.936 Y184.364 E.01808
G1 X175.432 Y184.779 E.02296
G1 X175.002 Y185.077 E.01841
G1 X174.313 Y185.421 E.02712
G1 X173.744 Y185.637 E.02143
G1 X173.252 Y185.756 E.01779
G1 X172.648 Y185.858 E.02157
G1 X172.146 Y185.876 E.01767
G1 X171.578 Y185.86 E.02002
G1 X171.084 Y185.781 E.0176
G1 X170.557 Y185.658 E.01903
G1 X169.965 Y185.46 E.02198
G1 X169.496 Y185.235 E.01831
G1 X168.949 Y184.919 E.02221
G1 X168.541 Y184.606 E.0181
G1 X168.088 Y184.206 E.02127
G1 X167.588 Y183.628 E.02692
G1 X158.7 Y171.915 E.51745
G1 X158.207 Y172.021 F9000
G1 F1800
G1 X158.207 Y138.014 E1.19684
G1 X167.228 Y126.091 E.52617
G1 X167.71 Y125.532 E.02601
G1 X168.083 Y125.172 E.01823
G1 X168.634 Y124.741 E.02463
G1 X169.299 Y124.341 E.0273
G1 X170.008 Y124.029 E.02725
G1 X170.75 Y123.81 E.02725
G1 X171.515 Y123.687 E.02725
G1 X172.289 Y123.662 E.02725
G1 X173.06 Y123.735 E.02725
G1 X173.75 Y123.891 E.0249
G1 X174.251 Y124.051 E.01851
G1 X174.875 Y124.334 E.02414
G1 X175.321 Y124.595 E.01817
G1 X175.857 Y124.97 E.02302
G1 X176.41 Y125.459 E.02599
G1 X176.819 Y125.904 E.02127
G1 X177.216 Y126.442 E.02352
G1 X177.565 Y127.061 E.02501
G1 X177.776 Y127.54 E.01842
G1 X177.947 Y128.074 E.01973
G1 X178.078 Y128.595 E.01892
G1 X178.153 Y129.153 E.0198
G1 X178.193 Y129.825 E.02368
G1 X178.193 Y180.205 E1.77309
G1 X178.173 Y180.71 E.01778
G1 X178.09 Y181.341 E.02237
G1 X177.976 Y181.853 E.01847
G1 X177.774 Y182.457 E.02242
G1 X177.566 Y182.938 E.01844
G1 X177.222 Y183.547 E.02461
G1 X176.8 Y184.119 E.02502
G1 X176.452 Y184.512 E.01847
G1 X175.935 Y184.982 E.0246
G1 X175.354 Y185.395 E.02507
G1 X174.902 Y185.659 E.01843
G1 X174.317 Y185.92 E.02254
G1 X173.826 Y186.092 E.01832
G1 X173.201 Y186.238 E.02257
G1 X172.687 Y186.313 E.01829
G1 X172.046 Y186.338 E.0226
G1 X171.529 Y186.315 E.01821
G1 X170.755 Y186.191 E.02758
G1 X170.145 Y186.015 E.02235
G1 X169.66 Y185.832 E.01823
G1 X169.087 Y185.539 E.02266
G1 X168.646 Y185.268 E.0182
G1 X168.138 Y184.872 E.02268
G1 X167.758 Y184.523 E.01814
G1 X167.233 Y183.916 E.02828
G1 X158.243 Y172.069 E.52338
G1 X157.75 Y172.175 F9000
;TYPE:Outer wall
G1 F1800
G1 X157.75 Y137.861 E1.20765
G1 X166.872 Y125.804 E.53208
G1 X167.364 Y125.233 E.02652
G1 X167.785 Y124.825 E.02065
G1 X168.374 Y124.363 E.02634
G1 X169.088 Y123.934 E.02931
G1 X169.85 Y123.599 E.0293
G1 X170.649 Y123.363 E.0293
G1 X171.471 Y123.231 E.0293
G1 X172.303 Y123.204 E.0293
G1 X173.132 Y123.283 E.0293
G1 X173.85 Y123.445 E.02592
G1 X174.418 Y123.625 E.02097
G1 X175.064 Y123.918 E.02496
G1 X175.561 Y124.206 E.02022
G1 X176.144 Y124.615 E.02506
G1 X176.738 Y125.141 E.02794
G1 X177.175 Y125.618 E.02276
G1 X177.604 Y126.199 E.02541
G1 X177.973 Y126.854 E.02647
G1 X178.205 Y127.383 E.02033
G1 X178.389 Y127.957 E.0212
G1 X178.528 Y128.518 E.02036
G1 X178.61 Y129.124 E.0215
G1 X178.65 Y129.825 E.0247
G1 X178.65 Y180.245 E1.77447
G1 X178.629 Y180.75 E.0178
G1 X178.543 Y181.4 E.02309
G1 X178.416 Y181.978 E.02082
G1 X178.208 Y182.602 E.02315
G1 X177.974 Y183.144 E.02078
G1 X177.607 Y183.796 E.02632
G1 X177.168 Y184.39 E.02601
G1 X176.775 Y184.835 E.02088
G1 X176.223 Y185.339 E.02632
G1 X175.619 Y185.767 E.02605
G1 X175.108 Y186.067 E.02084
G1 X174.504 Y186.337 E.0233
G1 X173.951 Y186.532 E.02062
G1 X173.305 Y186.683 E.02334
G1 X172.727 Y186.769 E.02059
G1 X172.063 Y186.794 E.02337
G1 X171.48 Y186.77 E.02054
G1 X170.655 Y186.638 E.02939
G1 X170.018 Y186.454 E.02333
G1 X169.473 Y186.25 E.02051
G1 X168.879 Y185.947 E.02346
G1 X168.383 Y185.643 E.02047
G1 X167.857 Y185.232 E.02349
G1 X167.428 Y184.841 E.02043
G1 X166.878 Y184.203 E.02964
G1 X157.786 Y172.223 E.5293
G1 X157.809 Y172.121
G1 E-.8 F3000
G1 Z.6 F9000
G1 X168.765 Y132.201 Z.2
G1 E.8 F1800
;TYPE:Inner wall
G1 X168.387 Y131.703 E.02201
G1 X168.056 Y131.005 E.02721
G1 X167.874 Y130.253 E.02721
G1 X167.85 Y129.48 E.02721
G1 X167.984 Y128.719 E.02721
G1 X168.271 Y128.001 E.02721
G1 X168.7 Y127.357 E.02721
G1 X169.162 Y126.897 E.02296
G1 X169.438 Y126.674 E.01251
G1 X169.9 Y126.396 E.01897
G1 X170.622 Y126.119 E.02721
G1 X171.167 Y126.024 E.01945
G1 X171.829 Y125.994 E.02334
G1 X172.538 Y126.109 E.02525
G1 X173.037 Y126.286 E.01866
G1 X173.47 Y126.488 E.0168
G1 X173.917 Y126.789 E.01897
G1 X174.362 Y127.211 E.02159
G1 X174.62 Y127.51 E.01388
G1 X174.909 Y127.965 E.01897
G1 X175.142 Y128.514 E.02101
G1 X175.264 Y128.907 E.01446
G1 X175.347 Y129.439 E.01897
G1 X175.331 Y130.212 E.02721
G1 X175.158 Y130.966 E.02721
G1 X174.834 Y131.668 E.02721
G1 X174.377 Y132.284 E.02699
G1 X173.797 Y132.801 E.02737
G1 X173.125 Y133.187 E.02728
G1 X172.389 Y133.426 E.02721
G1 X172.158 Y133.468 E.00827
G1 X171.621 Y133.51 E.01897
G1 X170.851 Y133.435 E.02721
G1 X170.113 Y133.204 E.02721
G1 X169.438 Y132.826 E.02721
G1 X168.855 Y132.319 E.02721
G1 X168.802 Y132.249 E.00309
G1 X169.119 Y131.922 F9000
G1 F1800
G1 X168.76 Y131.439 E.02119
G1 X168.474 Y130.822 E.02391
G1 X168.321 Y130.16 E.02391
G1 X168.307 Y129.48 E.02391
G1 X168.432 Y128.813 E.02391
G1 X168.69 Y128.184 E.02391
G1 X169.072 Y127.622 E.02391
G1 X169.472 Y127.232 E.01967
G1 X169.674 Y127.065 E.0092
G1 X170.136 Y126.788 E.01897
G1 X170.773 Y126.551 E.02391
G1 X171.439 Y126.45 E.0237
G1 X171.991 Y126.474 E.01945
G1 X172.493 Y126.566 E.01799
G1 X173.09 Y126.801 E.02257
G1 X173.662 Y127.168 E.02391
G1 X174.035 Y127.53 E.01829
G1 X174.234 Y127.755 E.01058
G1 X174.523 Y128.21 E.01897
G1 X174.714 Y128.675 E.01771
G1 X174.836 Y129.125 E.01638
G1 X174.903 Y129.65 E.01865
G1 X174.875 Y130.189 E.01897
G1 X174.716 Y130.849 E.02391
G1 X174.425 Y131.464 E.02391
G1 X174.019 Y132.001 E.0237
G1 X173.503 Y132.451 E.02408
G1 X172.91 Y132.784 E.02395
G1 X172.262 Y132.987 E.02391
G1 X172.123 Y133.013 E.00496
G1 X171.585 Y133.054 E.01897
G1 X170.91 Y132.981 E.02391
G1 X170.263 Y132.772 E.02391
G1 X169.674 Y132.435 E.02391
G1 X169.165 Y131.984 E.02391
G1 X169.155 Y131.97 E.00061
G1 X169.429 Y131.584 F9000
;TYPE:Outer wall
G1 F1800
G1 X169.132 Y131.174 E.01781
G1 X168.893 Y130.639 E.02062
G1 X168.769 Y130.066 E.02062
G1 X168.764 Y129.48 E.02062
G1 X168.879 Y128.906 E.02062
G1 X169.109 Y128.367 E.02062
G1 X169.445 Y127.887 E.02062
G1 X169.871 Y127.486 E.02062
G1 X170.371 Y127.18 E.02062
G1 X170.923 Y126.983 E.02062
G1 X171.497 Y126.903 E.02042
G1 X171.909 Y126.923 E.0145
G1 X172.419 Y127.021 E.01827
G1 X172.918 Y127.224 E.01897
G1 X173.407 Y127.547 E.02062
G1 X173.819 Y127.964 E.02062
G1 X174.106 Y128.406 E.01854
G1 X174.349 Y129.002 E.02266
G1 X174.444 Y129.58 E.02062
G1 X174.419 Y130.165 E.02062
G1 X174.274 Y130.733 E.02062
G1 X174.016 Y131.259 E.02062
G1 X173.66 Y131.717 E.02042
G1 X173.21 Y132.1 E.02081
G1 X172.695 Y132.38 E.02063
G1 X172.088 Y132.557 E.02226
G1 X171.55 Y132.599 E.01897
G1 X170.969 Y132.528 E.02062
G1 X170.414 Y132.34 E.02062
G1 X169.909 Y132.043 E.02062
G1 X169.476 Y131.648 E.02062
G1 X169.464 Y131.632 E.0007
G1 X169.35 Y131.597
G1 E-.8 F3000
G1 Z.6 F9000
G1 X168.391 Y157.316 Z.2
G1 E.8 F1800
;TYPE:Inner wall
G1 X168.008 Y157.561 E.01602
G1 X167.647 Y157.713 E.01379
G1 X167.106 Y157.856 E.0197
G1 X166.571 Y157.877 E.01883
G1 X166.28 Y157.849 E.01029
G1 X165.717 Y157.712 E.02041
G1 X165.187 Y157.447 E.02087
G1 X164.947 Y157.279 E.01029
G1 X164.432 Y156.761 E.02573
G1 X164.064 Y156.129 E.02573
G1 X163.885 Y155.548 E.02139
G1 X163.842 Y154.985 E.01989
G1 X163.86 Y154.693 E.01029
G1 X164.037 Y153.983 E.02573
G1 X164.387 Y153.342 E.02573
G1 X164.777 Y152.899 E.02079
G1 X165.25 Y152.558 E.02049
G1 X165.509 Y152.423 E.01029
G1 X166.069 Y152.228 E.02088
G1 X166.639 Y152.164 E.02017
G1 X167.2 Y152.202 E.0198
G1 X167.722 Y152.352 E.0191
G1 X167.989 Y152.47 E.01029
G1 X168.459 Y152.761 E.01945
G1 X168.9 Y153.197 E.02183
G1 X169.192 Y153.639 E.01864
G1 X169.401 Y154.086 E.01735
;WIDTH:0.53275
G1 X169.488 Y154.374 E.01136
;WIDTH:0.565501
G1 X169.575 Y154.663 E.01212
;WIDTH:0.59533
G1 X169.594 Y154.952 E.01234
;WIDTH:0.625158
G1 X169.613 Y155.242 E.01301
G1 X169.599 Y155.406 E.00737
;WIDTH:0.621125
G1 X169.533 Y155.59 E.0087
;WIDTH:0.58075
G1 X169.467 Y155.774 E.0081
;WIDTH:0.540375
G1 X169.401 Y155.958 E.00749
;WIDTH:0.499999
G1 X169.174 Y156.438 E.01871
G1 X168.905 Y156.84 E.01699
G1 X168.515 Y157.236 E.01958
G1 X168.442 Y157.284 E.00308
G1 X168.14 Y156.927 F9000
G1 F1800
G1 X167.771 Y157.171 E.01553
G1 X167.17 Y157.378 E.02239
G1 X166.557 Y157.42 E.02163
G1 X165.953 Y157.306 E.02163
G1 X165.398 Y157.041 E.02163
G1 X164.928 Y156.645 E.02163
G1 X164.574 Y156.143 E.02163
G1 X164.36 Y155.567 E.02163
G1 X164.298 Y154.955 E.02163
G1 X164.393 Y154.348 E.02163
G1 X164.64 Y153.785 E.02163
G1 X165.021 Y153.303 E.02163
G1 X165.511 Y152.933 E.02163
G1 X166.08 Y152.7 E.02163
G1 X166.683 Y152.619 E.02141
G1 X167.17 Y152.665 E.0172
G1 X167.667 Y152.817 E.01829
G1 X168.185 Y153.127 E.02124
G1 X168.572 Y153.515 E.01929
G1 X168.893 Y154.039 E.02163
G1 X169.071 Y154.628 E.02163
G1 X169.093 Y155.242 E.02163
G1 X168.959 Y155.842 E.02163
G1 X168.68 Y156.383 E.02141
G1 X168.267 Y156.843 E.02179
G1 X168.19 Y156.894 E.00326
G1 X167.92 Y156.535 F9000
;TYPE:Outer wall
G1 F1800
G1 X167.892 Y156.563 E.00141
G1 X167.387 Y156.837 E.02022
G1 X166.982 Y156.949 E.01479
G1 X166.484 Y156.958 E.01754
G1 X166 Y156.84 E.01754
G1 X165.561 Y156.603 E.01754
G1 X165.198 Y156.262 E.01754
G1 X164.932 Y155.841 E.01754
G1 X164.782 Y155.365 E.01754
G1 X164.758 Y154.868 E.01754
G1 X164.86 Y154.38 E.01754
G1 X165.083 Y153.934 E.01754
G1 X165.412 Y153.56 E.01754
G1 X165.825 Y153.281 E.01754
G1 X166.295 Y153.116 E.01753
G1 X166.771 Y153.074 E.01682
G1 X167.04 Y153.103 E.00952
G1 X167.515 Y153.252 E.01754
G1 X167.91 Y153.493 E.01629
G1 X168.262 Y153.854 E.01772
