; generated by SuperSlicer 2.5.59 on 2023-05-25 at 15:30:09 UTC


;
;

;
;
; 

; external perimeters extrusion width = 0.40mm
; perimeters extrusion width = 0.46mm
; infill extrusion width = 0.64mm
; solid infill extrusion width = 0.56mm
; top infill extrusion width = 0.40mm
; support material extrusion width = 0.46mm
; first layer extrusion width = 0.50mm

; external perimeters extrusion width = 0.40mm
; perimeters extrusion width = 0.46mm
; infill extrusion width = 0.64mm
; solid infill extrusion width = 0.56mm
; top infill extrusion width = 0.40mm
; support material extrusion width = 0.46mm
; first layer extrusion width = 0.50mm

; external perimeters extrusion width = 0.40mm
; perimeters extrusion width = 0.46mm
; infill extrusion width = 0.64mm
; solid infill extrusion width = 0.56mm
; top infill extrusion width = 0.40mm
; support material extrusion width = 0.46mm
; first layer extrusion width = 0.50mm

; object:{"name":"Z Alignment Tool 8mm Rod","id":"Z Alignment Tool 8mm Rod.stl id:0 copy 0","object_center":[153.993942,155.011012,0.000000],"boundingbox_center":[153.993942,155.011012,5.000000],"boundingbox_size":[57.650970,117.942856,10.000000]}
EXCLUDE_OBJECT_DEFINE NAME=Z_Alignment_Tool_8mm_Rod_stl_id_0_copy_0 CENTER=153.993942,155.011012 POLYGON=[[125.168456,135.789680],[125.191648,135.622960],[125.242496,135.462480],[144.152896,97.039584],[145.152896,96.039584],[148.152896,96.039584],[149.201328,97.038408],[182.645360,211.521728],[182.795904,212.217728],[182.819184,212.454720],[182.819424,212.478576],[182.804656,212.692432],[182.797248,212.739536],[182.752720,212.924832],[182.730000,212.992640],[182.664640,213.146096],[182.619760,213.230192],[182.542656,213.350624],[182.469872,213.444976],[182.389840,213.533264],[182.284928,213.630400],[182.210048,213.689424],[182.070560,213.780816],[182.007808,213.815152],[181.833264,213.891696],[181.788224,213.907296],[181.580320,213.959568],[181.556832,213.963536],[181.319424,213.982432],[178.244336,213.982432],[178.002656,213.962832],[161.480912,209.906400],[161.260224,209.813168],[161.057184,209.685968],[160.876992,209.528112],[160.724224,209.343536],[160.602800,209.137008],[146.478432,180.014592],[125.267240,136.280064],[125.206784,136.122960],[125.173552,135.957936],[125.168456,135.789680]]
; object:{"name":"Z Alignment Tool 8mm Rod","id":"Z Alignment Tool 8mm Rod.stl id:1 copy 0","object_center":[115.134309,164.608156,0.000000],"boundingbox_center":[115.134309,164.608156,5.000000],"boundingbox_size":[57.650970,117.942856,10.000000]}
EXCLUDE_OBJECT_DEFINE NAME=Z_Alignment_Tool_8mm_Rod_stl_id_1_copy_0 CENTER=115.134309,164.608156 POLYGON=[[86.308824,145.386832],[86.332016,145.220112],[86.382856,145.059632],[105.293256,106.636736],[106.293256,105.636736],[109.293256,105.636736],[110.341688,106.635560],[143.785728,221.118864],[143.936272,221.814880],[143.959552,222.051888],[143.959792,222.075712],[143.945024,222.289584],[143.937600,222.336672],[143.893088,222.521968],[143.870368,222.589776],[143.805008,222.743248],[143.760128,222.827360],[143.683008,222.947760],[143.610240,223.042112],[143.530208,223.130400],[143.425296,223.227536],[143.350416,223.286560],[143.210928,223.377984],[143.148176,223.412304],[142.973632,223.488832],[142.928592,223.504464],[142.720688,223.556736],[142.697184,223.560688],[142.459792,223.579584],[139.384704,223.579584],[139.143024,223.560000],[122.621280,219.503536],[122.400592,219.410304],[122.197552,219.283136],[122.017368,219.125248],[121.864592,218.940688],[121.743168,218.734160],[106.374800,187.046784],[86.407608,145.877216],[86.347152,145.720112],[86.313920,145.555088],[86.308824,145.386832]]
; object:{"name":"X Alignment Tool","id":"X Alignment Tool.stl id:2 copy 0","object_center":[203.756757,148.116859,0.000000],"boundingbox_center":[203.756757,148.116859,9.999996],"boundingbox_size":[29.873753,143.000031,19.999992]}
EXCLUDE_OBJECT_DEFINE NAME=X_Alignment_Tool_stl_id_2_copy_0 CENTER=203.756757,148.116859 POLYGON=[[188.819888,212.616880],[208.819648,76.616848],[217.713312,78.418296],[218.693408,79.616832],[218.693632,201.907904],[218.693632,212.616816],[211.693664,219.616832],[190.819904,219.616880],[188.819888,217.616880],[188.819888,212.616880]]
; plater:{"center":[152.501229,150.098214,0.000000],"boundingbox_center":[152.501229,150.098214,9.999996],"boundingbox_size":[132.384810,146.962741,19.999992]}

M73 P0 R122
;TYPE:Custom
START_PRINT T_BED=70 T_EXTRUDER=235
M107
G21 ; set units to millimeters
G90 ; use absolute coordinates
M82 ; use absolute distances for extrusion
G92 E0
; Filament gcode
PRESSURE_ADVANCE_SELECT FILAMENT=PETG
;_TOOLCHANGE 0
M104 S235 ; set temperature
M109 S235 ; set temperature and wait for it to be reached
M190 S70 ; set bed temperature and wait for it to be reached
M107
;LAYER_CHANGE
;Z:0.2
;HEIGHT:0.2
G1 Z0.2 F9000
M73 P0 R122
G1 E-1 F3000
M204 S1000
G1 X104.045 Y104.045 F9000
G1 E0 F1800
;TYPE:Skirt
;WIDTH:0.52
G1 X103.666 Y104.424 E0.02126
G1 X102.963 Y105.404 E0.06912
G1 X83.988 Y143.776 E1.76724
G1 X83.634 Y144.94 E1.81551
G1 X83.972 Y147.074 E1.90122
G1 X119.341 Y219.988 E5.116
G1 X120.02 Y220.956 E5.16292
G1 X120.89 Y221.672 E5.20761
G1 X122.046 Y222.161 E5.2574
G1 X138.336 Y226.16 E5.9228
G1 X139.393 Y226.295 E5.96506
G1 X142.452 Y226.295 E6.08641
G1 X211.134 Y221.323 E8.81812
G1 X212.035 Y221.143 E8.85457
G1 X213.493 Y220.244 E8.9225
G1 X219.321 Y214.416 E9.24948
G1 X220.015 Y213.455 E9.2965
G1 X220.409 Y211.788 E9.36443
G1 X220.409 Y79.286 E14.62071
G1 X220.171 Y77.978 E14.67346
G1 X219.14 Y76.488 E14.74533
G1 X217.356 Y75.575 E14.82482
G1 X210.461 Y74.178 E15.10393
G1 X209.657 Y74.016 E15.13644
G1 X207.906 Y74.083 E15.20596
G1 X105.694 Y103.062 E19.42046
G1 X104.08 Y104.009 E19.4947
G1 X104.045 Y104.045 E19.49667
G1 X104.382 Y104.382 F9000
G1 F1800
G1 X104.003 Y104.761 E19.51793
G1 X103.39 Y105.615 E19.55965
G1 X84.416 Y143.987 E21.25777
G1 X84.107 Y145.006 E21.3
G1 X84.401 Y146.866 E21.3747
G1 X119.771 Y219.779 E24.58948
G1 X120.362 Y220.623 E24.63037
G1 X121.143 Y221.268 E24.67053
G1 X122.16 Y221.698 E24.71431
G1 X138.45 Y225.697 E25.37972
G1 X139.393 Y225.818 E25.41743
G1 X142.452 Y225.818 E25.53878
G1 X211.1 Y220.847 E28.26912
G1 X213.155 Y219.907 E28.35879
G1 X218.984 Y214.078 E28.68577
G1 X219.538 Y213.336 E28.72253
G1 X219.932 Y211.788 E28.78588
G1 X219.932 Y79.286 E34.04217
G1 X219.761 Y78.247 E34.08394
G1 X218.891 Y76.907 E34.14729
G1 X217.262 Y76.043 E34.22047
G1 X210.366 Y74.646 E34.49958
G1 X209.563 Y74.483 E34.53209
G1 X208.036 Y74.542 E34.59268
G1 X105.824 Y103.521 E38.80719
G1 X104.417 Y104.347 E38.87189
G1 X104.382 Y104.382 E38.87387
G92 E0
G1 E-1 F3000
; printing object Z Alignment Tool 8mm Rod.stl id:0 copy 0
EXCLUDE_OBJECT_START NAME=Z_Alignment_Tool_8mm_Rod_stl_id_0_copy_0
G1 X145.403 Y135.232 F9000
G1 E0 F1800
;TYPE:External perimeter
;WIDTH:0.5
G1 X145.403 Y97.557 E1.43189
G1 X145.671 Y97.29 E1.44628
G1 X147.653 Y97.29 E1.52162
G1 X147.979 Y97.601 E1.53875
G1 X148.21 Y101.611 E1.69143
G1 X148.515 Y105.928 E1.85592
G1 X148.819 Y109.609 E1.9963
G1 X149.206 Y113.687 E2.15198
G1 X149.643 Y117.76 E2.30765
G1 X150.131 Y121.827 E2.46332
G1 X150.67 Y125.887 E2.619
G1 X151.319 Y130.329 E2.7896
G1 X151.964 Y134.369 E2.9451
G1 X152.659 Y138.401 E3.1006
G1 X153.404 Y142.424 E3.25609
G1 X154.199 Y146.437 E3.41158
G1 X155.044 Y150.44 E3.56708
G1 X155.851 Y154.044 E3.70746
G1 X156.884 Y158.413 E3.87806
G1 X157.879 Y162.381 E4.03356
G1 X158.923 Y166.337 E4.18906
G1 X160.016 Y170.279 E4.34454
G1 X161.158 Y174.208 E4.50004
G1 X162.35 Y178.122 E4.65553
G1 X163.59 Y182.021 E4.81103
G1 X164.878 Y185.904 E4.96652
G1 X166.216 Y189.77 E5.12201
G1 X167.601 Y193.62 E5.27751
G1 X169.035 Y197.456 E5.43315
G1 X169.387 Y198.306 E5.46811
G1 X169.789 Y199.138 E5.50323
G1 X170.237 Y199.946 E5.53834
G1 X170.483 Y200.336 E5.5559
G1 X170.73 Y200.727 E5.57345
G1 X171.267 Y201.479 E5.60857
G1 X171.845 Y202.199 E5.64368
G1 X172.464 Y202.885 E5.67879
G1 X173.121 Y203.535 E5.71391
G1 X173.813 Y204.147 E5.74902
G1 X174.539 Y204.718 E5.78413
G1 X175.297 Y205.247 E5.81924
G1 X176.083 Y205.731 E5.85434
G1 X177.442 Y206.472 E5.91318
G1 X177.965 Y206.81 E5.93683
G1 X178.462 Y207.185 E5.96051
G1 X178.932 Y207.594 E5.98419
G1 X179.372 Y208.036 E6.00787
G1 X179.778 Y208.508 E6.03155
G1 X180.151 Y209.008 E6.05524
G1 X180.487 Y209.533 E6.07892
G1 X180.784 Y210.08 E6.1026
G1 X181.042 Y210.647 E6.12628
G1 X181.259 Y211.231 E6.14996
G1 X181.433 Y211.827 E6.17354
G1 X181.564 Y212.482 E6.19892
G1 X181.52 Y212.625 E6.20462
G1 X181.396 Y212.716 E6.21045
G1 X181.292 Y212.732 E6.21447
G1 X178.282 Y212.732 E6.32887
G1 X178.124 Y212.695 E6.33504
G1 X178.067 Y212.652 E6.33775
G1 X178.017 Y212.578 E6.34113
G1 X177.835 Y212.051 E6.36232
G1 X177.618 Y211.573 E6.38229
G1 X177.353 Y211.118 E6.40228
G1 X177.044 Y210.692 E6.42228
G1 X176.694 Y210.299 E6.44228
G1 X176.307 Y209.944 E6.46225
G1 X175.923 Y209.654 E6.48054
G1 X175.475 Y209.378 E6.50055
G1 X174.961 Y209.132 E6.5222
G1 X174.508 Y208.968 E6.54052
G1 X173.999 Y208.837 E6.5605
G1 X173.478 Y208.758 E6.5805
G1 X172.962 Y208.732 E6.60017
G1 X161.98 Y208.732 E7.01752
G1 X161.858 Y208.713 E7.02222
G1 X161.747 Y208.615 E7.02786
G1 X126.459 Y135.87 E10.10072
G1 X126.858 Y135.232 E10.1293
G1 X145.403 Y135.232 E10.83413
;WIPE_START
M204 S3000
G1 X145.803 Y135.232 F9000
;WIPE_END
M204 S1000
G1 X145.86 Y135.69
;TYPE:Internal perimeter
G1 F1800
G1 X145.86 Y97.747 E12.2762
G1 X147.53 Y97.747 E12.33966
G1 X147.754 Y101.64 E12.48789
G1 X148.059 Y105.963 E12.65261
G1 X148.364 Y109.65 E12.79319
G1 X148.751 Y113.733 E12.94908
G1 X149.189 Y117.811 E13.10497
G1 X149.678 Y121.884 E13.26086
G1 X150.218 Y125.95 E13.41676
G1 X150.868 Y130.398 E13.58759
G1 X151.513 Y134.444 E13.74331
G1 X152.209 Y138.481 E13.89902
G1 X152.955 Y142.51 E14.05474
G1 X153.751 Y146.529 E14.21044
G1 X154.597 Y150.537 E14.36615
G1 X155.405 Y154.147 E14.50674
G1 X156.44 Y158.521 E14.67756
G1 X157.436 Y162.495 E14.83329
G1 X158.481 Y166.456 E14.989
G1 X159.576 Y170.404 E15.14471
G1 X160.72 Y174.338 E15.30042
G1 X161.913 Y178.258 E15.45613
G1 X163.155 Y182.162 E15.61184
G1 X164.446 Y186.05 E15.76755
G1 X165.784 Y189.922 E15.92326
G1 X167.172 Y193.777 E16.07897
G1 X168.61 Y197.623 E16.23502
G1 X168.97 Y198.492 E16.27078
G1 X169.383 Y199.348 E16.30688
G1 X169.843 Y200.179 E16.34298
G1 X170.35 Y200.982 E16.37908
G1 X170.902 Y201.755 E16.41518
G1 X171.497 Y202.495 E16.45129
G1 X172.133 Y203.201 E16.48739
G1 X172.808 Y203.869 E16.52349
G1 X173.52 Y204.498 E16.55959
G1 X174.267 Y205.085 E16.59569
G1 X175.046 Y205.629 E16.63179
G1 X175.853 Y206.127 E16.66785
G1 X177.208 Y206.865 E16.7265
G1 X177.703 Y207.185 E16.74888
G1 X178.174 Y207.54 E16.77132
G1 X178.62 Y207.928 E16.79376
G1 X179.036 Y208.347 E16.81621
G1 X179.422 Y208.794 E16.83865
G1 X179.775 Y209.268 E16.86109
G1 X180.093 Y209.765 E16.88354
G1 X180.375 Y210.284 E16.90598
G1 X180.619 Y210.822 E16.92842
G1 X180.825 Y211.375 E16.95086
G1 X180.989 Y211.936 E16.97308
G1 X181.057 Y212.275 E16.98623
G1 X178.396 Y212.275 E17.08737
G1 X178.26 Y211.882 E17.10318
G1 X178.024 Y211.363 E17.12485
G1 X177.737 Y210.869 E17.14659
G1 X177.401 Y210.405 E17.16833
G1 X177.02 Y209.978 E17.19007
G1 X176.6 Y209.593 E17.21174
G1 X176.182 Y209.276 E17.2317
G1 X175.694 Y208.976 E17.25346
G1 X175.138 Y208.71 E17.27688
G1 X174.643 Y208.53 E17.29689
G1 X174.09 Y208.389 E17.31859
G1 X173.524 Y208.303 E17.34034
G1 X172.973 Y208.275 E17.36131
G1 X162.091 Y208.275 E17.77491
G1 X126.981 Y135.898 E20.83227
M73 P1 R121
G1 X127.111 Y135.69 E20.84162
G1 X145.86 Y135.69 E21.55419
G1 X146.317 Y136.147 F9000
G1 F1800
G1 X146.317 Y98.204 E22.99626
G1 X147.098 Y98.204 E23.02594
G1 X147.297 Y101.67 E23.15789
G1 X147.603 Y105.998 E23.32282
G1 X147.909 Y109.69 E23.46361
G1 X148.296 Y113.779 E23.61971
G1 X148.735 Y117.863 E23.77582
G1 X149.224 Y121.941 E23.93193
G1 X149.765 Y126.013 E24.08804
G1 X150.416 Y130.467 E24.2591
G1 X151.062 Y134.519 E24.41505
G1 X151.759 Y138.562 E24.57098
G1 X152.506 Y142.596 E24.72691
G1 X153.303 Y146.62 E24.88283
G1 X154.151 Y150.634 E25.03875
G1 X154.96 Y154.249 E25.17955
G1 X155.996 Y158.629 E25.35059
G1 X156.993 Y162.609 E25.50655
G1 X158.04 Y166.576 E25.66247
G1 X159.136 Y170.529 E25.8184
G1 X160.282 Y174.469 E25.97432
G1 X161.477 Y178.394 E26.13025
G1 X162.72 Y182.303 E26.28618
G1 X164.013 Y186.197 E26.4421
G1 X165.353 Y190.074 E26.59803
M73 P1 R121
G1 X166.743 Y193.935 E26.75396
G1 X168.185 Y197.791 E26.91042
G1 X168.553 Y198.679 E26.94698
G1 X168.977 Y199.558 E26.98406
G1 X169.45 Y200.412 E27.02116
G1 X169.971 Y201.237 E27.05824
G1 X170.538 Y202.031 E27.09533
G1 X171.149 Y202.792 E27.13242
G1 X171.803 Y203.517 E27.16951
G1 X172.496 Y204.203 E27.2066
G1 X173.228 Y204.849 E27.24369
G1 X173.995 Y205.452 E27.28078
G1 X174.795 Y206.011 E27.31787
G1 X175.624 Y206.522 E27.35488
G1 X176.975 Y207.258 E27.41335
G1 X177.441 Y207.56 E27.43446
G1 X177.886 Y207.896 E27.45566
G1 X178.307 Y208.262 E27.47687
G1 X178.701 Y208.658 E27.49807
G1 X179.065 Y209.08 E27.51928
G1 X179.398 Y209.528 E27.54048
G1 X179.699 Y209.998 E27.56169
G1 X179.965 Y210.488 E27.58289
G1 X180.196 Y210.996 E27.6041
G1 X180.39 Y211.519 E27.6253
G1 X180.478 Y211.818 E27.63715
G1 X178.733 Y211.818 E27.70346
G1 X178.431 Y211.153 E27.73124
G1 X178.12 Y210.619 E27.75472
G1 X177.757 Y210.119 E27.77821
G1 X177.346 Y209.657 E27.80169
G1 X176.893 Y209.241 E27.82507
G1 X176.44 Y208.898 E27.84669
G1 X175.913 Y208.574 E27.8702
G1 X175.315 Y208.288 E27.89538
G1 X174.778 Y208.093 E27.91709
G1 X174.181 Y207.94 E27.94051
G1 X173.57 Y207.848 E27.964
G1 X172.985 Y207.818 E27.98628
G1 X162.377 Y207.818 E28.38944
G1 X127.609 Y136.147 E31.417
G1 X146.317 Y136.147 E32.12801
G92 E0
G1 E-1 F3000
G1 X161.757 Y189.59 F9000
G1 E0 F1800
;TYPE:External perimeter
G1 X161.868 Y189.215 E0.0149
G1 X161.927 Y188.827 E0.02978
G1 X161.933 Y188.441 E0.04447
G1 X161.885 Y188.052 E0.05936
G1 X161.788 Y187.686 E0.07376
G1 X160.518 Y183.889 E0.22594
G1 X159.298 Y180.089 E0.37763
G1 X158.123 Y176.274 E0.52931
G1 X156.995 Y172.446 E0.681
G1 X155.913 Y168.604 E0.83269
G1 X154.878 Y164.75 E0.98438
G1 X153.888 Y160.883 E1.13606
G1 X152.946 Y157.005 E1.28775
G1 X152.05 Y153.116 E1.43943
G1 X151.202 Y149.216 E1.59111
G1 X150.4 Y145.306 E1.7428
G1 X149.643 Y141.375 E1.89495
G1 X149.545 Y140.988 E1.91014
G1 X149.398 Y140.613 E1.92546
G1 X149.201 Y140.251 E1.94111
G1 X148.96 Y139.917 E1.95677
G1 X148.679 Y139.616 E1.97243
G1 X148.369 Y139.358 E1.98774
G1 X148.022 Y139.137 E2.00339
G1 X147.649 Y138.961 E2.01906
G1 X147.257 Y138.834 E2.03471
G1 X146.862 Y138.758 E2.05003
G1 X146.462 Y138.732 E2.06526
G1 X136.913 Y138.732 E2.42816
G1 X136.512 Y138.758 E2.44343
G1 X136.115 Y138.834 E2.45878
G1 X135.723 Y138.962 E2.47446
G1 X135.35 Y139.138 E2.49016
G1 X135.002 Y139.361 E2.50586
G1 X134.685 Y139.626 E2.52154
G1 X134.41 Y139.922 E2.53689
G1 X134.169 Y140.257 E2.55258
G1 X133.973 Y140.62 E2.56827
G1 X133.827 Y140.996 E2.58363
G1 X133.727 Y141.397 E2.59931
G1 X133.678 Y141.807 E2.61501
G1 X133.682 Y142.22 E2.6307
G1 X133.739 Y142.629 E2.64639
G1 X133.843 Y143.019 E2.66174
G1 X133.995 Y143.391 E2.677
G1 X156.527 Y189.848 E4.6394
G1 X156.716 Y190.178 E4.65383
G1 X156.955 Y190.488 E4.66872
G1 X157.231 Y190.759 E4.68342
G1 X157.55 Y190.995 E4.6985
G1 X157.889 Y191.181 E4.7132
G1 X158.255 Y191.321 E4.72809
G1 X158.637 Y191.409 E4.74299
G1 X159.027 Y191.444 E4.75787
G1 X159.413 Y191.426 E4.77256
G1 X159.798 Y191.354 E4.78745
G1 X160.17 Y191.23 E4.80235
G1 X160.522 Y191.057 E4.81724
G1 X160.846 Y190.837 E4.83213
G1 X161.133 Y190.578 E4.84682
G1 X161.386 Y190.279 E4.86171
G1 X161.595 Y189.947 E4.87661
G1 X161.757 Y189.59 E4.8915
;WIPE_START
M204 S3000
G1 X162.15 Y189.515 F9000
;WIPE_END
M204 S1000
G1 X162.194 Y189.723
;TYPE:Internal perimeter
G1 F1800
G1 X162.316 Y189.314 E4.90771
G1 X162.384 Y188.865 E4.92498
G1 X162.39 Y188.416 E4.94205
G1 X162.335 Y187.965 E4.95932
G1 X162.226 Y187.555 E4.97546
G1 X160.952 Y183.746 E5.12808
G1 X159.734 Y179.952 E5.27956
G1 X158.561 Y176.142 E5.43103
G1 X157.434 Y172.319 E5.58252
G1 X156.354 Y168.483 E5.73399
G1 X155.32 Y164.634 E5.88547
